P3
220 162
255
18 20 2 18 20 2 18 20 2 18 20 2 18 20 2 18 20 2 18 20 2 18 20 2 18 20 2 18 20 2 18 20 2 18 20 2 18 20 2 18 20 2 18 20 2 18 20 2 18 20 2 18 20 2 18 20 2 18 20 2 18 20 2 18 20 2 18 20 2 18 20 2 18 20 2 18 20 2 18 20 2 18 20 2 18 20 2 18 20 2 18 20 2 18 20 2 18 20 2 18 20 2 18 20 2 18 20 2 18 20 2 18 20 2 18 20 2 18 20 2 18 20 2 18 20 2 18 20 2 18 20 2 18 20 2 18 20 2 18 20 2 18 20 2 18 20 2 18 20 2 18 20 2 18 20 2 18 20 2 18 20 2 18 20 2 18 20 2 18 20 2 18 20 2 18 20 2 18 20 2 18 20 2 18 20 2 18 20 2 18 20 2 18 20 2 18 20 2 18 20 2 18 20 2 18 20 2 18 20 2 18 20 2 18 20 2 18 20 2 18 20 2 18 20 2 18 20 2 18 20 2 18 20 2 18 20 2 18 20 2 18 20 2 18 20 2 18 20 2 18 20 2 18 20 2 18 20 2 18 20 2 18 20 2 18 20 2 18 20 2 18 20 2 18 20 2 18 20 2 18 20 2 18 20 2 18 20 2 18 20 2 18 20 2 18 20 2 18 20 2 18 20 2 18 20 2 18 20 2 18 20 2 18 20 2 18 20 2 18 20 2 18 20 2 18 20 2 18 20 2 18 20 2 18 20 2 18 20 2 18 20 2 18 20 2 18 20 2 18 20 2 18 20 2 18 20 2 18 20 2 18 20 2 18 20 2 18 20 2 18 20 2 18 20 2 18 20 2 18 20 2 18 20 2 18 20 2 18 20 2 18 20 2 18 20 2 18 20 2 18 20 2 18 20 2 18 20 2 18 20 2 18 20 2 18 20 2 18 20 2 18 20 2 18 20 2 18 20 2 18 20 2 18 20 2 18 20 2 18 20 2 18 20 2 18 20 2 18 20 2 18 20 2 18 20 2 18 20 2 18 20 2 18 20 2 18 20 2 18 20 2 18 20 2 18 20 2 18 20 2 18 20 2 18 20 2 18 20 2 18 20 2 18 20 2 18 20 2 18 20 2 18 20 2 18 20 2 18 20 2 18 20 2 18 20 2 18 20 2 18 20 2 18 20 2 18 20 2 18 20 2 18 20 2 18 20 2 18 20 2 18 20 2 18 20 2 18 20 2 18 20 2 18 20 2 18 20 2 18 20 2 18 20 2 18 20 2 18 20 2 18 20 2 18 20 2 18 20 2 18 20 2 18 20 2 18 20 2 18 20 2 18 20 2 18 20 2 18 20 2 18 20 2 18 20 2 18 20 2 18 20 2 18 20 2 18 20 2 18 20 2 18 20 2 18 20 2 18 20 2 18 20 2 18 20 2 18 20 2 18 20 2 18 20 2 18 20 2 18 20 2 18 20 2 18 20 2 18 20 2 
18 20 2 18 20 2 18 20 2 18 20 2 18 20 2 18 20 2 18 20 2 18 20 2 18 20 2 18 20 2 18 20 2 18 20 2 18 20 2 18 20 2 18 20 2 18 20 2 18 20 2 18 20 2 18 20 2 18 20 2 18 20 2 18 20 2 18 20 2 18 20 2 18 20 2 18 20 2 18 20 2 18 20 2 18 20 2 18 20 2 18 20 2 18 20 2 18 20 2 18 20 2 18 20 2 18 20 2 18 20 2 18 20 2 18 20 2 18 20 2 18 20 2 18 20 2 18 20 2 18 20 2 18 20 2 18 20 2 18 20 2 18 20 2 18 20 2 18 20 2 18 20 2 18 20 2 18 20 2 18 20 2 18 20 2 18 20 2 18 20 2 18 20 2 18 20 2 18 20 2 18 20 2 18 20 2 18 20 2 18 20 2 18 20 2 18 20 2 18 20 2 18 20 2 18 20 2 18 20 2 18 20 2 18 20 2 18 20 2 18 20 2 18 20 2 18 20 2 18 20 2 18 20 2 18 20 2 18 20 2 18 20 2 18 20 2 18 20 2 18 20 2 18 20 2 18 20 2 18 20 2 18 20 2 18 20 2 18 20 2 18 20 2 18 20 2 18 20 2 18 20 2 18 20 2 18 20 2 18 20 2 18 20 2 18 20 2 18 20 2 18 20 2 18 20 2 18 20 2 18 20 2 18 20 2 18 20 2 18 20 2 18 20 2 18 20 2 18 20 2 18 20 2 18 20 2 18 20 2 18 20 2 18 20 2 18 20 2 18 20 2 18 20 2 18 20 2 18 20 2 18 20 2 18 20 2 18 20 2 18 20 2 18 20 2 18 20 2 18 20 2 18 20 2 18 20 2 18 20 2 18 20 2 18 20 2 18 20 2 18 20 2 18 20 2 18 20 2 18 20 2 18 20 2 18 20 2 18 20 2 18 20 2 18 20 2 18 20 2 18 20 2 18 20 2 18 20 2 18 20 2 18 20 2 18 20 2 18 20 2 18 20 2 18 20 2 18 20 2 18 20 2 18 20 2 18 20 2 18 20 2 18 20 2 18 20 2 18 20 2 18 20 2 18 20 2 18 20 2 18 20 2 18 20 2 18 20 2 18 20 2 18 20 2 18 20 2 18 20 2 18 20 2 18 20 2 18 20 2 18 20 2 18 20 2 18 20 2 18 20 2 18 20 2 18 20 2 18 20 2 18 20 2 18 20 2 18 20 2 18 20 2 18 20 2 18 20 2 18 20 2 18 20 2 18 20 2 18 20 2 18 20 2 18 20 2 18 20 2 18 20 2 18 20 2 18 20 2 18 20 2 18 20 2 18 20 2 18 20 2 18 20 2 18 20 2 18 20 2 18 20 2 18 20 2 18 20 2 18 20 2 18 20 2 18 20 2 18 20 2 18 20 2 18 20 2 18 20 2 18 20 2 18 20 2 18 20 2 18 20 2 18 20 2 18 20 2 18 20 2 
18 20 2 18 20 2 18 20 2 18 20 2 18 20 2 18 20 2 18 20 2 18 20 2 18 20 2 18 20 2 18 20 2 18 20 2 18 20 2 18 20 2 18 20 2 18 20 2 18 20 2 18 20 2 18 20 2 18 20 2 18 20 2 18 20 2 18 20 2 18 20 2 18 20 2 18 20 2 18 20 2 18 20 2 18 20 2 18 20 2 18 20 2 18 20 2 18 20 2 18 20 2 18 20 2 18 20 2 18 20 2 18 20 2 18 20 2 18 20 2 18 20 2 18 20 2 18 20 2 18 20 2 18 20 2 18 20 2 18 20 2 18 20 2 18 20 2 18 20 2 18 20 2 18 20 2 18 20 2 18 20 2 18 20 2 18 20 2 18 20 2 18 20 2 18 20 2 18 20 2 18 20 2 18 20 2 18 20 2 18 20 2 18 20 2 18 20 2 18 20 2 18 20 2 18 20 2 18 20 2 18 20 2 18 20 2 18 20 2 18 20 2 18 20 2 18 20 2 18 20 2 18 20 2 18 20 2 18 20 2 18 20 2 18 20 2 18 20 2 18 20 2 18 20 2 18 20 2 18 20 2 18 20 2 18 20 2 18 20 2 18 20 2 18 20 2 18 20 2 18 20 2 18 20 2 18 20 2 18 20 2 18 20 2 18 20 2 18 20 2 18 20 2 18 20 2 18 20 2 18 20 2 18 20 2 18 20 2 18 20 2 18 20 2 18 20 2 18 20 2 18 20 2 18 20 2 18 20 2 18 20 2 18 20 2 18 20 2 18 20 2 18 20 2 18 20 2 18 20 2 18 20 2 18 20 2 18 20 2 18 20 2 18 20 2 18 20 2 18 20 2 18 20 2 18 20 2 18 20 2 18 20 2 18 20 2 18 20 2 18 20 2 18 20 2 18 20 2 18 20 2 18 20 2 18 20 2 18 20 2 18 20 2 18 20 2 18 20 2 18 20 2 18 20 2 18 20 2 18 20 2 18 20 2 18 20 2 18 20 2 18 20 2 18 20 2 18 20 2 18 20 2 18 20 2 18 20 2 18 20 2 18 20 2 18 20 2 18 20 2 18 20 2 18 20 2 18 20 2 18 20 2 18 20 2 18 20 2 18 20 2 18 20 2 18 20 2 18 20 2 18 20 2 18 20 2 18 20 2 18 20 2 18 20 2 18 20 2 18 20 2 18 20 2 18 20 2 18 20 2 18 20 2 18 20 2 18 20 2 18 20 2 18 20 2 18 20 2 18 20 2 18 20 2 18 20 2 18 20 2 18 20 2 18 20 2 18 20 2 18 20 2 18 20 2 18 20 2 18 20 2 18 20 2 18 20 2 18 20 2 18 20 2 18 20 2 18 20 2 18 20 2 18 20 2 18 20 2 18 20 2 18 20 2 18 20 2 18 20 2 18 20 2 18 20 2 18 20 2 18 20 2 18 20 2 18 20 2 18 20 2 18 20 2 18 20 2 18 20 2 
18 20 2 18 20 2 18 20 2 18 20 2 18 20 2 18 20 2 18 20 2 18 20 2 18 20 2 18 20 2 18 20 2 18 20 2 18 20 2 18 20 2 18 20 2 18 20 2 18 20 2 18 20 2 18 20 2 18 20 2 18 20 2 18 20 2 18 20 2 18 20 2 18 20 2 18 20 2 18 20 2 18 20 2 18 20 2 18 20 2 18 20 2 18 20 2 18 20 2 18 20 2 18 20 2 18 20 2 18 20 2 18 20 2 18 20 2 18 20 2 18 20 2 18 20 2 18 20 2 18 20 2 18 20 2 18 20 2 18 20 2 18 20 2 18 20 2 18 20 2 18 20 2 18 20 2 18 20 2 18 20 2 18 20 2 18 20 2 18 20 2 18 20 2 18 20 2 18 20 2 18 20 2 18 20 2 18 20 2 18 20 2 18 20 2 18 20 2 18 20 2 18 20 2 18 20 2 18 20 2 18 20 2 18 20 2 18 20 2 18 20 2 18 20 2 18 20 2 18 20 2 18 20 2 18 20 2 18 20 2 18 20 2 18 20 2 18 20 2 18 20 2 18 20 2 18 20 2 18 20 2 18 20 2 18 20 2 18 20 2 18 20 2 18 20 2 18 20 2 18 20 2 18 20 2 18 20 2 18 20 2 18 20 2 18 20 2 18 20 2 18 20 2 18 20 2 18 20 2 18 20 2 18 20 2 18 20 2 18 20 2 18 20 2 18 20 2 18 20 2 18 20 2 18 20 2 18 20 2 18 20 2 18 20 2 18 20 2 18 20 2 18 20 2 18 20 2 18 20 2 18 20 2 18 20 2 18 20 2 18 20 2 18 20 2 18 20 2 18 20 2 18 20 2 18 20 2 18 20 2 18 20 2 18 20 2 18 20 2 18 20 2 18 20 2 18 20 2 18 20 2 18 20 2 18 20 2 18 20 2 18 20 2 18 20 2 18 20 2 18 20 2 18 20 2 18 20 2 18 20 2 18 20 2 18 20 2 18 20 2 18 20 2 18 20 2 18 20 2 18 20 2 18 20 2 18 20 2 18 20 2 18 20 2 18 20 2 18 20 2 18 20 2 18 20 2 18 20 2 18 20 2 18 20 2 18 20 2 18 20 2 18 20 2 18 20 2 18 20 2 18 20 2 18 20 2 18 20 2 18 20 2 18 20 2 18 20 2 18 20 2 18 20 2 18 20 2 18 20 2 18 20 2 18 20 2 18 20 2 18 20 2 18 20 2 18 20 2 18 20 2 18 20 2 18 20 2 18 20 2 18 20 2 18 20 2 18 20 2 18 20 2 18 20 2 18 20 2 18 20 2 18 20 2 18 20 2 18 20 2 18 20 2 18 20 2 18 20 2 18 20 2 18 20 2 18 20 2 18 20 2 18 20 2 18 20 2 18 20 2 18 20 2 18 20 2 18 20 2 18 20 2 18 20 2 18 20 2 18 20 2 18 20 2 18 20 2 18 20 2 
18 20 2 18 20 2 18 20 2 18 20 2 18 20 2 18 20 2 18 20 2 18 20 2 18 20 2 18 20 2 18 20 2 18 20 2 18 20 2 18 20 2 18 20 2 18 20 2 18 20 2 18 20 2 18 20 2 18 20 2 18 20 2 18 20 2 18 20 2 18 20 2 18 20 2 18 20 2 18 20 2 18 20 2 18 20 2 18 20 2 18 20 2 18 20 2 18 20 2 18 20 2 18 20 2 18 20 2 18 20 2 18 20 2 18 20 2 18 20 2 18 20 2 18 20 2 18 20 2 18 20 2 18 20 2 18 20 2 18 20 2 18 20 2 18 20 2 18 20 2 18 20 2 18 20 2 18 20 2 18 20 2 18 20 2 18 20 2 18 20 2 18 20 2 18 20 2 18 20 2 18 20 2 18 20 2 18 20 2 18 20 2 18 20 2 18 20 2 18 20 2 18 20 2 18 20 2 18 20 2 18 20 2 18 20 2 18 20 2 18 20 2 18 20 2 18 20 2 18 20 2 18 20 2 18 20 2 18 20 2 18 20 2 18 20 2 18 20 2 18 20 2 18 20 2 18 20 2 18 20 2 18 20 2 18 20 2 18 20 2 18 20 2 18 20 2 18 20 2 18 20 2 18 20 2 18 20 2 18 20 2 18 20 2 18 20 2 18 20 2 18 20 2 18 20 2 18 20 2 18 20 2 18 20 2 18 20 2 18 20 2 18 20 2 18 20 2 18 20 2 18 20 2 18 20 2 18 20 2 18 20 2 18 20 2 18 20 2 18 20 2 18 20 2 18 20 2 18 20 2 18 20 2 18 20 2 18 20 2 18 20 2 18 20 2 18 20 2 18 20 2 18 20 2 18 20 2 18 20 2 18 20 2 18 20 2 18 20 2 18 20 2 18 20 2 18 20 2 18 20 2 18 20 2 18 20 2 18 20 2 18 20 2 18 20 2 18 20 2 18 20 2 18 20 2 18 20 2 18 20 2 18 20 2 18 20 2 18 20 2 18 20 2 18 20 2 18 20 2 18 20 2 18 20 2 18 20 2 18 20 2 18 20 2 18 20 2 18 20 2 18 20 2 18 20 2 18 20 2 18 20 2 18 20 2 18 20 2 18 20 2 18 20 2 18 20 2 18 20 2 18 20 2 18 20 2 18 20 2 18 20 2 18 20 2 18 20 2 18 20 2 18 20 2 18 20 2 18 20 2 18 20 2 18 20 2 18 20 2 18 20 2 18 20 2 18 20 2 18 20 2 18 20 2 18 20 2 18 20 2 18 20 2 18 20 2 18 20 2 18 20 2 18 20 2 18 20 2 18 20 2 18 20 2 18 20 2 18 20 2 18 20 2 18 20 2 18 20 2 18 20 2 18 20 2 18 20 2 18 20 2 18 20 2 18 20 2 18 20 2 18 20 2 18 20 2 18 20 2 18 20 2 18 20 2 18 20 2 18 20 2 18 20 2 18 20 2 18 20 2 
18 20 2 18 20 2 18 20 2 18 20 2 18 20 2 18 20 2 18 20 2 18 20 2 18 20 2 18 20 2 18 20 2 18 20 2 18 20 2 18 20 2 18 20 2 18 20 2 18 20 2 18 20 2 18 20 2 18 20 2 18 20 2 18 20 2 18 20 2 18 20 2 18 20 2 18 20 2 18 20 2 18 20 2 18 20 2 18 20 2 18 20 2 18 20 2 18 20 2 18 20 2 18 20 2 18 20 2 18 20 2 18 20 2 18 20 2 18 20 2 18 20 2 18 20 2 18 20 2 18 20 2 18 20 2 18 20 2 18 20 2 18 20 2 18 20 2 18 20 2 18 20 2 18 20 2 18 20 2 18 20 2 18 20 2 18 20 2 18 20 2 18 20 2 18 20 2 18 20 2 18 20 2 18 20 2 18 20 2 18 20 2 18 20 2 18 20 2 18 20 2 18 20 2 18 20 2 18 20 2 18 20 2 18 20 2 18 20 2 18 20 2 18 20 2 18 20 2 18 20 2 18 20 2 18 20 2 18 20 2 18 20 2 18 20 2 18 20 2 18 20 2 18 20 2 18 20 2 18 20 2 18 20 2 18 20 2 18 20 2 18 20 2 18 20 2 18 20 2 18 20 2 18 20 2 18 20 2 18 20 2 18 20 2 18 20 2 18 20 2 18 20 2 18 20 2 18 20 2 18 20 2 18 20 2 18 20 2 18 20 2 18 20 2 18 20 2 18 20 2 18 20 2 18 20 2 18 20 2 18 20 2 18 20 2 18 20 2 18 20 2 18 20 2 18 20 2 18 20 2 18 20 2 18 20 2 18 20 2 18 20 2 18 20 2 18 20 2 18 20 2 18 20 2 18 20 2 18 20 2 18 20 2 18 20 2 18 20 2 18 20 2 18 20 2 18 20 2 18 20 2 18 20 2 18 20 2 18 20 2 18 20 2 18 20 2 18 20 2 18 20 2 18 20 2 18 20 2 18 20 2 18 20 2 18 20 2 18 20 2 18 20 2 18 20 2 18 20 2 18 20 2 18 20 2 18 20 2 18 20 2 18 20 2 18 20 2 18 20 2 18 20 2 18 20 2 18 20 2 18 20 2 18 20 2 18 20 2 18 20 2 18 20 2 18 20 2 18 20 2 18 20 2 18 20 2 18 20 2 18 20 2 18 20 2 18 20 2 18 20 2 18 20 2 18 20 2 18 20 2 18 20 2 18 20 2 18 20 2 18 20 2 18 20 2 18 20 2 18 20 2 18 20 2 18 20 2 18 20 2 18 20 2 18 20 2 18 20 2 18 20 2 18 20 2 18 20 2 18 20 2 18 20 2 18 20 2 18 20 2 18 20 2 18 20 2 18 20 2 18 20 2 18 20 2 18 20 2 18 20 2 18 20 2 18 20 2 18 20 2 18 20 2 18 20 2 18 20 2 18 20 2 18 20 2 18 20 2 18 20 2 18 20 2 18 20 2 18 20 2 
18 20 2 18 20 2 18 20 2 18 20 2 18 20 2 18 20 2 18 20 2 18 20 2 18 20 2 18 20 2 18 20 2 18 20 2 18 20 2 18 20 2 18 20 2 18 20 2 18 20 2 18 20 2 18 20 2 18 20 2 18 20 2 18 20 2 18 20 2 18 20 2 18 20 2 18 20 2 18 20 2 18 20 2 18 20 2 18 20 2 18 20 2 18 20 2 18 20 2 18 20 2 18 20 2 18 20 2 18 20 2 18 20 2 18 20 2 18 20 2 18 20 2 18 20 2 18 20 2 18 20 2 18 20 2 18 20 2 18 20 2 18 20 2 18 20 2 18 20 2 18 20 2 18 20 2 18 20 2 18 20 2 18 20 2 18 20 2 18 20 2 18 20 2 18 20 2 18 20 2 18 20 2 18 20 2 18 20 2 18 20 2 18 20 2 18 20 2 18 20 2 18 20 2 18 20 2 18 20 2 18 20 2 18 20 2 18 20 2 18 20 2 18 20 2 18 20 2 18 20 2 18 20 2 18 20 2 18 20 2 18 20 2 18 20 2 18 20 2 18 20 2 18 20 2 18 20 2 18 20 2 18 20 2 18 20 2 18 20 2 18 20 2 18 20 2 18 20 2 18 20 2 18 20 2 18 20 2 18 20 2 18 20 2 18 20 2 18 20 2 18 20 2 18 20 2 18 20 2 18 20 2 18 20 2 18 20 2 18 20 2 18 20 2 18 20 2 18 20 2 18 20 2 18 20 2 18 20 2 18 20 2 18 20 2 18 20 2 18 20 2 18 20 2 18 20 2 18 20 2 18 20 2 18 20 2 18 20 2 18 20 2 18 20 2 18 20 2 18 20 2 18 20 2 18 20 2 18 20 2 18 20 2 18 20 2 18 20 2 18 20 2 18 20 2 18 20 2 18 20 2 18 20 2 18 20 2 18 20 2 18 20 2 18 20 2 18 20 2 18 20 2 18 20 2 18 20 2 18 20 2 18 20 2 18 20 2 18 20 2 18 20 2 18 20 2 18 20 2 18 20 2 18 20 2 18 20 2 18 20 2 18 20 2 18 20 2 18 20 2 18 20 2 18 20 2 18 20 2 18 20 2 18 20 2 18 20 2 18 20 2 18 20 2 18 20 2 18 20 2 18 20 2 18 20 2 18 20 2 18 20 2 18 20 2 18 20 2 18 20 2 18 20 2 18 20 2 18 20 2 18 20 2 18 20 2 18 20 2 18 20 2 18 20 2 18 20 2 18 20 2 18 20 2 18 20 2 18 20 2 18 20 2 18 20 2 18 20 2 18 20 2 18 20 2 18 20 2 18 20 2 18 20 2 18 20 2 18 20 2 18 20 2 18 20 2 18 20 2 18 20 2 18 20 2 18 20 2 18 20 2 18 20 2 18 20 2 18 20 2 18 20 2 18 20 2 18 20 2 18 20 2 18 20 2 18 20 2 18 20 2 18 20 2 18 20 2 18 20 2 
18 20 2 18 20 2 18 20 2 18 20 2 18 20 2 18 20 2 18 20 2 18 20 2 18 20 2 18 20 2 18 20 2 18 20 2 18 20 2 18 20 2 18 20 2 18 20 2 18 20 2 18 20 2 18 20 2 18 20 2 18 20 2 18 20 2 18 20 2 18 20 2 18 20 2 18 20 2 18 20 2 18 20 2 18 20 2 18 20 2 18 20 2 18 20 2 18 20 2 18 20 2 18 20 2 18 20 2 18 20 2 18 20 2 18 20 2 18 20 2 18 20 2 18 20 2 18 20 2 18 20 2 18 20 2 18 20 2 18 20 2 18 20 2 18 20 2 18 20 2 18 20 2 18 20 2 18 20 2 18 20 2 18 20 2 18 20 2 18 20 2 18 20 2 18 20 2 18 20 2 18 20 2 18 20 2 18 20 2 18 20 2 18 20 2 18 20 2 18 20 2 18 20 2 18 20 2 18 20 2 18 20 2 18 20 2 18 20 2 18 20 2 18 20 2 18 20 2 18 20 2 18 20 2 18 20 2 18 20 2 18 20 2 18 20 2 18 20 2 18 20 2 18 20 2 18 20 2 18 20 2 18 20 2 18 20 2 18 20 2 18 20 2 18 20 2 18 20 2 18 20 2 18 20 2 18 20 2 18 20 2 18 20 2 18 20 2 18 20 2 18 20 2 18 20 2 18 20 2 18 20 2 18 20 2 18 20 2 18 20 2 18 20 2 18 20 2 18 20 2 18 20 2 18 20 2 18 20 2 18 20 2 18 20 2 18 20 2 18 20 2 18 20 2 18 20 2 18 20 2 18 20 2 18 20 2 18 20 2 18 20 2 18 20 2 18 20 2 18 20 2 18 20 2 18 20 2 18 20 2 18 20 2 18 20 2 18 20 2 18 20 2 18 20 2 18 20 2 18 20 2 18 20 2 18 20 2 18 20 2 18 20 2 18 20 2 18 20 2 18 20 2 18 20 2 18 20 2 18 20 2 18 20 2 18 20 2 18 20 2 18 20 2 18 20 2 18 20 2 18 20 2 18 20 2 18 20 2 18 20 2 18 20 2 18 20 2 18 20 2 18 20 2 18 20 2 18 20 2 18 20 2 18 20 2 18 20 2 18 20 2 18 20 2 18 20 2 18 20 2 18 20 2 18 20 2 18 20 2 18 20 2 18 20 2 18 20 2 18 20 2 18 20 2 18 20 2 18 20 2 18 20 2 18 20 2 18 20 2 18 20 2 18 20 2 18 20 2 18 20 2 18 20 2 18 20 2 18 20 2 18 20 2 18 20 2 18 20 2 18 20 2 18 20 2 18 20 2 18 20 2 18 20 2 18 20 2 18 20 2 18 20 2 18 20 2 18 20 2 18 20 2 18 20 2 18 20 2 18 20 2 18 20 2 18 20 2 18 20 2 18 20 2 18 20 2 18 20 2 18 20 2 18 20 2 18 20 2 18 20 2 18 20 2 18 20 2 18 20 2 
18 20 2 18 20 2 18 20 2 18 20 2 18 20 2 18 20 2 18 20 2 18 20 2 18 20 2 18 20 2 18 20 2 18 20 2 18 20 2 18 20 2 18 20 2 18 20 2 18 20 2 18 20 2 18 20 2 18 20 2 18 20 2 18 20 2 18 20 2 18 20 2 18 20 2 18 20 2 18 20 2 18 20 2 18 20 2 18 20 2 18 20 2 18 20 2 18 20 2 18 20 2 18 20 2 18 20 2 18 20 2 18 20 2 18 20 2 18 20 2 18 20 2 18 20 2 18 20 2 18 20 2 18 20 2 18 20 2 18 20 2 18 20 2 18 20 2 18 20 2 18 20 2 18 20 2 18 20 2 18 20 2 18 20 2 18 20 2 18 20 2 18 20 2 18 20 2 18 20 2 18 20 2 18 20 2 18 20 2 18 20 2 18 20 2 18 20 2 18 20 2 18 20 2 18 20 2 18 20 2 18 20 2 18 20 2 18 20 2 18 20 2 18 20 2 18 20 2 18 20 2 18 20 2 18 20 2 18 20 2 18 20 2 18 20 2 18 20 2 18 20 2 18 20 2 18 20 2 18 20 2 18 20 2 18 20 2 18 20 2 18 20 2 18 20 2 18 20 2 18 20 2 18 20 2 18 20 2 18 20 2 18 20 2 18 20 2 18 20 2 18 20 2 18 20 2 18 20 2 18 20 2 18 20 2 18 20 2 18 20 2 18 20 2 18 20 2 18 20 2 18 20 2 18 20 2 18 20 2 18 20 2 18 20 2 18 20 2 18 20 2 18 20 2 18 20 2 18 20 2 18 20 2 18 20 2 18 20 2 18 20 2 18 20 2 18 20 2 18 20 2 18 20 2 18 20 2 18 20 2 18 20 2 18 20 2 18 20 2 18 20 2 18 20 2 18 20 2 18 20 2 18 20 2 18 20 2 18 20 2 18 20 2 18 20 2 18 20 2 18 20 2 18 20 2 18 20 2 18 20 2 18 20 2 18 20 2 18 20 2 18 20 2 18 20 2 18 20 2 18 20 2 18 20 2 18 20 2 18 20 2 18 20 2 18 20 2 18 20 2 18 20 2 18 20 2 18 20 2 18 20 2 18 20 2 18 20 2 18 20 2 18 20 2 18 20 2 18 20 2 18 20 2 18 20 2 18 20 2 18 20 2 18 20 2 18 20 2 18 20 2 18 20 2 18 20 2 18 20 2 18 20 2 18 20 2 18 20 2 18 20 2 18 20 2 18 20 2 18 20 2 18 20 2 18 20 2 18 20 2 18 20 2 18 20 2 18 20 2 18 20 2 18 20 2 18 20 2 18 20 2 18 20 2 18 20 2 18 20 2 18 20 2 18 20 2 18 20 2 18 20 2 18 20 2 18 20 2 18 20 2 18 20 2 18 20 2 18 20 2 18 20 2 18 20 2 18 20 2 18 20 2 18 20 2 18 20 2 18 20 2 18 20 2 18 20 2 18 20 2 
18 20 2 18 20 2 18 20 2 18 20 2 18 20 2 18 20 2 18 20 2 18 20 2 18 20 2 18 20 2 18 20 2 18 20 2 18 20 2 18 20 2 18 20 2 18 20 2 18 20 2 18 20 2 18 20 2 18 20 2 18 20 2 18 20 2 18 20 2 18 20 2 18 20 2 18 20 2 18 20 2 18 20 2 18 20 2 18 20 2 18 20 2 18 20 2 18 20 2 18 20 2 18 20 2 18 20 2 18 20 2 18 20 2 18 20 2 18 20 2 18 20 2 18 20 2 18 20 2 18 20 2 18 20 2 18 20 2 18 20 2 18 20 2 18 20 2 18 20 2 18 20 2 18 20 2 18 20 2 18 20 2 18 20 2 18 20 2 18 20 2 18 20 2 18 20 2 18 20 2 18 20 2 18 20 2 18 20 2 18 20 2 18 20 2 18 20 2 18 20 2 18 20 2 18 20 2 18 20 2 18 20 2 18 20 2 18 20 2 18 20 2 18 20 2 18 20 2 18 20 2 18 20 2 18 20 2 18 20 2 18 20 2 18 20 2 18 20 2 18 20 2 18 20 2 18 20 2 18 20 2 18 20 2 18 20 2 18 20 2 18 20 2 18 20 2 18 20 2 18 20 2 18 20 2 18 20 2 18 20 2 18 20 2 18 20 2 18 20 2 18 20 2 18 20 2 18 20 2 18 20 2 18 20 2 18 20 2 18 20 2 18 20 2 18 20 2 18 20 2 18 20 2 18 20 2 18 20 2 18 20 2 18 20 2 18 20 2 18 20 2 18 20 2 18 20 2 18 20 2 18 20 2 18 20 2 18 20 2 18 20 2 18 20 2 18 20 2 18 20 2 18 20 2 18 20 2 18 20 2 18 20 2 18 20 2 18 20 2 18 20 2 18 20 2 18 20 2 18 20 2 18 20 2 18 20 2 18 20 2 18 20 2 18 20 2 18 20 2 18 20 2 18 20 2 18 20 2 18 20 2 18 20 2 18 20 2 18 20 2 18 20 2 18 20 2 18 20 2 18 20 2 18 20 2 18 20 2 18 20 2 18 20 2 18 20 2 18 20 2 18 20 2 18 20 2 18 20 2 18 20 2 18 20 2 18 20 2 18 20 2 18 20 2 18 20 2 18 20 2 18 20 2 18 20 2 18 20 2 18 20 2 18 20 2 18 20 2 18 20 2 18 20 2 18 20 2 18 20 2 18 20 2 18 20 2 18 20 2 18 20 2 18 20 2 18 20 2 18 20 2 18 20 2 18 20 2 18 20 2 18 20 2 18 20 2 18 20 2 18 20 2 18 20 2 18 20 2 18 20 2 18 20 2 18 20 2 18 20 2 18 20 2 18 20 2 18 20 2 18 20 2 18 20 2 18 20 2 18 20 2 18 20 2 18 20 2 18 20 2 18 20 2 18 20 2 18 20 2 18 20 2 18 20 2 18 20 2 18 20 2 18 20 2 18 20 2 18 20 2 
18 20 2 18 20 2 18 20 2 18 20 2 18 20 2 18 20 2 18 20 2 18 20 2 18 20 2 18 20 2 18 20 2 18 20 2 18 20 2 18 20 2 18 20 2 18 20 2 18 20 2 18 20 2 18 20 2 18 20 2 18 20 2 18 20 2 18 20 2 18 20 2 18 20 2 18 20 2 18 20 2 18 20 2 18 20 2 18 20 2 18 20 2 18 20 2 18 20 2 18 20 2 18 20 2 18 20 2 18 20 2 18 20 2 18 20 2 18 20 2 18 20 2 18 20 2 18 20 2 18 20 2 18 20 2 18 20 2 18 20 2 18 20 2 18 20 2 18 20 2 18 20 2 18 20 2 18 20 2 18 20 2 18 20 2 18 20 2 18 20 2 18 20 2 18 20 2 18 20 2 18 20 2 18 20 2 18 20 2 18 20 2 18 20 2 18 20 2 18 20 2 18 20 2 18 20 2 18 20 2 18 20 2 18 20 2 18 20 2 18 20 2 18 20 2 18 20 2 18 20 2 18 20 2 18 20 2 18 20 2 18 20 2 18 20 2 18 20 2 18 20 2 18 20 2 18 20 2 18 20 2 18 20 2 18 20 2 18 20 2 18 20 2 18 20 2 18 20 2 18 20 2 18 20 2 18 20 2 18 20 2 18 20 2 18 20 2 18 20 2 18 20 2 18 20 2 18 20 2 18 20 2 18 20 2 18 20 2 18 20 2 18 20 2 18 20 2 18 20 2 18 20 2 18 20 2 18 20 2 18 20 2 18 20 2 18 20 2 18 20 2 18 20 2 18 20 2 18 20 2 18 20 2 18 20 2 18 20 2 18 20 2 18 20 2 18 20 2 18 20 2 18 20 2 18 20 2 18 20 2 18 20 2 18 20 2 18 20 2 18 20 2 18 20 2 18 20 2 18 20 2 18 20 2 18 20 2 18 20 2 18 20 2 18 20 2 18 20 2 18 20 2 18 20 2 18 20 2 18 20 2 18 20 2 18 20 2 18 20 2 18 20 2 18 20 2 18 20 2 18 20 2 18 20 2 18 20 2 18 20 2 18 20 2 18 20 2 18 20 2 18 20 2 18 20 2 18 20 2 18 20 2 18 20 2 18 20 2 18 20 2 18 20 2 18 20 2 18 20 2 18 20 2 18 20 2 18 20 2 18 20 2 18 20 2 18 20 2 18 20 2 18 20 2 18 20 2 18 20 2 18 20 2 18 20 2 18 20 2 18 20 2 18 20 2 18 20 2 18 20 2 18 20 2 18 20 2 18 20 2 18 20 2 18 20 2 18 20 2 18 20 2 18 20 2 18 20 2 18 20 2 18 20 2 18 20 2 18 20 2 18 20 2 18 20 2 18 20 2 18 20 2 18 20 2 18 20 2 18 20 2 18 20 2 18 20 2 18 20 2 18 20 2 18 20 2 18 20 2 18 20 2 18 20 2 18 20 2 18 20 2 18 20 2 18 20 2 18 20 2 
18 20 2 18 20 2 18 20 2 18 20 2 18 20 2 18 20 2 18 20 2 18 20 2 18 20 2 18 20 2 18 20 2 18 20 2 18 20 2 18 20 2 18 20 2 18 20 2 18 20 2 18 20 2 18 20 2 18 20 2 18 20 2 18 20 2 18 20 2 18 20 2 18 20 2 18 20 2 18 20 2 18 20 2 18 20 2 18 20 2 18 20 2 18 20 2 18 20 2 18 20 2 18 20 2 18 20 2 18 20 2 18 20 2 18 20 2 18 20 2 18 20 2 18 20 2 18 20 2 18 20 2 18 20 2 18 20 2 18 20 2 18 20 2 18 20 2 18 20 2 18 20 2 18 20 2 18 20 2 18 20 2 18 20 2 18 20 2 18 20 2 18 20 2 18 20 2 18 20 2 18 20 2 18 20 2 18 20 2 18 20 2 18 20 2 18 20 2 18 20 2 18 20 2 18 20 2 18 20 2 18 20 2 18 20 2 18 20 2 18 20 2 18 20 2 18 20 2 18 20 2 18 20 2 18 20 2 18 20 2 18 20 2 18 20 2 18 20 2 18 20 2 18 20 2 18 20 2 18 20 2 18 20 2 18 20 2 18 20 2 18 20 2 18 20 2 18 20 2 18 20 2 18 20 2 18 20 2 18 20 2 18 20 2 18 20 2 18 20 2 18 20 2 18 20 2 18 20 2 18 20 2 18 20 2 18 20 2 18 20 2 18 20 2 18 20 2 18 20 2 18 20 2 18 20 2 18 20 2 18 20 2 18 20 2 18 20 2 18 20 2 18 20 2 18 20 2 18 20 2 18 20 2 18 20 2 18 20 2 18 20 2 18 20 2 18 20 2 18 20 2 18 20 2 18 20 2 18 20 2 18 20 2 18 20 2 18 20 2 18 20 2 18 20 2 18 20 2 18 20 2 18 20 2 18 20 2 18 20 2 18 20 2 18 20 2 18 20 2 18 20 2 18 20 2 18 20 2 18 20 2 18 20 2 18 20 2 18 20 2 18 20 2 18 20 2 18 20 2 18 20 2 18 20 2 18 20 2 18 20 2 18 20 2 18 20 2 18 20 2 18 20 2 18 20 2 18 20 2 18 20 2 18 20 2 18 20 2 18 20 2 18 20 2 18 20 2 18 20 2 18 20 2 18 20 2 18 20 2 18 20 2 18 20 2 18 20 2 18 20 2 18 20 2 18 20 2 18 20 2 18 20 2 18 20 2 18 20 2 18 20 2 18 20 2 18 20 2 18 20 2 18 20 2 18 20 2 18 20 2 18 20 2 18 20 2 18 20 2 18 20 2 18 20 2 18 20 2 18 20 2 18 20 2 18 20 2 18 20 2 18 20 2 18 20 2 18 20 2 18 20 2 18 20 2 18 20 2 18 20 2 18 20 2 18 20 2 18 20 2 18 20 2 18 20 2 18 20 2 18 20 2 18 20 2 18 20 2 18 20 2 18 20 2 18 20 2 18 20 2 
18 20 2 18 20 2 18 20 2 18 20 2 18 20 2 18 20 2 18 20 2 18 20 2 18 20 2 18 20 2 18 20 2 18 20 2 18 20 2 18 20 2 18 20 2 18 20 2 18 20 2 18 20 2 18 20 2 18 20 2 18 20 2 18 20 2 18 20 2 18 20 2 18 20 2 18 20 2 18 20 2 18 20 2 18 20 2 18 20 2 18 20 2 18 20 2 18 20 2 18 20 2 18 20 2 18 20 2 18 20 2 18 20 2 18 20 2 18 20 2 18 20 2 18 20 2 18 20 2 18 20 2 18 20 2 18 20 2 18 20 2 18 20 2 18 20 2 18 20 2 18 20 2 18 20 2 18 20 2 18 20 2 18 20 2 18 20 2 18 20 2 18 20 2 18 20 2 18 20 2 18 20 2 18 20 2 18 20 2 18 20 2 18 20 2 18 20 2 18 20 2 18 20 2 18 20 2 18 20 2 18 20 2 18 20 2 18 20 2 18 20 2 18 20 2 18 20 2 18 20 2 18 20 2 18 20 2 18 20 2 18 20 2 18 20 2 18 20 2 18 20 2 18 20 2 18 20 2 18 20 2 18 20 2 18 20 2 18 20 2 18 20 2 18 20 2 18 20 2 18 20 2 18 20 2 18 20 2 18 20 2 18 20 2 18 20 2 18 20 2 18 20 2 18 20 2 18 20 2 18 20 2 18 20 2 18 20 2 18 20 2 18 20 2 18 20 2 18 20 2 18 20 2 18 20 2 18 20 2 18 20 2 18 20 2 18 20 2 18 20 2 18 20 2 18 20 2 18 20 2 18 20 2 18 20 2 18 20 2 18 20 2 18 20 2 18 20 2 18 20 2 18 20 2 18 20 2 18 20 2 14 16 2 18 20 2 18 20 2 18 20 2 18 20 2 18 20 2 18 20 2 18 20 2 18 20 2 18 20 2 18 20 2 18 20 2 18 20 2 18 20 2 18 20 2 18 20 2 18 20 2 18 20 2 18 20 2 22 24 3 18 20 2 18 20 2 18 20 2 18 20 2 18 20 2 18 20 2 18 20 2 18 20 2 18 20 2 18 20 2 18 20 2 18 20 2 18 20 2 18 20 2 18 20 2 18 20 2 18 20 2 18 20 2 18 20 2 18 20 2 18 20 2 18 20 2 18 20 2 18 20 2 18 20 2 18 20 2 18 20 2 18 20 2 18 20 2 18 20 2 18 20 2 18 20 2 18 20 2 18 20 2 18 20 2 18 20 2 18 20 2 18 20 2 18 20 2 18 20 2 18 20 2 18 20 2 18 20 2 18 20 2 18 20 2 18 20 2 18 20 2 18 20 2 18 20 2 18 20 2 18 20 2 18 20 2 18 20 2 18 20 2 18 20 2 18 20 2 18 20 2 18 20 2 18 20 2 18 20 2 18 20 2 18 20 2 18 20 2 18 20 2 18 20 2 18 20 2 18 20 2 18 20 2 18 20 2 18 20 2 
18 20 2 18 20 2 18 20 2 18 20 2 18 20 2 18 20 2 18 20 2 18 20 2 18 20 2 18 20 2 18 20 2 18 20 2 18 20 2 18 20 2 18 20 2 18 20 2 18 20 2 18 20 2 18 20 2 18 20 2 18 20 2 18 20 2 18 20 2 18 20 2 18 20 2 18 20 2 18 20 2 18 20 2 18 20 2 18 20 2 18 20 2 18 20 2 18 20 2 18 20 2 18 20 2 18 20 2 18 20 2 18 20 2 18 20 2 18 20 2 18 20 2 18 20 2 18 20 2 18 20 2 18 20 2 18 20 2 18 20 2 18 20 2 18 20 2 18 20 2 18 20 2 18 20 2 18 20 2 18 20 2 18 20 2 18 20 2 18 20 2 18 20 2 18 20 2 18 20 2 18 20 2 18 20 2 18 20 2 18 20 2 18 20 2 18 20 2 18 20 2 18 20 2 18 20 2 18 20 2 18 20 2 18 20 2 18 20 2 18 20 2 18 20 2 18 20 2 18 20 2 18 20 2 18 20 2 18 20 2 18 20 2 18 20 2 18 20 2 18 20 2 18 20 2 18 20 2 18 20 2 18 20 2 18 20 2 18 20 2 18 20 2 18 20 2 18 20 2 18 20 2 18 20 2 18 20 2 18 20 2 18 20 2 18 20 2 18 20 2 18 20 2 18 20 2 18 20 2 18 20 2 18 20 2 18 20 2 18 20 2 18 20 2 18 20 2 18 20 2 18 20 2 18 20 2 18 20 2 18 20 2 18 20 2 18 20 2 18 20 2 18 20 2 18 20 2 18 20 2 18 20 2 18 20 2 18 20 2 18 20 2 18 20 2 18 20 2 18 20 2 18 20 2 18 20 2 18 20 2 14 16 2 18 20 2 18 20 2 18 20 2 18 20 2 18 20 2 18 20 2 18 20 2 18 20 2 18 20 2 18 20 2 18 20 2 18 20 2 18 20 2 18 20 2 18 20 2 18 20 2 18 20 2 18 20 2 22 24 3 18 20 2 18 20 2 18 20 2 18 20 2 18 20 2 18 20 2 18 20 2 18 20 2 18 20 2 18 20 2 18 20 2 18 20 2 18 20 2 18 20 2 18 20 2 18 20 2 18 20 2 18 20 2 18 20 2 18 20 2 18 20 2 18 20 2 18 20 2 18 20 2 18 20 2 18 20 2 18 20 2 18 20 2 18 20 2 18 20 2 18 20 2 18 20 2 18 20 2 18 20 2 18 20 2 18 20 2 18 20 2 18 20 2 18 20 2 18 20 2 18 20 2 18 20 2 18 20 2 18 20 2 18 20 2 18 20 2 18 20 2 18 20 2 18 20 2 18 20 2 18 20 2 18 20 2 18 20 2 18 20 2 18 20 2 18 20 2 18 20 2 18 20 2 18 20 2 18 20 2 18 20 2 18 20 2 18 20 2 18 20 2 18 20 2 18 20 2 18 20 2 18 20 2 18 20 2 18 20 2 
18 20 2 18 20 2 18 20 2 18 20 2 18 20 2 18 20 2 18 20 2 18 20 2 18 20 2 18 20 2 18 20 2 18 20 2 18 20 2 18 20 2 18 20 2 18 20 2 18 20 2 18 20 2 18 20 2 18 20 2 18 20 2 18 20 2 18 20 2 18 20 2 18 20 2 18 20 2 18 20 2 18 20 2 18 20 2 18 20 2 18 20 2 18 20 2 18 20 2 18 20 2 18 20 2 18 20 2 18 20 2 18 20 2 18 20 2 18 20 2 18 20 2 18 20 2 18 20 2 18 20 2 18 20 2 18 20 2 18 20 2 18 20 2 18 20 2 18 20 2 18 20 2 18 20 2 18 20 2 18 20 2 18 20 2 18 20 2 18 20 2 18 20 2 18 20 2 18 20 2 18 20 2 18 20 2 18 20 2 18 20 2 18 20 2 18 20 2 18 20 2 18 20 2 18 20 2 18 20 2 18 20 2 18 20 2 18 20 2 18 20 2 18 20 2 18 20 2 18 20 2 18 20 2 18 20 2 18 20 2 18 20 2 18 20 2 18 20 2 18 20 2 18 20 2 18 20 2 18 20 2 18 20 2 18 20 2 18 20 2 18 20 2 18 20 2 18 20 2 18 20 2 18 20 2 18 20 2 18 20 2 18 20 2 18 20 2 18 20 2 18 20 2 18 20 2 18 20 2 18 20 2 18 20 2 18 20 2 18 20 2 18 20 2 18 20 2 18 20 2 18 20 2 18 20 2 18 20 2 18 20 2 18 20 2 18 20 2 18 20 2 18 20 2 18 20 2 18 20 2 18 20 2 18 20 2 18 20 2 18 20 2 18 20 2 18 20 2 18 20 2 18 20 2 18 20 2 18 20 2 18 20 2 18 20 2 18 20 2 18 20 2 18 20 2 18 20 2 18 20 2 18 20 2 18 20 2 18 20 2 18 20 2 18 20 2 18 20 2 18 20 2 22 24 3 22 24 3 22 24 3 22 24 3 18 20 2 22 24 3 22 24 3 18 20 2 18 20 2 18 20 2 18 20 2 18 20 2 18 20 2 18 20 2 18 20 2 18 20 2 18 20 2 18 20 2 18 20 2 18 20 2 18 20 2 18 20 2 18 20 2 18 20 2 18 20 2 18 20 2 18 20 2 18 20 2 18 20 2 18 20 2 18 20 2 18 20 2 18 20 2 18 20 2 18 20 2 18 20 2 18 20 2 18 20 2 18 20 2 18 20 2 18 20 2 18 20 2 18 20 2 18 20 2 18 20 2 18 20 2 18 20 2 18 20 2 18 20 2 18 20 2 18 20 2 18 20 2 18 20 2 18 20 2 18 20 2 18 20 2 18 20 2 18 20 2 18 20 2 18 20 2 18 20 2 18 20 2 18 20 2 18 20 2 18 20 2 18 20 2 18 20 2 18 20 2 18 20 2 18 20 2 18 20 2 18 20 2 18 20 2 18 20 2 18 20 2 18 20 2 
18 20 2 18 20 2 18 20 2 18 20 2 18 20 2 18 20 2 18 20 2 18 20 2 18 20 2 18 20 2 18 20 2 18 20 2 18 20 2 18 20 2 18 20 2 18 20 2 18 20 2 18 20 2 18 20 2 18 20 2 18 20 2 18 20 2 18 20 2 18 20 2 18 20 2 18 20 2 18 20 2 18 20 2 18 20 2 18 20 2 18 20 2 18 20 2 18 20 2 18 20 2 18 20 2 18 20 2 18 20 2 18 20 2 18 20 2 18 20 2 18 20 2 18 20 2 18 20 2 18 20 2 18 20 2 18 20 2 18 20 2 18 20 2 18 20 2 18 20 2 18 20 2 18 20 2 18 20 2 18 20 2 18 20 2 18 20 2 18 20 2 18 20 2 18 20 2 18 20 2 18 20 2 18 20 2 18 20 2 18 20 2 18 20 2 18 20 2 18 20 2 18 20 2 18 20 2 18 20 2 18 20 2 18 20 2 18 20 2 18 20 2 18 20 2 18 20 2 18 20 2 18 20 2 18 20 2 18 20 2 18 20 2 18 20 2 18 20 2 18 20 2 18 20 2 18 20 2 18 20 2 18 20 2 18 20 2 18 20 2 18 20 2 18 20 2 18 20 2 18 20 2 18 20 2 18 20 2 18 20 2 18 20 2 18 20 2 18 20 2 18 20 2 18 20 2 18 20 2 18 20 2 18 20 2 18 20 2 18 20 2 18 20 2 18 20 2 18 20 2 18 20 2 18 20 2 18 20 2 18 20 2 18 20 2 18 20 2 18 20 2 18 20 2 18 20 2 18 20 2 18 20 2 18 20 2 18 20 2 18 20 2 18 20 2 18 20 2 18 20 2 18 20 2 18 20 2 18 20 2 18 20 2 18 20 2 18 20 2 18 20 2 18 20 2 18 20 2 18 20 2 18 20 2 18 20 2 18 20 2 18 20 2 18 20 2 18 20 2 18 20 2 22 24 3 22 24 3 22 24 3 22 24 3 18 20 2 22 24 3 22 24 3 18 20 2 18 20 2 18 20 2 18 20 2 18 20 2 18 20 2 18 20 2 18 20 2 18 20 2 18 20 2 18 20 2 18 20 2 18 20 2 18 20 2 18 20 2 18 20 2 18 20 2 18 20 2 18 20 2 18 20 2 18 20 2 18 20 2 18 20 2 18 20 2 18 20 2 18 20 2 18 20 2 18 20 2 18 20 2 18 20 2 18 20 2 18 20 2 18 20 2 18 20 2 18 20 2 18 20 2 18 20 2 18 20 2 18 20 2 18 20 2 18 20 2 18 20 2 18 20 2 18 20 2 18 20 2 18 20 2 18 20 2 18 20 2 18 20 2 18 20 2 18 20 2 18 20 2 18 20 2 18 20 2 18 20 2 18 20 2 18 20 2 18 20 2 18 20 2 18 20 2 18 20 2 18 20 2 18 20 2 18 20 2 18 20 2 18 20 2 18 20 2 18 20 2 18 20 2 
18 20 2 18 20 2 18 20 2 18 20 2 18 20 2 18 20 2 18 20 2 18 20 2 18 20 2 18 20 2 18 20 2 18 20 2 18 20 2 18 20 2 18 20 2 18 20 2 18 20 2 18 20 2 18 20 2 18 20 2 18 20 2 18 20 2 18 20 2 18 20 2 18 20 2 18 20 2 18 20 2 18 20 2 18 20 2 18 20 2 18 20 2 18 20 2 18 20 2 18 20 2 18 20 2 18 20 2 18 20 2 18 20 2 18 20 2 18 20 2 18 20 2 18 20 2 18 20 2 18 20 2 18 20 2 18 20 2 18 20 2 18 20 2 18 20 2 18 20 2 18 20 2 18 20 2 18 20 2 18 20 2 18 20 2 18 20 2 18 20 2 18 20 2 18 20 2 18 20 2 18 20 2 18 20 2 18 20 2 18 20 2 18 20 2 18 20 2 18 20 2 18 20 2 18 20 2 18 20 2 18 20 2 18 20 2 18 20 2 18 20 2 18 20 2 18 20 2 18 20 2 18 20 2 18 20 2 18 20 2 18 20 2 18 20 2 18 20 2 18 20 2 18 20 2 18 20 2 18 20 2 18 20 2 18 20 2 18 20 2 18 20 2 18 20 2 18 20 2 18 20 2 18 20 2 18 20 2 18 20 2 18 20 2 18 20 2 18 20 2 18 20 2 18 20 2 18 20 2 18 20 2 18 20 2 18 20 2 18 20 2 18 20 2 18 20 2 18 20 2 18 20 2 18 20 2 18 20 2 18 20 2 18 20 2 18 20 2 18 20 2 18 20 2 18 20 2 18 20 2 18 20 2 18 20 2 18 20 2 18 20 2 18 20 2 18 20 2 18 20 2 18 20 2 18 20 2 18 20 2 18 20 2 18 20 2 18 20 2 18 20 2 18 20 2 18 20 2 18 20 2 18 20 2 22 24 3 22 24 3 22 24 3 22 24 3 18 20 2 18 20 2 22 24 3 22 24 3 26 28 3 26 28 3 22 24 3 22 24 3 22 24 3 22 24 3 22 24 3 22 24 3 22 24 3 22 24 3 18 20 2 18 20 2 18 20 2 18 20 2 18 20 2 18 20 2 18 20 2 18 20 2 18 20 2 18 20 2 18 20 2 18 20 2 18 20 2 18 20 2 18 20 2 18 20 2 18 20 2 18 20 2 18 20 2 18 20 2 18 20 2 18 20 2 18 20 2 18 20 2 18 20 2 18 20 2 18 20 2 18 20 2 18 20 2 18 20 2 18 20 2 18 20 2 18 20 2 18 20 2 18 20 2 18 20 2 18 20 2 18 20 2 18 20 2 18 20 2 18 20 2 18 20 2 18 20 2 18 20 2 18 20 2 18 20 2 18 20 2 18 20 2 18 20 2 18 20 2 18 20 2 18 20 2 18 20 2 18 20 2 18 20 2 18 20 2 18 20 2 18 20 2 18 20 2 18 20 2 18 20 2 18 20 2 18 20 2 18 20 2 
18 20 2 18 20 2 18 20 2 18 20 2 18 20 2 18 20 2 18 20 2 18 20 2 18 20 2 18 20 2 18 20 2 18 20 2 18 20 2 18 20 2 18 20 2 18 20 2 18 20 2 18 20 2 18 20 2 18 20 2 18 20 2 18 20 2 18 20 2 18 20 2 18 20 2 18 20 2 18 20 2 18 20 2 18 20 2 18 20 2 18 20 2 18 20 2 18 20 2 18 20 2 18 20 2 18 20 2 18 20 2 18 20 2 18 20 2 18 20 2 18 20 2 18 20 2 18 20 2 18 20 2 18 20 2 18 20 2 18 20 2 18 20 2 18 20 2 18 20 2 18 20 2 18 20 2 18 20 2 18 20 2 18 20 2 18 20 2 18 20 2 18 20 2 18 20 2 18 20 2 18 20 2 18 20 2 18 20 2 18 20 2 18 20 2 18 20 2 18 20 2 18 20 2 18 20 2 18 20 2 18 20 2 18 20 2 18 20 2 18 20 2 18 20 2 18 20 2 18 20 2 18 20 2 18 20 2 18 20 2 18 20 2 18 20 2 18 20 2 18 20 2 18 20 2 18 20 2 18 20 2 18 20 2 18 20 2 18 20 2 18 20 2 18 20 2 18 20 2 18 20 2 18 20 2 18 20 2 18 20 2 18 20 2 18 20 2 18 20 2 18 20 2 18 20 2 18 20 2 18 20 2 18 20 2 18 20 2 18 20 2 18 20 2 18 20 2 18 20 2 18 20 2 18 20 2 18 20 2 18 20 2 18 20 2 18 20 2 18 20 2 18 20 2 18 20 2 18 20 2 18 20 2 18 20 2 18 20 2 18 20 2 18 20 2 18 20 2 18 20 2 18 20 2 18 20 2 18 20 2 18 20 2 18 20 2 18 20 2 18 20 2 18 20 2 18 20 2 18 20 2 18 20 2 22 24 3 22 24 3 22 24 3 22 24 3 18 20 2 18 20 2 22 24 3 22 24 3 26 28 3 26 28 3 22 24 3 22 24 3 22 24 3 22 24 3 22 24 3 22 24 3 22 24 3 22 24 3 18 20 2 18 20 2 18 20 2 18 20 2 18 20 2 18 20 2 18 20 2 18 20 2 18 20 2 18 20 2 18 20 2 18 20 2 18 20 2 18 20 2 18 20 2 18 20 2 18 20 2 18 20 2 18 20 2 18 20 2 18 20 2 18 20 2 18 20 2 18 20 2 18 20 2 18 20 2 18 20 2 18 20 2 18 20 2 18 20 2 18 20 2 18 20 2 18 20 2 18 20 2 18 20 2 18 20 2 18 20 2 18 20 2 18 20 2 18 20 2 18 20 2 18 20 2 18 20 2 18 20 2 18 20 2 18 20 2 18 20 2 18 20 2 18 20 2 18 20 2 18 20 2 18 20 2 18 20 2 18 20 2 18 20 2 18 20 2 18 20 2 18 20 2 18 20 2 18 20 2 18 20 2 18 20 2 18 20 2 18 20 2 
18 20 2 18 20 2 18 20 2 18 20 2 18 20 2 18 20 2 18 20 2 18 20 2 18 20 2 18 20 2 18 20 2 18 20 2 18 20 2 18 20 2 18 20 2 18 20 2 18 20 2 18 20 2 18 20 2 18 20 2 18 20 2 18 20 2 18 20 2 18 20 2 18 20 2 18 20 2 18 20 2 18 20 2 18 20 2 18 20 2 18 20 2 18 20 2 18 20 2 18 20 2 18 20 2 18 20 2 18 20 2 18 20 2 18 20 2 18 20 2 18 20 2 18 20 2 18 20 2 18 20 2 18 20 2 18 20 2 18 20 2 18 20 2 18 20 2 18 20 2 18 20 2 18 20 2 18 20 2 18 20 2 18 20 2 18 20 2 18 20 2 18 20 2 18 20 2 18 20 2 18 20 2 18 20 2 18 20 2 18 20 2 18 20 2 18 20 2 18 20 2 18 20 2 18 20 2 18 20 2 18 20 2 18 20 2 18 20 2 18 20 2 18 20 2 18 20 2 18 20 2 18 20 2 18 20 2 18 20 2 18 20 2 18 20 2 18 20 2 18 20 2 18 20 2 18 20 2 18 20 2 18 20 2 18 20 2 18 20 2 18 20 2 18 20 2 18 20 2 18 20 2 18 20 2 18 20 2 18 20 2 18 20 2 18 20 2 18 20 2 18 20 2 18 20 2 18 20 2 18 20 2 18 20 2 18 20 2 18 20 2 18 20 2 18 20 2 18 20 2 14 16 2 18 20 2 18 20 2 18 20 2 18 20 2 18 20 2 18 20 2 18 20 2 18 20 2 18 20 2 18 20 2 18 20 2 18 20 2 18 20 2 18 20 2 18 20 2 18 20 2 18 20 2 18 20 2 18 20 2 18 20 2 18 20 2 22 24 3 22 24 3 22 24 3 22 24 3 22 24 3 22 24 3 26 28 3 26 28 3 26 28 3 26 28 3 22 24 3 22 24 3 22 24 3 26 28 3 26 28 3 26 28 3 22 24 3 22 24 3 26 28 3 33 36 4 26 28 3 22 24 3 22 24 3 18 20 2 18 20 2 18 20 2 18 20 2 22 24 3 22 24 3 18 20 2 18 20 2 18 20 2 18 20 2 18 20 2 18 20 2 18 20 2 18 20 2 18 20 2 18 20 2 18 20 2 14 16 2 18 20 2 18 20 2 18 20 2 18 20 2 18 20 2 18 20 2 18 20 2 18 20 2 18 20 2 18 20 2 18 20 2 18 20 2 18 20 2 18 20 2 18 20 2 18 20 2 18 20 2 18 20 2 18 20 2 18 20 2 18 20 2 18 20 2 18 20 2 18 20 2 18 20 2 18 20 2 18 20 2 18 20 2 18 20 2 18 20 2 18 20 2 18 20 2 18 20 2 18 20 2 18 20 2 18 20 2 18 20 2 18 20 2 18 20 2 18 20 2 18 20 2 18 20 2 18 20 2 18 20 2 18 20 2 18 20 2 18 20 2 
18 20 2 18 20 2 18 20 2 18 20 2 18 20 2 18 20 2 18 20 2 18 20 2 18 20 2 18 20 2 18 20 2 18 20 2 18 20 2 18 20 2 18 20 2 18 20 2 18 20 2 18 20 2 18 20 2 18 20 2 18 20 2 18 20 2 18 20 2 18 20 2 18 20 2 18 20 2 18 20 2 18 20 2 18 20 2 18 20 2 18 20 2 18 20 2 18 20 2 18 20 2 18 20 2 18 20 2 18 20 2 18 20 2 18 20 2 18 20 2 18 20 2 18 20 2 18 20 2 18 20 2 18 20 2 18 20 2 18 20 2 18 20 2 18 20 2 18 20 2 18 20 2 18 20 2 18 20 2 18 20 2 18 20 2 18 20 2 18 20 2 18 20 2 18 20 2 18 20 2 18 20 2 18 20 2 18 20 2 18 20 2 18 20 2 18 20 2 18 20 2 18 20 2 18 20 2 18 20 2 18 20 2 18 20 2 18 20 2 18 20 2 18 20 2 18 20 2 18 20 2 18 20 2 18 20 2 18 20 2 18 20 2 18 20 2 18 20 2 18 20 2 18 20 2 18 20 2 18 20 2 18 20 2 18 20 2 18 20 2 18 20 2 18 20 2 18 20 2 18 20 2 18 20 2 18 20 2 18 20 2 18 20 2 18 20 2 18 20 2 18 20 2 18 20 2 18 20 2 18 20 2 18 20 2 18 20 2 18 20 2 18 20 2 18 20 2 18 20 2 14 16 2 18 20 2 18 20 2 18 20 2 18 20 2 18 20 2 18 20 2 18 20 2 18 20 2 18 20 2 18 20 2 18 20 2 18 20 2 18 20 2 18 20 2 18 20 2 18 20 2 18 20 2 18 20 2 18 20 2 18 20 2 18 20 2 22 24 3 22 24 3 22 24 3 22 24 3 22 24 3 22 24 3 26 28 3 26 28 3 26 28 3 26 28 3 22 24 3 22 24 3 22 24 3 26 28 3 26 28 3 26 28 3 22 24 3 22 24 3 26 28 3 33 36 4 26 28 3 22 24 3 22 24 3 18 20 2 18 20 2 18 20 2 18 20 2 22 24 3 22 24 3 18 20 2 18 20 2 18 20 2 18 20 2 18 20 2 18 20 2 18 20 2 18 20 2 18 20 2 18 20 2 18 20 2 14 16 2 18 20 2 18 20 2 18 20 2 18 20 2 18 20 2 18 20 2 18 20 2 18 20 2 18 20 2 18 20 2 18 20 2 18 20 2 18 20 2 18 20 2 18 20 2 18 20 2 18 20 2 18 20 2 18 20 2 18 20 2 18 20 2 18 20 2 18 20 2 18 20 2 18 20 2 18 20 2 18 20 2 18 20 2 18 20 2 18 20 2 18 20 2 18 20 2 18 20 2 18 20 2 18 20 2 18 20 2 18 20 2 18 20 2 18 20 2 18 20 2 18 20 2 18 20 2 18 20 2 18 20 2 18 20 2 18 20 2 18 20 2 
18 20 2 18 20 2 18 20 2 18 20 2 18 20 2 18 20 2 18 20 2 18 20 2 18 20 2 18 20 2 18 20 2 18 20 2 18 20 2 18 20 2 18 20 2 18 20 2 18 20 2 18 20 2 18 20 2 18 20 2 18 20 2 18 20 2 18 20 2 18 20 2 18 20 2 18 20 2 18 20 2 18 20 2 18 20 2 18 20 2 18 20 2 18 20 2 18 20 2 18 20 2 18 20 2 18 20 2 18 20 2 18 20 2 18 20 2 18 20 2 18 20 2 18 20 2 18 20 2 18 20 2 18 20 2 18 20 2 18 20 2 18 20 2 18 20 2 18 20 2 18 20 2 18 20 2 18 20 2 18 20 2 18 20 2 18 20 2 18 20 2 18 20 2 18 20 2 18 20 2 18 20 2 18 20 2 18 20 2 18 20 2 18 20 2 18 20 2 18 20 2 18 20 2 18 20 2 18 20 2 18 20 2 18 20 2 18 20 2 18 20 2 18 20 2 18 20 2 18 20 2 18 20 2 18 20 2 18 20 2 18 20 2 18 20 2 18 20 2 18 20 2 18 20 2 18 20 2 18 20 2 18 20 2 18 20 2 18 20 2 18 20 2 18 20 2 18 20 2 18 20 2 18 20 2 18 20 2 18 20 2 18 20 2 18 20 2 18 20 2 18 20 2 18 20 2 18 20 2 18 20 2 18 20 2 18 20 2 18 20 2 18 20 2 18 20 2 18 20 2 18 20 2 18 20 2 18 20 2 18 20 2 18 20 2 18 20 2 14 16 2 18 20 2 18 20 2 18 20 2 18 20 2 18 20 2 18 20 2 18 20 2 18 20 2 18 20 2 18 20 2 18 20 2 22 24 3 22 24 3 22 24 3 22 24 3 22 24 3 22 24 3 22 24 3 26 28 3 26 28 3 26 28 3 33 36 4 33 36 4 33 36 4 33 36 4 33 36 4 26 28 3 26 28 3 33 36 4 37 40 5 33 36 4 33 36 4 33 36 4 26 28 3 26 28 3 22 24 3 22 24 3 18 20 2 18 20 2 18 20 2 18 20 2 18 20 2 18 20 2 18 20 2 18 20 2 18 20 2 22 24 3 18 20 2 18 20 2 18 20 2 22 24 3 22 24 3 18 20 2 18 20 2 18 20 2 18 20 2 18 20 2 18 20 2 18 20 2 18 20 2 18 20 2 18 20 2 18 20 2 18 20 2 18 20 2 18 20 2 18 20 2 18 20 2 18 20 2 18 20 2 18 20 2 18 20 2 18 20 2 18 20 2 18 20 2 18 20 2 18 20 2 18 20 2 18 20 2 18 20 2 18 20 2 18 20 2 18 20 2 18 20 2 18 20 2 18 20 2 18 20 2 18 20 2 18 20 2 18 20 2 18 20 2 18 20 2 18 20 2 18 20 2 18 20 2 18 20 2 18 20 2 18 20 2 18 20 2 18 20 2 18 20 2 18 20 2 18 20 2 
18 20 2 18 20 2 18 20 2 18 20 2 18 20 2 18 20 2 18 20 2 18 20 2 18 20 2 18 20 2 18 20 2 18 20 2 18 20 2 18 20 2 18 20 2 18 20 2 18 20 2 18 20 2 18 20 2 18 20 2 18 20 2 18 20 2 18 20 2 18 20 2 18 20 2 18 20 2 18 20 2 18 20 2 18 20 2 18 20 2 18 20 2 18 20 2 18 20 2 18 20 2 18 20 2 18 20 2 18 20 2 18 20 2 18 20 2 18 20 2 18 20 2 18 20 2 18 20 2 18 20 2 18 20 2 18 20 2 18 20 2 18 20 2 18 20 2 18 20 2 18 20 2 18 20 2 18 20 2 18 20 2 18 20 2 18 20 2 18 20 2 18 20 2 18 20 2 18 20 2 18 20 2 18 20 2 18 20 2 18 20 2 18 20 2 18 20 2 18 20 2 18 20 2 18 20 2 18 20 2 18 20 2 18 20 2 18 20 2 18 20 2 18 20 2 18 20 2 18 20 2 18 20 2 18 20 2 18 20 2 18 20 2 18 20 2 18 20 2 18 20 2 18 20 2 18 20 2 18 20 2 18 20 2 18 20 2 18 20 2 18 20 2 18 20 2 18 20 2 18 20 2 18 20 2 18 20 2 18 20 2 18 20 2 18 20 2 18 20 2 18 20 2 18 20 2 18 20 2 18 20 2 18 20 2 18 20 2 18 20 2 18 20 2 18 20 2 18 20 2 18 20 2 18 20 2 18 20 2 18 20 2 18 20 2 18 20 2 14 16 2 18 20 2 18 20 2 18 20 2 18 20 2 18 20 2 18 20 2 18 20 2 18 20 2 18 20 2 18 20 2 18 20 2 22 24 3 22 24 3 22 24 3 22 24 3 22 24 3 22 24 3 22 24 3 26 28 3 26 28 3 26 28 3 33 36 4 33 36 4 33 36 4 33 36 4 33 36 4 26 28 3 26 28 3 33 36 4 37 40 5 33 36 4 33 36 4 33 36 4 26 28 3 26 28 3 22 24 3 22 24 3 18 20 2 18 20 2 18 20 2 18 20 2 18 20 2 18 20 2 18 20 2 18 20 2 18 20 2 22 24 3 18 20 2 18 20 2 18 20 2 22 24 3 22 24 3 18 20 2 18 20 2 18 20 2 18 20 2 18 20 2 18 20 2 18 20 2 18 20 2 18 20 2 18 20 2 18 20 2 18 20 2 18 20 2 18 20 2 18 20 2 18 20 2 18 20 2 18 20 2 18 20 2 18 20 2 18 20 2 18 20 2 18 20 2 18 20 2 18 20 2 18 20 2 18 20 2 18 20 2 18 20 2 18 20 2 18 20 2 18 20 2 18 20 2 18 20 2 18 20 2 18 20 2 18 20 2 18 20 2 18 20 2 18 20 2 18 20 2 18 20 2 18 20 2 18 20 2 18 20 2 18 20 2 18 20 2 18 20 2 18 20 2 18 20 2 18 20 2 
18 20 2 18 20 2 18 20 2 18 20 2 18 20 2 18 20 2 18 20 2 18 20 2 18 20 2 18 20 2 18 20 2 18 20 2 18 20 2 18 20 2 18 20 2 18 20 2 18 20 2 18 20 2 18 20 2 18 20 2 18 20 2 18 20 2 18 20 2 18 20 2 18 20 2 18 20 2 18 20 2 18 20 2 18 20 2 18 20 2 18 20 2 18 20 2 18 20 2 18 20 2 18 20 2 18 20 2 18 20 2 18 20 2 18 20 2 18 20 2 18 20 2 18 20 2 18 20 2 18 20 2 18 20 2 18 20 2 18 20 2 18 20 2 18 20 2 18 20 2 18 20 2 18 20 2 18 20 2 18 20 2 18 20 2 18 20 2 18 20 2 18 20 2 18 20 2 18 20 2 18 20 2 18 20 2 18 20 2 18 20 2 18 20 2 18 20 2 18 20 2 18 20 2 18 20 2 18 20 2 18 20 2 18 20 2 18 20 2 18 20 2 18 20 2 18 20 2 18 20 2 18 20 2 18 20 2 18 20 2 18 20 2 18 20 2 18 20 2 18 20 2 18 20 2 18 20 2 18 20 2 18 20 2 18 20 2 18 20 2 18 20 2 18 20 2 18 20 2 18 20 2 18 20 2 18 20 2 18 20 2 18 20 2 18 20 2 18 20 2 14 16 2 18 20 2 18 20 2 18 20 2 18 20 2 18 20 2 18 20 2 18 20 2 18 20 2 18 20 2 18 20 2 18 20 2 18 20 2 18 20 2 18 20 2 18 20 2 18 20 2 18 20 2 18 20 2 18 20 2 18 20 2 18 20 2 18 20 2 18 20 2 22 24 3 22 24 3 26 28 3 26 28 3 26 28 3 26 28 3 26 28 3 22 24 3 26 28 3 26 28 3 33 36 4 33 36 4 33 36 4 33 36 4 37 40 5 48 52 7 48 52 7 37 40 5 33 36 4 33 36 4 37 40 5 44 48 6 44 48 6 37 40 5 33 36 4 26 28 3 26 28 3 22 24 3 22 24 3 26 28 3 26 28 3 33 36 4 26 28 3 22 24 3 18 20 2 18 20 2 18 20 2 22 24 3 26 28 3 22 24 3 18 20 2 18 20 2 18 20 2 18 20 2 18 20 2 18 20 2 18 20 2 18 20 2 18 20 2 18 20 2 18 20 2 18 20 2 18 20 2 18 20 2 18 20 2 18 20 2 18 20 2 18 20 2 18 20 2 18 20 2 18 20 2 18 20 2 18 20 2 18 20 2 18 20 2 18 20 2 18 20 2 18 20 2 18 20 2 18 20 2 18 20 2 18 20 2 18 20 2 18 20 2 18 20 2 18 20 2 18 20 2 18 20 2 18 20 2 18 20 2 18 20 2 18 20 2 18 20 2 18 20 2 18 20 2 18 20 2 18 20 2 18 20 2 18 20 2 18 20 2 18 20 2 18 20 2 18 20 2 18 20 2 18 20 2 18 20 2 
18 20 2 18 20 2 18 20 2 18 20 2 18 20 2 18 20 2 18 20 2 18 20 2 18 20 2 18 20 2 18 20 2 18 20 2 18 20 2 18 20 2 18 20 2 18 20 2 18 20 2 18 20 2 18 20 2 18 20 2 18 20 2 18 20 2 18 20 2 18 20 2 18 20 2 18 20 2 18 20 2 18 20 2 18 20 2 18 20 2 18 20 2 18 20 2 18 20 2 18 20 2 18 20 2 18 20 2 18 20 2 18 20 2 18 20 2 18 20 2 18 20 2 18 20 2 18 20 2 18 20 2 18 20 2 18 20 2 18 20 2 18 20 2 18 20 2 18 20 2 18 20 2 18 20 2 18 20 2 18 20 2 18 20 2 18 20 2 18 20 2 18 20 2 18 20 2 18 20 2 18 20 2 18 20 2 18 20 2 18 20 2 18 20 2 18 20 2 18 20 2 18 20 2 18 20 2 18 20 2 18 20 2 18 20 2 18 20 2 18 20 2 18 20 2 18 20 2 18 20 2 18 20 2 18 20 2 18 20 2 18 20 2 18 20 2 18 20 2 18 20 2 18 20 2 18 20 2 18 20 2 18 20 2 18 20 2 18 20 2 18 20 2 18 20 2 18 20 2 18 20 2 18 20 2 18 20 2 18 20 2 18 20 2 18 20 2 18 20 2 14 16 2 18 20 2 18 20 2 18 20 2 18 20 2 18 20 2 18 20 2 18 20 2 18 20 2 18 20 2 18 20 2 18 20 2 18 20 2 18 20 2 18 20 2 18 20 2 18 20 2 18 20 2 18 20 2 18 20 2 18 20 2 18 20 2 18 20 2 18 20 2 22 24 3 22 24 3 26 28 3 26 28 3 26 28 3 26 28 3 26 28 3 22 24 3 26 28 3 26 28 3 33 36 4 33 36 4 33 36 4 33 36 4 37 40 5 48 52 7 48 52 7 37 40 5 33 36 4 33 36 4 37 40 5 44 48 6 44 48 6 37 40 5 33 36 4 26 28 3 26 28 3 22 24 3 22 24 3 26 28 3 26 28 3 33 36 4 26 28 3 22 24 3 18 20 2 18 20 2 18 20 2 22 24 3 26 28 3 22 24 3 18 20 2 18 20 2 18 20 2 18 20 2 18 20 2 18 20 2 18 20 2 18 20 2 18 20 2 18 20 2 18 20 2 18 20 2 18 20 2 18 20 2 18 20 2 18 20 2 18 20 2 18 20 2 18 20 2 18 20 2 18 20 2 18 20 2 18 20 2 18 20 2 18 20 2 18 20 2 18 20 2 18 20 2 18 20 2 18 20 2 18 20 2 18 20 2 18 20 2 18 20 2 18 20 2 18 20 2 18 20 2 18 20 2 18 20 2 18 20 2 18 20 2 18 20 2 18 20 2 18 20 2 18 20 2 18 20 2 18 20 2 18 20 2 18 20 2 18 20 2 18 20 2 18 20 2 18 20 2 18 20 2 18 20 2 18 20 2 
18 20 2 18 20 2 18 20 2 18 20 2 18 20 2 18 20 2 18 20 2 18 20 2 18 20 2 18 20 2 18 20 2 18 20 2 18 20 2 18 20 2 18 20 2 18 20 2 18 20 2 18 20 2 18 20 2 18 20 2 18 20 2 18 20 2 18 20 2 18 20 2 18 20 2 18 20 2 18 20 2 18 20 2 18 20 2 18 20 2 18 20 2 18 20 2 18 20 2 18 20 2 18 20 2 18 20 2 18 20 2 18 20 2 18 20 2 18 20 2 18 20 2 18 20 2 18 20 2 18 20 2 18 20 2 18 20 2 18 20 2 18 20 2 18 20 2 18 20 2 18 20 2 18 20 2 18 20 2 18 20 2 18 20 2 18 20 2 18 20 2 18 20 2 18 20 2 18 20 2 18 20 2 18 20 2 18 20 2 18 20 2 18 20 2 18 20 2 18 20 2 18 20 2 18 20 2 18 20 2 18 20 2 18 20 2 18 20 2 18 20 2 18 20 2 18 20 2 18 20 2 18 20 2 18 20 2 18 20 2 18 20 2 18 20 2 18 20 2 18 20 2 18 20 2 18 20 2 18 20 2 18 20 2 18 20 2 18 20 2 18 20 2 18 20 2 18 20 2 18 20 2 18 20 2 18 20 2 18 20 2 18 20 2 18 20 2 18 20 2 18 20 2 18 20 2 18 20 2 18 20 2 18 20 2 18 20 2 18 20 2 18 20 2 18 20 2 18 20 2 18 20 2 18 20 2 18 20 2 18 20 2 18 20 2 18 20 2 18 20 2 18 20 2 18 20 2 22 24 3 22 24 3 22 24 3 22 24 3 22 24 3 26 28 3 33 36 4 33 36 4 26 28 3 26 28 3 33 36 4 33 36 4 33 36 4 37 40 5 44 48 6 59 65 8 93 101 13 59 65 8 37 40 5 33 36 4 37 40 5 48 52 7 44 48 6 26 28 3 22 24 3 26 28 3 33 36 4 26 28 3 26 28 3 26 28 3 22 24 3 22 24 3 26 28 3 26 28 3 37 40 5 37 40 5 33 36 4 33 36 4 26 28 3 33 36 4 33 36 4 33 36 4 22 24 3 18 20 2 18 20 2 22 24 3 18 20 2 18 20 2 18 20 2 18 20 2 18 20 2 18 20 2 22 24 3 22 24 3 18 20 2 18 20 2 18 20 2 18 20 2 18 20 2 18 20 2 18 20 2 18 20 2 18 20 2 18 20 2 18 20 2 18 20 2 18 20 2 18 20 2 18 20 2 18 20 2 18 20 2 18 20 2 18 20 2 18 20 2 18 20 2 18 20 2 18 20 2 18 20 2 18 20 2 18 20 2 18 20 2 18 20 2 18 20 2 18 20 2 18 20 2 18 20 2 18 20 2 18 20 2 18 20 2 18 20 2 18 20 2 18 20 2 18 20 2 18 20 2 18 20 2 18 20 2 18 20 2 18 20 2 18 20 2 18 20 2 18 20 2 
18 20 2 18 20 2 18 20 2 18 20 2 18 20 2 18 20 2 18 20 2 18 20 2 18 20 2 18 20 2 18 20 2 18 20 2 18 20 2 18 20 2 18 20 2 18 20 2 18 20 2 18 20 2 18 20 2 18 20 2 18 20 2 18 20 2 18 20 2 18 20 2 18 20 2 18 20 2 18 20 2 18 20 2 18 20 2 18 20 2 18 20 2 18 20 2 18 20 2 18 20 2 18 20 2 18 20 2 18 20 2 18 20 2 18 20 2 18 20 2 18 20 2 18 20 2 18 20 2 18 20 2 18 20 2 18 20 2 18 20 2 18 20 2 18 20 2 18 20 2 18 20 2 18 20 2 18 20 2 18 20 2 18 20 2 18 20 2 18 20 2 18 20 2 18 20 2 18 20 2 18 20 2 18 20 2 18 20 2 18 20 2 18 20 2 18 20 2 18 20 2 18 20 2 18 20 2 18 20 2 18 20 2 18 20 2 18 20 2 18 20 2 18 20 2 18 20 2 18 20 2 18 20 2 18 20 2 18 20 2 18 20 2 18 20 2 18 20 2 18 20 2 18 20 2 18 20 2 18 20 2 18 20 2 18 20 2 18 20 2 18 20 2 18 20 2 18 20 2 18 20 2 18 20 2 18 20 2 18 20 2 18 20 2 18 20 2 18 20 2 18 20 2 18 20 2 18 20 2 18 20 2 18 20 2 18 20 2 18 20 2 18 20 2 18 20 2 18 20 2 18 20 2 18 20 2 18 20 2 18 20 2 18 20 2 18 20 2 18 20 2 18 20 2 18 20 2 22 24 3 22 24 3 22 24 3 22 24 3 22 24 3 26 28 3 33 36 4 33 36 4 26 28 3 26 28 3 33 36 4 33 36 4 33 36 4 37 40 5 44 48 6 59 65 8 93 101 13 59 65 8 37 40 5 33 36 4 37 40 5 48 52 7 44 48 6 26 28 3 22 24 3 26 28 3 33 36 4 26 28 3 26 28 3 26 28 3 22 24 3 22 24 3 26 28 3 26 28 3 37 40 5 37 40 5 33 36 4 33 36 4 26 28 3 33 36 4 33 36 4 33 36 4 22 24 3 18 20 2 18 20 2 22 24 3 18 20 2 18 20 2 18 20 2 18 20 2 18 20 2 18 20 2 22 24 3 22 24 3 18 20 2 18 20 2 18 20 2 18 20 2 18 20 2 18 20 2 18 20 2 18 20 2 18 20 2 18 20 2 18 20 2 18 20 2 18 20 2 18 20 2 18 20 2 18 20 2 18 20 2 18 20 2 18 20 2 18 20 2 18 20 2 18 20 2 18 20 2 18 20 2 18 20 2 18 20 2 18 20 2 18 20 2 18 20 2 18 20 2 18 20 2 18 20 2 18 20 2 18 20 2 18 20 2 18 20 2 18 20 2 18 20 2 18 20 2 18 20 2 18 20 2 18 20 2 18 20 2 18 20 2 18 20 2 18 20 2 18 20 2 
18 20 2 18 20 2 18 20 2 18 20 2 18 20 2 18 20 2 18 20 2 18 20 2 18 20 2 18 20 2 18 20 2 18 20 2 18 20 2 18 20 2 18 20 2 18 20 2 18 20 2 18 20 2 18 20 2 18 20 2 18 20 2 18 20 2 18 20 2 18 20 2 18 20 2 18 20 2 18 20 2 18 20 2 18 20 2 18 20 2 18 20 2 18 20 2 18 20 2 18 20 2 18 20 2 18 20 2 18 20 2 18 20 2 18 20 2 18 20 2 18 20 2 18 20 2 18 20 2 18 20 2 18 20 2 18 20 2 18 20 2 18 20 2 18 20 2 18 20 2 18 20 2 18 20 2 18 20 2 18 20 2 18 20 2 18 20 2 18 20 2 18 20 2 18 20 2 18 20 2 18 20 2 18 20 2 18 20 2 18 20 2 18 20 2 18 20 2 18 20 2 18 20 2 18 20 2 18 20 2 18 20 2 18 20 2 18 20 2 18 20 2 18 20 2 18 20 2 18 20 2 18 20 2 18 20 2 18 20 2 18 20 2 18 20 2 18 20 2 18 20 2 18 20 2 18 20 2 18 20 2 18 20 2 18 20 2 18 20 2 18 20 2 14 16 2 14 16 2 18 20 2 18 20 2 18 20 2 18 20 2 18 20 2 18 20 2 18 20 2 18 20 2 18 20 2 18 20 2 18 20 2 18 20 2 18 20 2 18 20 2 18 20 2 18 20 2 18 20 2 18 20 2 18 20 2 18 20 2 18 20 2 18 20 2 22 24 3 22 24 3 22 24 3 22 24 3 26 28 3 33 36 4 33 36 4 26 28 3 26 28 3 33 36 4 37 40 5 33 36 4 26 28 3 44 48 6 56 60 8 48 52 7 37 40 5 37 40 5 59 65 8 63 69 9 56 60 8 37 40 5 26 28 3 26 28 3 48 52 7 56 60 8 37 40 5 22 24 3 18 20 2 26 28 3 37 40 5 44 48 6 37 40 5 33 36 4 44 48 6 63 69 9 93 101 13 89 97 13 48 52 7 44 48 6 33 36 4 37 40 5 33 36 4 33 36 4 26 28 3 22 24 3 26 28 3 26 28 3 22 24 3 18 20 2 22 24 3 18 20 2 18 20 2 22 24 3 22 24 3 26 28 3 26 28 3 18 20 2 18 20 2 18 20 2 18 20 2 18 20 2 18 20 2 18 20 2 18 20 2 18 20 2 18 20 2 18 20 2 18 20 2 18 20 2 18 20 2 18 20 2 18 20 2 18 20 2 18 20 2 18 20 2 18 20 2 18 20 2 18 20 2 18 20 2 18 20 2 18 20 2 18 20 2 18 20 2 18 20 2 18 20 2 18 20 2 18 20 2 18 20 2 18 20 2 18 20 2 18 20 2 18 20 2 18 20 2 18 20 2 18 20 2 18 20 2 18 20 2 18 20 2 18 20 2 18 20 2 18 20 2 18 20 2 18 20 2 18 20 2 
18 20 2 18 20 2 18 20 2 18 20 2 18 20 2 18 20 2 18 20 2 18 20 2 18 20 2 18 20 2 18 20 2 18 20 2 18 20 2 18 20 2 18 20 2 18 20 2 18 20 2 18 20 2 18 20 2 18 20 2 18 20 2 18 20 2 18 20 2 18 20 2 18 20 2 18 20 2 18 20 2 18 20 2 18 20 2 18 20 2 18 20 2 18 20 2 18 20 2 18 20 2 18 20 2 18 20 2 18 20 2 18 20 2 18 20 2 18 20 2 18 20 2 18 20 2 18 20 2 18 20 2 18 20 2 18 20 2 18 20 2 18 20 2 18 20 2 18 20 2 18 20 2 18 20 2 18 20 2 18 20 2 18 20 2 18 20 2 18 20 2 18 20 2 18 20 2 18 20 2 18 20 2 18 20 2 18 20 2 18 20 2 18 20 2 18 20 2 18 20 2 18 20 2 18 20 2 18 20 2 18 20 2 18 20 2 18 20 2 18 20 2 18 20 2 18 20 2 18 20 2 18 20 2 18 20 2 18 20 2 18 20 2 18 20 2 18 20 2 18 20 2 18 20 2 18 20 2 18 20 2 18 20 2 18 20 2 18 20 2 18 20 2 14 16 2 14 16 2 18 20 2 18 20 2 18 20 2 18 20 2 18 20 2 18 20 2 18 20 2 18 20 2 18 20 2 18 20 2 18 20 2 18 20 2 18 20 2 18 20 2 18 20 2 18 20 2 18 20 2 18 20 2 18 20 2 18 20 2 18 20 2 18 20 2 22 24 3 22 24 3 22 24 3 22 24 3 26 28 3 33 36 4 33 36 4 26 28 3 26 28 3 33 36 4 37 40 5 33 36 4 26 28 3 44 48 6 56 60 8 48 52 7 37 40 5 37 40 5 59 65 8 63 69 9 56 60 8 37 40 5 26 28 3 26 28 3 48 52 7 56 60 8 37 40 5 22 24 3 18 20 2 26 28 3 37 40 5 44 48 6 37 40 5 33 36 4 44 48 6 63 69 9 93 101 13 89 97 13 48 52 7 44 48 6 33 36 4 37 40 5 33 36 4 33 36 4 26 28 3 22 24 3 26 28 3 26 28 3 22 24 3 18 20 2 22 24 3 18 20 2 18 20 2 22 24 3 22 24 3 26 28 3 26 28 3 18 20 2 18 20 2 18 20 2 18 20 2 18 20 2 18 20 2 18 20 2 18 20 2 18 20 2 18 20 2 18 20 2 18 20 2 18 20 2 18 20 2 18 20 2 18 20 2 18 20 2 18 20 2 18 20 2 18 20 2 18 20 2 18 20 2 18 20 2 18 20 2 18 20 2 18 20 2 18 20 2 18 20 2 18 20 2 18 20 2 18 20 2 18 20 2 18 20 2 18 20 2 18 20 2 18 20 2 18 20 2 18 20 2 18 20 2 18 20 2 18 20 2 18 20 2 18 20 2 18 20 2 18 20 2 18 20 2 18 20 2 18 20 2 
18 20 2 18 20 2 18 20 2 18 20 2 18 20 2 18 20 2 18 20 2 18 20 2 18 20 2 18 20 2 18 20 2 18 20 2 18 20 2 18 20 2 18 20 2 18 20 2 18 20 2 18 20 2 18 20 2 18 20 2 18 20 2 18 20 2 18 20 2 18 20 2 18 20 2 18 20 2 18 20 2 18 20 2 18 20 2 18 20 2 18 20 2 18 20 2 18 20 2 18 20 2 18 20 2 18 20 2 18 20 2 18 20 2 18 20 2 18 20 2 18 20 2 18 20 2 18 20 2 18 20 2 18 20 2 18 20 2 18 20 2 18 20 2 18 20 2 18 20 2 18 20 2 18 20 2 18 20 2 18 20 2 18 20 2 18 20 2 18 20 2 18 20 2 18 20 2 18 20 2 18 20 2 18 20 2 18 20 2 18 20 2 18 20 2 18 20 2 18 20 2 18 20 2 18 20 2 18 20 2 18 20 2 18 20 2 18 20 2 18 20 2 18 20 2 18 20 2 18 20 2 18 20 2 18 20 2 18 20 2 18 20 2 18 20 2 18 20 2 18 20 2 18 20 2 18 20 2 18 20 2 14 16 2 18 20 2 18 20 2 18 20 2 18 20 2 18 20 2 18 20 2 18 20 2 18 20 2 18 20 2 18 20 2 18 20 2 18 20 2 22 24 3 18 20 2 18 20 2 18 20 2 18 20 2 18 20 2 18 20 2 18 20 2 18 20 2 18 20 2 18 20 2 18 20 2 22 24 3 26 28 3 33 36 4 33 36 4 33 36 4 26 28 3 37 40 5 59 65 8 93 101 13 93 101 13 89 97 13 123 134 18 172 186 25 184 197 50 157 170 23 157 170 23 168 182 24 157 170 23 138 150 20 157 170 23 202 212 103 181 195 40 146 158 21 149 162 22 134 146 19 134 146 19 138 150 20 138 150 20 177 192 30 157 170 23 138 150 20 101 109 14 63 69 9 127 138 18 101 109 14 59 65 8 56 60 8 89 97 13 123 134 18 89 97 13 56 60 8 59 65 8 56 60 8 44 48 6 48 52 7 48 52 7 44 48 6 33 36 4 26 28 3 37 40 5 37 40 5 37 40 5 44 48 6 37 40 5 33 36 4 33 36 4 26 28 3 26 28 3 26 28 3 22 24 3 22 24 3 22 24 3 22 24 3 18 20 2 18 20 2 18 20 2 18 20 2 18 20 2 18 20 2 18 20 2 18 20 2 18 20 2 18 20 2 18 20 2 18 20 2 18 20 2 18 20 2 18 20 2 18 20 2 18 20 2 18 20 2 18 20 2 18 20 2 18 20 2 18 20 2 18 20 2 18 20 2 18 20 2 18 20 2 18 20 2 18 20 2 18 20 2 18 20 2 18 20 2 18 20 2 18 20 2 18 20 2 18 20 2 18 20 2 18 20 2 18 20 2 18 20 2 18 20 2 18 20 2 18 20 2 18 20 2 18 20 2 18 20 2 
18 20 2 18 20 2 18 20 2 18 20 2 18 20 2 18 20 2 18 20 2 18 20 2 18 20 2 18 20 2 18 20 2 18 20 2 18 20 2 18 20 2 18 20 2 18 20 2 18 20 2 18 20 2 18 20 2 18 20 2 18 20 2 18 20 2 18 20 2 18 20 2 18 20 2 18 20 2 18 20 2 18 20 2 18 20 2 18 20 2 18 20 2 18 20 2 18 20 2 18 20 2 18 20 2 18 20 2 18 20 2 18 20 2 18 20 2 18 20 2 18 20 2 18 20 2 18 20 2 18 20 2 18 20 2 18 20 2 18 20 2 18 20 2 18 20 2 18 20 2 18 20 2 18 20 2 18 20 2 18 20 2 18 20 2 18 20 2 18 20 2 18 20 2 18 20 2 18 20 2 18 20 2 18 20 2 18 20 2 18 20 2 18 20 2 18 20 2 18 20 2 18 20 2 18 20 2 18 20 2 18 20 2 18 20 2 18 20 2 18 20 2 18 20 2 18 20 2 18 20 2 18 20 2 18 20 2 18 20 2 18 20 2 18 20 2 18 20 2 18 20 2 18 20 2 18 20 2 18 20 2 14 16 2 18 20 2 18 20 2 18 20 2 18 20 2 18 20 2 18 20 2 18 20 2 18 20 2 18 20 2 18 20 2 18 20 2 18 20 2 22 24 3 18 20 2 18 20 2 18 20 2 18 20 2 18 20 2 18 20 2 18 20 2 18 20 2 18 20 2 18 20 2 18 20 2 22 24 3 26 28 3 33 36 4 33 36 4 33 36 4 26 28 3 37 40 5 59 65 8 93 101 13 93 101 13 89 97 13 123 134 18 172 186 25 184 197 50 157 170 23 157 170 23 168 182 24 157 170 23 138 150 20 157 170 23 202 212 103 181 195 40 146 158 21 149 162 22 134 146 19 134 146 19 138 150 20 138 150 20 177 192 30 157 170 23 138 150 20 101 109 14 63 69 9 127 138 18 101 109 14 59 65 8 56 60 8 89 97 13 123 134 18 89 97 13 56 60 8 59 65 8 56 60 8 44 48 6 48 52 7 48 52 7 44 48 6 33 36 4 26 28 3 37 40 5 37 40 5 37 40 5 44 48 6 37 40 5 33 36 4 33 36 4 26 28 3 26 28 3 26 28 3 22 24 3 22 24 3 22 24 3 22 24 3 18 20 2 18 20 2 18 20 2 18 20 2 18 20 2 18 20 2 18 20 2 18 20 2 18 20 2 18 20 2 18 20 2 18 20 2 18 20 2 18 20 2 18 20 2 18 20 2 18 20 2 18 20 2 18 20 2 18 20 2 18 20 2 18 20 2 18 20 2 18 20 2 18 20 2 18 20 2 18 20 2 18 20 2 18 20 2 18 20 2 18 20 2 18 20 2 18 20 2 18 20 2 18 20 2 18 20 2 18 20 2 18 20 2 18 20 2 18 20 2 18 20 2 18 20 2 18 20 2 18 20 2 18 20 2 
18 20 2 18 20 2 18 20 2 18 20 2 18 20 2 18 20 2 18 20 2 18 20 2 18 20 2 18 20 2 18 20 2 18 20 2 18 20 2 18 20 2 18 20 2 18 20 2 18 20 2 18 20 2 18 20 2 18 20 2 18 20 2 18 20 2 18 20 2 18 20 2 18 20 2 18 20 2 18 20 2 18 20 2 18 20 2 18 20 2 18 20 2 18 20 2 18 20 2 18 20 2 18 20 2 18 20 2 18 20 2 18 20 2 18 20 2 18 20 2 18 20 2 18 20 2 18 20 2 18 20 2 18 20 2 18 20 2 18 20 2 18 20 2 18 20 2 18 20 2 18 20 2 18 20 2 18 20 2 18 20 2 18 20 2 18 20 2 18 20 2 18 20 2 18 20 2 18 20 2 18 20 2 18 20 2 18 20 2 18 20 2 18 20 2 18 20 2 18 20 2 18 20 2 18 20 2 18 20 2 18 20 2 18 20 2 18 20 2 18 20 2 18 20 2 18 20 2 18 20 2 18 20 2 18 20 2 18 20 2 18 20 2 18 20 2 18 20 2 18 20 2 18 20 2 18 20 2 18 20 2 18 20 2 18 20 2 18 20 2 18 20 2 18 20 2 18 20 2 18 20 2 18 20 2 18 20 2 18 20 2 18 20 2 22 24 3 22 24 3 22 24 3 22 24 3 18 20 2 18 20 2 22 24 3 22 24 3 22 24 3 22 24 3 22 24 3 22 24 3 26 28 3 26 28 3 33 36 4 44 48 6 59 65 8 101 109 14 134 146 19 189 201 64 214 222 138 186 199 55 184 197 50 177 192 30 153 166 22 138 150 20 101 109 14 146 158 21 138 150 20 134 146 19 108 117 16 93 101 13 63 69 9 89 97 13 89 97 13 59 65 8 56 60 8 48 52 7 33 36 4 56 60 8 89 97 13 101 109 14 93 101 13 63 69 9 63 69 9 56 60 8 48 52 7 37 40 5 123 134 18 153 166 22 146 158 21 134 146 19 89 97 13 59 65 8 108 117 16 108 117 16 93 101 13 101 109 14 89 97 13 59 65 8 59 65 8 101 109 14 63 69 9 44 48 6 44 48 6 48 52 7 48 52 7 37 40 5 26 28 3 26 28 3 26 28 3 22 24 3 18 20 2 26 28 3 26 28 3 22 24 3 18 20 2 18 20 2 18 20 2 18 20 2 18 20 2 18 20 2 18 20 2 18 20 2 18 20 2 18 20 2 18 20 2 18 20 2 18 20 2 18 20 2 18 20 2 18 20 2 18 20 2 18 20 2 18 20 2 18 20 2 18 20 2 18 20 2 18 20 2 18 20 2 18 20 2 18 20 2 18 20 2 18 20 2 18 20 2 18 20 2 18 20 2 18 20 2 18 20 2 18 20 2 18 20 2 18 20 2 18 20 2 18 20 2 18 20 2 18 20 2 18 20 2 18 20 2 18 20 2 18 20 2 18 20 2 18 20 2 
18 20 2 18 20 2 18 20 2 18 20 2 18 20 2 18 20 2 18 20 2 18 20 2 18 20 2 18 20 2 18 20 2 18 20 2 18 20 2 18 20 2 18 20 2 18 20 2 18 20 2 18 20 2 18 20 2 18 20 2 18 20 2 18 20 2 18 20 2 18 20 2 18 20 2 18 20 2 18 20 2 18 20 2 18 20 2 18 20 2 18 20 2 18 20 2 18 20 2 18 20 2 18 20 2 18 20 2 18 20 2 18 20 2 18 20 2 18 20 2 18 20 2 18 20 2 18 20 2 18 20 2 18 20 2 18 20 2 18 20 2 18 20 2 18 20 2 18 20 2 18 20 2 18 20 2 18 20 2 18 20 2 18 20 2 18 20 2 18 20 2 18 20 2 18 20 2 18 20 2 18 20 2 18 20 2 18 20 2 18 20 2 18 20 2 18 20 2 18 20 2 18 20 2 18 20 2 18 20 2 18 20 2 18 20 2 18 20 2 18 20 2 18 20 2 18 20 2 18 20 2 18 20 2 18 20 2 18 20 2 18 20 2 18 20 2 18 20 2 18 20 2 18 20 2 18 20 2 18 20 2 18 20 2 18 20 2 18 20 2 18 20 2 18 20 2 18 20 2 18 20 2 18 20 2 18 20 2 18 20 2 18 20 2 22 24 3 22 24 3 22 24 3 22 24 3 18 20 2 18 20 2 22 24 3 22 24 3 22 24 3 22 24 3 22 24 3 22 24 3 26 28 3 26 28 3 33 36 4 44 48 6 59 65 8 101 109 14 134 146 19 189 201 64 214 222 138 186 199 55 184 197 50 177 192 30 153 166 22 138 150 20 101 109 14 146 158 21 138 150 20 134 146 19 108 117 16 93 101 13 63 69 9 89 97 13 89 97 13 59 65 8 56 60 8 48 52 7 33 36 4 56 60 8 89 97 13 101 109 14 93 101 13 63 69 9 63 69 9 56 60 8 48 52 7 37 40 5 123 134 18 153 166 22 146 158 21 134 146 19 89 97 13 59 65 8 108 117 16 108 117 16 93 101 13 101 109 14 89 97 13 59 65 8 59 65 8 101 109 14 63 69 9 44 48 6 44 48 6 48 52 7 48 52 7 37 40 5 26 28 3 26 28 3 26 28 3 22 24 3 18 20 2 26 28 3 26 28 3 22 24 3 18 20 2 18 20 2 18 20 2 18 20 2 18 20 2 18 20 2 18 20 2 18 20 2 18 20 2 18 20 2 18 20 2 18 20 2 18 20 2 18 20 2 18 20 2 18 20 2 18 20 2 18 20 2 18 20 2 18 20 2 18 20 2 18 20 2 18 20 2 18 20 2 18 20 2 18 20 2 18 20 2 18 20 2 18 20 2 18 20 2 18 20 2 18 20 2 18 20 2 18 20 2 18 20 2 18 20 2 18 20 2 18 20 2 18 20 2 18 20 2 18 20 2 18 20 2 18 20 2 18 20 2 18 20 2 18 20 2 
18 20 2 18 20 2 18 20 2 18 20 2 18 20 2 18 20 2 18 20 2 18 20 2 18 20 2 18 20 2 18 20 2 18 20 2 18 20 2 18 20 2 18 20 2 18 20 2 18 20 2 18 20 2 18 20 2 18 20 2 18 20 2 18 20 2 18 20 2 18 20 2 18 20 2 18 20 2 18 20 2 18 20 2 18 20 2 18 20 2 18 20 2 18 20 2 18 20 2 18 20 2 18 20 2 18 20 2 18 20 2 18 20 2 18 20 2 18 20 2 18 20 2 18 20 2 18 20 2 18 20 2 18 20 2 18 20 2 18 20 2 18 20 2 18 20 2 18 20 2 18 20 2 18 20 2 18 20 2 18 20 2 18 20 2 18 20 2 18 20 2 18 20 2 18 20 2 18 20 2 18 20 2 18 20 2 18 20 2 18 20 2 18 20 2 18 20 2 18 20 2 18 20 2 18 20 2 18 20 2 18 20 2 18 20 2 18 20 2 18 20 2 18 20 2 18 20 2 18 20 2 18 20 2 18 20 2 18 20 2 18 20 2 18 20 2 18 20 2 18 20 2 18 20 2 18 20 2 18 20 2 18 20 2 18 20 2 18 20 2 18 20 2 18 20 2 18 20 2 18 20 2 18 20 2 18 20 2 22 24 3 22 24 3 22 24 3 22 24 3 22 24 3 22 24 3 22 24 3 22 24 3 22 24 3 26 28 3 26 28 3 33 36 4 33 36 4 138 150 20 186 199 55 142 154 21 194 205 79 206 215 113 206 215 113 134 146 19 138 150 20 123 134 18 63 69 9 56 60 8 59 65 8 48 52 7 44 48 6 44 48 6 37 40 5 37 40 5 37 40 5 33 36 4 33 36 4 33 36 4 26 28 3 26 28 3 26 28 3 26 28 3 26 28 3 33 36 4 26 28 3 26 28 3 22 24 3 26 28 3 33 36 4 26 28 3 26 28 3 22 24 3 26 28 3 33 36 4 33 36 4 44 48 6 44 48 6 44 48 6 44 48 6 37 40 5 26 28 3 56 60 8 142 154 21 108 117 16 56 60 8 37 40 5 33 36 4 26 28 3 33 36 4 48 52 7 33 36 4 26 28 3 26 28 3 22 24 3 44 48 6 44 48 6 26 28 3 18 20 2 14 16 2 18 20 2 18 20 2 18 20 2 14 16 2 18 20 2 14 16 2 14 16 2 14 16 2 18 20 2 18 20 2 18 20 2 18 20 2 18 20 2 18 20 2 18 20 2 18 20 2 18 20 2 18 20 2 18 20 2 18 20 2 18 20 2 18 20 2 18 20 2 18 20 2 18 20 2 18 20 2 18 20 2 18 20 2 18 20 2 18 20 2 18 20 2 18 20 2 18 20 2 18 20 2 18 20 2 18 20 2 18 20 2 18 20 2 18 20 2 18 20 2 18 20 2 18 20 2 18 20 2 18 20 2 18 20 2 18 20 2 18 20 2 18 20 2 18 20 2 
18 20 2 18 20 2 18 20 2 18 20 2 18 20 2 18 20 2 18 20 2 18 20 2 18 20 2 18 20 2 18 20 2 18 20 2 18 20 2 18 20 2 18 20 2 18 20 2 18 20 2 18 20 2 18 20 2 18 20 2 18 20 2 18 20 2 18 20 2 18 20 2 18 20 2 18 20 2 18 20 2 18 20 2 18 20 2 18 20 2 18 20 2 18 20 2 18 20 2 18 20 2 18 20 2 18 20 2 18 20 2 18 20 2 18 20 2 18 20 2 18 20 2 18 20 2 18 20 2 18 20 2 18 20 2 18 20 2 18 20 2 18 20 2 18 20 2 18 20 2 18 20 2 18 20 2 18 20 2 18 20 2 18 20 2 18 20 2 18 20 2 18 20 2 18 20 2 18 20 2 18 20 2 18 20 2 18 20 2 18 20 2 18 20 2 18 20 2 18 20 2 18 20 2 18 20 2 18 20 2 18 20 2 18 20 2 18 20 2 18 20 2 18 20 2 18 20 2 18 20 2 18 20 2 18 20 2 18 20 2 18 20 2 18 20 2 18 20 2 18 20 2 18 20 2 18 20 2 18 20 2 18 20 2 18 20 2 18 20 2 18 20 2 18 20 2 18 20 2 18 20 2 18 20 2 18 20 2 22 24 3 22 24 3 22 24 3 22 24 3 22 24 3 22 24 3 22 24 3 22 24 3 22 24 3 26 28 3 26 28 3 33 36 4 33 36 4 138 150 20 186 199 55 142 154 21 194 205 79 206 215 113 206 215 113 134 146 19 138 150 20 123 134 18 63 69 9 56 60 8 59 65 8 48 52 7 44 48 6 44 48 6 37 40 5 37 40 5 37 40 5 33 36 4 33 36 4 33 36 4 26 28 3 26 28 3 26 28 3 26 28 3 26 28 3 33 36 4 26 28 3 26 28 3 22 24 3 26 28 3 33 36 4 26 28 3 26 28 3 22 24 3 26 28 3 33 36 4 33 36 4 44 48 6 44 48 6 44 48 6 44 48 6 37 40 5 26 28 3 56 60 8 142 154 21 108 117 16 56 60 8 37 40 5 33 36 4 26 28 3 33 36 4 48 52 7 33 36 4 26 28 3 26 28 3 22 24 3 44 48 6 44 48 6 26 28 3 18 20 2 14 16 2 18 20 2 18 20 2 18 20 2 14 16 2 18 20 2 14 16 2 14 16 2 14 16 2 18 20 2 18 20 2 18 20 2 18 20 2 18 20 2 18 20 2 18 20 2 18 20 2 18 20 2 18 20 2 18 20 2 18 20 2 18 20 2 18 20 2 18 20 2 18 20 2 18 20 2 18 20 2 18 20 2 18 20 2 18 20 2 18 20 2 18 20 2 18 20 2 18 20 2 18 20 2 18 20 2 18 20 2 18 20 2 18 20 2 18 20 2 18 20 2 18 20 2 18 20 2 18 20 2 18 20 2 18 20 2 18 20 2 18 20 2 18 20 2 18 20 2 
18 20 2 18 20 2 18 20 2 18 20 2 18 20 2 18 20 2 18 20 2 18 20 2 18 20 2 18 20 2 18 20 2 18 20 2 18 20 2 18 20 2 18 20 2 18 20 2 18 20 2 18 20 2 18 20 2 18 20 2 18 20 2 18 20 2 18 20 2 18 20 2 18 20 2 18 20 2 18 20 2 18 20 2 18 20 2 18 20 2 18 20 2 18 20 2 18 20 2 18 20 2 18 20 2 18 20 2 18 20 2 18 20 2 18 20 2 18 20 2 18 20 2 18 20 2 18 20 2 18 20 2 18 20 2 18 20 2 18 20 2 18 20 2 18 20 2 18 20 2 18 20 2 18 20 2 18 20 2 18 20 2 18 20 2 18 20 2 18 20 2 18 20 2 18 20 2 18 20 2 18 20 2 18 20 2 18 20 2 18 20 2 18 20 2 18 20 2 18 20 2 18 20 2 18 20 2 18 20 2 18 20 2 18 20 2 18 20 2 18 20 2 18 20 2 18 20 2 18 20 2 18 20 2 18 20 2 18 20 2 18 20 2 18 20 2 14 16 2 18 20 2 18 20 2 18 20 2 18 20 2 18 20 2 18 20 2 18 20 2 18 20 2 18 20 2 18 20 2 18 20 2 18 20 2 22 24 3 22 24 3 22 24 3 22 24 3 22 24 3 22 24 3 22 24 3 26 28 3 33 36 4 33 36 4 48 52 7 153 166 22 211 219 128 224 230 167 224 230 167 194 205 79 157 170 23 138 150 20 63 69 9 37 40 5 37 40 5 44 48 6 44 48 6 44 48 6 33 36 4 26 28 3 22 24 3 18 20 2 18 20 2 18 20 2 14 16 2 14 16 2 14 16 2 14 16 2 14 16 2 14 16 2 14 16 2 14 16 2 14 16 2 14 16 2 14 16 2 14 16 2 18 20 2 18 20 2 18 20 2 18 20 2 22 24 3 37 40 5 33 36 4 18 20 2 18 20 2 18 20 2 22 24 3 22 24 3 22 24 3 22 24 3 18 20 2 18 20 2 22 24 3 26 28 3 22 24 3 22 24 3 18 20 2 18 20 2 18 20 2 26 28 3 26 28 3 22 24 3 18 20 2 18 20 2 18 20 2 18 20 2 18 20 2 18 20 2 14 16 2 14 16 2 18 20 2 14 16 2 14 16 2 18 20 2 14 16 2 14 16 2 18 20 2 18 20 2 18 20 2 18 20 2 18 20 2 18 20 2 18 20 2 18 20 2 18 20 2 18 20 2 18 20 2 18 20 2 18 20 2 18 20 2 18 20 2 18 20 2 18 20 2 18 20 2 18 20 2 18 20 2 18 20 2 18 20 2 18 20 2 18 20 2 18 20 2 18 20 2 18 20 2 18 20 2 18 20 2 18 20 2 18 20 2 18 20 2 18 20 2 18 20 2 18 20 2 18 20 2 18 20 2 18 20 2 18 20 2 18 20 2 18 20 2 18 20 2 18 20 2 
18 20 2 18 20 2 18 20 2 18 20 2 18 20 2 18 20 2 18 20 2 18 20 2 18 20 2 18 20 2 18 20 2 18 20 2 18 20 2 18 20 2 18 20 2 18 20 2 18 20 2 18 20 2 18 20 2 18 20 2 18 20 2 18 20 2 18 20 2 18 20 2 18 20 2 18 20 2 18 20 2 18 20 2 18 20 2 18 20 2 18 20 2 18 20 2 18 20 2 18 20 2 18 20 2 18 20 2 18 20 2 18 20 2 18 20 2 18 20 2 18 20 2 18 20 2 18 20 2 18 20 2 18 20 2 18 20 2 18 20 2 18 20 2 18 20 2 18 20 2 18 20 2 18 20 2 18 20 2 18 20 2 18 20 2 18 20 2 18 20 2 18 20 2 18 20 2 18 20 2 18 20 2 18 20 2 18 20 2 18 20 2 18 20 2 18 20 2 18 20 2 18 20 2 18 20 2 18 20 2 18 20 2 18 20 2 18 20 2 18 20 2 18 20 2 18 20 2 18 20 2 18 20 2 18 20 2 18 20 2 18 20 2 18 20 2 14 16 2 18 20 2 18 20 2 18 20 2 18 20 2 18 20 2 18 20 2 18 20 2 18 20 2 18 20 2 18 20 2 18 20 2 18 20 2 22 24 3 22 24 3 22 24 3 22 24 3 22 24 3 22 24 3 22 24 3 26 28 3 33 36 4 33 36 4 48 52 7 153 166 22 211 219 128 224 230 167 224 230 167 194 205 79 157 170 23 138 150 20 63 69 9 37 40 5 37 40 5 44 48 6 44 48 6 44 48 6 33 36 4 26 28 3 22 24 3 18 20 2 18 20 2 18 20 2 14 16 2 14 16 2 14 16 2 14 16 2 14 16 2 14 16 2 14 16 2 14 16 2 14 16 2 14 16 2 14 16 2 14 16 2 18 20 2 18 20 2 18 20 2 18 20 2 22 24 3 37 40 5 33 36 4 18 20 2 18 20 2 18 20 2 22 24 3 22 24 3 22 24 3 22 24 3 18 20 2 18 20 2 22 24 3 26 28 3 22 24 3 22 24 3 18 20 2 18 20 2 18 20 2 26 28 3 26 28 3 22 24 3 18 20 2 18 20 2 18 20 2 18 20 2 18 20 2 18 20 2 14 16 2 14 16 2 18 20 2 14 16 2 14 16 2 18 20 2 14 16 2 14 16 2 18 20 2 18 20 2 18 20 2 18 20 2 18 20 2 18 20 2 18 20 2 18 20 2 18 20 2 18 20 2 18 20 2 18 20 2 18 20 2 18 20 2 18 20 2 18 20 2 18 20 2 18 20 2 18 20 2 18 20 2 18 20 2 18 20 2 18 20 2 18 20 2 18 20 2 18 20 2 18 20 2 18 20 2 18 20 2 18 20 2 18 20 2 18 20 2 18 20 2 18 20 2 18 20 2 18 20 2 18 20 2 18 20 2 18 20 2 18 20 2 18 20 2 18 20 2 18 20 2 
18 20 2 18 20 2 18 20 2 18 20 2 18 20 2 18 20 2 18 20 2 18 20 2 18 20 2 18 20 2 18 20 2 18 20 2 18 20 2 18 20 2 18 20 2 18 20 2 18 20 2 18 20 2 18 20 2 18 20 2 18 20 2 18 20 2 18 20 2 18 20 2 18 20 2 18 20 2 18 20 2 18 20 2 18 20 2 18 20 2 18 20 2 18 20 2 18 20 2 18 20 2 18 20 2 18 20 2 18 20 2 18 20 2 18 20 2 18 20 2 18 20 2 18 20 2 18 20 2 18 20 2 18 20 2 18 20 2 18 20 2 18 20 2 18 20 2 18 20 2 18 20 2 18 20 2 18 20 2 18 20 2 18 20 2 18 20 2 18 20 2 18 20 2 18 20 2 18 20 2 18 20 2 18 20 2 18 20 2 18 20 2 18 20 2 18 20 2 18 20 2 18 20 2 18 20 2 18 20 2 18 20 2 18 20 2 18 20 2 18 20 2 18 20 2 18 20 2 18 20 2 18 20 2 18 20 2 18 20 2 18 20 2 18 20 2 18 20 2 18 20 2 18 20 2 18 20 2 18 20 2 18 20 2 18 20 2 18 20 2 18 20 2 18 20 2 18 20 2 22 24 3 18 20 2 22 24 3 22 24 3 22 24 3 22 24 3 26 28 3 26 28 3 37 40 5 63 69 9 161 174 23 153 166 22 221 227 157 246 248 230 202 212 103 177 192 30 138 150 20 44 48 6 59 65 8 63 69 9 37 40 5 22 24 3 22 24 3 18 20 2 18 20 2 14 16 2 18 20 2 33 36 4 48 52 7 44 48 6 48 52 7 59 65 8 59 65 8 56 60 8 63 69 9 56 60 8 56 60 8 48 52 7 48 52 7 56 60 8 44 48 6 44 48 6 37 40 5 37 40 5 33 36 4 22 24 3 14 16 2 14 16 2 14 16 2 14 16 2 14 16 2 18 20 2 18 20 2 18 20 2 14 16 2 14 16 2 37 40 5 44 48 6 18 20 2 18 20 2 18 20 2 18 20 2 18 20 2 22 24 3 22 24 3 22 24 3 18 20 2 18 20 2 18 20 2 18 20 2 14 16 2 18 20 2 22 24 3 22 24 3 18 20 2 14 16 2 14 16 2 14 16 2 14 16 2 14 16 2 18 20 2 14 16 2 14 16 2 14 16 2 18 20 2 18 20 2 18 20 2 18 20 2 18 20 2 18 20 2 18 20 2 18 20 2 18 20 2 18 20 2 18 20 2 18 20 2 18 20 2 18 20 2 18 20 2 18 20 2 18 20 2 18 20 2 18 20 2 18 20 2 18 20 2 18 20 2 18 20 2 18 20 2 18 20 2 18 20 2 18 20 2 18 20 2 18 20 2 18 20 2 18 20 2 18 20 2 18 20 2 18 20 2 18 20 2 18 20 2 18 20 2 18 20 2 18 20 2 18 20 2 18 20 2 18 20 2 18 20 2 
18 20 2 18 20 2 18 20 2 18 20 2 18 20 2 18 20 2 18 20 2 18 20 2 18 20 2 18 20 2 18 20 2 18 20 2 18 20 2 18 20 2 18 20 2 18 20 2 18 20 2 18 20 2 18 20 2 18 20 2 18 20 2 18 20 2 18 20 2 18 20 2 18 20 2 18 20 2 18 20 2 18 20 2 18 20 2 18 20 2 18 20 2 18 20 2 18 20 2 18 20 2 18 20 2 18 20 2 18 20 2 18 20 2 18 20 2 18 20 2 18 20 2 18 20 2 18 20 2 18 20 2 18 20 2 18 20 2 18 20 2 18 20 2 18 20 2 18 20 2 18 20 2 18 20 2 18 20 2 18 20 2 18 20 2 18 20 2 18 20 2 18 20 2 18 20 2 18 20 2 18 20 2 18 20 2 18 20 2 18 20 2 18 20 2 18 20 2 18 20 2 18 20 2 18 20 2 18 20 2 18 20 2 18 20 2 18 20 2 18 20 2 18 20 2 18 20 2 18 20 2 18 20 2 18 20 2 18 20 2 18 20 2 18 20 2 18 20 2 18 20 2 18 20 2 18 20 2 18 20 2 18 20 2 18 20 2 18 20 2 18 20 2 18 20 2 18 20 2 22 24 3 18 20 2 22 24 3 22 24 3 22 24 3 22 24 3 26 28 3 26 28 3 37 40 5 63 69 9 161 174 23 153 166 22 221 227 157 246 248 230 202 212 103 177 192 30 138 150 20 44 48 6 59 65 8 63 69 9 37 40 5 22 24 3 22 24 3 18 20 2 18 20 2 14 16 2 18 20 2 33 36 4 48 52 7 44 48 6 48 52 7 59 65 8 59 65 8 56 60 8 63 69 9 56 60 8 56 60 8 48 52 7 48 52 7 56 60 8 44 48 6 44 48 6 37 40 5 37 40 5 33 36 4 22 24 3 14 16 2 14 16 2 14 16 2 14 16 2 14 16 2 18 20 2 18 20 2 18 20 2 14 16 2 14 16 2 37 40 5 44 48 6 18 20 2 18 20 2 18 20 2 18 20 2 18 20 2 22 24 3 22 24 3 22 24 3 18 20 2 18 20 2 18 20 2 18 20 2 14 16 2 18 20 2 22 24 3 22 24 3 18 20 2 14 16 2 14 16 2 14 16 2 14 16 2 14 16 2 18 20 2 14 16 2 14 16 2 14 16 2 18 20 2 18 20 2 18 20 2 18 20 2 18 20 2 18 20 2 18 20 2 18 20 2 18 20 2 18 20 2 18 20 2 18 20 2 18 20 2 18 20 2 18 20 2 18 20 2 18 20 2 18 20 2 18 20 2 18 20 2 18 20 2 18 20 2 18 20 2 18 20 2 18 20 2 18 20 2 18 20 2 18 20 2 18 20 2 18 20 2 18 20 2 18 20 2 18 20 2 18 20 2 18 20 2 18 20 2 18 20 2 18 20 2 18 20 2 18 20 2 18 20 2 18 20 2 18 20 2 
18 20 2 18 20 2 18 20 2 18 20 2 18 20 2 18 20 2 18 20 2 18 20 2 18 20 2 18 20 2 18 20 2 18 20 2 18 20 2 18 20 2 18 20 2 18 20 2 18 20 2 18 20 2 18 20 2 18 20 2 18 20 2 18 20 2 18 20 2 18 20 2 18 20 2 18 20 2 18 20 2 18 20 2 18 20 2 18 20 2 18 20 2 18 20 2 18 20 2 18 20 2 18 20 2 18 20 2 18 20 2 18 20 2 18 20 2 18 20 2 18 20 2 18 20 2 18 20 2 18 20 2 18 20 2 18 20 2 18 20 2 18 20 2 18 20 2 18 20 2 18 20 2 18 20 2 18 20 2 18 20 2 18 20 2 18 20 2 18 20 2 18 20 2 18 20 2 18 20 2 18 20 2 18 20 2 18 20 2 18 20 2 18 20 2 18 20 2 18 20 2 18 20 2 18 20 2 18 20 2 18 20 2 18 20 2 18 20 2 18 20 2 14 16 2 14 16 2 14 16 2 18 20 2 18 20 2 18 20 2 18 20 2 18 20 2 18 20 2 18 20 2 18 20 2 18 20 2 18 20 2 18 20 2 22 24 3 22 24 3 22 24 3 26 28 3 26 28 3 26 28 3 26 28 3 33 36 4 37 40 5 44 48 6 48 52 7 59 65 8 153 166 22 219 226 152 239 242 211 218 225 147 196 207 84 138 150 20 134 146 19 101 109 14 56 60 8 48 52 7 33 36 4 22 24 3 18 20 2 18 20 2 18 20 2 26 28 3 59 65 8 127 138 18 157 170 23 186 199 55 186 199 55 146 158 21 93 101 13 127 138 18 59 65 8 59 65 8 56 60 8 44 48 6 37 40 5 44 48 6 101 109 14 177 192 30 134 146 19 146 158 21 134 146 19 142 154 21 123 134 18 44 48 6 63 69 9 44 48 6 48 52 7 37 40 5 18 20 2 18 20 2 22 24 3 18 20 2 18 20 2 22 24 3 22 24 3 14 16 2 18 20 2 14 16 2 14 16 2 14 16 2 14 16 2 14 16 2 14 16 2 18 20 2 18 20 2 18 20 2 14 16 2 18 20 2 18 20 2 18 20 2 14 16 2 18 20 2 18 20 2 14 16 2 14 16 2 18 20 2 18 20 2 22 24 3 18 20 2 14 16 2 14 16 2 14 16 2 18 20 2 18 20 2 18 20 2 18 20 2 18 20 2 14 16 2 14 16 2 14 16 2 18 20 2 18 20 2 18 20 2 18 20 2 18 20 2 18 20 2 18 20 2 18 20 2 18 20 2 18 20 2 18 20 2 18 20 2 18 20 2 18 20 2 18 20 2 18 20 2 18 20 2 18 20 2 18 20 2 18 20 2 18 20 2 18 20 2 18 20 2 18 20 2 18 20 2 18 20 2 18 20 2 18 20 2 18 20 2 18 20 2 18 20 2 18 20 2 18 20 2 18 20 2 18 20 2 18 20 2 
18 20 2 18 20 2 18 20 2 18 20 2 18 20 2 18 20 2 18 20 2 18 20 2 18 20 2 18 20 2 18 20 2 18 20 2 18 20 2 18 20 2 18 20 2 18 20 2 18 20 2 18 20 2 18 20 2 18 20 2 18 20 2 18 20 2 18 20 2 18 20 2 18 20 2 18 20 2 18 20 2 18 20 2 18 20 2 18 20 2 18 20 2 18 20 2 18 20 2 18 20 2 18 20 2 18 20 2 18 20 2 18 20 2 18 20 2 18 20 2 18 20 2 18 20 2 18 20 2 18 20 2 18 20 2 18 20 2 18 20 2 18 20 2 18 20 2 18 20 2 18 20 2 18 20 2 18 20 2 18 20 2 18 20 2 18 20 2 18 20 2 18 20 2 18 20 2 18 20 2 18 20 2 18 20 2 18 20 2 18 20 2 18 20 2 18 20 2 18 20 2 18 20 2 18 20 2 18 20 2 18 20 2 18 20 2 18 20 2 18 20 2 14 16 2 14 16 2 14 16 2 18 20 2 18 20 2 18 20 2 18 20 2 18 20 2 18 20 2 18 20 2 18 20 2 18 20 2 18 20 2 18 20 2 22 24 3 22 24 3 22 24 3 26 28 3 26 28 3 26 28 3 26 28 3 33 36 4 37 40 5 44 48 6 48 52 7 59 65 8 153 166 22 219 226 152 239 242 211 218 225 147 196 207 84 138 150 20 134 146 19 101 109 14 56 60 8 48 52 7 33 36 4 22 24 3 18 20 2 18 20 2 18 20 2 26 28 3 59 65 8 127 138 18 157 170 23 186 199 55 186 199 55 146 158 21 93 101 13 127 138 18 59 65 8 59 65 8 56 60 8 44 48 6 37 40 5 44 48 6 101 109 14 177 192 30 134 146 19 146 158 21 134 146 19 142 154 21 123 134 18 44 48 6 63 69 9 44 48 6 48 52 7 37 40 5 18 20 2 18 20 2 22 24 3 18 20 2 18 20 2 22 24 3 22 24 3 14 16 2 18 20 2 14 16 2 14 16 2 14 16 2 14 16 2 14 16 2 14 16 2 18 20 2 18 20 2 18 20 2 14 16 2 18 20 2 18 20 2 18 20 2 14 16 2 18 20 2 18 20 2 14 16 2 14 16 2 18 20 2 18 20 2 22 24 3 18 20 2 14 16 2 14 16 2 14 16 2 18 20 2 18 20 2 18 20 2 18 20 2 18 20 2 14 16 2 14 16 2 14 16 2 18 20 2 18 20 2 18 20 2 18 20 2 18 20 2 18 20 2 18 20 2 18 20 2 18 20 2 18 20 2 18 20 2 18 20 2 18 20 2 18 20 2 18 20 2 18 20 2 18 20 2 18 20 2 18 20 2 18 20 2 18 20 2 18 20 2 18 20 2 18 20 2 18 20 2 18 20 2 18 20 2 18 20 2 18 20 2 18 20 2 18 20 2 18 20 2 18 20 2 18 20 2 18 20 2 18 20 2 
18 20 2 18 20 2 18 20 2 18 20 2 18 20 2 18 20 2 18 20 2 18 20 2 18 20 2 18 20 2 18 20 2 18 20 2 18 20 2 18 20 2 18 20 2 18 20 2 18 20 2 18 20 2 18 20 2 18 20 2 18 20 2 18 20 2 18 20 2 18 20 2 18 20 2 18 20 2 18 20 2 18 20 2 18 20 2 18 20 2 18 20 2 18 20 2 18 20 2 18 20 2 18 20 2 18 20 2 18 20 2 18 20 2 18 20 2 18 20 2 18 20 2 18 20 2 18 20 2 18 20 2 18 20 2 18 20 2 18 20 2 18 20 2 18 20 2 18 20 2 18 20 2 18 20 2 18 20 2 18 20 2 18 20 2 18 20 2 18 20 2 18 20 2 18 20 2 18 20 2 18 20 2 18 20 2 18 20 2 18 20 2 18 20 2 18 20 2 18 20 2 18 20 2 18 20 2 18 20 2 18 20 2 18 20 2 14 16 2 14 16 2 18 20 2 18 20 2 18 20 2 18 20 2 18 20 2 18 20 2 18 20 2 18 20 2 18 20 2 18 20 2 18 20 2 22 24 3 22 24 3 22 24 3 22 24 3 26 28 3 26 28 3 33 36 4 37 40 5 44 48 6 56 60 8 89 97 13 149 162 22 216 223 142 207 216 118 207 216 118 244 246 225 204 214 108 149 162 22 138 150 20 63 69 9 44 48 6 59 65 8 89 97 13 26 28 3 22 24 3 18 20 2 18 20 2 44 48 6 138 150 20 184 197 50 157 170 23 138 150 20 108 117 16 33 36 4 26 28 3 48 52 7 127 138 18 189 201 64 168 182 24 202 212 103 194 205 79 194 205 79 157 170 23 157 170 23 146 158 21 161 174 23 197 208 89 161 174 23 56 60 8 33 36 4 33 36 4 33 36 4 108 117 16 108 117 16 153 166 22 134 146 19 59 65 8 44 48 6 48 52 7 44 48 6 18 20 2 22 24 3 22 24 3 22 24 3 22 24 3 18 20 2 18 20 2 18 20 2 18 20 2 18 20 2 18 20 2 18 20 2 26 28 3 26 28 3 18 20 2 18 20 2 18 20 2 18 20 2 14 16 2 18 20 2 22 24 3 22 24 3 14 16 2 18 20 2 18 20 2 18 20 2 18 20 2 14 16 2 14 16 2 18 20 2 18 20 2 14 16 2 14 16 2 18 20 2 18 20 2 14 16 2 14 16 2 14 16 2 18 20 2 14 16 2 18 20 2 18 20 2 18 20 2 18 20 2 18 20 2 18 20 2 18 20 2 18 20 2 18 20 2 18 20 2 18 20 2 18 20 2 18 20 2 18 20 2 18 20 2 18 20 2 18 20 2 18 20 2 18 20 2 18 20 2 18 20 2 18 20 2 18 20 2 18 20 2 18 20 2 18 20 2 18 20 2 18 20 2 18 20 2 18 20 2 18 20 2 18 20 2 18 20 2 18 20 2 18 20 2 
18 20 2 18 20 2 18 20 2 18 20 2 18 20 2 18 20 2 18 20 2 18 20 2 18 20 2 18 20 2 18 20 2 18 20 2 18 20 2 18 20 2 18 20 2 18 20 2 18 20 2 18 20 2 18 20 2 18 20 2 18 20 2 18 20 2 18 20 2 18 20 2 18 20 2 18 20 2 18 20 2 18 20 2 18 20 2 18 20 2 18 20 2 18 20 2 18 20 2 18 20 2 18 20 2 18 20 2 18 20 2 18 20 2 18 20 2 18 20 2 18 20 2 18 20 2 18 20 2 18 20 2 18 20 2 18 20 2 18 20 2 18 20 2 18 20 2 18 20 2 18 20 2 18 20 2 18 20 2 18 20 2 18 20 2 18 20 2 18 20 2 18 20 2 18 20 2 18 20 2 18 20 2 18 20 2 18 20 2 18 20 2 18 20 2 18 20 2 18 20 2 18 20 2 18 20 2 18 20 2 18 20 2 18 20 2 14 16 2 14 16 2 18 20 2 18 20 2 18 20 2 18 20 2 18 20 2 18 20 2 18 20 2 18 20 2 18 20 2 18 20 2 18 20 2 22 24 3 22 24 3 22 24 3 22 24 3 26 28 3 26 28 3 33 36 4 37 40 5 44 48 6 56 60 8 89 97 13 149 162 22 216 223 142 207 216 118 207 216 118 244 246 225 204 214 108 149 162 22 138 150 20 63 69 9 44 48 6 59 65 8 89 97 13 26 28 3 22 24 3 18 20 2 18 20 2 44 48 6 138 150 20 184 197 50 157 170 23 138 150 20 108 117 16 33 36 4 26 28 3 48 52 7 127 138 18 189 201 64 168 182 24 202 212 103 194 205 79 194 205 79 157 170 23 157 170 23 146 158 21 161 174 23 197 208 89 161 174 23 56 60 8 33 36 4 33 36 4 33 36 4 108 117 16 108 117 16 153 166 22 134 146 19 59 65 8 44 48 6 48 52 7 44 48 6 18 20 2 22 24 3 22 24 3 22 24 3 22 24 3 18 20 2 18 20 2 18 20 2 18 20 2 18 20 2 18 20 2 18 20 2 26 28 3 26 28 3 18 20 2 18 20 2 18 20 2 18 20 2 14 16 2 18 20 2 22 24 3 22 24 3 14 16 2 18 20 2 18 20 2 18 20 2 18 20 2 14 16 2 14 16 2 18 20 2 18 20 2 14 16 2 14 16 2 18 20 2 18 20 2 14 16 2 14 16 2 14 16 2 18 20 2 14 16 2 18 20 2 18 20 2 18 20 2 18 20 2 18 20 2 18 20 2 18 20 2 18 20 2 18 20 2 18 20 2 18 20 2 18 20 2 18 20 2 18 20 2 18 20 2 18 20 2 18 20 2 18 20 2 18 20 2 18 20 2 18 20 2 18 20 2 18 20 2 18 20 2 18 20 2 18 20 2 18 20 2 18 20 2 18 20 2 18 20 2 18 20 2 18 20 2 18 20 2 18 20 2 18 20 2 
18 20 2 18 20 2 18 20 2 18 20 2 18 20 2 18 20 2 18 20 2 18 20 2 18 20 2 18 20 2 18 20 2 18 20 2 18 20 2 18 20 2 18 20 2 18 20 2 18 20 2 18 20 2 18 20 2 18 20 2 18 20 2 18 20 2 18 20 2 18 20 2 18 20 2 18 20 2 18 20 2 18 20 2 18 20 2 18 20 2 18 20 2 18 20 2 18 20 2 18 20 2 18 20 2 18 20 2 18 20 2 18 20 2 18 20 2 18 20 2 18 20 2 18 20 2 18 20 2 18 20 2 18 20 2 18 20 2 18 20 2 18 20 2 18 20 2 18 20 2 18 20 2 18 20 2 18 20 2 18 20 2 18 20 2 18 20 2 18 20 2 18 20 2 18 20 2 18 20 2 18 20 2 18 20 2 18 20 2 18 20 2 18 20 2 18 20 2 18 20 2 18 20 2 18 20 2 18 20 2 18 20 2 18 20 2 18 20 2 18 20 2 18 20 2 18 20 2 18 20 2 18 20 2 18 20 2 18 20 2 18 20 2 26 28 3 26 28 3 33 36 4 33 36 4 33 36 4 26 28 3 33 36 4 33 36 4 33 36 4 37 40 5 44 48 6 48 52 7 59 65 8 108 117 16 194 205 79 202 212 103 224 230 167 199 210 94 146 158 21 149 162 22 93 101 13 63 69 9 48 52 7 37 40 5 26 28 3 26 28 3 18 20 2 22 24 3 44 48 6 146 158 21 153 166 22 149 162 22 108 117 16 44 48 6 44 48 6 142 154 21 161 174 23 146 158 21 146 158 21 168 182 24 146 158 21 157 170 23 161 174 23 184 197 50 186 199 55 168 182 24 187 200 60 186 199 55 204 214 108 146 158 21 93 101 13 101 109 14 108 117 16 138 150 20 59 65 8 149 162 22 194 205 79 108 117 16 48 52 7 33 36 4 63 69 9 153 166 22 108 117 16 44 48 6 26 28 3 44 48 6 22 24 3 22 24 3 33 36 4 44 48 6 26 28 3 18 20 2 18 20 2 22 24 3 37 40 5 33 36 4 18 20 2 18 20 2 18 20 2 22 24 3 37 40 5 48 52 7 44 48 6 26 28 3 14 16 2 14 16 2 14 16 2 14 16 2 14 16 2 14 16 2 14 16 2 14 16 2 14 16 2 18 20 2 18 20 2 14 16 2 14 16 2 18 20 2 14 16 2 14 16 2 14 16 2 18 20 2 18 20 2 14 16 2 14 16 2 14 16 2 14 16 2 18 20 2 18 20 2 18 20 2 18 20 2 18 20 2 18 20 2 18 20 2 18 20 2 18 20 2 18 20 2 18 20 2 18 20 2 18 20 2 18 20 2 18 20 2 18 20 2 18 20 2 18 20 2 18 20 2 18 20 2 18 20 2 18 20 2 18 20 2 18 20 2 18 20 2 18 20 2 18 20 2 18 20 2 18 20 2 18 20 2 18 20 2 18 20 2 
18 20 2 18 20 2 18 20 2 18 20 2 18 20 2 18 20 2 18 20 2 18 20 2 18 20 2 18 20 2 18 20 2 18 20 2 18 20 2 18 20 2 18 20 2 18 20 2 18 20 2 18 20 2 18 20 2 18 20 2 18 20 2 18 20 2 18 20 2 18 20 2 18 20 2 18 20 2 18 20 2 18 20 2 18 20 2 18 20 2 18 20 2 18 20 2 18 20 2 18 20 2 18 20 2 18 20 2 18 20 2 18 20 2 18 20 2 18 20 2 18 20 2 18 20 2 18 20 2 18 20 2 18 20 2 18 20 2 18 20 2 18 20 2 18 20 2 18 20 2 18 20 2 18 20 2 18 20 2 18 20 2 18 20 2 18 20 2 18 20 2 18 20 2 18 20 2 18 20 2 18 20 2 18 20 2 18 20 2 18 20 2 18 20 2 18 20 2 18 20 2 18 20 2 18 20 2 18 20 2 18 20 2 18 20 2 18 20 2 18 20 2 18 20 2 18 20 2 18 20 2 18 20 2 18 20 2 18 20 2 18 20 2 26 28 3 26 28 3 33 36 4 33 36 4 33 36 4 26 28 3 33 36 4 33 36 4 33 36 4 37 40 5 44 48 6 48 52 7 59 65 8 108 117 16 194 205 79 202 212 103 224 230 167 199 210 94 146 158 21 149 162 22 93 101 13 63 69 9 48 52 7 37 40 5 26 28 3 26 28 3 18 20 2 22 24 3 44 48 6 146 158 21 153 166 22 149 162 22 108 117 16 44 48 6 44 48 6 142 154 21 161 174 23 146 158 21 146 158 21 168 182 24 146 158 21 157 170 23 161 174 23 184 197 50 186 199 55 168 182 24 187 200 60 186 199 55 204 214 108 146 158 21 93 101 13 101 109 14 108 117 16 138 150 20 59 65 8 149 162 22 194 205 79 108 117 16 48 52 7 33 36 4 63 69 9 153 166 22 108 117 16 44 48 6 26 28 3 44 48 6 22 24 3 22 24 3 33 36 4 44 48 6 26 28 3 18 20 2 18 20 2 22 24 3 37 40 5 33 36 4 18 20 2 18 20 2 18 20 2 22 24 3 37 40 5 48 52 7 44 48 6 26 28 3 14 16 2 14 16 2 14 16 2 14 16 2 14 16 2 14 16 2 14 16 2 14 16 2 14 16 2 18 20 2 18 20 2 14 16 2 14 16 2 18 20 2 14 16 2 14 16 2 14 16 2 18 20 2 18 20 2 14 16 2 14 16 2 14 16 2 14 16 2 18 20 2 18 20 2 18 20 2 18 20 2 18 20 2 18 20 2 18 20 2 18 20 2 18 20 2 18 20 2 18 20 2 18 20 2 18 20 2 18 20 2 18 20 2 18 20 2 18 20 2 18 20 2 18 20 2 18 20 2 18 20 2 18 20 2 18 20 2 18 20 2 18 20 2 18 20 2 18 20 2 18 20 2 18 20 2 18 20 2 18 20 2 18 20 2 
18 20 2 18 20 2 18 20 2 18 20 2 18 20 2 18 20 2 18 20 2 18 20 2 18 20 2 18 20 2 18 20 2 18 20 2 18 20 2 18 20 2 18 20 2 18 20 2 18 20 2 18 20 2 18 20 2 18 20 2 18 20 2 18 20 2 18 20 2 18 20 2 18 20 2 18 20 2 18 20 2 18 20 2 18 20 2 18 20 2 18 20 2 18 20 2 18 20 2 18 20 2 18 20 2 18 20 2 18 20 2 18 20 2 18 20 2 18 20 2 18 20 2 18 20 2 18 20 2 18 20 2 18 20 2 18 20 2 18 20 2 18 20 2 18 20 2 18 20 2 18 20 2 18 20 2 18 20 2 18 20 2 18 20 2 18 20 2 18 20 2 18 20 2 18 20 2 18 20 2 18 20 2 18 20 2 18 20 2 18 20 2 18 20 2 18 20 2 18 20 2 18 20 2 18 20 2 18 20 2 18 20 2 18 20 2 18 20 2 18 20 2 18 20 2 18 20 2 18 20 2 18 20 2 22 24 3 22 24 3 26 28 3 33 36 4 44 48 6 48 52 7 48 52 7 44 48 6 44 48 6 44 48 6 48 52 7 48 52 7 59 65 8 123 134 18 181 195 40 189 201 64 206 215 113 236 240 201 249 250 240 211 219 128 134 146 19 63 69 9 63 69 9 177 192 30 127 138 18 48 52 7 33 36 4 18 20 2 26 28 3 44 48 6 168 182 24 168 182 24 127 138 18 37 40 5 59 65 8 161 174 23 186 199 55 181 195 40 231 235 186 197 208 89 157 170 23 196 207 84 206 215 113 187 200 60 207 216 118 224 230 167 189 201 64 172 186 25 206 215 113 177 192 30 149 162 22 186 199 55 181 195 40 157 170 23 192 204 74 211 219 128 192 204 74 93 101 13 172 186 25 153 166 22 184 197 50 101 109 14 134 146 19 93 101 13 33 36 4 22 24 3 108 117 16 142 154 21 63 69 9 22 24 3 22 24 3 22 24 3 22 24 3 22 24 3 33 36 4 26 28 3 44 48 6 22 24 3 14 16 2 18 20 2 26 28 3 22 24 3 26 28 3 37 40 5 44 48 6 56 60 8 37 40 5 22 24 3 22 24 3 26 28 3 18 20 2 18 20 2 14 16 2 14 16 2 18 20 2 18 20 2 18 20 2 18 20 2 18 20 2 18 20 2 18 20 2 18 20 2 18 20 2 14 16 2 18 20 2 18 20 2 18 20 2 14 16 2 18 20 2 14 16 2 18 20 2 18 20 2 18 20 2 18 20 2 18 20 2 18 20 2 18 20 2 18 20 2 18 20 2 18 20 2 18 20 2 18 20 2 18 20 2 18 20 2 18 20 2 18 20 2 18 20 2 18 20 2 18 20 2 18 20 2 18 20 2 18 20 2 18 20 2 18 20 2 18 20 2 18 20 2 18 20 2 18 20 2 18 20 2 18 20 2 18 20 2 18 20 2 
18 20 2 18 20 2 18 20 2 18 20 2 18 20 2 18 20 2 18 20 2 18 20 2 18 20 2 18 20 2 18 20 2 18 20 2 18 20 2 18 20 2 18 20 2 18 20 2 18 20 2 18 20 2 18 20 2 18 20 2 18 20 2 18 20 2 18 20 2 18 20 2 18 20 2 18 20 2 18 20 2 18 20 2 18 20 2 18 20 2 18 20 2 18 20 2 18 20 2 18 20 2 18 20 2 18 20 2 18 20 2 18 20 2 18 20 2 18 20 2 18 20 2 18 20 2 18 20 2 18 20 2 18 20 2 18 20 2 18 20 2 18 20 2 18 20 2 18 20 2 18 20 2 18 20 2 18 20 2 18 20 2 18 20 2 18 20 2 18 20 2 18 20 2 18 20 2 18 20 2 18 20 2 18 20 2 18 20 2 18 20 2 18 20 2 18 20 2 18 20 2 18 20 2 18 20 2 18 20 2 18 20 2 18 20 2 18 20 2 18 20 2 18 20 2 18 20 2 18 20 2 18 20 2 22 24 3 22 24 3 26 28 3 33 36 4 44 48 6 48 52 7 48 52 7 44 48 6 44 48 6 44 48 6 48 52 7 48 52 7 59 65 8 123 134 18 181 195 40 189 201 64 206 215 113 236 240 201 249 250 240 211 219 128 134 146 19 63 69 9 63 69 9 177 192 30 127 138 18 48 52 7 33 36 4 18 20 2 26 28 3 44 48 6 168 182 24 168 182 24 127 138 18 37 40 5 59 65 8 161 174 23 186 199 55 181 195 40 231 235 186 197 208 89 157 170 23 196 207 84 206 215 113 187 200 60 207 216 118 224 230 167 189 201 64 172 186 25 206 215 113 177 192 30 149 162 22 186 199 55 181 195 40 157 170 23 192 204 74 211 219 128 192 204 74 93 101 13 172 186 25 153 166 22 184 197 50 101 109 14 134 146 19 93 101 13 33 36 4 22 24 3 108 117 16 142 154 21 63 69 9 22 24 3 22 24 3 22 24 3 22 24 3 22 24 3 33 36 4 26 28 3 44 48 6 22 24 3 14 16 2 18 20 2 26 28 3 22 24 3 26 28 3 37 40 5 44 48 6 56 60 8 37 40 5 22 24 3 22 24 3 26 28 3 18 20 2 18 20 2 14 16 2 14 16 2 18 20 2 18 20 2 18 20 2 18 20 2 18 20 2 18 20 2 18 20 2 18 20 2 18 20 2 14 16 2 18 20 2 18 20 2 18 20 2 14 16 2 18 20 2 14 16 2 18 20 2 18 20 2 18 20 2 18 20 2 18 20 2 18 20 2 18 20 2 18 20 2 18 20 2 18 20 2 18 20 2 18 20 2 18 20 2 18 20 2 18 20 2 18 20 2 18 20 2 18 20 2 18 20 2 18 20 2 18 20 2 18 20 2 18 20 2 18 20 2 18 20 2 18 20 2 18 20 2 18 20 2 18 20 2 18 20 2 18 20 2 18 20 2 
18 20 2 18 20 2 18 20 2 18 20 2 18 20 2 18 20 2 18 20 2 18 20 2 18 20 2 18 20 2 18 20 2 18 20 2 18 20 2 18 20 2 18 20 2 18 20 2 18 20 2 18 20 2 18 20 2 18 20 2 18 20 2 18 20 2 18 20 2 18 20 2 18 20 2 18 20 2 18 20 2 18 20 2 18 20 2 18 20 2 18 20 2 18 20 2 18 20 2 18 20 2 18 20 2 18 20 2 18 20 2 18 20 2 18 20 2 18 20 2 18 20 2 18 20 2 18 20 2 18 20 2 18 20 2 18 20 2 18 20 2 18 20 2 18 20 2 18 20 2 18 20 2 18 20 2 18 20 2 18 20 2 18 20 2 18 20 2 18 20 2 18 20 2 18 20 2 18 20 2 18 20 2 18 20 2 18 20 2 18 20 2 18 20 2 18 20 2 18 20 2 18 20 2 18 20 2 18 20 2 18 20 2 18 20 2 18 20 2 18 20 2 18 20 2 22 24 3 22 24 3 26 28 3 26 28 3 33 36 4 33 36 4 44 48 6 48 52 7 56 60 8 59 65 8 63 69 9 89 97 13 89 97 13 63 69 9 157 170 23 194 205 79 197 208 89 201 211 99 214 222 138 244 246 225 204 214 108 149 162 22 138 150 20 63 69 9 48 52 7 56 60 8 44 48 6 22 24 3 14 16 2 18 20 2 37 40 5 138 150 20 186 199 55 134 146 19 33 36 4 89 97 13 189 201 64 181 195 40 177 192 30 211 219 128 233 237 191 186 199 55 186 199 55 153 166 22 192 204 74 216 223 142 184 197 50 202 212 103 218 225 147 194 205 79 184 197 50 192 204 74 177 192 30 123 134 18 168 182 24 168 182 24 93 101 13 101 109 14 149 162 22 157 170 23 89 97 13 146 158 21 197 208 89 168 182 24 189 201 64 138 150 20 157 170 23 123 134 18 89 97 13 93 101 13 26 28 3 127 138 18 138 150 20 56 60 8 22 24 3 18 20 2 37 40 5 33 36 4 22 24 3 18 20 2 44 48 6 22 24 3 18 20 2 18 20 2 18 20 2 18 20 2 26 28 3 26 28 3 26 28 3 22 24 3 22 24 3 18 20 2 18 20 2 18 20 2 18 20 2 14 16 2 14 16 2 18 20 2 18 20 2 18 20 2 18 20 2 18 20 2 18 20 2 22 24 3 22 24 3 18 20 2 18 20 2 18 20 2 18 20 2 18 20 2 18 20 2 18 20 2 18 20 2 18 20 2 18 20 2 18 20 2 18 20 2 18 20 2 18 20 2 18 20 2 18 20 2 18 20 2 18 20 2 18 20 2 18 20 2 18 20 2 18 20 2 18 20 2 18 20 2 18 20 2 18 20 2 18 20 2 18 20 2 18 20 2 18 20 2 18 20 2 18 20 2 18 20 2 18 20 2 18 20 2 18 20 2 18 20 2 18 20 2 18 20 2 18 20 2 
18 20 2 18 20 2 18 20 2 18 20 2 18 20 2 18 20 2 18 20 2 18 20 2 18 20 2 18 20 2 18 20 2 18 20 2 18 20 2 18 20 2 18 20 2 18 20 2 18 20 2 18 20 2 18 20 2 18 20 2 18 20 2 18 20 2 18 20 2 18 20 2 18 20 2 18 20 2 18 20 2 18 20 2 18 20 2 18 20 2 18 20 2 18 20 2 18 20 2 18 20 2 18 20 2 18 20 2 18 20 2 18 20 2 18 20 2 18 20 2 18 20 2 18 20 2 18 20 2 18 20 2 18 20 2 18 20 2 18 20 2 18 20 2 18 20 2 18 20 2 18 20 2 18 20 2 18 20 2 18 20 2 18 20 2 18 20 2 18 20 2 18 20 2 18 20 2 18 20 2 18 20 2 18 20 2 18 20 2 18 20 2 18 20 2 18 20 2 18 20 2 18 20 2 18 20 2 18 20 2 18 20 2 18 20 2 18 20 2 18 20 2 18 20 2 22 24 3 22 24 3 26 28 3 26 28 3 33 36 4 33 36 4 44 48 6 48 52 7 56 60 8 59 65 8 63 69 9 89 97 13 89 97 13 63 69 9 157 170 23 194 205 79 197 208 89 201 211 99 214 222 138 244 246 225 204 214 108 149 162 22 138 150 20 63 69 9 48 52 7 56 60 8 44 48 6 22 24 3 14 16 2 18 20 2 37 40 5 138 150 20 186 199 55 134 146 19 33 36 4 89 97 13 189 201 64 181 195 40 177 192 30 211 219 128 233 237 191 186 199 55 186 199 55 153 166 22 192 204 74 216 223 142 184 197 50 202 212 103 218 225 147 194 205 79 184 197 50 192 204 74 177 192 30 123 134 18 168 182 24 168 182 24 93 101 13 101 109 14 149 162 22 157 170 23 89 97 13 146 158 21 197 208 89 168 182 24 189 201 64 138 150 20 157 170 23 123 134 18 89 97 13 93 101 13 26 28 3 127 138 18 138 150 20 56 60 8 22 24 3 18 20 2 37 40 5 33 36 4 22 24 3 18 20 2 44 48 6 22 24 3 18 20 2 18 20 2 18 20 2 18 20 2 26 28 3 26 28 3 26 28 3 22 24 3 22 24 3 18 20 2 18 20 2 18 20 2 18 20 2 14 16 2 14 16 2 18 20 2 18 20 2 18 20 2 18 20 2 18 20 2 18 20 2 22 24 3 22 24 3 18 20 2 18 20 2 18 20 2 18 20 2 18 20 2 18 20 2 18 20 2 18 20 2 18 20 2 18 20 2 18 20 2 18 20 2 18 20 2 18 20 2 18 20 2 18 20 2 18 20 2 18 20 2 18 20 2 18 20 2 18 20 2 18 20 2 18 20 2 18 20 2 18 20 2 18 20 2 18 20 2 18 20 2 18 20 2 18 20 2 18 20 2 18 20 2 18 20 2 18 20 2 18 20 2 18 20 2 18 20 2 18 20 2 18 20 2 18 20 2 
18 20 2 18 20 2 18 20 2 18 20 2 18 20 2 18 20 2 18 20 2 18 20 2 18 20 2 18 20 2 18 20 2 18 20 2 18 20 2 18 20 2 18 20 2 18 20 2 18 20 2 18 20 2 18 20 2 18 20 2 18 20 2 18 20 2 18 20 2 18 20 2 18 20 2 18 20 2 18 20 2 18 20 2 18 20 2 18 20 2 18 20 2 18 20 2 18 20 2 18 20 2 18 20 2 18 20 2 18 20 2 18 20 2 18 20 2 18 20 2 18 20 2 18 20 2 18 20 2 18 20 2 18 20 2 18 20 2 18 20 2 18 20 2 18 20 2 18 20 2 18 20 2 18 20 2 18 20 2 18 20 2 18 20 2 18 20 2 18 20 2 18 20 2 18 20 2 18 20 2 18 20 2 18 20 2 18 20 2 18 20 2 18 20 2 18 20 2 18 20 2 18 20 2 18 20 2 18 20 2 18 20 2 18 20 2 22 24 3 26 28 3 33 36 4 37 40 5 37 40 5 33 36 4 37 40 5 44 48 6 48 52 7 48 52 7 48 52 7 48 52 7 56 60 8 93 101 13 138 150 20 149 162 22 187 200 60 234 238 196 199 210 94 192 204 74 187 200 60 199 210 94 134 146 19 48 52 7 56 60 8 48 52 7 93 101 13 44 48 6 26 28 3 18 20 2 18 20 2 37 40 5 63 69 9 186 199 55 168 182 24 37 40 5 149 162 22 157 170 23 196 207 84 199 210 94 218 225 147 218 225 147 187 200 60 186 199 55 197 208 89 212 220 133 202 212 103 197 208 89 177 192 30 197 208 89 197 208 89 194 205 79 194 205 79 192 204 74 194 205 79 221 227 157 181 195 40 161 174 23 138 150 20 161 174 23 181 195 40 172 186 25 177 192 30 181 195 40 192 204 74 214 222 138 172 186 25 189 201 64 108 117 16 63 69 9 108 117 16 48 52 7 63 69 9 44 48 6 108 117 16 26 28 3 48 52 7 93 101 13 33 36 4 18 20 2 37 40 5 37 40 5 26 28 3 18 20 2 22 24 3 48 52 7 18 20 2 18 20 2 26 28 3 22 24 3 37 40 5 22 24 3 18 20 2 18 20 2 33 36 4 44 48 6 26 28 3 26 28 3 22 24 3 18 20 2 22 24 3 33 36 4 33 36 4 26 28 3 18 20 2 18 20 2 18 20 2 18 20 2 18 20 2 18 20 2 18 20 2 18 20 2 18 20 2 18 20 2 18 20 2 18 20 2 18 20 2 18 20 2 18 20 2 18 20 2 18 20 2 18 20 2 18 20 2 18 20 2 18 20 2 18 20 2 18 20 2 18 20 2 18 20 2 18 20 2 18 20 2 18 20 2 18 20 2 18 20 2 18 20 2 18 20 2 18 20 2 18 20 2 18 20 2 18 20 2 18 20 2 18 20 2 18 20 2 18 20 2 18 20 2 18 20 2 18 20 2 18 20 2 
18 20 2 18 20 2 18 20 2 18 20 2 18 20 2 18 20 2 18 20 2 18 20 2 18 20 2 18 20 2 18 20 2 18 20 2 18 20 2 18 20 2 18 20 2 18 20 2 18 20 2 18 20 2 18 20 2 18 20 2 18 20 2 18 20 2 18 20 2 18 20 2 18 20 2 18 20 2 18 20 2 18 20 2 18 20 2 18 20 2 18 20 2 18 20 2 18 20 2 18 20 2 18 20 2 18 20 2 18 20 2 18 20 2 18 20 2 18 20 2 18 20 2 18 20 2 18 20 2 18 20 2 18 20 2 18 20 2 18 20 2 18 20 2 18 20 2 18 20 2 18 20 2 18 20 2 18 20 2 18 20 2 18 20 2 18 20 2 18 20 2 18 20 2 18 20 2 18 20 2 18 20 2 18 20 2 18 20 2 18 20 2 18 20 2 18 20 2 18 20 2 18 20 2 18 20 2 18 20 2 18 20 2 18 20 2 22 24 3 26 28 3 33 36 4 37 40 5 37 40 5 33 36 4 37 40 5 44 48 6 48 52 7 48 52 7 48 52 7 48 52 7 56 60 8 93 101 13 138 150 20 149 162 22 187 200 60 234 238 196 199 210 94 192 204 74 187 200 60 199 210 94 134 146 19 48 52 7 56 60 8 48 52 7 93 101 13 44 48 6 26 28 3 18 20 2 18 20 2 37 40 5 63 69 9 186 199 55 168 182 24 37 40 5 149 162 22 157 170 23 196 207 84 199 210 94 218 225 147 218 225 147 187 200 60 186 199 55 197 208 89 212 220 133 202 212 103 197 208 89 177 192 30 197 208 89 197 208 89 194 205 79 194 205 79 192 204 74 194 205 79 221 227 157 181 195 40 161 174 23 138 150 20 161 174 23 181 195 40 172 186 25 177 192 30 181 195 40 192 204 74 214 222 138 172 186 25 189 201 64 108 117 16 63 69 9 108 117 16 48 52 7 63 69 9 44 48 6 108 117 16 26 28 3 48 52 7 93 101 13 33 36 4 18 20 2 37 40 5 37 40 5 26 28 3 18 20 2 22 24 3 48 52 7 18 20 2 18 20 2 26 28 3 22 24 3 37 40 5 22 24 3 18 20 2 18 20 2 33 36 4 44 48 6 26 28 3 26 28 3 22 24 3 18 20 2 22 24 3 33 36 4 33 36 4 26 28 3 18 20 2 18 20 2 18 20 2 18 20 2 18 20 2 18 20 2 18 20 2 18 20 2 18 20 2 18 20 2 18 20 2 18 20 2 18 20 2 18 20 2 18 20 2 18 20 2 18 20 2 18 20 2 18 20 2 18 20 2 18 20 2 18 20 2 18 20 2 18 20 2 18 20 2 18 20 2 18 20 2 18 20 2 18 20 2 18 20 2 18 20 2 18 20 2 18 20 2 18 20 2 18 20 2 18 20 2 18 20 2 18 20 2 18 20 2 18 20 2 18 20 2 18 20 2 18 20 2 18 20 2 
18 20 2 18 20 2 18 20 2 18 20 2 18 20 2 18 20 2 18 20 2 18 20 2 18 20 2 18 20 2 18 20 2 18 20 2 18 20 2 18 20 2 18 20 2 18 20 2 18 20 2 18 20 2 18 20 2 18 20 2 18 20 2 18 20 2 18 20 2 18 20 2 18 20 2 18 20 2 18 20 2 18 20 2 18 20 2 18 20 2 18 20 2 18 20 2 18 20 2 18 20 2 18 20 2 18 20 2 18 20 2 18 20 2 18 20 2 18 20 2 18 20 2 18 20 2 18 20 2 18 20 2 18 20 2 18 20 2 18 20 2 18 20 2 18 20 2 18 20 2 18 20 2 18 20 2 18 20 2 18 20 2 18 20 2 18 20 2 18 20 2 18 20 2 18 20 2 18 20 2 18 20 2 18 20 2 18 20 2 18 20 2 18 20 2 22 24 3 22 24 3 22 24 3 26 28 3 26 28 3 22 24 3 26 28 3 33 36 4 37 40 5 37 40 5 44 48 6 44 48 6 44 48 6 56 60 8 63 69 9 89 97 13 89 97 13 59 65 8 59 65 8 89 97 13 153 166 22 201 211 99 199 210 94 192 204 74 204 214 108 241 244 216 229 234 181 101 109 14 59 65 8 108 117 16 127 138 18 192 204 74 93 101 13 33 36 4 18 20 2 14 16 2 22 24 3 44 48 6 134 146 19 168 182 24 48 52 7 168 182 24 187 200 60 177 192 30 199 210 94 202 212 103 204 214 108 221 227 157 149 162 22 181 195 40 134 146 19 181 195 40 142 154 21 197 208 89 127 138 18 197 208 89 187 200 60 204 214 108 157 170 23 206 215 113 221 227 157 233 237 191 194 205 79 224 230 167 218 225 147 184 197 50 186 199 55 123 134 18 108 117 16 108 117 16 63 69 9 197 208 89 177 192 30 138 150 20 134 146 19 168 182 24 108 117 16 161 174 23 189 201 64 134 146 19 89 97 13 44 48 6 89 97 13 37 40 5 33 36 4 37 40 5 44 48 6 22 24 3 26 28 3 44 48 6 26 28 3 18 20 2 26 28 3 33 36 4 37 40 5 22 24 3 18 20 2 56 60 8 93 101 13 33 36 4 26 28 3 26 28 3 22 24 3 18 20 2 22 24 3 22 24 3 18 20 2 18 20 2 22 24 3 18 20 2 22 24 3 33 36 4 26 28 3 18 20 2 18 20 2 18 20 2 18 20 2 18 20 2 18 20 2 18 20 2 18 20 2 18 20 2 14 16 2 18 20 2 18 20 2 18 20 2 18 20 2 18 20 2 18 20 2 18 20 2 14 16 2 14 16 2 18 20 2 18 20 2 18 20 2 18 20 2 18 20 2 18 20 2 18 20 2 18 20 2 18 20 2 18 20 2 18 20 2 18 20 2 18 20 2 18 20 2 18 20 2 18 20 2 18 20 2 18 20 2 18 20 2 18 20 2 18 20 2 18 20 2 18 20 2 
18 20 2 18 20 2 18 20 2 18 20 2 18 20 2 18 20 2 18 20 2 18 20 2 18 20 2 18 20 2 18 20 2 18 20 2 18 20 2 18 20 2 18 20 2 18 20 2 18 20 2 18 20 2 18 20 2 18 20 2 18 20 2 18 20 2 18 20 2 18 20 2 18 20 2 18 20 2 18 20 2 18 20 2 18 20 2 18 20 2 18 20 2 18 20 2 18 20 2 18 20 2 18 20 2 18 20 2 18 20 2 18 20 2 18 20 2 18 20 2 18 20 2 18 20 2 18 20 2 18 20 2 18 20 2 18 20 2 18 20 2 18 20 2 18 20 2 18 20 2 18 20 2 18 20 2 18 20 2 18 20 2 18 20 2 18 20 2 18 20 2 18 20 2 18 20 2 18 20 2 18 20 2 18 20 2 18 20 2 18 20 2 18 20 2 22 24 3 22 24 3 22 24 3 26 28 3 26 28 3 22 24 3 26 28 3 33 36 4 37 40 5 37 40 5 44 48 6 44 48 6 44 48 6 56 60 8 63 69 9 89 97 13 89 97 13 59 65 8 59 65 8 89 97 13 153 166 22 201 211 99 199 210 94 192 204 74 204 214 108 241 244 216 229 234 181 101 109 14 59 65 8 108 117 16 127 138 18 192 204 74 93 101 13 33 36 4 18 20 2 14 16 2 22 24 3 44 48 6 134 146 19 168 182 24 48 52 7 168 182 24 187 200 60 177 192 30 199 210 94 202 212 103 204 214 108 221 227 157 149 162 22 181 195 40 134 146 19 181 195 40 142 154 21 197 208 89 127 138 18 197 208 89 187 200 60 204 214 108 157 170 23 206 215 113 221 227 157 233 237 191 194 205 79 224 230 167 218 225 147 184 197 50 186 199 55 123 134 18 108 117 16 108 117 16 63 69 9 197 208 89 177 192 30 138 150 20 134 146 19 168 182 24 108 117 16 161 174 23 189 201 64 134 146 19 89 97 13 44 48 6 89 97 13 37 40 5 33 36 4 37 40 5 44 48 6 22 24 3 26 28 3 44 48 6 26 28 3 18 20 2 26 28 3 33 36 4 37 40 5 22 24 3 18 20 2 56 60 8 93 101 13 33 36 4 26 28 3 26 28 3 22 24 3 18 20 2 22 24 3 22 24 3 18 20 2 18 20 2 22 24 3 18 20 2 22 24 3 33 36 4 26 28 3 18 20 2 18 20 2 18 20 2 18 20 2 18 20 2 18 20 2 18 20 2 18 20 2 18 20 2 14 16 2 18 20 2 18 20 2 18 20 2 18 20 2 18 20 2 18 20 2 18 20 2 14 16 2 14 16 2 18 20 2 18 20 2 18 20 2 18 20 2 18 20 2 18 20 2 18 20 2 18 20 2 18 20 2 18 20 2 18 20 2 18 20 2 18 20 2 18 20 2 18 20 2 18 20 2 18 20 2 18 20 2 18 20 2 18 20 2 18 20 2 18 20 2 18 20 2 
18 20 2 18 20 2 18 20 2 18 20 2 18 20 2 18 20 2 18 20 2 18 20 2 18 20 2 18 20 2 18 20 2 18 20 2 18 20 2 18 20 2 18 20 2 18 20 2 18 20 2 18 20 2 18 20 2 18 20 2 18 20 2 18 20 2 18 20 2 18 20 2 18 20 2 18 20 2 18 20 2 18 20 2 18 20 2 18 20 2 18 20 2 18 20 2 18 20 2 18 20 2 18 20 2 18 20 2 18 20 2 18 20 2 18 20 2 18 20 2 18 20 2 18 20 2 18 20 2 18 20 2 18 20 2 18 20 2 18 20 2 18 20 2 18 20 2 18 20 2 18 20 2 18 20 2 18 20 2 18 20 2 18 20 2 18 20 2 18 20 2 18 20 2 18 20 2 18 20 2 18 20 2 18 20 2 22 24 3 22 24 3 22 24 3 22 24 3 22 24 3 22 24 3 22 24 3 22 24 3 26 28 3 26 28 3 26 28 3 33 36 4 33 36 4 37 40 5 44 48 6 56 60 8 108 117 16 153 166 22 161 174 23 153 166 22 146 158 21 194 205 79 204 214 108 189 201 64 199 210 94 202 212 103 229 234 181 239 242 211 201 211 99 168 182 24 134 146 19 59 65 8 93 101 13 146 158 21 48 52 7 26 28 3 18 20 2 18 20 2 26 28 3 89 97 13 186 199 55 142 154 21 89 97 13 214 222 138 189 201 64 153 166 22 199 210 94 234 238 196 204 214 108 201 211 99 149 162 22 157 170 23 153 166 22 212 220 133 218 225 147 226 231 172 212 220 133 231 235 186 221 227 157 202 212 103 228 233 177 214 222 138 197 208 89 204 214 108 189 201 64 248 249 235 216 223 142 201 211 99 187 200 60 168 182 24 181 195 40 196 207 84 108 117 16 134 146 19 59 65 8 56 60 8 101 109 14 202 212 103 108 117 16 48 52 7 123 134 18 89 97 13 56 60 8 177 192 30 123 134 18 59 65 8 56 60 8 48 52 7 48 52 7 56 60 8 37 40 5 22 24 3 26 28 3 44 48 6 22 24 3 18 20 2 22 24 3 123 134 18 59 65 8 33 36 4 22 24 3 26 28 3 18 20 2 18 20 2 22 24 3 18 20 2 18 20 2 22 24 3 33 36 4 37 40 5 33 36 4 22 24 3 18 20 2 22 24 3 22 24 3 18 20 2 18 20 2 18 20 2 22 24 3 26 28 3 22 24 3 18 20 2 18 20 2 18 20 2 18 20 2 18 20 2 18 20 2 18 20 2 18 20 2 18 20 2 18 20 2 18 20 2 18 20 2 18 20 2 18 20 2 18 20 2 18 20 2 18 20 2 18 20 2 18 20 2 18 20 2 18 20 2 18 20 2 18 20 2 18 20 2 18 20 2 18 20 2 18 20 2 18 20 2 18 20 2 18 20 2 18 20 2 18 20 2 18 20 2 18 20 2 18 20 2 18 20 2 18 20 2 
18 20 2 18 20 2 18 20 2 18 20 2 18 20 2 18 20 2 18 20 2 18 20 2 18 20 2 18 20 2 18 20 2 18 20 2 18 20 2 18 20 2 18 20 2 18 20 2 18 20 2 18 20 2 18 20 2 18 20 2 18 20 2 18 20 2 18 20 2 18 20 2 18 20 2 18 20 2 18 20 2 18 20 2 18 20 2 18 20 2 18 20 2 18 20 2 18 20 2 18 20 2 18 20 2 18 20 2 18 20 2 18 20 2 18 20 2 18 20 2 18 20 2 18 20 2 18 20 2 18 20 2 18 20 2 18 20 2 18 20 2 18 20 2 18 20 2 18 20 2 18 20 2 18 20 2 18 20 2 18 20 2 18 20 2 18 20 2 18 20 2 18 20 2 18 20 2 18 20 2 18 20 2 18 20 2 22 24 3 22 24 3 22 24 3 22 24 3 22 24 3 22 24 3 22 24 3 22 24 3 26 28 3 26 28 3 26 28 3 33 36 4 33 36 4 37 40 5 44 48 6 56 60 8 108 117 16 153 166 22 161 174 23 153 166 22 146 158 21 194 205 79 204 214 108 189 201 64 199 210 94 202 212 103 229 234 181 239 242 211 201 211 99 168 182 24 134 146 19 59 65 8 93 101 13 146 158 21 48 52 7 26 28 3 18 20 2 18 20 2 26 28 3 89 97 13 186 199 55 142 154 21 89 97 13 214 222 138 189 201 64 153 166 22 199 210 94 234 238 196 204 214 108 201 211 99 149 162 22 157 170 23 153 166 22 212 220 133 218 225 147 226 231 172 212 220 133 231 235 186 221 227 157 202 212 103 228 233 177 214 222 138 197 208 89 204 214 108 189 201 64 248 249 235 216 223 142 201 211 99 187 200 60 168 182 24 181 195 40 196 207 84 108 117 16 134 146 19 59 65 8 56 60 8 101 109 14 202 212 103 108 117 16 48 52 7 123 134 18 89 97 13 56 60 8 177 192 30 123 134 18 59 65 8 56 60 8 48 52 7 48 52 7 56 60 8 37 40 5 22 24 3 26 28 3 44 48 6 22 24 3 18 20 2 22 24 3 123 134 18 59 65 8 33 36 4 22 24 3 26 28 3 18 20 2 18 20 2 22 24 3 18 20 2 18 20 2 22 24 3 33 36 4 37 40 5 33 36 4 22 24 3 18 20 2 22 24 3 22 24 3 18 20 2 18 20 2 18 20 2 22 24 3 26 28 3 22 24 3 18 20 2 18 20 2 18 20 2 18 20 2 18 20 2 18 20 2 18 20 2 18 20 2 18 20 2 18 20 2 18 20 2 18 20 2 18 20 2 18 20 2 18 20 2 18 20 2 18 20 2 18 20 2 18 20 2 18 20 2 18 20 2 18 20 2 18 20 2 18 20 2 18 20 2 18 20 2 18 20 2 18 20 2 18 20 2 18 20 2 18 20 2 18 20 2 18 20 2 18 20 2 18 20 2 18 20 2 18 20 2 
18 20 2 18 20 2 18 20 2 18 20 2 18 20 2 18 20 2 18 20 2 18 20 2 18 20 2 18 20 2 18 20 2 18 20 2 18 20 2 18 20 2 18 20 2 18 20 2 18 20 2 18 20 2 18 20 2 18 20 2 18 20 2 18 20 2 18 20 2 18 20 2 18 20 2 18 20 2 18 20 2 18 20 2 18 20 2 18 20 2 18 20 2 18 20 2 18 20 2 18 20 2 18 20 2 18 20 2 18 20 2 18 20 2 18 20 2 18 20 2 18 20 2 18 20 2 18 20 2 18 20 2 18 20 2 18 20 2 18 20 2 18 20 2 18 20 2 18 20 2 18 20 2 18 20 2 18 20 2 18 20 2 18 20 2 18 20 2 18 20 2 18 20 2 18 20 2 18 20 2 18 20 2 22 24 3 22 24 3 22 24 3 22 24 3 22 24 3 22 24 3 26 28 3 26 28 3 33 36 4 37 40 5 37 40 5 37 40 5 37 40 5 44 48 6 48 52 7 48 52 7 59 65 8 108 117 16 142 154 21 186 199 55 177 192 30 187 200 60 223 229 162 218 225 147 207 216 118 196 207 84 189 201 64 186 199 55 108 117 16 101 109 14 89 97 13 48 52 7 37 40 5 37 40 5 26 28 3 22 24 3 18 20 2 18 20 2 22 24 3 59 65 8 184 197 50 63 69 9 101 109 14 181 195 40 177 192 30 146 158 21 186 199 55 189 201 64 172 186 25 161 174 23 146 158 21 212 220 133 218 225 147 231 235 186 223 229 162 216 223 142 197 208 89 192 204 74 138 150 20 142 154 21 149 162 22 59 65 8 186 199 55 89 97 13 149 162 22 157 170 23 226 231 172 187 200 60 216 223 142 157 170 23 197 208 89 93 101 13 138 150 20 93 101 13 161 174 23 123 134 18 138 150 20 127 138 18 184 197 50 157 170 23 56 60 8 56 60 8 48 52 7 101 109 14 56 60 8 44 48 6 33 36 4 26 28 3 33 36 4 33 36 4 18 20 2 26 28 3 48 52 7 22 24 3 22 24 3 37 40 5 22 24 3 18 20 2 44 48 6 26 28 3 26 28 3 18 20 2 22 24 3 33 36 4 93 101 13 44 48 6 37 40 5 37 40 5 22 24 3 33 36 4 44 48 6 37 40 5 33 36 4 37 40 5 26 28 3 18 20 2 18 20 2 18 20 2 18 20 2 18 20 2 18 20 2 18 20 2 18 20 2 18 20 2 18 20 2 18 20 2 18 20 2 18 20 2 18 20 2 18 20 2 18 20 2 18 20 2 18 20 2 14 16 2 14 16 2 18 20 2 18 20 2 18 20 2 18 20 2 18 20 2 18 20 2 18 20 2 18 20 2 18 20 2 18 20 2 18 20 2 18 20 2 18 20 2 18 20 2 18 20 2 18 20 2 18 20 2 18 20 2 18 20 2 18 20 2 18 20 2 18 20 2 18 20 2 18 20 2 
18 20 2 18 20 2 18 20 2 18 20 2 18 20 2 18 20 2 18 20 2 18 20 2 18 20 2 18 20 2 18 20 2 18 20 2 18 20 2 18 20 2 18 20 2 18 20 2 18 20 2 18 20 2 18 20 2 18 20 2 18 20 2 18 20 2 18 20 2 18 20 2 18 20 2 18 20 2 18 20 2 18 20 2 18 20 2 18 20 2 18 20 2 18 20 2 18 20 2 18 20 2 18 20 2 18 20 2 18 20 2 18 20 2 18 20 2 18 20 2 18 20 2 18 20 2 18 20 2 18 20 2 18 20 2 18 20 2 18 20 2 18 20 2 18 20 2 18 20 2 18 20 2 18 20 2 18 20 2 18 20 2 18 20 2 18 20 2 18 20 2 18 20 2 18 20 2 18 20 2 18 20 2 22 24 3 22 24 3 22 24 3 22 24 3 22 24 3 22 24 3 26 28 3 26 28 3 33 36 4 37 40 5 37 40 5 37 40 5 37 40 5 44 48 6 48 52 7 48 52 7 59 65 8 108 117 16 142 154 21 186 199 55 177 192 30 187 200 60 223 229 162 218 225 147 207 216 118 196 207 84 189 201 64 186 199 55 108 117 16 101 109 14 89 97 13 48 52 7 37 40 5 37 40 5 26 28 3 22 24 3 18 20 2 18 20 2 22 24 3 59 65 8 184 197 50 63 69 9 101 109 14 181 195 40 177 192 30 146 158 21 186 199 55 189 201 64 172 186 25 161 174 23 146 158 21 212 220 133 218 225 147 231 235 186 223 229 162 216 223 142 197 208 89 192 204 74 138 150 20 142 154 21 149 162 22 59 65 8 186 199 55 89 97 13 149 162 22 157 170 23 226 231 172 187 200 60 216 223 142 157 170 23 197 208 89 93 101 13 138 150 20 93 101 13 161 174 23 123 134 18 138 150 20 127 138 18 184 197 50 157 170 23 56 60 8 56 60 8 48 52 7 101 109 14 56 60 8 44 48 6 33 36 4 26 28 3 33 36 4 33 36 4 18 20 2 26 28 3 48 52 7 22 24 3 22 24 3 37 40 5 22 24 3 18 20 2 44 48 6 26 28 3 26 28 3 18 20 2 22 24 3 33 36 4 93 101 13 44 48 6 37 40 5 37 40 5 22 24 3 33 36 4 44 48 6 37 40 5 33 36 4 37 40 5 26 28 3 18 20 2 18 20 2 18 20 2 18 20 2 18 20 2 18 20 2 18 20 2 18 20 2 18 20 2 18 20 2 18 20 2 18 20 2 18 20 2 18 20 2 18 20 2 18 20 2 18 20 2 18 20 2 14 16 2 14 16 2 18 20 2 18 20 2 18 20 2 18 20 2 18 20 2 18 20 2 18 20 2 18 20 2 18 20 2 18 20 2 18 20 2 18 20 2 18 20 2 18 20 2 18 20 2 18 20 2 18 20 2 18 20 2 18 20 2 18 20 2 18 20 2 18 20 2 18 20 2 18 20 2 
18 20 2 18 20 2 18 20 2 18 20 2 18 20 2 18 20 2 18 20 2 18 20 2 18 20 2 18 20 2 18 20 2 18 20 2 18 20 2 18 20 2 18 20 2 18 20 2 18 20 2 18 20 2 18 20 2 18 20 2 18 20 2 18 20 2 18 20 2 18 20 2 18 20 2 18 20 2 18 20 2 18 20 2 18 20 2 18 20 2 18 20 2 18 20 2 18 20 2 18 20 2 18 20 2 18 20 2 18 20 2 18 20 2 18 20 2 18 20 2 18 20 2 18 20 2 18 20 2 18 20 2 18 20 2 18 20 2 18 20 2 18 20 2 18 20 2 18 20 2 18 20 2 18 20 2 18 20 2 18 20 2 18 20 2 18 20 2 18 20 2 18 20 2 18 20 2 22 24 3 22 24 3 22 24 3 26 28 3 26 28 3 22 24 3 22 24 3 26 28 3 37 40 5 56 60 8 93 101 13 101 109 14 93 101 13 63 69 9 93 101 13 108 117 16 108 117 16 127 138 18 161 174 23 177 192 30 184 197 50 181 195 40 192 204 74 192 204 74 184 197 50 196 207 84 224 230 167 186 199 55 157 170 23 123 134 18 44 48 6 63 69 9 146 158 21 89 97 13 37 40 5 37 40 5 22 24 3 18 20 2 18 20 2 22 24 3 108 117 16 187 200 60 101 109 14 127 138 18 153 166 22 168 182 24 214 222 138 228 233 177 201 211 99 219 226 152 181 195 40 214 222 138 211 219 128 207 216 118 207 216 118 187 200 60 196 207 84 101 109 14 26 28 3 22 24 3 18 20 2 18 20 2 18 20 2 18 20 2 26 28 3 26 28 3 44 48 6 186 199 55 204 214 108 177 192 30 207 216 118 184 197 50 189 201 64 142 154 21 207 216 118 161 174 23 149 162 22 44 48 6 56 60 8 48 52 7 44 48 6 48 52 7 37 40 5 59 65 8 44 48 6 59 65 8 89 97 13 44 48 6 89 97 13 134 146 19 63 69 9 33 36 4 33 36 4 44 48 6 37 40 5 22 24 3 18 20 2 22 24 3 33 36 4 18 20 2 48 52 7 48 52 7 59 65 8 22 24 3 26 28 3 18 20 2 26 28 3 22 24 3 22 24 3 22 24 3 18 20 2 22 24 3 22 24 3 18 20 2 22 24 3 33 36 4 26 28 3 33 36 4 26 28 3 26 28 3 22 24 3 18 20 2 18 20 2 18 20 2 18 20 2 18 20 2 18 20 2 18 20 2 18 20 2 18 20 2 18 20 2 18 20 2 18 20 2 18 20 2 18 20 2 18 20 2 18 20 2 18 20 2 18 20 2 18 20 2 18 20 2 18 20 2 18 20 2 18 20 2 18 20 2 18 20 2 18 20 2 18 20 2 18 20 2 18 20 2 18 20 2 18 20 2 18 20 2 18 20 2 18 20 2 18 20 2 18 20 2 18 20 2 18 20 2 18 20 2 18 20 2 
18 20 2 18 20 2 18 20 2 18 20 2 18 20 2 18 20 2 18 20 2 18 20 2 18 20 2 18 20 2 18 20 2 18 20 2 18 20 2 18 20 2 18 20 2 18 20 2 18 20 2 18 20 2 18 20 2 18 20 2 18 20 2 18 20 2 18 20 2 18 20 2 18 20 2 18 20 2 18 20 2 18 20 2 18 20 2 18 20 2 18 20 2 18 20 2 18 20 2 18 20 2 18 20 2 18 20 2 18 20 2 18 20 2 18 20 2 18 20 2 18 20 2 18 20 2 18 20 2 18 20 2 18 20 2 18 20 2 18 20 2 18 20 2 18 20 2 18 20 2 18 20 2 18 20 2 18 20 2 18 20 2 18 20 2 18 20 2 18 20 2 18 20 2 18 20 2 22 24 3 22 24 3 22 24 3 26 28 3 26 28 3 22 24 3 22 24 3 26 28 3 37 40 5 56 60 8 93 101 13 101 109 14 93 101 13 63 69 9 93 101 13 108 117 16 108 117 16 127 138 18 161 174 23 177 192 30 184 197 50 181 195 40 192 204 74 192 204 74 184 197 50 196 207 84 224 230 167 186 199 55 157 170 23 123 134 18 44 48 6 63 69 9 146 158 21 89 97 13 37 40 5 37 40 5 22 24 3 18 20 2 18 20 2 22 24 3 108 117 16 187 200 60 101 109 14 127 138 18 153 166 22 168 182 24 214 222 138 228 233 177 201 211 99 219 226 152 181 195 40 214 222 138 211 219 128 207 216 118 207 216 118 187 200 60 196 207 84 101 109 14 26 28 3 22 24 3 18 20 2 18 20 2 18 20 2 18 20 2 26 28 3 26 28 3 44 48 6 186 199 55 204 214 108 177 192 30 207 216 118 184 197 50 189 201 64 142 154 21 207 216 118 161 174 23 149 162 22 44 48 6 56 60 8 48 52 7 44 48 6 48 52 7 37 40 5 59 65 8 44 48 6 59 65 8 89 97 13 44 48 6 89 97 13 134 146 19 63 69 9 33 36 4 33 36 4 44 48 6 37 40 5 22 24 3 18 20 2 22 24 3 33 36 4 18 20 2 48 52 7 48 52 7 59 65 8 22 24 3 26 28 3 18 20 2 26 28 3 22 24 3 22 24 3 22 24 3 18 20 2 22 24 3 22 24 3 18 20 2 22 24 3 33 36 4 26 28 3 33 36 4 26 28 3 26 28 3 22 24 3 18 20 2 18 20 2 18 20 2 18 20 2 18 20 2 18 20 2 18 20 2 18 20 2 18 20 2 18 20 2 18 20 2 18 20 2 18 20 2 18 20 2 18 20 2 18 20 2 18 20 2 18 20 2 18 20 2 18 20 2 18 20 2 18 20 2 18 20 2 18 20 2 18 20 2 18 20 2 18 20 2 18 20 2 18 20 2 18 20 2 18 20 2 18 20 2 18 20 2 18 20 2 18 20 2 18 20 2 18 20 2 18 20 2 18 20 2 18 20 2 
18 20 2 18 20 2 18 20 2 18 20 2 18 20 2 18 20 2 18 20 2 18 20 2 18 20 2 18 20 2 18 20 2 18 20 2 18 20 2 18 20 2 18 20 2 18 20 2 18 20 2 18 20 2 18 20 2 18 20 2 18 20 2 18 20 2 18 20 2 18 20 2 18 20 2 18 20 2 18 20 2 18 20 2 18 20 2 18 20 2 18 20 2 18 20 2 18 20 2 18 20 2 18 20 2 18 20 2 18 20 2 18 20 2 18 20 2 18 20 2 18 20 2 18 20 2 18 20 2 18 20 2 18 20 2 14 16 2 18 20 2 18 20 2 18 20 2 18 20 2 18 20 2 18 20 2 18 20 2 18 20 2 22 24 3 18 20 2 18 20 2 18 20 2 22 24 3 22 24 3 26 28 3 26 28 3 26 28 3 26 28 3 26 28 3 26 28 3 33 36 4 48 52 7 63 69 9 93 101 13 101 109 14 108 117 16 108 117 16 127 138 18 142 154 21 149 162 22 184 197 50 181 195 40 187 200 60 189 201 64 177 192 30 168 182 24 211 219 128 246 248 230 251 252 245 214 222 138 142 154 21 59 65 8 89 97 13 168 182 24 123 134 18 56 60 8 26 28 3 22 24 3 22 24 3 14 16 2 22 24 3 26 28 3 63 69 9 177 192 30 44 48 6 63 69 9 157 170 23 189 201 64 201 211 99 161 174 23 177 192 30 197 208 89 212 220 133 207 216 118 216 223 142 223 229 162 168 182 24 146 158 21 48 52 7 22 24 3 14 16 2 37 40 5 149 162 22 149 162 22 37 40 5 33 36 4 18 20 2 14 16 2 14 16 2 18 20 2 26 28 3 33 36 4 44 48 6 142 154 21 197 208 89 146 158 21 192 204 74 168 182 24 157 170 23 22 24 3 93 101 13 101 109 14 22 24 3 56 60 8 59 65 8 157 170 23 63 69 9 26 28 3 33 36 4 59 65 8 59 65 8 33 36 4 59 65 8 18 20 2 22 24 3 18 20 2 26 28 3 26 28 3 22 24 3 22 24 3 18 20 2 26 28 3 18 20 2 18 20 2 59 65 8 37 40 5 18 20 2 18 20 2 37 40 5 37 40 5 56 60 8 127 138 18 101 109 14 48 52 7 26 28 3 18 20 2 18 20 2 18 20 2 18 20 2 22 24 3 22 24 3 22 24 3 18 20 2 18 20 2 22 24 3 18 20 2 18 20 2 18 20 2 18 20 2 18 20 2 18 20 2 18 20 2 18 20 2 18 20 2 18 20 2 18 20 2 18 20 2 18 20 2 18 20 2 18 20 2 18 20 2 18 20 2 18 20 2 18 20 2 18 20 2 18 20 2 18 20 2 18 20 2 18 20 2 18 20 2 18 20 2 18 20 2 18 20 2 18 20 2 18 20 2 18 20 2 18 20 2 18 20 2 18 20 2 18 20 2 18 20 2 18 20 2 18 20 2 18 20 2 
18 20 2 18 20 2 18 20 2 18 20 2 18 20 2 18 20 2 18 20 2 18 20 2 18 20 2 18 20 2 18 20 2 18 20 2 18 20 2 18 20 2 18 20 2 18 20 2 18 20 2 18 20 2 18 20 2 18 20 2 18 20 2 18 20 2 18 20 2 18 20 2 18 20 2 18 20 2 18 20 2 18 20 2 18 20 2 18 20 2 18 20 2 18 20 2 18 20 2 18 20 2 18 20 2 18 20 2 18 20 2 18 20 2 18 20 2 18 20 2 18 20 2 18 20 2 18 20 2 18 20 2 18 20 2 14 16 2 18 20 2 18 20 2 18 20 2 18 20 2 18 20 2 18 20 2 18 20 2 18 20 2 22 24 3 18 20 2 18 20 2 18 20 2 22 24 3 22 24 3 26 28 3 26 28 3 26 28 3 26 28 3 26 28 3 26 28 3 33 36 4 48 52 7 63 69 9 93 101 13 101 109 14 108 117 16 108 117 16 127 138 18 142 154 21 149 162 22 184 197 50 181 195 40 187 200 60 189 201 64 177 192 30 168 182 24 211 219 128 246 248 230 251 252 245 214 222 138 142 154 21 59 65 8 89 97 13 168 182 24 123 134 18 56 60 8 26 28 3 22 24 3 22 24 3 14 16 2 22 24 3 26 28 3 63 69 9 177 192 30 44 48 6 63 69 9 157 170 23 189 201 64 201 211 99 161 174 23 177 192 30 197 208 89 212 220 133 207 216 118 216 223 142 223 229 162 168 182 24 146 158 21 48 52 7 22 24 3 14 16 2 37 40 5 149 162 22 149 162 22 37 40 5 33 36 4 18 20 2 14 16 2 14 16 2 18 20 2 26 28 3 33 36 4 44 48 6 142 154 21 197 208 89 146 158 21 192 204 74 168 182 24 157 170 23 22 24 3 93 101 13 101 109 14 22 24 3 56 60 8 59 65 8 157 170 23 63 69 9 26 28 3 33 36 4 59 65 8 59 65 8 33 36 4 59 65 8 18 20 2 22 24 3 18 20 2 26 28 3 26 28 3 22 24 3 22 24 3 18 20 2 26 28 3 18 20 2 18 20 2 59 65 8 37 40 5 18 20 2 18 20 2 37 40 5 37 40 5 56 60 8 127 138 18 101 109 14 48 52 7 26 28 3 18 20 2 18 20 2 18 20 2 18 20 2 22 24 3 22 24 3 22 24 3 18 20 2 18 20 2 22 24 3 18 20 2 18 20 2 18 20 2 18 20 2 18 20 2 18 20 2 18 20 2 18 20 2 18 20 2 18 20 2 18 20 2 18 20 2 18 20 2 18 20 2 18 20 2 18 20 2 18 20 2 18 20 2 18 20 2 18 20 2 18 20 2 18 20 2 18 20 2 18 20 2 18 20 2 18 20 2 18 20 2 18 20 2 18 20 2 18 20 2 18 20 2 18 20 2 18 20 2 18 20 2 18 20 2 18 20 2 18 20 2 18 20 2 18 20 2 
18 20 2 18 20 2 18 20 2 18 20 2 18 20 2 18 20 2 18 20 2 18 20 2 18 20 2 18 20 2 18 20 2 18 20 2 18 20 2 18 20 2 18 20 2 18 20 2 18 20 2 18 20 2 18 20 2 18 20 2 18 20 2 18 20 2 18 20 2 18 20 2 18 20 2 18 20 2 18 20 2 18 20 2 18 20 2 18 20 2 18 20 2 18 20 2 18 20 2 18 20 2 18 20 2 18 20 2 18 20 2 18 20 2 18 20 2 18 20 2 18 20 2 18 20 2 18 20 2 18 20 2 18 20 2 18 20 2 18 20 2 18 20 2 18 20 2 18 20 2 18 20 2 18 20 2 18 20 2 18 20 2 22 24 3 26 28 3 26 28 3 26 28 3 26 28 3 26 28 3 26 28 3 33 36 4 33 36 4 33 36 4 44 48 6 44 48 6 44 48 6 56 60 8 93 101 13 101 109 14 108 117 16 134 146 19 108 117 16 123 134 18 142 154 21 172 186 25 177 192 30 196 207 84 196 207 84 197 208 89 197 208 89 219 226 152 249 250 240 246 248 230 214 222 138 168 182 24 101 109 14 48 52 7 37 40 5 101 109 14 37 40 5 22 24 3 33 36 4 22 24 3 14 16 2 18 20 2 33 36 4 26 28 3 177 192 30 59 65 8 33 36 4 189 201 64 212 220 133 189 201 64 184 197 50 187 200 60 229 234 181 181 195 40 229 234 181 216 223 142 186 199 55 181 195 40 44 48 6 22 24 3 44 48 6 231 235 186 251 252 245 218 225 147 194 205 79 184 197 50 123 134 18 142 154 21 138 150 20 48 52 7 18 20 2 14 16 2 14 16 2 37 40 5 33 36 4 37 40 5 22 24 3 22 24 3 89 97 13 48 52 7 127 138 18 146 158 21 48 52 7 26 28 3 26 28 3 22 24 3 149 162 22 101 109 14 26 28 3 22 24 3 59 65 8 37 40 5 18 20 2 59 65 8 37 40 5 33 36 4 44 48 6 37 40 5 44 48 6 18 20 2 33 36 4 26 28 3 26 28 3 18 20 2 22 24 3 14 16 2 48 52 7 44 48 6 26 28 3 14 16 2 22 24 3 22 24 3 89 97 13 127 138 18 138 150 20 89 97 13 33 36 4 37 40 5 56 60 8 37 40 5 26 28 3 33 36 4 26 28 3 22 24 3 26 28 3 26 28 3 26 28 3 22 24 3 18 20 2 18 20 2 18 20 2 18 20 2 18 20 2 18 20 2 18 20 2 18 20 2 18 20 2 18 20 2 18 20 2 14 16 2 18 20 2 18 20 2 18 20 2 18 20 2 18 20 2 18 20 2 18 20 2 18 20 2 18 20 2 18 20 2 18 20 2 18 20 2 18 20 2 18 20 2 18 20 2 18 20 2 18 20 2 18 20 2 18 20 2 18 20 2 18 20 2 18 20 2 18 20 2 18 20 2 18 20 2 18 20 2 
18 20 2 18 20 2 18 20 2 18 20 2 18 20 2 18 20 2 18 20 2 18 20 2 18 20 2 18 20 2 18 20 2 18 20 2 18 20 2 18 20 2 18 20 2 18 20 2 18 20 2 18 20 2 18 20 2 18 20 2 18 20 2 18 20 2 18 20 2 18 20 2 18 20 2 18 20 2 18 20 2 18 20 2 18 20 2 18 20 2 18 20 2 18 20 2 18 20 2 18 20 2 18 20 2 18 20 2 18 20 2 18 20 2 18 20 2 18 20 2 18 20 2 18 20 2 18 20 2 18 20 2 18 20 2 18 20 2 18 20 2 18 20 2 18 20 2 18 20 2 18 20 2 18 20 2 18 20 2 18 20 2 22 24 3 26 28 3 26 28 3 26 28 3 26 28 3 26 28 3 26 28 3 33 36 4 33 36 4 33 36 4 44 48 6 44 48 6 44 48 6 56 60 8 93 101 13 101 109 14 108 117 16 134 146 19 108 117 16 123 134 18 142 154 21 172 186 25 177 192 30 196 207 84 196 207 84 197 208 89 197 208 89 219 226 152 249 250 240 246 248 230 214 222 138 168 182 24 101 109 14 48 52 7 37 40 5 101 109 14 37 40 5 22 24 3 33 36 4 22 24 3 14 16 2 18 20 2 33 36 4 26 28 3 177 192 30 59 65 8 33 36 4 189 201 64 212 220 133 189 201 64 184 197 50 187 200 60 229 234 181 181 195 40 229 234 181 216 223 142 186 199 55 181 195 40 44 48 6 22 24 3 44 48 6 231 235 186 251 252 245 218 225 147 194 205 79 184 197 50 123 134 18 142 154 21 138 150 20 48 52 7 18 20 2 14 16 2 14 16 2 37 40 5 33 36 4 37 40 5 22 24 3 22 24 3 89 97 13 48 52 7 127 138 18 146 158 21 48 52 7 26 28 3 26 28 3 22 24 3 149 162 22 101 109 14 26 28 3 22 24 3 59 65 8 37 40 5 18 20 2 59 65 8 37 40 5 33 36 4 44 48 6 37 40 5 44 48 6 18 20 2 33 36 4 26 28 3 26 28 3 18 20 2 22 24 3 14 16 2 48 52 7 44 48 6 26 28 3 14 16 2 22 24 3 22 24 3 89 97 13 127 138 18 138 150 20 89 97 13 33 36 4 37 40 5 56 60 8 37 40 5 26 28 3 33 36 4 26 28 3 22 24 3 26 28 3 26 28 3 26 28 3 22 24 3 18 20 2 18 20 2 18 20 2 18 20 2 18 20 2 18 20 2 18 20 2 18 20 2 18 20 2 18 20 2 18 20 2 14 16 2 18 20 2 18 20 2 18 20 2 18 20 2 18 20 2 18 20 2 18 20 2 18 20 2 18 20 2 18 20 2 18 20 2 18 20 2 18 20 2 18 20 2 18 20 2 18 20 2 18 20 2 18 20 2 18 20 2 18 20 2 18 20 2 18 20 2 18 20 2 18 20 2 18 20 2 18 20 2 
18 20 2 18 20 2 18 20 2 18 20 2 18 20 2 18 20 2 18 20 2 18 20 2 18 20 2 18 20 2 18 20 2 18 20 2 18 20 2 18 20 2 18 20 2 18 20 2 18 20 2 18 20 2 18 20 2 18 20 2 18 20 2 18 20 2 18 20 2 18 20 2 18 20 2 18 20 2 18 20 2 18 20 2 18 20 2 18 20 2 18 20 2 18 20 2 18 20 2 18 20 2 18 20 2 18 20 2 18 20 2 18 20 2 18 20 2 18 20 2 18 20 2 18 20 2 18 20 2 18 20 2 18 20 2 18 20 2 18 20 2 18 20 2 18 20 2 18 20 2 18 20 2 18 20 2 18 20 2 22 24 3 33 36 4 37 40 5 37 40 5 37 40 5 37 40 5 33 36 4 37 40 5 37 40 5 37 40 5 44 48 6 59 65 8 89 97 13 89 97 13 93 101 13 123 134 18 127 138 18 123 134 18 123 134 18 153 166 22 219 226 152 218 225 147 221 227 157 206 215 113 207 216 118 229 234 181 194 205 79 196 207 84 218 225 147 138 150 20 142 154 21 138 150 20 93 101 13 56 60 8 44 48 6 56 60 8 22 24 3 26 28 3 22 24 3 18 20 2 14 16 2 14 16 2 56 60 8 22 24 3 146 158 21 153 166 22 33 36 4 168 182 24 184 197 50 181 195 40 204 214 108 138 150 20 172 186 25 168 182 24 219 226 152 218 225 147 186 199 55 37 40 5 44 48 6 18 20 2 149 162 22 241 244 216 249 250 240 221 227 157 177 192 30 59 65 8 18 20 2 18 20 2 14 16 2 14 16 2 14 16 2 14 16 2 18 20 2 14 16 2 14 16 2 26 28 3 89 97 13 18 20 2 14 16 2 37 40 5 48 52 7 172 186 25 56 60 8 18 20 2 18 20 2 22 24 3 149 162 22 26 28 3 89 97 13 33 36 4 22 24 3 18 20 2 33 36 4 56 60 8 18 20 2 26 28 3 48 52 7 18 20 2 18 20 2 14 16 2 18 20 2 18 20 2 48 52 7 22 24 3 18 20 2 22 24 3 18 20 2 22 24 3 56 60 8 26 28 3 14 16 2 26 28 3 18 20 2 48 52 7 63 69 9 48 52 7 22 24 3 18 20 2 18 20 2 26 28 3 26 28 3 22 24 3 22 24 3 26 28 3 26 28 3 26 28 3 22 24 3 22 24 3 22 24 3 18 20 2 18 20 2 18 20 2 18 20 2 22 24 3 22 24 3 18 20 2 18 20 2 18 20 2 18 20 2 18 20 2 18 20 2 18 20 2 18 20 2 18 20 2 18 20 2 18 20 2 18 20 2 18 20 2 18 20 2 18 20 2 18 20 2 18 20 2 18 20 2 18 20 2 18 20 2 18 20 2 18 20 2 18 20 2 18 20 2 18 20 2 18 20 2 18 20 2 18 20 2 18 20 2 18 20 2 18 20 2 18 20 2 
18 20 2 18 20 2 18 20 2 18 20 2 18 20 2 18 20 2 18 20 2 18 20 2 18 20 2 18 20 2 18 20 2 18 20 2 18 20 2 18 20 2 18 20 2 18 20 2 18 20 2 18 20 2 18 20 2 18 20 2 18 20 2 18 20 2 18 20 2 18 20 2 18 20 2 18 20 2 18 20 2 18 20 2 18 20 2 18 20 2 18 20 2 18 20 2 18 20 2 18 20 2 18 20 2 18 20 2 18 20 2 18 20 2 18 20 2 18 20 2 18 20 2 18 20 2 18 20 2 18 20 2 18 20 2 18 20 2 18 20 2 18 20 2 18 20 2 18 20 2 18 20 2 18 20 2 18 20 2 22 24 3 33 36 4 37 40 5 37 40 5 37 40 5 37 40 5 33 36 4 37 40 5 37 40 5 37 40 5 44 48 6 59 65 8 89 97 13 89 97 13 93 101 13 123 134 18 127 138 18 123 134 18 123 134 18 153 166 22 219 226 152 218 225 147 221 227 157 206 215 113 207 216 118 229 234 181 194 205 79 196 207 84 218 225 147 138 150 20 142 154 21 138 150 20 93 101 13 56 60 8 44 48 6 56 60 8 22 24 3 26 28 3 22 24 3 18 20 2 14 16 2 14 16 2 56 60 8 22 24 3 146 158 21 153 166 22 33 36 4 168 182 24 184 197 50 181 195 40 204 214 108 138 150 20 172 186 25 168 182 24 219 226 152 218 225 147 186 199 55 37 40 5 44 48 6 18 20 2 149 162 22 241 244 216 249 250 240 221 227 157 177 192 30 59 65 8 18 20 2 18 20 2 14 16 2 14 16 2 14 16 2 14 16 2 18 20 2 14 16 2 14 16 2 26 28 3 89 97 13 18 20 2 14 16 2 37 40 5 48 52 7 172 186 25 56 60 8 18 20 2 18 20 2 22 24 3 149 162 22 26 28 3 89 97 13 33 36 4 22 24 3 18 20 2 33 36 4 56 60 8 18 20 2 26 28 3 48 52 7 18 20 2 18 20 2 14 16 2 18 20 2 18 20 2 48 52 7 22 24 3 18 20 2 22 24 3 18 20 2 22 24 3 56 60 8 26 28 3 14 16 2 26 28 3 18 20 2 48 52 7 63 69 9 48 52 7 22 24 3 18 20 2 18 20 2 26 28 3 26 28 3 22 24 3 22 24 3 26 28 3 26 28 3 26 28 3 22 24 3 22 24 3 22 24 3 18 20 2 18 20 2 18 20 2 18 20 2 22 24 3 22 24 3 18 20 2 18 20 2 18 20 2 18 20 2 18 20 2 18 20 2 18 20 2 18 20 2 18 20 2 18 20 2 18 20 2 18 20 2 18 20 2 18 20 2 18 20 2 18 20 2 18 20 2 18 20 2 18 20 2 18 20 2 18 20 2 18 20 2 18 20 2 18 20 2 18 20 2 18 20 2 18 20 2 18 20 2 18 20 2 18 20 2 18 20 2 18 20 2 
18 20 2 18 20 2 18 20 2 18 20 2 18 20 2 18 20 2 18 20 2 18 20 2 18 20 2 18 20 2 18 20 2 18 20 2 18 20 2 18 20 2 18 20 2 18 20 2 18 20 2 18 20 2 18 20 2 18 20 2 18 20 2 18 20 2 18 20 2 18 20 2 18 20 2 18 20 2 18 20 2 18 20 2 18 20 2 18 20 2 18 20 2 18 20 2 18 20 2 18 20 2 18 20 2 18 20 2 18 20 2 18 20 2 18 20 2 18 20 2 14 16 2 14 16 2 18 20 2 18 20 2 18 20 2 18 20 2 18 20 2 18 20 2 18 20 2 18 20 2 22 24 3 22 24 3 22 24 3 26 28 3 33 36 4 37 40 5 44 48 6 44 48 6 44 48 6 44 48 6 44 48 6 48 52 7 59 65 8 89 97 13 93 101 13 138 150 20 157 170 23 161 174 23 149 162 22 153 166 22 149 162 22 168 182 24 192 204 74 196 207 84 168 182 24 181 195 40 161 174 23 186 199 55 223 229 162 216 223 142 146 158 21 123 134 18 108 117 16 44 48 6 33 36 4 37 40 5 26 28 3 22 24 3 22 24 3 22 24 3 37 40 5 22 24 3 14 16 2 18 20 2 33 36 4 63 69 9 33 36 4 161 174 23 127 138 18 33 36 4 196 207 84 204 214 108 184 197 50 123 134 18 226 231 172 196 207 84 199 210 94 189 201 64 197 208 89 123 134 18 33 36 4 22 24 3 93 101 13 146 158 21 149 162 22 146 158 21 37 40 5 18 20 2 18 20 2 14 16 2 18 20 2 14 16 2 14 16 2 18 20 2 18 20 2 14 16 2 18 20 2 14 16 2 14 16 2 93 101 13 33 36 4 63 69 9 123 134 18 48 52 7 127 138 18 44 48 6 18 20 2 63 69 9 37 40 5 26 28 3 26 28 3 48 52 7 48 52 7 22 24 3 44 48 6 26 28 3 26 28 3 33 36 4 108 117 16 89 97 13 18 20 2 33 36 4 22 24 3 18 20 2 18 20 2 18 20 2 18 20 2 22 24 3 18 20 2 22 24 3 26 28 3 26 28 3 18 20 2 14 16 2 14 16 2 26 28 3 33 36 4 26 28 3 26 28 3 22 24 3 18 20 2 33 36 4 33 36 4 26 28 3 33 36 4 59 65 8 63 69 9 56 60 8 48 52 7 44 48 6 26 28 3 22 24 3 26 28 3 33 36 4 26 28 3 18 20 2 18 20 2 18 20 2 18 20 2 18 20 2 18 20 2 18 20 2 18 20 2 18 20 2 18 20 2 18 20 2 18 20 2 18 20 2 18 20 2 18 20 2 18 20 2 18 20 2 18 20 2 18 20 2 18 20 2 18 20 2 18 20 2 18 20 2 18 20 2 18 20 2 18 20 2 18 20 2 18 20 2 18 20 2 18 20 2 18 20 2 18 20 2 18 20 2 18 20 2 18 20 2 
18 20 2 18 20 2 18 20 2 18 20 2 18 20 2 18 20 2 18 20 2 18 20 2 18 20 2 18 20 2 18 20 2 18 20 2 18 20 2 18 20 2 18 20 2 18 20 2 18 20 2 18 20 2 18 20 2 18 20 2 18 20 2 18 20 2 18 20 2 18 20 2 18 20 2 18 20 2 18 20 2 18 20 2 18 20 2 18 20 2 18 20 2 18 20 2 18 20 2 18 20 2 18 20 2 18 20 2 18 20 2 18 20 2 18 20 2 18 20 2 14 16 2 14 16 2 18 20 2 18 20 2 18 20 2 18 20 2 18 20 2 18 20 2 18 20 2 18 20 2 22 24 3 22 24 3 22 24 3 26 28 3 33 36 4 37 40 5 44 48 6 44 48 6 44 48 6 44 48 6 44 48 6 48 52 7 59 65 8 89 97 13 93 101 13 138 150 20 157 170 23 161 174 23 149 162 22 153 166 22 149 162 22 168 182 24 192 204 74 196 207 84 168 182 24 181 195 40 161 174 23 186 199 55 223 229 162 216 223 142 146 158 21 123 134 18 108 117 16 44 48 6 33 36 4 37 40 5 26 28 3 22 24 3 22 24 3 22 24 3 37 40 5 22 24 3 14 16 2 18 20 2 33 36 4 63 69 9 33 36 4 161 174 23 127 138 18 33 36 4 196 207 84 204 214 108 184 197 50 123 134 18 226 231 172 196 207 84 199 210 94 189 201 64 197 208 89 123 134 18 33 36 4 22 24 3 93 101 13 146 158 21 149 162 22 146 158 21 37 40 5 18 20 2 18 20 2 14 16 2 18 20 2 14 16 2 14 16 2 18 20 2 18 20 2 14 16 2 18 20 2 14 16 2 14 16 2 93 101 13 33 36 4 63 69 9 123 134 18 48 52 7 127 138 18 44 48 6 18 20 2 63 69 9 37 40 5 26 28 3 26 28 3 48 52 7 48 52 7 22 24 3 44 48 6 26 28 3 26 28 3 33 36 4 108 117 16 89 97 13 18 20 2 33 36 4 22 24 3 18 20 2 18 20 2 18 20 2 18 20 2 22 24 3 18 20 2 22 24 3 26 28 3 26 28 3 18 20 2 14 16 2 14 16 2 26 28 3 33 36 4 26 28 3 26 28 3 22 24 3 18 20 2 33 36 4 33 36 4 26 28 3 33 36 4 59 65 8 63 69 9 56 60 8 48 52 7 44 48 6 26 28 3 22 24 3 26 28 3 33 36 4 26 28 3 18 20 2 18 20 2 18 20 2 18 20 2 18 20 2 18 20 2 18 20 2 18 20 2 18 20 2 18 20 2 18 20 2 18 20 2 18 20 2 18 20 2 18 20 2 18 20 2 18 20 2 18 20 2 18 20 2 18 20 2 18 20 2 18 20 2 18 20 2 18 20 2 18 20 2 18 20 2 18 20 2 18 20 2 18 20 2 18 20 2 18 20 2 18 20 2 18 20 2 18 20 2 18 20 2 
18 20 2 18 20 2 18 20 2 18 20 2 18 20 2 18 20 2 18 20 2 18 20 2 18 20 2 18 20 2 18 20 2 18 20 2 18 20 2 18 20 2 18 20 2 18 20 2 18 20 2 18 20 2 18 20 2 18 20 2 18 20 2 18 20 2 18 20 2 18 20 2 18 20 2 18 20 2 18 20 2 18 20 2 18 20 2 18 20 2 18 20 2 18 20 2 18 20 2 18 20 2 18 20 2 18 20 2 18 20 2 18 20 2 18 20 2 18 20 2 14 16 2 18 20 2 18 20 2 18 20 2 22 24 3 22 24 3 22 24 3 22 24 3 22 24 3 22 24 3 26 28 3 26 28 3 26 28 3 26 28 3 33 36 4 37 40 5 48 52 7 59 65 8 56 60 8 48 52 7 48 52 7 63 69 9 93 101 13 93 101 13 93 101 13 101 109 14 123 134 18 157 170 23 168 182 24 172 186 25 177 192 30 172 186 25 189 201 64 199 210 94 197 208 89 204 214 108 239 242 211 248 249 235 224 230 167 186 199 55 89 97 13 56 60 8 108 117 16 161 174 23 89 97 13 26 28 3 18 20 2 18 20 2 18 20 2 33 36 4 22 24 3 14 16 2 18 20 2 14 16 2 63 69 9 59 65 8 56 60 8 172 186 25 26 28 3 108 117 16 161 174 23 196 207 84 194 205 79 189 201 64 127 138 18 181 195 40 186 199 55 206 215 113 37 40 5 18 20 2 18 20 2 14 16 2 33 36 4 44 48 6 33 36 4 14 16 2 18 20 2 18 20 2 14 16 2 14 16 2 14 16 2 14 16 2 14 16 2 14 16 2 14 16 2 14 16 2 18 20 2 18 20 2 18 20 2 63 69 9 89 97 13 18 20 2 172 186 25 48 52 7 101 109 14 33 36 4 108 117 16 37 40 5 37 40 5 26 28 3 37 40 5 108 117 16 48 52 7 48 52 7 33 36 4 48 52 7 93 101 13 26 28 3 26 28 3 18 20 2 33 36 4 22 24 3 18 20 2 18 20 2 14 16 2 22 24 3 22 24 3 18 20 2 18 20 2 18 20 2 18 20 2 22 24 3 18 20 2 18 20 2 18 20 2 18 20 2 26 28 3 101 109 14 63 69 9 44 48 6 63 69 9 59 65 8 48 52 7 33 36 4 33 36 4 63 69 9 59 65 8 44 48 6 37 40 5 44 48 6 44 48 6 26 28 3 26 28 3 26 28 3 22 24 3 18 20 2 18 20 2 18 20 2 18 20 2 18 20 2 18 20 2 18 20 2 18 20 2 18 20 2 18 20 2 18 20 2 18 20 2 18 20 2 18 20 2 18 20 2 18 20 2 18 20 2 18 20 2 18 20 2 18 20 2 18 20 2 18 20 2 18 20 2 18 20 2 18 20 2 18 20 2 18 20 2 18 20 2 18 20 2 18 20 2 18 20 2 18 20 2 18 20 2 18 20 2 18 20 2 
18 20 2 18 20 2 18 20 2 18 20 2 18 20 2 18 20 2 18 20 2 18 20 2 18 20 2 18 20 2 18 20 2 18 20 2 18 20 2 18 20 2 18 20 2 18 20 2 18 20 2 18 20 2 18 20 2 18 20 2 18 20 2 18 20 2 18 20 2 18 20 2 18 20 2 18 20 2 18 20 2 18 20 2 18 20 2 18 20 2 18 20 2 18 20 2 18 20 2 18 20 2 18 20 2 18 20 2 18 20 2 18 20 2 18 20 2 18 20 2 14 16 2 18 20 2 18 20 2 18 20 2 22 24 3 22 24 3 22 24 3 22 24 3 22 24 3 22 24 3 26 28 3 26 28 3 26 28 3 26 28 3 33 36 4 37 40 5 48 52 7 59 65 8 56 60 8 48 52 7 48 52 7 63 69 9 93 101 13 93 101 13 93 101 13 101 109 14 123 134 18 157 170 23 168 182 24 172 186 25 177 192 30 172 186 25 189 201 64 199 210 94 197 208 89 204 214 108 239 242 211 248 249 235 224 230 167 186 199 55 89 97 13 56 60 8 108 117 16 161 174 23 89 97 13 26 28 3 18 20 2 18 20 2 18 20 2 33 36 4 22 24 3 14 16 2 18 20 2 14 16 2 63 69 9 59 65 8 56 60 8 172 186 25 26 28 3 108 117 16 161 174 23 196 207 84 194 205 79 189 201 64 127 138 18 181 195 40 186 199 55 206 215 113 37 40 5 18 20 2 18 20 2 14 16 2 33 36 4 44 48 6 33 36 4 14 16 2 18 20 2 18 20 2 14 16 2 14 16 2 14 16 2 14 16 2 14 16 2 14 16 2 14 16 2 14 16 2 18 20 2 18 20 2 18 20 2 63 69 9 89 97 13 18 20 2 172 186 25 48 52 7 101 109 14 33 36 4 108 117 16 37 40 5 37 40 5 26 28 3 37 40 5 108 117 16 48 52 7 48 52 7 33 36 4 48 52 7 93 101 13 26 28 3 26 28 3 18 20 2 33 36 4 22 24 3 18 20 2 18 20 2 14 16 2 22 24 3 22 24 3 18 20 2 18 20 2 18 20 2 18 20 2 22 24 3 18 20 2 18 20 2 18 20 2 18 20 2 26 28 3 101 109 14 63 69 9 44 48 6 63 69 9 59 65 8 48 52 7 33 36 4 33 36 4 63 69 9 59 65 8 44 48 6 37 40 5 44 48 6 44 48 6 26 28 3 26 28 3 26 28 3 22 24 3 18 20 2 18 20 2 18 20 2 18 20 2 18 20 2 18 20 2 18 20 2 18 20 2 18 20 2 18 20 2 18 20 2 18 20 2 18 20 2 18 20 2 18 20 2 18 20 2 18 20 2 18 20 2 18 20 2 18 20 2 18 20 2 18 20 2 18 20 2 18 20 2 18 20 2 18 20 2 18 20 2 18 20 2 18 20 2 18 20 2 18 20 2 18 20 2 18 20 2 18 20 2 18 20 2 
18 20 2 18 20 2 18 20 2 18 20 2 18 20 2 18 20 2 18 20 2 18 20 2 18 20 2 18 20 2 18 20 2 18 20 2 18 20 2 18 20 2 18 20 2 18 20 2 18 20 2 18 20 2 18 20 2 18 20 2 18 20 2 18 20 2 18 20 2 18 20 2 18 20 2 18 20 2 18 20 2 18 20 2 18 20 2 18 20 2 18 20 2 18 20 2 18 20 2 18 20 2 18 20 2 18 20 2 18 20 2 18 20 2 18 20 2 18 20 2 18 20 2 18 20 2 18 20 2 18 20 2 18 20 2 18 20 2 18 20 2 22 24 3 26 28 3 26 28 3 33 36 4 33 36 4 26 28 3 26 28 3 33 36 4 44 48 6 56 60 8 56 60 8 59 65 8 63 69 9 89 97 13 93 101 13 108 117 16 108 117 16 108 117 16 101 109 14 134 146 19 201 211 99 197 208 89 194 205 79 201 211 99 172 186 25 184 197 50 177 192 30 196 207 84 243 245 220 249 250 240 212 220 133 184 197 50 134 146 19 48 52 7 37 40 5 48 52 7 26 28 3 18 20 2 18 20 2 18 20 2 18 20 2 37 40 5 26 28 3 14 16 2 14 16 2 22 24 3 18 20 2 101 109 14 56 60 8 123 134 18 161 174 23 33 36 4 93 101 13 196 207 84 189 201 64 177 192 30 146 158 21 187 200 60 157 170 23 172 186 25 172 186 25 48 52 7 22 24 3 22 24 3 18 20 2 14 16 2 18 20 2 14 16 2 14 16 2 14 16 2 14 16 2 14 16 2 14 16 2 14 16 2 14 16 2 14 16 2 14 16 2 14 16 2 14 16 2 14 16 2 18 20 2 18 20 2 93 101 13 153 166 22 157 170 23 184 197 50 146 158 21 138 150 20 146 158 21 48 52 7 127 138 18 153 166 22 123 134 18 56 60 8 56 60 8 22 24 3 48 52 7 37 40 5 63 69 9 59 65 8 56 60 8 48 52 7 37 40 5 26 28 3 26 28 3 22 24 3 18 20 2 14 16 2 14 16 2 18 20 2 18 20 2 18 20 2 14 16 2 18 20 2 22 24 3 14 16 2 14 16 2 18 20 2 18 20 2 37 40 5 56 60 8 44 48 6 33 36 4 33 36 4 33 36 4 26 28 3 22 24 3 33 36 4 48 52 7 44 48 6 33 36 4 26 28 3 26 28 3 22 24 3 18 20 2 18 20 2 18 20 2 18 20 2 18 20 2 18 20 2 18 20 2 18 20 2 18 20 2 18 20 2 18 20 2 18 20 2 18 20 2 18 20 2 18 20 2 18 20 2 18 20 2 18 20 2 18 20 2 18 20 2 18 20 2 18 20 2 18 20 2 18 20 2 18 20 2 18 20 2 18 20 2 18 20 2 18 20 2 18 20 2 18 20 2 18 20 2 18 20 2 18 20 2 18 20 2 18 20 2 18 20 2 18 20 2 18 20 2 
18 20 2 18 20 2 18 20 2 18 20 2 18 20 2 18 20 2 18 20 2 18 20 2 18 20 2 18 20 2 18 20 2 18 20 2 18 20 2 18 20 2 18 20 2 18 20 2 18 20 2 18 20 2 18 20 2 18 20 2 18 20 2 18 20 2 18 20 2 18 20 2 18 20 2 18 20 2 18 20 2 18 20 2 18 20 2 18 20 2 18 20 2 18 20 2 18 20 2 18 20 2 18 20 2 18 20 2 18 20 2 18 20 2 18 20 2 18 20 2 18 20 2 18 20 2 18 20 2 18 20 2 18 20 2 18 20 2 18 20 2 22 24 3 26 28 3 26 28 3 33 36 4 33 36 4 26 28 3 26 28 3 33 36 4 44 48 6 56 60 8 56 60 8 59 65 8 63 69 9 89 97 13 93 101 13 108 117 16 108 117 16 108 117 16 101 109 14 134 146 19 201 211 99 197 208 89 194 205 79 201 211 99 172 186 25 184 197 50 177 192 30 196 207 84 243 245 220 249 250 240 212 220 133 184 197 50 134 146 19 48 52 7 37 40 5 48 52 7 26 28 3 18 20 2 18 20 2 18 20 2 18 20 2 37 40 5 26 28 3 14 16 2 14 16 2 22 24 3 18 20 2 101 109 14 56 60 8 123 134 18 161 174 23 33 36 4 93 101 13 196 207 84 189 201 64 177 192 30 146 158 21 187 200 60 157 170 23 172 186 25 172 186 25 48 52 7 22 24 3 22 24 3 18 20 2 14 16 2 18 20 2 14 16 2 14 16 2 14 16 2 14 16 2 14 16 2 14 16 2 14 16 2 14 16 2 14 16 2 14 16 2 14 16 2 14 16 2 14 16 2 18 20 2 18 20 2 93 101 13 153 166 22 157 170 23 184 197 50 146 158 21 138 150 20 146 158 21 48 52 7 127 138 18 153 166 22 123 134 18 56 60 8 56 60 8 22 24 3 48 52 7 37 40 5 63 69 9 59 65 8 56 60 8 48 52 7 37 40 5 26 28 3 26 28 3 22 24 3 18 20 2 14 16 2 14 16 2 18 20 2 18 20 2 18 20 2 14 16 2 18 20 2 22 24 3 14 16 2 14 16 2 18 20 2 18 20 2 37 40 5 56 60 8 44 48 6 33 36 4 33 36 4 33 36 4 26 28 3 22 24 3 33 36 4 48 52 7 44 48 6 33 36 4 26 28 3 26 28 3 22 24 3 18 20 2 18 20 2 18 20 2 18 20 2 18 20 2 18 20 2 18 20 2 18 20 2 18 20 2 18 20 2 18 20 2 18 20 2 18 20 2 18 20 2 18 20 2 18 20 2 18 20 2 18 20 2 18 20 2 18 20 2 18 20 2 18 20 2 18 20 2 18 20 2 18 20 2 18 20 2 18 20 2 18 20 2 18 20 2 18 20 2 18 20 2 18 20 2 18 20 2 18 20 2 18 20 2 18 20 2 18 20 2 18 20 2 18 20 2 
18 20 2 18 20 2 18 20 2 18 20 2 18 20 2 18 20 2 18 20 2 18 20 2 18 20 2 18 20 2 18 20 2 18 20 2 18 20 2 18 20 2 18 20 2 18 20 2 18 20 2 18 20 2 18 20 2 18 20 2 18 20 2 18 20 2 18 20 2 18 20 2 18 20 2 18 20 2 18 20 2 18 20 2 18 20 2 18 20 2 18 20 2 18 20 2 18 20 2 18 20 2 18 20 2 18 20 2 18 20 2 18 20 2 18 20 2 18 20 2 18 20 2 18 20 2 18 20 2 22 24 3 22 24 3 22 24 3 22 24 3 22 24 3 22 24 3 26 28 3 33 36 4 33 36 4 33 36 4 44 48 6 63 69 9 101 109 14 101 109 14 89 97 13 127 138 18 146 158 21 142 154 21 138 150 20 146 158 21 138 150 20 142 154 21 161 174 23 172 186 25 194 205 79 214 222 138 216 223 142 204 214 108 212 220 133 161 174 23 202 212 103 186 199 55 194 205 79 123 134 18 93 101 13 63 69 9 37 40 5 33 36 4 37 40 5 22 24 3 18 20 2 18 20 2 33 36 4 48 52 7 18 20 2 22 24 3 18 20 2 14 16 2 18 20 2 22 24 3 22 24 3 127 138 18 56 60 8 149 162 22 138 150 20 26 28 3 142 154 21 181 195 40 192 204 74 157 170 23 138 150 20 56 60 8 146 158 21 146 158 21 93 101 13 101 109 14 22 24 3 22 24 3 89 97 13 14 16 2 18 20 2 14 16 2 14 16 2 14 16 2 14 16 2 18 20 2 18 20 2 14 16 2 14 16 2 14 16 2 14 16 2 14 16 2 14 16 2 14 16 2 14 16 2 14 16 2 184 197 50 63 69 9 108 117 16 138 150 20 199 210 94 157 170 23 181 195 40 101 109 14 59 65 8 33 36 4 26 28 3 37 40 5 44 48 6 63 69 9 123 134 18 59 65 8 26 28 3 22 24 3 37 40 5 56 60 8 22 24 3 18 20 2 22 24 3 22 24 3 14 16 2 18 20 2 14 16 2 18 20 2 18 20 2 18 20 2 18 20 2 18 20 2 22 24 3 14 16 2 14 16 2 18 20 2 37 40 5 33 36 4 26 28 3 37 40 5 93 101 13 89 97 13 44 48 6 33 36 4 56 60 8 89 97 13 59 65 8 37 40 5 26 28 3 22 24 3 22 24 3 18 20 2 18 20 2 18 20 2 18 20 2 18 20 2 14 16 2 18 20 2 18 20 2 18 20 2 18 20 2 18 20 2 18 20 2 18 20 2 18 20 2 18 20 2 18 20 2 14 16 2 18 20 2 14 16 2 18 20 2 18 20 2 18 20 2 18 20 2 18 20 2 18 20 2 18 20 2 18 20 2 18 20 2 18 20 2 18 20 2 18 20 2 18 20 2 18 20 2 18 20 2 18 20 2 18 20 2 18 20 2 18 20 2 18 20 2 18 20 2 
18 20 2 18 20 2 18 20 2 18 20 2 18 20 2 18 20 2 18 20 2 18 20 2 18 20 2 18 20 2 18 20 2 18 20 2 18 20 2 18 20 2 18 20 2 18 20 2 18 20 2 18 20 2 18 20 2 18 20 2 18 20 2 18 20 2 18 20 2 18 20 2 18 20 2 18 20 2 18 20 2 18 20 2 18 20 2 18 20 2 18 20 2 18 20 2 18 20 2 18 20 2 18 20 2 18 20 2 18 20 2 18 20 2 18 20 2 18 20 2 18 20 2 18 20 2 18 20 2 22 24 3 22 24 3 22 24 3 22 24 3 22 24 3 22 24 3 26 28 3 33 36 4 33 36 4 33 36 4 44 48 6 63 69 9 101 109 14 101 109 14 89 97 13 127 138 18 146 158 21 142 154 21 138 150 20 146 158 21 138 150 20 142 154 21 161 174 23 172 186 25 194 205 79 214 222 138 216 223 142 204 214 108 212 220 133 161 174 23 202 212 103 186 199 55 194 205 79 123 134 18 93 101 13 63 69 9 37 40 5 33 36 4 37 40 5 22 24 3 18 20 2 18 20 2 33 36 4 48 52 7 18 20 2 22 24 3 18 20 2 14 16 2 18 20 2 22 24 3 22 24 3 127 138 18 56 60 8 149 162 22 138 150 20 26 28 3 142 154 21 181 195 40 192 204 74 157 170 23 138 150 20 56 60 8 146 158 21 146 158 21 93 101 13 101 109 14 22 24 3 22 24 3 89 97 13 14 16 2 18 20 2 14 16 2 14 16 2 14 16 2 14 16 2 18 20 2 18 20 2 14 16 2 14 16 2 14 16 2 14 16 2 14 16 2 14 16 2 14 16 2 14 16 2 14 16 2 184 197 50 63 69 9 108 117 16 138 150 20 199 210 94 157 170 23 181 195 40 101 109 14 59 65 8 33 36 4 26 28 3 37 40 5 44 48 6 63 69 9 123 134 18 59 65 8 26 28 3 22 24 3 37 40 5 56 60 8 22 24 3 18 20 2 22 24 3 22 24 3 14 16 2 18 20 2 14 16 2 18 20 2 18 20 2 18 20 2 18 20 2 18 20 2 22 24 3 14 16 2 14 16 2 18 20 2 37 40 5 33 36 4 26 28 3 37 40 5 93 101 13 89 97 13 44 48 6 33 36 4 56 60 8 89 97 13 59 65 8 37 40 5 26 28 3 22 24 3 22 24 3 18 20 2 18 20 2 18 20 2 18 20 2 18 20 2 14 16 2 18 20 2 18 20 2 18 20 2 18 20 2 18 20 2 18 20 2 18 20 2 18 20 2 18 20 2 18 20 2 14 16 2 18 20 2 14 16 2 18 20 2 18 20 2 18 20 2 18 20 2 18 20 2 18 20 2 18 20 2 18 20 2 18 20 2 18 20 2 18 20 2 18 20 2 18 20 2 18 20 2 18 20 2 18 20 2 18 20 2 18 20 2 18 20 2 18 20 2 18 20 2 
18 20 2 18 20 2 18 20 2 18 20 2 18 20 2 18 20 2 18 20 2 18 20 2 18 20 2 18 20 2 18 20 2 18 20 2 18 20 2 18 20 2 18 20 2 18 20 2 18 20 2 18 20 2 18 20 2 18 20 2 18 20 2 18 20 2 18 20 2 18 20 2 18 20 2 18 20 2 18 20 2 18 20 2 18 20 2 18 20 2 18 20 2 18 20 2 18 20 2 18 20 2 18 20 2 18 20 2 18 20 2 18 20 2 18 20 2 18 20 2 18 20 2 22 24 3 33 36 4 33 36 4 26 28 3 26 28 3 26 28 3 26 28 3 33 36 4 33 36 4 33 36 4 33 36 4 37 40 5 56 60 8 59 65 8 59 65 8 89 97 13 123 134 18 138 150 20 146 158 21 146 158 21 142 154 21 142 154 21 149 162 22 157 170 23 187 200 60 199 210 94 206 215 113 194 205 79 192 204 74 181 195 40 149 162 22 194 205 79 177 192 30 101 109 14 123 134 18 33 36 4 26 28 3 26 28 3 26 28 3 33 36 4 22 24 3 18 20 2 22 24 3 22 24 3 48 52 7 22 24 3 18 20 2 26 28 3 14 16 2 14 16 2 22 24 3 18 20 2 33 36 4 153 166 22 33 36 4 134 146 19 161 174 23 37 40 5 142 154 21 186 199 55 194 205 79 138 150 20 138 150 20 189 201 64 101 109 14 108 117 16 146 158 21 37 40 5 18 20 2 44 48 6 33 36 4 56 60 8 14 16 2 14 16 2 14 16 2 14 16 2 14 16 2 14 16 2 14 16 2 14 16 2 14 16 2 14 16 2 14 16 2 14 16 2 14 16 2 14 16 2 14 16 2 192 204 74 146 158 21 59 65 8 93 101 13 149 162 22 194 205 79 161 174 23 108 117 16 127 138 18 93 101 13 149 162 22 184 197 50 63 69 9 63 69 9 33 36 4 26 28 3 26 28 3 89 97 13 37 40 5 33 36 4 18 20 2 37 40 5 26 28 3 18 20 2 18 20 2 18 20 2 14 16 2 14 16 2 18 20 2 18 20 2 18 20 2 14 16 2 14 16 2 18 20 2 14 16 2 14 16 2 18 20 2 22 24 3 26 28 3 26 28 3 59 65 8 93 101 13 89 97 13 44 48 6 44 48 6 101 109 14 63 69 9 56 60 8 37 40 5 33 36 4 37 40 5 26 28 3 18 20 2 18 20 2 14 16 2 18 20 2 18 20 2 18 20 2 18 20 2 18 20 2 18 20 2 18 20 2 18 20 2 18 20 2 18 20 2 18 20 2 18 20 2 18 20 2 14 16 2 18 20 2 18 20 2 18 20 2 18 20 2 18 20 2 18 20 2 18 20 2 18 20 2 18 20 2 18 20 2 18 20 2 18 20 2 18 20 2 18 20 2 18 20 2 18 20 2 18 20 2 18 20 2 18 20 2 18 20 2 18 20 2 18 20 2 18 20 2 
18 20 2 18 20 2 18 20 2 18 20 2 18 20 2 18 20 2 18 20 2 18 20 2 18 20 2 18 20 2 18 20 2 18 20 2 18 20 2 18 20 2 18 20 2 18 20 2 18 20 2 18 20 2 18 20 2 18 20 2 18 20 2 18 20 2 18 20 2 18 20 2 18 20 2 18 20 2 18 20 2 18 20 2 18 20 2 18 20 2 18 20 2 18 20 2 18 20 2 18 20 2 18 20 2 18 20 2 18 20 2 18 20 2 18 20 2 18 20 2 18 20 2 22 24 3 33 36 4 33 36 4 26 28 3 26 28 3 26 28 3 26 28 3 33 36 4 33 36 4 33 36 4 33 36 4 37 40 5 56 60 8 59 65 8 59 65 8 89 97 13 123 134 18 138 150 20 146 158 21 146 158 21 142 154 21 142 154 21 149 162 22 157 170 23 187 200 60 199 210 94 206 215 113 194 205 79 192 204 74 181 195 40 149 162 22 194 205 79 177 192 30 101 109 14 123 134 18 33 36 4 26 28 3 26 28 3 26 28 3 33 36 4 22 24 3 18 20 2 22 24 3 22 24 3 48 52 7 22 24 3 18 20 2 26 28 3 14 16 2 14 16 2 22 24 3 18 20 2 33 36 4 153 166 22 33 36 4 134 146 19 161 174 23 37 40 5 142 154 21 186 199 55 194 205 79 138 150 20 138 150 20 189 201 64 101 109 14 108 117 16 146 158 21 37 40 5 18 20 2 44 48 6 33 36 4 56 60 8 14 16 2 14 16 2 14 16 2 14 16 2 14 16 2 14 16 2 14 16 2 14 16 2 14 16 2 14 16 2 14 16 2 14 16 2 14 16 2 14 16 2 14 16 2 192 204 74 146 158 21 59 65 8 93 101 13 149 162 22 194 205 79 161 174 23 108 117 16 127 138 18 93 101 13 149 162 22 184 197 50 63 69 9 63 69 9 33 36 4 26 28 3 26 28 3 89 97 13 37 40 5 33 36 4 18 20 2 37 40 5 26 28 3 18 20 2 18 20 2 18 20 2 14 16 2 14 16 2 18 20 2 18 20 2 18 20 2 14 16 2 14 16 2 18 20 2 14 16 2 14 16 2 18 20 2 22 24 3 26 28 3 26 28 3 59 65 8 93 101 13 89 97 13 44 48 6 44 48 6 101 109 14 63 69 9 56 60 8 37 40 5 33 36 4 37 40 5 26 28 3 18 20 2 18 20 2 14 16 2 18 20 2 18 20 2 18 20 2 18 20 2 18 20 2 18 20 2 18 20 2 18 20 2 18 20 2 18 20 2 18 20 2 18 20 2 18 20 2 14 16 2 18 20 2 18 20 2 18 20 2 18 20 2 18 20 2 18 20 2 18 20 2 18 20 2 18 20 2 18 20 2 18 20 2 18 20 2 18 20 2 18 20 2 18 20 2 18 20 2 18 20 2 18 20 2 18 20 2 18 20 2 18 20 2 18 20 2 18 20 2 
18 20 2 18 20 2 18 20 2 18 20 2 18 20 2 18 20 2 18 20 2 18 20 2 18 20 2 18 20 2 18 20 2 18 20 2 18 20 2 18 20 2 18 20 2 18 20 2 18 20 2 18 20 2 18 20 2 18 20 2 18 20 2 18 20 2 18 20 2 18 20 2 18 20 2 18 20 2 18 20 2 18 20 2 18 20 2 18 20 2 18 20 2 18 20 2 18 20 2 18 20 2 18 20 2 18 20 2 18 20 2 18 20 2 18 20 2 18 20 2 18 20 2 18 20 2 22 24 3 22 24 3 22 24 3 22 24 3 33 36 4 33 36 4 26 28 3 26 28 3 37 40 5 56 60 8 48 52 7 44 48 6 59 65 8 63 69 9 89 97 13 134 146 19 146 158 21 108 117 16 101 109 14 108 117 16 108 117 16 161 174 23 172 186 25 192 204 74 187 200 60 192 204 74 177 192 30 189 201 64 153 166 22 192 204 74 184 197 50 138 150 20 56 60 8 123 134 18 123 134 18 172 186 25 56 60 8 22 24 3 18 20 2 18 20 2 18 20 2 18 20 2 44 48 6 33 36 4 33 36 4 48 52 7 18 20 2 18 20 2 14 16 2 44 48 6 22 24 3 33 36 4 134 146 19 56 60 8 59 65 8 108 117 16 48 52 7 134 146 19 172 186 25 142 154 21 153 166 22 184 197 50 149 162 22 146 158 21 142 154 21 123 134 18 37 40 5 26 28 3 48 52 7 153 166 22 127 138 18 56 60 8 48 52 7 14 16 2 22 24 3 14 16 2 14 16 2 14 16 2 14 16 2 14 16 2 14 16 2 18 20 2 22 24 3 18 20 2 37 40 5 223 229 162 93 101 13 127 138 18 153 166 22 194 205 79 123 134 18 44 48 6 44 48 6 184 197 50 153 166 22 37 40 5 48 52 7 26 28 3 26 28 3 33 36 4 37 40 5 18 20 2 26 28 3 37 40 5 18 20 2 18 20 2 26 28 3 22 24 3 22 24 3 14 16 2 14 16 2 18 20 2 14 16 2 14 16 2 22 24 3 18 20 2 18 20 2 14 16 2 14 16 2 18 20 2 18 20 2 18 20 2 22 24 3 44 48 6 89 97 13 48 52 7 26 28 3 33 36 4 26 28 3 26 28 3 26 28 3 44 48 6 37 40 5 22 24 3 18 20 2 33 36 4 37 40 5 22 24 3 18 20 2 14 16 2 14 16 2 18 20 2 18 20 2 18 20 2 18 20 2 18 20 2 18 20 2 18 20 2 18 20 2 18 20 2 18 20 2 18 20 2 18 20 2 18 20 2 18 20 2 18 20 2 18 20 2 18 20 2 18 20 2 18 20 2 18 20 2 18 20 2 18 20 2 18 20 2 18 20 2 18 20 2 18 20 2 18 20 2 18 20 2 18 20 2 18 20 2 18 20 2 18 20 2 18 20 2 18 20 2 18 20 2 18 20 2 18 20 2 
18 20 2 18 20 2 18 20 2 18 20 2 18 20 2 18 20 2 18 20 2 18 20 2 18 20 2 18 20 2 18 20 2 18 20 2 18 20 2 18 20 2 18 20 2 18 20 2 18 20 2 18 20 2 18 20 2 18 20 2 18 20 2 18 20 2 18 20 2 18 20 2 18 20 2 18 20 2 18 20 2 18 20 2 18 20 2 18 20 2 18 20 2 18 20 2 18 20 2 18 20 2 18 20 2 18 20 2 18 20 2 18 20 2 18 20 2 18 20 2 18 20 2 18 20 2 22 24 3 22 24 3 22 24 3 22 24 3 33 36 4 33 36 4 26 28 3 26 28 3 37 40 5 56 60 8 48 52 7 44 48 6 59 65 8 63 69 9 89 97 13 134 146 19 146 158 21 108 117 16 101 109 14 108 117 16 108 117 16 161 174 23 172 186 25 192 204 74 187 200 60 192 204 74 177 192 30 189 201 64 153 166 22 192 204 74 184 197 50 138 150 20 56 60 8 123 134 18 123 134 18 172 186 25 56 60 8 22 24 3 18 20 2 18 20 2 18 20 2 18 20 2 44 48 6 33 36 4 33 36 4 48 52 7 18 20 2 18 20 2 14 16 2 44 48 6 22 24 3 33 36 4 134 146 19 56 60 8 59 65 8 108 117 16 48 52 7 134 146 19 172 186 25 142 154 21 153 166 22 184 197 50 149 162 22 146 158 21 142 154 21 123 134 18 37 40 5 26 28 3 48 52 7 153 166 22 127 138 18 56 60 8 48 52 7 14 16 2 22 24 3 14 16 2 14 16 2 14 16 2 14 16 2 14 16 2 14 16 2 18 20 2 22 24 3 18 20 2 37 40 5 223 229 162 93 101 13 127 138 18 153 166 22 194 205 79 123 134 18 44 48 6 44 48 6 184 197 50 153 166 22 37 40 5 48 52 7 26 28 3 26 28 3 33 36 4 37 40 5 18 20 2 26 28 3 37 40 5 18 20 2 18 20 2 26 28 3 22 24 3 22 24 3 14 16 2 14 16 2 18 20 2 14 16 2 14 16 2 22 24 3 18 20 2 18 20 2 14 16 2 14 16 2 18 20 2 18 20 2 18 20 2 22 24 3 44 48 6 89 97 13 48 52 7 26 28 3 33 36 4 26 28 3 26 28 3 26 28 3 44 48 6 37 40 5 22 24 3 18 20 2 33 36 4 37 40 5 22 24 3 18 20 2 14 16 2 14 16 2 18 20 2 18 20 2 18 20 2 18 20 2 18 20 2 18 20 2 18 20 2 18 20 2 18 20 2 18 20 2 18 20 2 18 20 2 18 20 2 18 20 2 18 20 2 18 20 2 18 20 2 18 20 2 18 20 2 18 20 2 18 20 2 18 20 2 18 20 2 18 20 2 18 20 2 18 20 2 18 20 2 18 20 2 18 20 2 18 20 2 18 20 2 18 20 2 18 20 2 18 20 2 18 20 2 18 20 2 18 20 2 
18 20 2 18 20 2 18 20 2 18 20 2 18 20 2 18 20 2 18 20 2 18 20 2 18 20 2 18 20 2 18 20 2 18 20 2 18 20 2 18 20 2 18 20 2 18 20 2 18 20 2 18 20 2 18 20 2 18 20 2 18 20 2 18 20 2 18 20 2 18 20 2 18 20 2 18 20 2 18 20 2 18 20 2 18 20 2 18 20 2 18 20 2 18 20 2 18 20 2 18 20 2 18 20 2 18 20 2 18 20 2 18 20 2 18 20 2 18 20 2 18 20 2 22 24 3 26 28 3 26 28 3 33 36 4 33 36 4 33 36 4 33 36 4 33 36 4 37 40 5 59 65 8 63 69 9 56 60 8 63 69 9 89 97 13 63 69 9 93 101 13 134 146 19 146 158 21 153 166 22 212 220 133 196 207 84 194 205 79 192 204 74 197 208 89 197 208 89 189 201 64 192 204 74 229 234 181 199 210 94 199 210 94 207 216 118 186 199 55 123 134 18 48 52 7 26 28 3 48 52 7 18 20 2 18 20 2 18 20 2 18 20 2 14 16 2 26 28 3 93 101 13 56 60 8 26 28 3 22 24 3 18 20 2 18 20 2 14 16 2 18 20 2 48 52 7 26 28 3 22 24 3 108 117 16 48 52 7 37 40 5 108 117 16 56 60 8 37 40 5 134 146 19 181 195 40 196 207 84 187 200 60 192 204 74 93 101 13 134 146 19 138 150 20 93 101 13 22 24 3 89 97 13 63 69 9 89 97 13 177 192 30 127 138 18 33 36 4 93 101 13 37 40 5 18 20 2 22 24 3 33 36 4 26 28 3 22 24 3 26 28 3 153 166 22 218 225 147 89 97 13 44 48 6 157 170 23 127 138 18 202 212 103 187 200 60 187 200 60 146 158 21 89 97 13 48 52 7 93 101 13 172 186 25 127 138 18 123 134 18 63 69 9 37 40 5 37 40 5 93 101 13 26 28 3 22 24 3 18 20 2 18 20 2 18 20 2 18 20 2 18 20 2 18 20 2 22 24 3 18 20 2 14 16 2 18 20 2 18 20 2 18 20 2 18 20 2 14 16 2 22 24 3 18 20 2 18 20 2 14 16 2 18 20 2 26 28 3 33 36 4 22 24 3 44 48 6 44 48 6 33 36 4 26 28 3 37 40 5 44 48 6 26 28 3 26 28 3 26 28 3 22 24 3 18 20 2 18 20 2 18 20 2 18 20 2 18 20 2 18 20 2 18 20 2 18 20 2 18 20 2 18 20 2 18 20 2 18 20 2 18 20 2 18 20 2 18 20 2 18 20 2 18 20 2 18 20 2 18 20 2 18 20 2 18 20 2 18 20 2 18 20 2 18 20 2 18 20 2 18 20 2 18 20 2 18 20 2 18 20 2 18 20 2 18 20 2 18 20 2 18 20 2 18 20 2 18 20 2 18 20 2 18 20 2 18 20 2 18 20 2 18 20 2 18 20 2 18 20 2 
18 20 2 18 20 2 18 20 2 18 20 2 18 20 2 18 20 2 18 20 2 18 20 2 18 20 2 18 20 2 18 20 2 18 20 2 18 20 2 18 20 2 18 20 2 18 20 2 18 20 2 18 20 2 18 20 2 18 20 2 18 20 2 18 20 2 18 20 2 18 20 2 18 20 2 18 20 2 18 20 2 18 20 2 18 20 2 18 20 2 18 20 2 18 20 2 18 20 2 18 20 2 18 20 2 18 20 2 18 20 2 18 20 2 18 20 2 18 20 2 18 20 2 22 24 3 26 28 3 26 28 3 33 36 4 33 36 4 33 36 4 33 36 4 33 36 4 37 40 5 59 65 8 63 69 9 56 60 8 63 69 9 89 97 13 63 69 9 93 101 13 134 146 19 146 158 21 153 166 22 212 220 133 196 207 84 194 205 79 192 204 74 197 208 89 197 208 89 189 201 64 192 204 74 229 234 181 199 210 94 199 210 94 207 216 118 186 199 55 123 134 18 48 52 7 26 28 3 48 52 7 18 20 2 18 20 2 18 20 2 18 20 2 14 16 2 26 28 3 93 101 13 56 60 8 26 28 3 22 24 3 18 20 2 18 20 2 14 16 2 18 20 2 48 52 7 26 28 3 22 24 3 108 117 16 48 52 7 37 40 5 108 117 16 56 60 8 37 40 5 134 146 19 181 195 40 196 207 84 187 200 60 192 204 74 93 101 13 134 146 19 138 150 20 93 101 13 22 24 3 89 97 13 63 69 9 89 97 13 177 192 30 127 138 18 33 36 4 93 101 13 37 40 5 18 20 2 22 24 3 33 36 4 26 28 3 22 24 3 26 28 3 153 166 22 218 225 147 89 97 13 44 48 6 157 170 23 127 138 18 202 212 103 187 200 60 187 200 60 146 158 21 89 97 13 48 52 7 93 101 13 172 186 25 127 138 18 123 134 18 63 69 9 37 40 5 37 40 5 93 101 13 26 28 3 22 24 3 18 20 2 18 20 2 18 20 2 18 20 2 18 20 2 18 20 2 22 24 3 18 20 2 14 16 2 18 20 2 18 20 2 18 20 2 18 20 2 14 16 2 22 24 3 18 20 2 18 20 2 14 16 2 18 20 2 26 28 3 33 36 4 22 24 3 44 48 6 44 48 6 33 36 4 26 28 3 37 40 5 44 48 6 26 28 3 26 28 3 26 28 3 22 24 3 18 20 2 18 20 2 18 20 2 18 20 2 18 20 2 18 20 2 18 20 2 18 20 2 18 20 2 18 20 2 18 20 2 18 20 2 18 20 2 18 20 2 18 20 2 18 20 2 18 20 2 18 20 2 18 20 2 18 20 2 18 20 2 18 20 2 18 20 2 18 20 2 18 20 2 18 20 2 18 20 2 18 20 2 18 20 2 18 20 2 18 20 2 18 20 2 18 20 2 18 20 2 18 20 2 18 20 2 18 20 2 18 20 2 18 20 2 18 20 2 18 20 2 18 20 2 
18 20 2 18 20 2 18 20 2 18 20 2 18 20 2 18 20 2 18 20 2 18 20 2 18 20 2 18 20 2 18 20 2 18 20 2 18 20 2 18 20 2 18 20 2 18 20 2 18 20 2 18 20 2 18 20 2 18 20 2 18 20 2 18 20 2 18 20 2 18 20 2 18 20 2 18 20 2 18 20 2 18 20 2 18 20 2 18 20 2 18 20 2 18 20 2 18 20 2 18 20 2 18 20 2 14 16 2 18 20 2 18 20 2 18 20 2 22 24 3 44 48 6 56 60 8 44 48 6 33 36 4 33 36 4 44 48 6 56 60 8 37 40 5 33 36 4 56 60 8 63 69 9 63 69 9 59 65 8 89 97 13 146 158 21 134 146 19 101 109 14 93 101 13 108 117 16 101 109 14 153 166 22 187 200 60 181 195 40 184 197 50 201 211 99 157 170 23 194 205 79 224 230 167 207 216 118 187 200 60 184 197 50 177 192 30 93 101 13 26 28 3 22 24 3 26 28 3 26 28 3 14 16 2 18 20 2 26 28 3 22 24 3 22 24 3 37 40 5 44 48 6 26 28 3 22 24 3 18 20 2 18 20 2 26 28 3 14 16 2 22 24 3 101 109 14 22 24 3 18 20 2 108 117 16 149 162 22 89 97 13 59 65 8 153 166 22 22 24 3 89 97 13 199 210 94 186 199 55 101 109 14 93 101 13 44 48 6 48 52 7 127 138 18 153 166 22 48 52 7 56 60 8 37 40 5 108 117 16 59 65 8 93 101 13 127 138 18 189 201 64 194 205 79 142 154 21 187 200 60 138 150 20 149 162 22 219 226 152 134 146 19 44 48 6 93 101 13 138 150 20 142 154 21 187 200 60 172 186 25 161 174 23 184 197 50 134 146 19 44 48 6 37 40 5 89 97 13 44 48 6 37 40 5 37 40 5 22 24 3 33 36 4 26 28 3 22 24 3 22 24 3 26 28 3 33 36 4 26 28 3 18 20 2 14 16 2 18 20 2 18 20 2 18 20 2 18 20 2 18 20 2 14 16 2 18 20 2 18 20 2 18 20 2 14 16 2 14 16 2 18 20 2 18 20 2 14 16 2 18 20 2 33 36 4 22 24 3 22 24 3 37 40 5 44 48 6 37 40 5 26 28 3 48 52 7 48 52 7 56 60 8 48 52 7 33 36 4 22 24 3 18 20 2 18 20 2 18 20 2 18 20 2 18 20 2 18 20 2 18 20 2 18 20 2 18 20 2 18 20 2 18 20 2 18 20 2 18 20 2 18 20 2 18 20 2 18 20 2 18 20 2 18 20 2 18 20 2 18 20 2 18 20 2 18 20 2 18 20 2 18 20 2 18 20 2 18 20 2 18 20 2 18 20 2 18 20 2 18 20 2 18 20 2 18 20 2 18 20 2 18 20 2 18 20 2 18 20 2 18 20 2 18 20 2 18 20 2 18 20 2 18 20 2 18 20 2 18 20 2 
18 20 2 18 20 2 18 20 2 18 20 2 18 20 2 18 20 2 18 20 2 18 20 2 18 20 2 18 20 2 18 20 2 18 20 2 18 20 2 18 20 2 18 20 2 18 20 2 18 20 2 18 20 2 18 20 2 18 20 2 18 20 2 18 20 2 18 20 2 18 20 2 18 20 2 18 20 2 18 20 2 18 20 2 18 20 2 18 20 2 18 20 2 18 20 2 18 20 2 18 20 2 18 20 2 14 16 2 18 20 2 18 20 2 18 20 2 22 24 3 44 48 6 56 60 8 44 48 6 33 36 4 33 36 4 44 48 6 56 60 8 37 40 5 33 36 4 56 60 8 63 69 9 63 69 9 59 65 8 89 97 13 146 158 21 134 146 19 101 109 14 93 101 13 108 117 16 101 109 14 153 166 22 187 200 60 181 195 40 184 197 50 201 211 99 157 170 23 194 205 79 224 230 167 207 216 118 187 200 60 184 197 50 177 192 30 93 101 13 26 28 3 22 24 3 26 28 3 26 28 3 14 16 2 18 20 2 26 28 3 22 24 3 22 24 3 37 40 5 44 48 6 26 28 3 22 24 3 18 20 2 18 20 2 26 28 3 14 16 2 22 24 3 101 109 14 22 24 3 18 20 2 108 117 16 149 162 22 89 97 13 59 65 8 153 166 22 22 24 3 89 97 13 199 210 94 186 199 55 101 109 14 93 101 13 44 48 6 48 52 7 127 138 18 153 166 22 48 52 7 56 60 8 37 40 5 108 117 16 59 65 8 93 101 13 127 138 18 189 201 64 194 205 79 142 154 21 187 200 60 138 150 20 149 162 22 219 226 152 134 146 19 44 48 6 93 101 13 138 150 20 142 154 21 187 200 60 172 186 25 161 174 23 184 197 50 134 146 19 44 48 6 37 40 5 89 97 13 44 48 6 37 40 5 37 40 5 22 24 3 33 36 4 26 28 3 22 24 3 22 24 3 26 28 3 33 36 4 26 28 3 18 20 2 14 16 2 18 20 2 18 20 2 18 20 2 18 20 2 18 20 2 14 16 2 18 20 2 18 20 2 18 20 2 14 16 2 14 16 2 18 20 2 18 20 2 14 16 2 18 20 2 33 36 4 22 24 3 22 24 3 37 40 5 44 48 6 37 40 5 26 28 3 48 52 7 48 52 7 56 60 8 48 52 7 33 36 4 22 24 3 18 20 2 18 20 2 18 20 2 18 20 2 18 20 2 18 20 2 18 20 2 18 20 2 18 20 2 18 20 2 18 20 2 18 20 2 18 20 2 18 20 2 18 20 2 18 20 2 18 20 2 18 20 2 18 20 2 18 20 2 18 20 2 18 20 2 18 20 2 18 20 2 18 20 2 18 20 2 18 20 2 18 20 2 18 20 2 18 20 2 18 20 2 18 20 2 18 20 2 18 20 2 18 20 2 18 20 2 18 20 2 18 20 2 18 20 2 18 20 2 18 20 2 18 20 2 18 20 2 
18 20 2 18 20 2 18 20 2 18 20 2 18 20 2 18 20 2 18 20 2 18 20 2 18 20 2 18 20 2 18 20 2 18 20 2 18 20 2 18 20 2 18 20 2 18 20 2 18 20 2 18 20 2 18 20 2 18 20 2 18 20 2 18 20 2 18 20 2 18 20 2 18 20 2 18 20 2 18 20 2 18 20 2 18 20 2 18 20 2 18 20 2 18 20 2 18 20 2 18 20 2 18 20 2 18 20 2 18 20 2 18 20 2 18 20 2 26 28 3 44 48 6 33 36 4 26 28 3 26 28 3 33 36 4 37 40 5 33 36 4 44 48 6 101 109 14 146 158 21 127 138 18 89 97 13 89 97 13 89 97 13 123 134 18 134 146 19 127 138 18 134 146 19 138 150 20 149 162 22 168 182 24 149 162 22 172 186 25 202 212 103 219 226 152 187 200 60 138 150 20 93 101 13 63 69 9 44 48 6 26 28 3 33 36 4 26 28 3 26 28 3 22 24 3 18 20 2 18 20 2 14 16 2 18 20 2 18 20 2 22 24 3 48 52 7 22 24 3 18 20 2 22 24 3 22 24 3 108 117 16 89 97 13 18 20 2 14 16 2 22 24 3 63 69 9 33 36 4 18 20 2 44 48 6 149 162 22 37 40 5 56 60 8 93 101 13 108 117 16 93 101 13 63 69 9 89 97 13 108 117 16 161 174 23 59 65 8 142 154 21 186 199 55 153 166 22 26 28 3 56 60 8 44 48 6 89 97 13 59 65 8 37 40 5 93 101 13 44 48 6 93 101 13 101 109 14 101 109 14 187 200 60 199 210 94 187 200 60 56 60 8 101 109 14 184 197 50 108 117 16 187 200 60 149 162 22 181 195 40 138 150 20 138 150 20 48 52 7 149 162 22 63 69 9 37 40 5 26 28 3 37 40 5 37 40 5 22 24 3 37 40 5 26 28 3 33 36 4 33 36 4 26 28 3 26 28 3 22 24 3 22 24 3 18 20 2 22 24 3 22 24 3 18 20 2 18 20 2 14 16 2 14 16 2 18 20 2 18 20 2 18 20 2 14 16 2 18 20 2 18 20 2 14 16 2 18 20 2 22 24 3 26 28 3 44 48 6 56 60 8 26 28 3 22 24 3 22 24 3 22 24 3 44 48 6 37 40 5 33 36 4 26 28 3 22 24 3 18 20 2 22 24 3 18 20 2 18 20 2 18 20 2 18 20 2 18 20 2 18 20 2 18 20 2 18 20 2 18 20 2 18 20 2 14 16 2 14 16 2 18 20 2 18 20 2 18 20 2 18 20 2 18 20 2 18 20 2 18 20 2 18 20 2 18 20 2 18 20 2 18 20 2 18 20 2 18 20 2 18 20 2 18 20 2 18 20 2 18 20 2 18 20 2 18 20 2 18 20 2 18 20 2 18 20 2 18 20 2 18 20 2 18 20 2 18 20 2 18 20 2 18 20 2 18 20 2 18 20 2 
18 20 2 18 20 2 18 20 2 18 20 2 18 20 2 18 20 2 18 20 2 18 20 2 18 20 2 18 20 2 18 20 2 18 20 2 18 20 2 18 20 2 18 20 2 18 20 2 18 20 2 18 20 2 18 20 2 18 20 2 18 20 2 18 20 2 18 20 2 18 20 2 18 20 2 18 20 2 18 20 2 18 20 2 18 20 2 18 20 2 18 20 2 18 20 2 18 20 2 18 20 2 18 20 2 18 20 2 18 20 2 18 20 2 18 20 2 26 28 3 44 48 6 33 36 4 26 28 3 26 28 3 33 36 4 37 40 5 33 36 4 44 48 6 101 109 14 146 158 21 127 138 18 89 97 13 89 97 13 89 97 13 123 134 18 134 146 19 127 138 18 134 146 19 138 150 20 149 162 22 168 182 24 149 162 22 172 186 25 202 212 103 219 226 152 187 200 60 138 150 20 93 101 13 63 69 9 44 48 6 26 28 3 33 36 4 26 28 3 26 28 3 22 24 3 18 20 2 18 20 2 14 16 2 18 20 2 18 20 2 22 24 3 48 52 7 22 24 3 18 20 2 22 24 3 22 24 3 108 117 16 89 97 13 18 20 2 14 16 2 22 24 3 63 69 9 33 36 4 18 20 2 44 48 6 149 162 22 37 40 5 56 60 8 93 101 13 108 117 16 93 101 13 63 69 9 89 97 13 108 117 16 161 174 23 59 65 8 142 154 21 186 199 55 153 166 22 26 28 3 56 60 8 44 48 6 89 97 13 59 65 8 37 40 5 93 101 13 44 48 6 93 101 13 101 109 14 101 109 14 187 200 60 199 210 94 187 200 60 56 60 8 101 109 14 184 197 50 108 117 16 187 200 60 149 162 22 181 195 40 138 150 20 138 150 20 48 52 7 149 162 22 63 69 9 37 40 5 26 28 3 37 40 5 37 40 5 22 24 3 37 40 5 26 28 3 33 36 4 33 36 4 26 28 3 26 28 3 22 24 3 22 24 3 18 20 2 22 24 3 22 24 3 18 20 2 18 20 2 14 16 2 14 16 2 18 20 2 18 20 2 18 20 2 14 16 2 18 20 2 18 20 2 14 16 2 18 20 2 22 24 3 26 28 3 44 48 6 56 60 8 26 28 3 22 24 3 22 24 3 22 24 3 44 48 6 37 40 5 33 36 4 26 28 3 22 24 3 18 20 2 22 24 3 18 20 2 18 20 2 18 20 2 18 20 2 18 20 2 18 20 2 18 20 2 18 20 2 18 20 2 18 20 2 14 16 2 14 16 2 18 20 2 18 20 2 18 20 2 18 20 2 18 20 2 18 20 2 18 20 2 18 20 2 18 20 2 18 20 2 18 20 2 18 20 2 18 20 2 18 20 2 18 20 2 18 20 2 18 20 2 18 20 2 18 20 2 18 20 2 18 20 2 18 20 2 18 20 2 18 20 2 18 20 2 18 20 2 18 20 2 18 20 2 18 20 2 18 20 2 
18 20 2 18 20 2 18 20 2 18 20 2 18 20 2 18 20 2 18 20 2 18 20 2 18 20 2 18 20 2 18 20 2 18 20 2 18 20 2 18 20 2 18 20 2 18 20 2 18 20 2 18 20 2 18 20 2 18 20 2 18 20 2 18 20 2 18 20 2 18 20 2 18 20 2 18 20 2 18 20 2 18 20 2 18 20 2 18 20 2 18 20 2 18 20 2 18 20 2 18 20 2 18 20 2 18 20 2 18 20 2 18 20 2 26 28 3 33 36 4 33 36 4 26 28 3 26 28 3 26 28 3 26 28 3 33 36 4 37 40 5 56 60 8 59 65 8 59 65 8 63 69 9 138 150 20 149 162 22 146 158 21 101 109 14 153 166 22 157 170 23 153 166 22 142 154 21 149 162 22 146 158 21 187 200 60 239 242 211 244 246 225 233 237 191 157 170 23 63 69 9 56 60 8 48 52 7 37 40 5 56 60 8 44 48 6 26 28 3 14 16 2 14 16 2 14 16 2 18 20 2 33 36 4 44 48 6 44 48 6 22 24 3 18 20 2 56 60 8 142 154 21 157 170 23 63 69 9 26 28 3 89 97 13 22 24 3 26 28 3 22 24 3 44 48 6 59 65 8 18 20 2 37 40 5 59 65 8 138 150 20 33 36 4 56 60 8 59 65 8 22 24 3 101 109 14 146 158 21 172 186 25 101 109 14 59 65 8 37 40 5 48 52 7 108 117 16 59 65 8 37 40 5 186 199 55 56 60 8 63 69 9 44 48 6 93 101 13 138 150 20 59 65 8 56 60 8 181 195 40 101 109 14 93 101 13 59 65 8 108 117 16 153 166 22 101 109 14 127 138 18 89 97 13 63 69 9 44 48 6 33 36 4 37 40 5 26 28 3 48 52 7 26 28 3 48 52 7 44 48 6 26 28 3 22 24 3 18 20 2 33 36 4 26 28 3 22 24 3 22 24 3 22 24 3 26 28 3 18 20 2 26 28 3 18 20 2 18 20 2 18 20 2 22 24 3 14 16 2 14 16 2 18 20 2 14 16 2 18 20 2 14 16 2 14 16 2 18 20 2 14 16 2 14 16 2 18 20 2 14 16 2 22 24 3 44 48 6 37 40 5 26 28 3 22 24 3 33 36 4 33 36 4 22 24 3 22 24 3 18 20 2 18 20 2 18 20 2 18 20 2 18 20 2 14 16 2 14 16 2 18 20 2 18 20 2 18 20 2 22 24 3 18 20 2 22 24 3 18 20 2 18 20 2 18 20 2 18 20 2 18 20 2 18 20 2 18 20 2 18 20 2 18 20 2 18 20 2 18 20 2 18 20 2 18 20 2 18 20 2 18 20 2 18 20 2 18 20 2 18 20 2 18 20 2 18 20 2 18 20 2 18 20 2 18 20 2 18 20 2 18 20 2 18 20 2 18 20 2 18 20 2 18 20 2 18 20 2 18 20 2 18 20 2 18 20 2 18 20 2 
18 20 2 18 20 2 18 20 2 18 20 2 18 20 2 18 20 2 18 20 2 18 20 2 18 20 2 18 20 2 18 20 2 18 20 2 18 20 2 18 20 2 18 20 2 18 20 2 18 20 2 18 20 2 18 20 2 18 20 2 18 20 2 18 20 2 18 20 2 18 20 2 18 20 2 18 20 2 18 20 2 18 20 2 18 20 2 18 20 2 18 20 2 18 20 2 18 20 2 18 20 2 18 20 2 18 20 2 18 20 2 18 20 2 26 28 3 33 36 4 33 36 4 26 28 3 26 28 3 26 28 3 26 28 3 33 36 4 37 40 5 56 60 8 59 65 8 59 65 8 63 69 9 138 150 20 149 162 22 146 158 21 101 109 14 153 166 22 157 170 23 153 166 22 142 154 21 149 162 22 146 158 21 187 200 60 239 242 211 244 246 225 233 237 191 157 170 23 63 69 9 56 60 8 48 52 7 37 40 5 56 60 8 44 48 6 26 28 3 14 16 2 14 16 2 14 16 2 18 20 2 33 36 4 44 48 6 44 48 6 22 24 3 18 20 2 56 60 8 142 154 21 157 170 23 63 69 9 26 28 3 89 97 13 22 24 3 26 28 3 22 24 3 44 48 6 59 65 8 18 20 2 37 40 5 59 65 8 138 150 20 33 36 4 56 60 8 59 65 8 22 24 3 101 109 14 146 158 21 172 186 25 101 109 14 59 65 8 37 40 5 48 52 7 108 117 16 59 65 8 37 40 5 186 199 55 56 60 8 63 69 9 44 48 6 93 101 13 138 150 20 59 65 8 56 60 8 181 195 40 101 109 14 93 101 13 59 65 8 108 117 16 153 166 22 101 109 14 127 138 18 89 97 13 63 69 9 44 48 6 33 36 4 37 40 5 26 28 3 48 52 7 26 28 3 48 52 7 44 48 6 26 28 3 22 24 3 18 20 2 33 36 4 26 28 3 22 24 3 22 24 3 22 24 3 26 28 3 18 20 2 26 28 3 18 20 2 18 20 2 18 20 2 22 24 3 14 16 2 14 16 2 18 20 2 14 16 2 18 20 2 14 16 2 14 16 2 18 20 2 14 16 2 14 16 2 18 20 2 14 16 2 22 24 3 44 48 6 37 40 5 26 28 3 22 24 3 33 36 4 33 36 4 22 24 3 22 24 3 18 20 2 18 20 2 18 20 2 18 20 2 18 20 2 14 16 2 14 16 2 18 20 2 18 20 2 18 20 2 22 24 3 18 20 2 22 24 3 18 20 2 18 20 2 18 20 2 18 20 2 18 20 2 18 20 2 18 20 2 18 20 2 18 20 2 18 20 2 18 20 2 18 20 2 18 20 2 18 20 2 18 20 2 18 20 2 18 20 2 18 20 2 18 20 2 18 20 2 18 20 2 18 20 2 18 20 2 18 20 2 18 20 2 18 20 2 18 20 2 18 20 2 18 20 2 18 20 2 18 20 2 18 20 2 18 20 2 18 20 2 
18 20 2 18 20 2 18 20 2 18 20 2 18 20 2 18 20 2 18 20 2 18 20 2 18 20 2 18 20 2 18 20 2 18 20 2 18 20 2 18 20 2 18 20 2 18 20 2 18 20 2 18 20 2 18 20 2 18 20 2 18 20 2 18 20 2 18 20 2 18 20 2 18 20 2 18 20 2 18 20 2 18 20 2 18 20 2 18 20 2 18 20 2 18 20 2 18 20 2 18 20 2 18 20 2 18 20 2 18 20 2 22 24 3 37 40 5 48 52 7 37 40 5 33 36 4 33 36 4 33 36 4 33 36 4 44 48 6 44 48 6 44 48 6 59 65 8 63 69 9 59 65 8 63 69 9 89 97 13 93 101 13 207 216 118 187 200 60 186 199 55 181 195 40 202 212 103 157 170 23 142 154 21 231 235 186 233 237 191 196 207 84 153 166 22 89 97 13 33 36 4 26 28 3 48 52 7 59 65 8 33 36 4 18 20 2 18 20 2 14 16 2 18 20 2 33 36 4 59 65 8 101 109 14 33 36 4 26 28 3 22 24 3 26 28 3 44 48 6 123 134 18 93 101 13 26 28 3 26 28 3 127 138 18 18 20 2 44 48 6 22 24 3 26 28 3 134 146 19 26 28 3 26 28 3 44 48 6 48 52 7 138 150 20 37 40 5 44 48 6 44 48 6 33 36 4 89 97 13 149 162 22 101 109 14 59 65 8 63 69 9 134 146 19 134 146 19 192 204 74 48 52 7 63 69 9 184 197 50 146 158 21 123 134 18 56 60 8 44 48 6 44 48 6 59 65 8 101 109 14 127 138 18 44 48 6 138 150 20 37 40 5 37 40 5 48 52 7 101 109 14 37 40 5 59 65 8 44 48 6 161 174 23 101 109 14 44 48 6 123 134 18 48 52 7 22 24 3 93 101 13 56 60 8 26 28 3 22 24 3 33 36 4 26 28 3 26 28 3 22 24 3 18 20 2 18 20 2 18 20 2 18 20 2 18 20 2 18 20 2 18 20 2 14 16 2 14 16 2 18 20 2 18 20 2 18 20 2 14 16 2 14 16 2 18 20 2 14 16 2 14 16 2 14 16 2 18 20 2 22 24 3 22 24 3 26 28 3 26 28 3 22 24 3 37 40 5 44 48 6 37 40 5 26 28 3 18 20 2 18 20 2 18 20 2 18 20 2 18 20 2 14 16 2 18 20 2 18 20 2 18 20 2 18 20 2 18 20 2 18 20 2 18 20 2 18 20 2 18 20 2 14 16 2 18 20 2 18 20 2 18 20 2 18 20 2 18 20 2 18 20 2 18 20 2 18 20 2 18 20 2 18 20 2 18 20 2 18 20 2 18 20 2 18 20 2 18 20 2 18 20 2 18 20 2 18 20 2 18 20 2 18 20 2 18 20 2 18 20 2 18 20 2 18 20 2 18 20 2 18 20 2 18 20 2 18 20 2 18 20 2 18 20 2 18 20 2 18 20 2 
18 20 2 18 20 2 18 20 2 18 20 2 18 20 2 18 20 2 18 20 2 18 20 2 18 20 2 18 20 2 18 20 2 18 20 2 18 20 2 18 20 2 18 20 2 18 20 2 18 20 2 18 20 2 18 20 2 18 20 2 18 20 2 18 20 2 18 20 2 18 20 2 18 20 2 18 20 2 18 20 2 18 20 2 18 20 2 18 20 2 18 20 2 18 20 2 18 20 2 18 20 2 18 20 2 18 20 2 18 20 2 22 24 3 37 40 5 48 52 7 37 40 5 33 36 4 33 36 4 33 36 4 33 36 4 44 48 6 44 48 6 44 48 6 59 65 8 63 69 9 59 65 8 63 69 9 89 97 13 93 101 13 207 216 118 187 200 60 186 199 55 181 195 40 202 212 103 157 170 23 142 154 21 231 235 186 233 237 191 196 207 84 153 166 22 89 97 13 33 36 4 26 28 3 48 52 7 59 65 8 33 36 4 18 20 2 18 20 2 14 16 2 18 20 2 33 36 4 59 65 8 101 109 14 33 36 4 26 28 3 22 24 3 26 28 3 44 48 6 123 134 18 93 101 13 26 28 3 26 28 3 127 138 18 18 20 2 44 48 6 22 24 3 26 28 3 134 146 19 26 28 3 26 28 3 44 48 6 48 52 7 138 150 20 37 40 5 44 48 6 44 48 6 33 36 4 89 97 13 149 162 22 101 109 14 59 65 8 63 69 9 134 146 19 134 146 19 192 204 74 48 52 7 63 69 9 184 197 50 146 158 21 123 134 18 56 60 8 44 48 6 44 48 6 59 65 8 101 109 14 127 138 18 44 48 6 138 150 20 37 40 5 37 40 5 48 52 7 101 109 14 37 40 5 59 65 8 44 48 6 161 174 23 101 109 14 44 48 6 123 134 18 48 52 7 22 24 3 93 101 13 56 60 8 26 28 3 22 24 3 33 36 4 26 28 3 26 28 3 22 24 3 18 20 2 18 20 2 18 20 2 18 20 2 18 20 2 18 20 2 18 20 2 14 16 2 14 16 2 18 20 2 18 20 2 18 20 2 14 16 2 14 16 2 18 20 2 14 16 2 14 16 2 14 16 2 18 20 2 22 24 3 22 24 3 26 28 3 26 28 3 22 24 3 37 40 5 44 48 6 37 40 5 26 28 3 18 20 2 18 20 2 18 20 2 18 20 2 18 20 2 14 16 2 18 20 2 18 20 2 18 20 2 18 20 2 18 20 2 18 20 2 18 20 2 18 20 2 18 20 2 14 16 2 18 20 2 18 20 2 18 20 2 18 20 2 18 20 2 18 20 2 18 20 2 18 20 2 18 20 2 18 20 2 18 20 2 18 20 2 18 20 2 18 20 2 18 20 2 18 20 2 18 20 2 18 20 2 18 20 2 18 20 2 18 20 2 18 20 2 18 20 2 18 20 2 18 20 2 18 20 2 18 20 2 18 20 2 18 20 2 18 20 2 18 20 2 18 20 2 
18 20 2 18 20 2 18 20 2 18 20 2 18 20 2 18 20 2 18 20 2 18 20 2 18 20 2 18 20 2 18 20 2 18 20 2 18 20 2 18 20 2 18 20 2 18 20 2 18 20 2 18 20 2 18 20 2 18 20 2 18 20 2 18 20 2 18 20 2 18 20 2 18 20 2 18 20 2 18 20 2 18 20 2 18 20 2 18 20 2 18 20 2 18 20 2 18 20 2 18 20 2 18 20 2 18 20 2 22 24 3 59 65 8 89 97 13 48 52 7 33 36 4 37 40 5 33 36 4 33 36 4 33 36 4 37 40 5 33 36 4 33 36 4 48 52 7 63 69 9 63 69 9 93 101 13 127 138 18 142 154 21 157 170 23 127 138 18 138 150 20 123 134 18 146 158 21 168 182 24 127 138 18 123 134 18 89 97 13 37 40 5 26 28 3 22 24 3 22 24 3 18 20 2 18 20 2 14 16 2 14 16 2 14 16 2 14 16 2 18 20 2 22 24 3 37 40 5 33 36 4 22 24 3 26 28 3 22 24 3 22 24 3 33 36 4 22 24 3 22 24 3 22 24 3 48 52 7 48 52 7 26 28 3 108 117 16 26 28 3 22 24 3 33 36 4 48 52 7 48 52 7 26 28 3 22 24 3 56 60 8 123 134 18 48 52 7 33 36 4 44 48 6 108 117 16 26 28 3 37 40 5 101 109 14 157 170 23 108 117 16 56 60 8 123 134 18 101 109 14 93 101 13 186 199 55 59 65 8 37 40 5 89 97 13 181 195 40 146 158 21 93 101 13 134 146 19 142 154 21 134 146 19 59 65 8 93 101 13 48 52 7 63 69 9 63 69 9 56 60 8 44 48 6 63 69 9 59 65 8 63 69 9 37 40 5 44 48 6 48 52 7 44 48 6 22 24 3 26 28 3 37 40 5 26 28 3 18 20 2 26 28 3 22 24 3 18 20 2 22 24 3 18 20 2 22 24 3 22 24 3 22 24 3 18 20 2 18 20 2 14 16 2 14 16 2 14 16 2 14 16 2 18 20 2 14 16 2 14 16 2 14 16 2 18 20 2 14 16 2 14 16 2 18 20 2 18 20 2 22 24 3 22 24 3 33 36 4 37 40 5 22 24 3 18 20 2 22 24 3 22 24 3 18 20 2 22 24 3 22 24 3 22 24 3 18 20 2 18 20 2 18 20 2 18 20 2 18 20 2 18 20 2 18 20 2 18 20 2 18 20 2 18 20 2 18 20 2 18 20 2 14 16 2 14 16 2 14 16 2 14 16 2 14 16 2 18 20 2 18 20 2 18 20 2 18 20 2 18 20 2 18 20 2 18 20 2 18 20 2 18 20 2 18 20 2 18 20 2 18 20 2 18 20 2 18 20 2 18 20 2 18 20 2 18 20 2 18 20 2 18 20 2 18 20 2 18 20 2 18 20 2 18 20 2 18 20 2 18 20 2 18 20 2 18 20 2 18 20 2 
18 20 2 18 20 2 18 20 2 18 20 2 18 20 2 18 20 2 18 20 2 18 20 2 18 20 2 18 20 2 18 20 2 18 20 2 18 20 2 18 20 2 18 20 2 18 20 2 18 20 2 18 20 2 18 20 2 18 20 2 18 20 2 18 20 2 18 20 2 18 20 2 18 20 2 18 20 2 18 20 2 18 20 2 18 20 2 18 20 2 18 20 2 18 20 2 18 20 2 18 20 2 18 20 2 18 20 2 22 24 3 59 65 8 89 97 13 48 52 7 33 36 4 37 40 5 33 36 4 33 36 4 33 36 4 37 40 5 33 36 4 33 36 4 48 52 7 63 69 9 63 69 9 93 101 13 127 138 18 142 154 21 157 170 23 127 138 18 138 150 20 123 134 18 146 158 21 168 182 24 127 138 18 123 134 18 89 97 13 37 40 5 26 28 3 22 24 3 22 24 3 18 20 2 18 20 2 14 16 2 14 16 2 14 16 2 14 16 2 18 20 2 22 24 3 37 40 5 33 36 4 22 24 3 26 28 3 22 24 3 22 24 3 33 36 4 22 24 3 22 24 3 22 24 3 48 52 7 48 52 7 26 28 3 108 117 16 26 28 3 22 24 3 33 36 4 48 52 7 48 52 7 26 28 3 22 24 3 56 60 8 123 134 18 48 52 7 33 36 4 44 48 6 108 117 16 26 28 3 37 40 5 101 109 14 157 170 23 108 117 16 56 60 8 123 134 18 101 109 14 93 101 13 186 199 55 59 65 8 37 40 5 89 97 13 181 195 40 146 158 21 93 101 13 134 146 19 142 154 21 134 146 19 59 65 8 93 101 13 48 52 7 63 69 9 63 69 9 56 60 8 44 48 6 63 69 9 59 65 8 63 69 9 37 40 5 44 48 6 48 52 7 44 48 6 22 24 3 26 28 3 37 40 5 26 28 3 18 20 2 26 28 3 22 24 3 18 20 2 22 24 3 18 20 2 22 24 3 22 24 3 22 24 3 18 20 2 18 20 2 14 16 2 14 16 2 14 16 2 14 16 2 18 20 2 14 16 2 14 16 2 14 16 2 18 20 2 14 16 2 14 16 2 18 20 2 18 20 2 22 24 3 22 24 3 33 36 4 37 40 5 22 24 3 18 20 2 22 24 3 22 24 3 18 20 2 22 24 3 22 24 3 22 24 3 18 20 2 18 20 2 18 20 2 18 20 2 18 20 2 18 20 2 18 20 2 18 20 2 18 20 2 18 20 2 18 20 2 18 20 2 14 16 2 14 16 2 14 16 2 14 16 2 14 16 2 18 20 2 18 20 2 18 20 2 18 20 2 18 20 2 18 20 2 18 20 2 18 20 2 18 20 2 18 20 2 18 20 2 18 20 2 18 20 2 18 20 2 18 20 2 18 20 2 18 20 2 18 20 2 18 20 2 18 20 2 18 20 2 18 20 2 18 20 2 18 20 2 18 20 2 18 20 2 18 20 2 18 20 2 
18 20 2 18 20 2 18 20 2 18 20 2 18 20 2 18 20 2 18 20 2 18 20 2 18 20 2 18 20 2 18 20 2 18 20 2 18 20 2 18 20 2 18 20 2 18 20 2 18 20 2 18 20 2 18 20 2 18 20 2 18 20 2 18 20 2 18 20 2 18 20 2 18 20 2 18 20 2 18 20 2 18 20 2 18 20 2 18 20 2 18 20 2 18 20 2 18 20 2 18 20 2 18 20 2 18 20 2 22 24 3 22 24 3 22 24 3 37 40 5 26 28 3 33 36 4 37 40 5 89 97 13 134 146 19 59 65 8 63 69 9 123 134 18 134 146 19 108 117 16 142 154 21 142 154 21 142 154 21 138 150 20 142 154 21 172 186 25 206 215 113 246 248 230 236 240 201 142 154 21 101 109 14 108 117 16 37 40 5 26 28 3 44 48 6 101 109 14 48 52 7 26 28 3 26 28 3 37 40 5 22 24 3 26 28 3 22 24 3 26 28 3 18 20 2 22 24 3 22 24 3 22 24 3 22 24 3 26 28 3 59 65 8 93 101 13 108 117 16 108 117 16 37 40 5 93 101 13 37 40 5 33 36 4 44 48 6 59 65 8 33 36 4 22 24 3 26 28 3 26 28 3 59 65 8 33 36 4 33 36 4 48 52 7 93 101 13 48 52 7 44 48 6 59 65 8 59 65 8 22 24 3 89 97 13 127 138 18 89 97 13 153 166 22 196 207 84 108 117 16 59 65 8 22 24 3 33 36 4 44 48 6 142 154 21 89 97 13 44 48 6 48 52 7 201 211 99 108 117 16 146 158 21 172 186 25 89 97 13 184 197 50 37 40 5 56 60 8 33 36 4 48 52 7 22 24 3 26 28 3 37 40 5 26 28 3 26 28 3 22 24 3 18 20 2 48 52 7 44 48 6 33 36 4 26 28 3 22 24 3 22 24 3 22 24 3 18 20 2 18 20 2 18 20 2 14 16 2 14 16 2 22 24 3 18 20 2 18 20 2 14 16 2 14 16 2 14 16 2 18 20 2 14 16 2 14 16 2 14 16 2 18 20 2 14 16 2 14 16 2 18 20 2 14 16 2 18 20 2 22 24 3 33 36 4 33 36 4 33 36 4 18 20 2 18 20 2 18 20 2 18 20 2 18 20 2 18 20 2 18 20 2 18 20 2 18 20 2 18 20 2 18 20 2 18 20 2 18 20 2 18 20 2 18 20 2 18 20 2 14 16 2 14 16 2 14 16 2 18 20 2 18 20 2 18 20 2 14 16 2 18 20 2 14 16 2 18 20 2 18 20 2 18 20 2 18 20 2 18 20 2 18 20 2 18 20 2 18 20 2 18 20 2 18 20 2 18 20 2 18 20 2 18 20 2 18 20 2 18 20 2 18 20 2 18 20 2 18 20 2 18 20 2 18 20 2 18 20 2 18 20 2 18 20 2 18 20 2 18 20 2 18 20 2 18 20 2 18 20 2 
18 20 2 18 20 2 18 20 2 18 20 2 18 20 2 18 20 2 18 20 2 18 20 2 18 20 2 18 20 2 18 20 2 18 20 2 18 20 2 18 20 2 18 20 2 18 20 2 18 20 2 18 20 2 18 20 2 18 20 2 18 20 2 18 20 2 18 20 2 18 20 2 18 20 2 18 20 2 18 20 2 18 20 2 18 20 2 18 20 2 18 20 2 18 20 2 18 20 2 18 20 2 18 20 2 18 20 2 22 24 3 22 24 3 22 24 3 37 40 5 26 28 3 33 36 4 37 40 5 89 97 13 134 146 19 59 65 8 63 69 9 123 134 18 134 146 19 108 117 16 142 154 21 142 154 21 142 154 21 138 150 20 142 154 21 172 186 25 206 215 113 246 248 230 236 240 201 142 154 21 101 109 14 108 117 16 37 40 5 26 28 3 44 48 6 101 109 14 48 52 7 26 28 3 26 28 3 37 40 5 22 24 3 26 28 3 22 24 3 26 28 3 18 20 2 22 24 3 22 24 3 22 24 3 22 24 3 26 28 3 59 65 8 93 101 13 108 117 16 108 117 16 37 40 5 93 101 13 37 40 5 33 36 4 44 48 6 59 65 8 33 36 4 22 24 3 26 28 3 26 28 3 59 65 8 33 36 4 33 36 4 48 52 7 93 101 13 48 52 7 44 48 6 59 65 8 59 65 8 22 24 3 89 97 13 127 138 18 89 97 13 153 166 22 196 207 84 108 117 16 59 65 8 22 24 3 33 36 4 44 48 6 142 154 21 89 97 13 44 48 6 48 52 7 201 211 99 108 117 16 146 158 21 172 186 25 89 97 13 184 197 50 37 40 5 56 60 8 33 36 4 48 52 7 22 24 3 26 28 3 37 40 5 26 28 3 26 28 3 22 24 3 18 20 2 48 52 7 44 48 6 33 36 4 26 28 3 22 24 3 22 24 3 22 24 3 18 20 2 18 20 2 18 20 2 14 16 2 14 16 2 22 24 3 18 20 2 18 20 2 14 16 2 14 16 2 14 16 2 18 20 2 14 16 2 14 16 2 14 16 2 18 20 2 14 16 2 14 16 2 18 20 2 14 16 2 18 20 2 22 24 3 33 36 4 33 36 4 33 36 4 18 20 2 18 20 2 18 20 2 18 20 2 18 20 2 18 20 2 18 20 2 18 20 2 18 20 2 18 20 2 18 20 2 18 20 2 18 20 2 18 20 2 18 20 2 18 20 2 14 16 2 14 16 2 14 16 2 18 20 2 18 20 2 18 20 2 14 16 2 18 20 2 14 16 2 18 20 2 18 20 2 18 20 2 18 20 2 18 20 2 18 20 2 18 20 2 18 20 2 18 20 2 18 20 2 18 20 2 18 20 2 18 20 2 18 20 2 18 20 2 18 20 2 18 20 2 18 20 2 18 20 2 18 20 2 18 20 2 18 20 2 18 20 2 18 20 2 18 20 2 18 20 2 18 20 2 18 20 2 
18 20 2 18 20 2 18 20 2 18 20 2 18 20 2 18 20 2 18 20 2 18 20 2 18 20 2 18 20 2 18 20 2 18 20 2 18 20 2 18 20 2 18 20 2 18 20 2 18 20 2 18 20 2 18 20 2 18 20 2 18 20 2 18 20 2 18 20 2 18 20 2 18 20 2 18 20 2 18 20 2 18 20 2 18 20 2 18 20 2 18 20 2 18 20 2 18 20 2 22 24 3 26 28 3 37 40 5 33 36 4 22 24 3 22 24 3 26 28 3 33 36 4 33 36 4 44 48 6 48 52 7 59 65 8 138 150 20 123 134 18 157 170 23 157 170 23 138 150 20 153 166 22 146 158 21 202 212 103 138 150 20 146 158 21 206 215 113 149 162 22 189 201 64 161 174 23 142 154 21 89 97 13 37 40 5 26 28 3 101 109 14 37 40 5 22 24 3 18 20 2 18 20 2 22 24 3 22 24 3 18 20 2 18 20 2 14 16 2 18 20 2 37 40 5 59 65 8 59 65 8 26 28 3 37 40 5 93 101 13 127 138 18 184 197 50 149 162 22 44 48 6 48 52 7 37 40 5 127 138 18 196 207 84 161 174 23 48 52 7 26 28 3 22 24 3 37 40 5 26 28 3 37 40 5 44 48 6 33 36 4 37 40 5 59 65 8 101 109 14 142 154 21 56 60 8 33 36 4 33 36 4 22 24 3 26 28 3 59 65 8 89 97 13 59 65 8 33 36 4 172 186 25 89 97 13 48 52 7 177 192 30 123 134 18 37 40 5 26 28 3 56 60 8 146 158 21 44 48 6 123 134 18 33 36 4 26 28 3 33 36 4 37 40 5 26 28 3 48 52 7 123 134 18 44 48 6 26 28 3 44 48 6 44 48 6 56 60 8 33 36 4 44 48 6 48 52 7 44 48 6 37 40 5 18 20 2 22 24 3 22 24 3 26 28 3 22 24 3 26 28 3 22 24 3 18 20 2 18 20 2 18 20 2 14 16 2 14 16 2 14 16 2 14 16 2 18 20 2 14 16 2 14 16 2 14 16 2 14 16 2 14 16 2 14 16 2 14 16 2 14 16 2 18 20 2 18 20 2 26 28 3 26 28 3 22 24 3 22 24 3 26 28 3 33 36 4 26 28 3 18 20 2 26 28 3 18 20 2 14 16 2 14 16 2 18 20 2 18 20 2 18 20 2 18 20 2 18 20 2 14 16 2 14 16 2 18 20 2 18 20 2 14 16 2 14 16 2 18 20 2 14 16 2 18 20 2 18 20 2 18 20 2 18 20 2 14 16 2 18 20 2 18 20 2 18 20 2 18 20 2 18 20 2 18 20 2 18 20 2 18 20 2 18 20 2 18 20 2 18 20 2 18 20 2 18 20 2 18 20 2 18 20 2 18 20 2 18 20 2 18 20 2 18 20 2 18 20 2 18 20 2 18 20 2 18 20 2 18 20 2 18 20 2 18 20 2 18 20 2 
18 20 2 18 20 2 18 20 2 18 20 2 18 20 2 18 20 2 18 20 2 18 20 2 18 20 2 18 20 2 18 20 2 18 20 2 18 20 2 18 20 2 18 20 2 18 20 2 18 20 2 18 20 2 18 20 2 18 20 2 18 20 2 18 20 2 18 20 2 18 20 2 18 20 2 18 20 2 18 20 2 18 20 2 18 20 2 18 20 2 18 20 2 18 20 2 18 20 2 22 24 3 26 28 3 37 40 5 33 36 4 22 24 3 22 24 3 26 28 3 33 36 4 33 36 4 44 48 6 48 52 7 59 65 8 138 150 20 123 134 18 157 170 23 157 170 23 138 150 20 153 166 22 146 158 21 202 212 103 138 150 20 146 158 21 206 215 113 149 162 22 189 201 64 161 174 23 142 154 21 89 97 13 37 40 5 26 28 3 101 109 14 37 40 5 22 24 3 18 20 2 18 20 2 22 24 3 22 24 3 18 20 2 18 20 2 14 16 2 18 20 2 37 40 5 59 65 8 59 65 8 26 28 3 37 40 5 93 101 13 127 138 18 184 197 50 149 162 22 44 48 6 48 52 7 37 40 5 127 138 18 196 207 84 161 174 23 48 52 7 26 28 3 22 24 3 37 40 5 26 28 3 37 40 5 44 48 6 33 36 4 37 40 5 59 65 8 101 109 14 142 154 21 56 60 8 33 36 4 33 36 4 22 24 3 26 28 3 59 65 8 89 97 13 59 65 8 33 36 4 172 186 25 89 97 13 48 52 7 177 192 30 123 134 18 37 40 5 26 28 3 56 60 8 146 158 21 44 48 6 123 134 18 33 36 4 26 28 3 33 36 4 37 40 5 26 28 3 48 52 7 123 134 18 44 48 6 26 28 3 44 48 6 44 48 6 56 60 8 33 36 4 44 48 6 48 52 7 44 48 6 37 40 5 18 20 2 22 24 3 22 24 3 26 28 3 22 24 3 26 28 3 22 24 3 18 20 2 18 20 2 18 20 2 14 16 2 14 16 2 14 16 2 14 16 2 18 20 2 14 16 2 14 16 2 14 16 2 14 16 2 14 16 2 14 16 2 14 16 2 14 16 2 18 20 2 18 20 2 26 28 3 26 28 3 22 24 3 22 24 3 26 28 3 33 36 4 26 28 3 18 20 2 26 28 3 18 20 2 14 16 2 14 16 2 18 20 2 18 20 2 18 20 2 18 20 2 18 20 2 14 16 2 14 16 2 18 20 2 18 20 2 14 16 2 14 16 2 18 20 2 14 16 2 18 20 2 18 20 2 18 20 2 18 20 2 14 16 2 18 20 2 18 20 2 18 20 2 18 20 2 18 20 2 18 20 2 18 20 2 18 20 2 18 20 2 18 20 2 18 20 2 18 20 2 18 20 2 18 20 2 18 20 2 18 20 2 18 20 2 18 20 2 18 20 2 18 20 2 18 20 2 18 20 2 18 20 2 18 20 2 18 20 2 18 20 2 18 20 2 
18 20 2 18 20 2 18 20 2 18 20 2 18 20 2 18 20 2 18 20 2 18 20 2 18 20 2 18 20 2 18 20 2 18 20 2 18 20 2 18 20 2 18 20 2 18 20 2 18 20 2 18 20 2 18 20 2 18 20 2 18 20 2 18 20 2 18 20 2 18 20 2 18 20 2 18 20 2 18 20 2 14 16 2 14 16 2 18 20 2 18 20 2 18 20 2 18 20 2 22 24 3 22 24 3 26 28 3 26 28 3 33 36 4 56 60 8 59 65 8 37 40 5 33 36 4 44 48 6 56 60 8 89 97 13 63 69 9 101 109 14 134 146 19 146 158 21 161 174 23 153 166 22 157 170 23 149 162 22 138 150 20 212 220 133 199 210 94 146 158 21 127 138 18 89 97 13 44 48 6 22 24 3 18 20 2 26 28 3 22 24 3 22 24 3 18 20 2 14 16 2 14 16 2 22 24 3 22 24 3 18 20 2 26 28 3 37 40 5 108 117 16 56 60 8 26 28 3 26 28 3 22 24 3 44 48 6 59 65 8 108 117 16 56 60 8 26 28 3 26 28 3 48 52 7 59 65 8 101 109 14 138 150 20 134 146 19 44 48 6 59 65 8 89 97 13 26 28 3 33 36 4 33 36 4 101 109 14 93 101 13 44 48 6 26 28 3 37 40 5 127 138 18 123 134 18 123 134 18 22 24 3 48 52 7 26 28 3 26 28 3 26 28 3 56 60 8 26 28 3 33 36 4 89 97 13 26 28 3 48 52 7 142 154 21 59 65 8 153 166 22 56 60 8 89 97 13 37 40 5 48 52 7 48 52 7 37 40 5 26 28 3 37 40 5 33 36 4 26 28 3 89 97 13 48 52 7 37 40 5 26 28 3 108 117 16 44 48 6 26 28 3 33 36 4 18 20 2 18 20 2 14 16 2 18 20 2 18 20 2 18 20 2 18 20 2 14 16 2 14 16 2 18 20 2 18 20 2 18 20 2 14 16 2 14 16 2 18 20 2 18 20 2 18 20 2 14 16 2 14 16 2 18 20 2 14 16 2 14 16 2 14 16 2 14 16 2 22 24 3 22 24 3 22 24 3 22 24 3 22 24 3 18 20 2 22 24 3 18 20 2 22 24 3 22 24 3 18 20 2 22 24 3 22 24 3 18 20 2 18 20 2 18 20 2 18 20 2 18 20 2 18 20 2 14 16 2 14 16 2 14 16 2 14 16 2 14 16 2 14 16 2 14 16 2 14 16 2 18 20 2 14 16 2 14 16 2 14 16 2 14 16 2 14 16 2 18 20 2 18 20 2 18 20 2 18 20 2 18 20 2 18 20 2 18 20 2 18 20 2 18 20 2 18 20 2 18 20 2 18 20 2 18 20 2 18 20 2 18 20 2 18 20 2 18 20 2 18 20 2 18 20 2 18 20 2 18 20 2 18 20 2 18 20 2 18 20 2 18 20 2 18 20 2 18 20 2 18 20 2 
18 20 2 18 20 2 18 20 2 18 20 2 18 20 2 18 20 2 18 20 2 18 20 2 18 20 2 18 20 2 18 20 2 18 20 2 18 20 2 18 20 2 18 20 2 18 20 2 18 20 2 18 20 2 18 20 2 18 20 2 18 20 2 18 20 2 18 20 2 18 20 2 18 20 2 18 20 2 18 20 2 14 16 2 14 16 2 18 20 2 18 20 2 18 20 2 18 20 2 22 24 3 22 24 3 26 28 3 26 28 3 33 36 4 56 60 8 59 65 8 37 40 5 33 36 4 44 48 6 56 60 8 89 97 13 63 69 9 101 109 14 134 146 19 146 158 21 161 174 23 153 166 22 157 170 23 149 162 22 138 150 20 212 220 133 199 210 94 146 158 21 127 138 18 89 97 13 44 48 6 22 24 3 18 20 2 26 28 3 22 24 3 22 24 3 18 20 2 14 16 2 14 16 2 22 24 3 22 24 3 18 20 2 26 28 3 37 40 5 108 117 16 56 60 8 26 28 3 26 28 3 22 24 3 44 48 6 59 65 8 108 117 16 56 60 8 26 28 3 26 28 3 48 52 7 59 65 8 101 109 14 138 150 20 134 146 19 44 48 6 59 65 8 89 97 13 26 28 3 33 36 4 33 36 4 101 109 14 93 101 13 44 48 6 26 28 3 37 40 5 127 138 18 123 134 18 123 134 18 22 24 3 48 52 7 26 28 3 26 28 3 26 28 3 56 60 8 26 28 3 33 36 4 89 97 13 26 28 3 48 52 7 142 154 21 59 65 8 153 166 22 56 60 8 89 97 13 37 40 5 48 52 7 48 52 7 37 40 5 26 28 3 37 40 5 33 36 4 26 28 3 89 97 13 48 52 7 37 40 5 26 28 3 108 117 16 44 48 6 26 28 3 33 36 4 18 20 2 18 20 2 14 16 2 18 20 2 18 20 2 18 20 2 18 20 2 14 16 2 14 16 2 18 20 2 18 20 2 18 20 2 14 16 2 14 16 2 18 20 2 18 20 2 18 20 2 14 16 2 14 16 2 18 20 2 14 16 2 14 16 2 14 16 2 14 16 2 22 24 3 22 24 3 22 24 3 22 24 3 22 24 3 18 20 2 22 24 3 18 20 2 22 24 3 22 24 3 18 20 2 22 24 3 22 24 3 18 20 2 18 20 2 18 20 2 18 20 2 18 20 2 18 20 2 14 16 2 14 16 2 14 16 2 14 16 2 14 16 2 14 16 2 14 16 2 14 16 2 18 20 2 14 16 2 14 16 2 14 16 2 14 16 2 14 16 2 18 20 2 18 20 2 18 20 2 18 20 2 18 20 2 18 20 2 18 20 2 18 20 2 18 20 2 18 20 2 18 20 2 18 20 2 18 20 2 18 20 2 18 20 2 18 20 2 18 20 2 18 20 2 18 20 2 18 20 2 18 20 2 18 20 2 18 20 2 18 20 2 18 20 2 18 20 2 18 20 2 18 20 2 
18 20 2 18 20 2 18 20 2 18 20 2 18 20 2 18 20 2 18 20 2 18 20 2 18 20 2 18 20 2 18 20 2 18 20 2 18 20 2 18 20 2 18 20 2 18 20 2 18 20 2 18 20 2 18 20 2 18 20 2 18 20 2 18 20 2 18 20 2 18 20 2 18 20 2 18 20 2 18 20 2 18 20 2 18 20 2 18 20 2 18 20 2 18 20 2 22 24 3 44 48 6 37 40 5 26 28 3 33 36 4 26 28 3 37 40 5 33 36 4 48 52 7 56 60 8 63 69 9 123 134 18 186 199 55 108 117 16 101 109 14 108 117 16 134 146 19 204 214 108 234 238 196 236 240 201 199 210 94 93 101 13 56 60 8 89 97 13 44 48 6 33 36 4 22 24 3 18 20 2 18 20 2 18 20 2 22 24 3 18 20 2 18 20 2 33 36 4 18 20 2 44 48 6 33 36 4 18 20 2 22 24 3 44 48 6 59 65 8 33 36 4 18 20 2 22 24 3 18 20 2 44 48 6 33 36 4 26 28 3 26 28 3 26 28 3 22 24 3 26 28 3 33 36 4 33 36 4 48 52 7 63 69 9 44 48 6 37 40 5 108 117 16 93 101 13 33 36 4 89 97 13 33 36 4 37 40 5 63 69 9 56 60 8 22 24 3 22 24 3 37 40 5 56 60 8 93 101 13 59 65 8 44 48 6 26 28 3 56 60 8 26 28 3 22 24 3 37 40 5 37 40 5 37 40 5 48 52 7 18 20 2 22 24 3 22 24 3 44 48 6 63 69 9 93 101 13 26 28 3 93 101 13 44 48 6 33 36 4 33 36 4 33 36 4 22 24 3 22 24 3 26 28 3 33 36 4 26 28 3 22 24 3 18 20 2 18 20 2 22 24 3 22 24 3 18 20 2 18 20 2 26 28 3 22 24 3 18 20 2 18 20 2 18 20 2 18 20 2 14 16 2 14 16 2 14 16 2 14 16 2 18 20 2 14 16 2 18 20 2 14 16 2 14 16 2 14 16 2 18 20 2 14 16 2 14 16 2 14 16 2 14 16 2 22 24 3 22 24 3 14 16 2 18 20 2 33 36 4 33 36 4 37 40 5 33 36 4 18 20 2 18 20 2 18 20 2 18 20 2 18 20 2 18 20 2 22 24 3 18 20 2 18 20 2 18 20 2 18 20 2 18 20 2 18 20 2 18 20 2 14 16 2 14 16 2 18 20 2 14 16 2 14 16 2 14 16 2 18 20 2 14 16 2 14 16 2 14 16 2 18 20 2 14 16 2 18 20 2 18 20 2 18 20 2 18 20 2 18 20 2 18 20 2 18 20 2 18 20 2 18 20 2 18 20 2 18 20 2 18 20 2 18 20 2 18 20 2 18 20 2 18 20 2 18 20 2 18 20 2 18 20 2 18 20 2 18 20 2 18 20 2 18 20 2 18 20 2 18 20 2 18 20 2 18 20 2 18 20 2 
18 20 2 18 20 2 18 20 2 18 20 2 18 20 2 18 20 2 18 20 2 18 20 2 18 20 2 18 20 2 18 20 2 18 20 2 18 20 2 18 20 2 18 20 2 18 20 2 18 20 2 18 20 2 18 20 2 18 20 2 18 20 2 18 20 2 18 20 2 18 20 2 18 20 2 18 20 2 18 20 2 18 20 2 18 20 2 18 20 2 18 20 2 18 20 2 22 24 3 44 48 6 37 40 5 26 28 3 33 36 4 26 28 3 37 40 5 33 36 4 48 52 7 56 60 8 63 69 9 123 134 18 186 199 55 108 117 16 101 109 14 108 117 16 134 146 19 204 214 108 234 238 196 236 240 201 199 210 94 93 101 13 56 60 8 89 97 13 44 48 6 33 36 4 22 24 3 18 20 2 18 20 2 18 20 2 22 24 3 18 20 2 18 20 2 33 36 4 18 20 2 44 48 6 33 36 4 18 20 2 22 24 3 44 48 6 59 65 8 33 36 4 18 20 2 22 24 3 18 20 2 44 48 6 33 36 4 26 28 3 26 28 3 26 28 3 22 24 3 26 28 3 33 36 4 33 36 4 48 52 7 63 69 9 44 48 6 37 40 5 108 117 16 93 101 13 33 36 4 89 97 13 33 36 4 37 40 5 63 69 9 56 60 8 22 24 3 22 24 3 37 40 5 56 60 8 93 101 13 59 65 8 44 48 6 26 28 3 56 60 8 26 28 3 22 24 3 37 40 5 37 40 5 37 40 5 48 52 7 18 20 2 22 24 3 22 24 3 44 48 6 63 69 9 93 101 13 26 28 3 93 101 13 44 48 6 33 36 4 33 36 4 33 36 4 22 24 3 22 24 3 26 28 3 33 36 4 26 28 3 22 24 3 18 20 2 18 20 2 22 24 3 22 24 3 18 20 2 18 20 2 26 28 3 22 24 3 18 20 2 18 20 2 18 20 2 18 20 2 14 16 2 14 16 2 14 16 2 14 16 2 18 20 2 14 16 2 18 20 2 14 16 2 14 16 2 14 16 2 18 20 2 14 16 2 14 16 2 14 16 2 14 16 2 22 24 3 22 24 3 14 16 2 18 20 2 33 36 4 33 36 4 37 40 5 33 36 4 18 20 2 18 20 2 18 20 2 18 20 2 18 20 2 18 20 2 22 24 3 18 20 2 18 20 2 18 20 2 18 20 2 18 20 2 18 20 2 18 20 2 14 16 2 14 16 2 18 20 2 14 16 2 14 16 2 14 16 2 18 20 2 14 16 2 14 16 2 14 16 2 18 20 2 14 16 2 18 20 2 18 20 2 18 20 2 18 20 2 18 20 2 18 20 2 18 20 2 18 20 2 18 20 2 18 20 2 18 20 2 18 20 2 18 20 2 18 20 2 18 20 2 18 20 2 18 20 2 18 20 2 18 20 2 18 20 2 18 20 2 18 20 2 18 20 2 18 20 2 18 20 2 18 20 2 18 20 2 18 20 2 
18 20 2 18 20 2 18 20 2 18 20 2 18 20 2 18 20 2 18 20 2 18 20 2 18 20 2 18 20 2 18 20 2 18 20 2 18 20 2 18 20 2 18 20 2 18 20 2 18 20 2 18 20 2 18 20 2 18 20 2 18 20 2 18 20 2 18 20 2 18 20 2 18 20 2 18 20 2 18 20 2 18 20 2 14 16 2 18 20 2 18 20 2 18 20 2 44 48 6 59 65 8 33 36 4 26 28 3 37 40 5 37 40 5 48 52 7 44 48 6 101 109 14 153 166 22 127 138 18 93 101 13 93 101 13 161 174 23 149 162 22 127 138 18 207 216 118 223 229 162 189 201 64 161 174 23 123 134 18 37 40 5 37 40 5 33 36 4 93 101 13 123 134 18 44 48 6 26 28 3 14 16 2 18 20 2 33 36 4 59 65 8 48 52 7 37 40 5 18 20 2 14 16 2 18 20 2 14 16 2 18 20 2 18 20 2 18 20 2 18 20 2 22 24 3 44 48 6 101 109 14 101 109 14 59 65 8 33 36 4 48 52 7 134 146 19 101 109 14 56 60 8 37 40 5 108 117 16 149 162 22 168 182 24 123 134 18 59 65 8 63 69 9 101 109 14 101 109 14 37 40 5 33 36 4 44 48 6 26 28 3 44 48 6 101 109 14 48 52 7 26 28 3 22 24 3 37 40 5 37 40 5 56 60 8 37 40 5 37 40 5 33 36 4 33 36 4 48 52 7 18 20 2 37 40 5 22 24 3 59 65 8 26 28 3 18 20 2 22 24 3 37 40 5 37 40 5 26 28 3 33 36 4 33 36 4 22 24 3 44 48 6 63 69 9 44 48 6 22 24 3 18 20 2 26 28 3 26 28 3 22 24 3 26 28 3 22 24 3 18 20 2 18 20 2 18 20 2 18 20 2 22 24 3 22 24 3 22 24 3 18 20 2 18 20 2 18 20 2 14 16 2 14 16 2 18 20 2 14 16 2 18 20 2 18 20 2 14 16 2 14 16 2 14 16 2 14 16 2 14 16 2 14 16 2 18 20 2 18 20 2 18 20 2 18 20 2 18 20 2 18 20 2 22 24 3 22 24 3 33 36 4 33 36 4 22 24 3 18 20 2 22 24 3 18 20 2 14 16 2 18 20 2 18 20 2 18 20 2 18 20 2 18 20 2 18 20 2 18 20 2 18 20 2 14 16 2 14 16 2 14 16 2 14 16 2 14 16 2 14 16 2 18 20 2 18 20 2 18 20 2 18 20 2 18 20 2 18 20 2 18 20 2 18 20 2 18 20 2 18 20 2 18 20 2 18 20 2 18 20 2 18 20 2 18 20 2 18 20 2 18 20 2 18 20 2 18 20 2 18 20 2 18 20 2 18 20 2 18 20 2 18 20 2 18 20 2 18 20 2 18 20 2 18 20 2 18 20 2 18 20 2 18 20 2 18 20 2 18 20 2 18 20 2 18 20 2 18 20 2 
18 20 2 18 20 2 18 20 2 18 20 2 18 20 2 18 20 2 18 20 2 18 20 2 18 20 2 18 20 2 18 20 2 18 20 2 18 20 2 18 20 2 18 20 2 18 20 2 18 20 2 18 20 2 18 20 2 18 20 2 18 20 2 18 20 2 18 20 2 18 20 2 18 20 2 18 20 2 18 20 2 18 20 2 14 16 2 18 20 2 18 20 2 18 20 2 44 48 6 59 65 8 33 36 4 26 28 3 37 40 5 37 40 5 48 52 7 44 48 6 101 109 14 153 166 22 127 138 18 93 101 13 93 101 13 161 174 23 149 162 22 127 138 18 207 216 118 223 229 162 189 201 64 161 174 23 123 134 18 37 40 5 37 40 5 33 36 4 93 101 13 123 134 18 44 48 6 26 28 3 14 16 2 18 20 2 33 36 4 59 65 8 48 52 7 37 40 5 18 20 2 14 16 2 18 20 2 14 16 2 18 20 2 18 20 2 18 20 2 18 20 2 22 24 3 44 48 6 101 109 14 101 109 14 59 65 8 33 36 4 48 52 7 134 146 19 101 109 14 56 60 8 37 40 5 108 117 16 149 162 22 168 182 24 123 134 18 59 65 8 63 69 9 101 109 14 101 109 14 37 40 5 33 36 4 44 48 6 26 28 3 44 48 6 101 109 14 48 52 7 26 28 3 22 24 3 37 40 5 37 40 5 56 60 8 37 40 5 37 40 5 33 36 4 33 36 4 48 52 7 18 20 2 37 40 5 22 24 3 59 65 8 26 28 3 18 20 2 22 24 3 37 40 5 37 40 5 26 28 3 33 36 4 33 36 4 22 24 3 44 48 6 63 69 9 44 48 6 22 24 3 18 20 2 26 28 3 26 28 3 22 24 3 26 28 3 22 24 3 18 20 2 18 20 2 18 20 2 18 20 2 22 24 3 22 24 3 22 24 3 18 20 2 18 20 2 18 20 2 14 16 2 14 16 2 18 20 2 14 16 2 18 20 2 18 20 2 14 16 2 14 16 2 14 16 2 14 16 2 14 16 2 14 16 2 18 20 2 18 20 2 18 20 2 18 20 2 18 20 2 18 20 2 22 24 3 22 24 3 33 36 4 33 36 4 22 24 3 18 20 2 22 24 3 18 20 2 14 16 2 18 20 2 18 20 2 18 20 2 18 20 2 18 20 2 18 20 2 18 20 2 18 20 2 14 16 2 14 16 2 14 16 2 14 16 2 14 16 2 14 16 2 18 20 2 18 20 2 18 20 2 18 20 2 18 20 2 18 20 2 18 20 2 18 20 2 18 20 2 18 20 2 18 20 2 18 20 2 18 20 2 18 20 2 18 20 2 18 20 2 18 20 2 18 20 2 18 20 2 18 20 2 18 20 2 18 20 2 18 20 2 18 20 2 18 20 2 18 20 2 18 20 2 18 20 2 18 20 2 18 20 2 18 20 2 18 20 2 18 20 2 18 20 2 18 20 2 18 20 2 
18 20 2 18 20 2 18 20 2 18 20 2 18 20 2 18 20 2 18 20 2 18 20 2 18 20 2 18 20 2 18 20 2 18 20 2 18 20 2 18 20 2 18 20 2 18 20 2 18 20 2 18 20 2 18 20 2 18 20 2 18 20 2 18 20 2 18 20 2 18 20 2 18 20 2 18 20 2 18 20 2 14 16 2 18 20 2 18 20 2 18 20 2 18 20 2 22 24 3 26 28 3 26 28 3 26 28 3 37 40 5 33 36 4 37 40 5 56 60 8 89 97 13 63 69 9 59 65 8 63 69 9 93 101 13 153 166 22 134 146 19 142 154 21 123 134 18 108 117 16 56 60 8 59 65 8 48 52 7 26 28 3 22 24 3 37 40 5 26 28 3 18 20 2 14 16 2 14 16 2 22 24 3 37 40 5 56 60 8 44 48 6 22 24 3 18 20 2 14 16 2 14 16 2 22 24 3 22 24 3 33 36 4 101 109 14 59 65 8 26 28 3 89 97 13 134 146 19 146 158 21 123 134 18 37 40 5 26 28 3 26 28 3 33 36 4 33 36 4 22 24 3 26 28 3 63 69 9 89 97 13 48 52 7 37 40 5 33 36 4 108 117 16 161 174 23 48 52 7 26 28 3 101 109 14 89 97 13 33 36 4 33 36 4 26 28 3 93 101 13 56 60 8 108 117 16 37 40 5 37 40 5 37 40 5 33 36 4 101 109 14 48 52 7 123 134 18 37 40 5 37 40 5 59 65 8 37 40 5 18 20 2 26 28 3 22 24 3 22 24 3 22 24 3 22 24 3 18 20 2 33 36 4 26 28 3 22 24 3 18 20 2 18 20 2 18 20 2 33 36 4 33 36 4 37 40 5 37 40 5 22 24 3 33 36 4 26 28 3 44 48 6 22 24 3 18 20 2 14 16 2 18 20 2 26 28 3 18 20 2 14 16 2 14 16 2 22 24 3 18 20 2 14 16 2 18 20 2 22 24 3 14 16 2 14 16 2 14 16 2 14 16 2 14 16 2 14 16 2 18 20 2 14 16 2 14 16 2 18 20 2 22 24 3 22 24 3 22 24 3 22 24 3 22 24 3 26 28 3 26 28 3 22 24 3 18 20 2 22 24 3 26 28 3 18 20 2 18 20 2 18 20 2 18 20 2 14 16 2 14 16 2 14 16 2 14 16 2 18 20 2 18 20 2 14 16 2 14 16 2 18 20 2 14 16 2 14 16 2 14 16 2 18 20 2 14 16 2 18 20 2 18 20 2 18 20 2 18 20 2 18 20 2 18 20 2 18 20 2 18 20 2 18 20 2 18 20 2 18 20 2 18 20 2 18 20 2 18 20 2 18 20 2 18 20 2 18 20 2 18 20 2 18 20 2 18 20 2 18 20 2 18 20 2 18 20 2 18 20 2 18 20 2 18 20 2 18 20 2 18 20 2 18 20 2 18 20 2 18 20 2 18 20 2 18 20 2 18 20 2 
18 20 2 18 20 2 18 20 2 18 20 2 18 20 2 18 20 2 18 20 2 18 20 2 18 20 2 18 20 2 18 20 2 18 20 2 18 20 2 18 20 2 18 20 2 18 20 2 18 20 2 18 20 2 18 20 2 18 20 2 18 20 2 18 20 2 18 20 2 18 20 2 18 20 2 18 20 2 18 20 2 14 16 2 18 20 2 18 20 2 18 20 2 18 20 2 22 24 3 26 28 3 26 28 3 26 28 3 37 40 5 33 36 4 37 40 5 56 60 8 89 97 13 63 69 9 59 65 8 63 69 9 93 101 13 153 166 22 134 146 19 142 154 21 123 134 18 108 117 16 56 60 8 59 65 8 48 52 7 26 28 3 22 24 3 37 40 5 26 28 3 18 20 2 14 16 2 14 16 2 22 24 3 37 40 5 56 60 8 44 48 6 22 24 3 18 20 2 14 16 2 14 16 2 22 24 3 22 24 3 33 36 4 101 109 14 59 65 8 26 28 3 89 97 13 134 146 19 146 158 21 123 134 18 37 40 5 26 28 3 26 28 3 33 36 4 33 36 4 22 24 3 26 28 3 63 69 9 89 97 13 48 52 7 37 40 5 33 36 4 108 117 16 161 174 23 48 52 7 26 28 3 101 109 14 89 97 13 33 36 4 33 36 4 26 28 3 93 101 13 56 60 8 108 117 16 37 40 5 37 40 5 37 40 5 33 36 4 101 109 14 48 52 7 123 134 18 37 40 5 37 40 5 59 65 8 37 40 5 18 20 2 26 28 3 22 24 3 22 24 3 22 24 3 22 24 3 18 20 2 33 36 4 26 28 3 22 24 3 18 20 2 18 20 2 18 20 2 33 36 4 33 36 4 37 40 5 37 40 5 22 24 3 33 36 4 26 28 3 44 48 6 22 24 3 18 20 2 14 16 2 18 20 2 26 28 3 18 20 2 14 16 2 14 16 2 22 24 3 18 20 2 14 16 2 18 20 2 22 24 3 14 16 2 14 16 2 14 16 2 14 16 2 14 16 2 14 16 2 18 20 2 14 16 2 14 16 2 18 20 2 22 24 3 22 24 3 22 24 3 22 24 3 22 24 3 26 28 3 26 28 3 22 24 3 18 20 2 22 24 3 26 28 3 18 20 2 18 20 2 18 20 2 18 20 2 14 16 2 14 16 2 14 16 2 14 16 2 18 20 2 18 20 2 14 16 2 14 16 2 18 20 2 14 16 2 14 16 2 14 16 2 18 20 2 14 16 2 18 20 2 18 20 2 18 20 2 18 20 2 18 20 2 18 20 2 18 20 2 18 20 2 18 20 2 18 20 2 18 20 2 18 20 2 18 20 2 18 20 2 18 20 2 18 20 2 18 20 2 18 20 2 18 20 2 18 20 2 18 20 2 18 20 2 18 20 2 18 20 2 18 20 2 18 20 2 18 20 2 18 20 2 18 20 2 18 20 2 18 20 2 18 20 2 18 20 2 18 20 2 
18 20 2 18 20 2 18 20 2 18 20 2 18 20 2 18 20 2 18 20 2 18 20 2 18 20 2 18 20 2 18 20 2 18 20 2 18 20 2 18 20 2 18 20 2 18 20 2 18 20 2 18 20 2 18 20 2 18 20 2 18 20 2 18 20 2 18 20 2 18 20 2 18 20 2 18 20 2 18 20 2 18 20 2 18 20 2 18 20 2 18 20 2 22 24 3 63 69 9 63 69 9 48 52 7 37 40 5 56 60 8 89 97 13 56 60 8 59 65 8 89 97 13 63 69 9 123 134 18 153 166 22 196 207 84 134 146 19 108 117 16 89 97 13 48 52 7 37 40 5 22 24 3 18 20 2 18 20 2 22 24 3 44 48 6 26 28 3 14 16 2 14 16 2 18 20 2 18 20 2 22 24 3 22 24 3 22 24 3 18 20 2 18 20 2 18 20 2 14 16 2 14 16 2 22 24 3 26 28 3 22 24 3 18 20 2 18 20 2 22 24 3 33 36 4 37 40 5 26 28 3 22 24 3 26 28 3 26 28 3 37 40 5 33 36 4 56 60 8 63 69 9 63 69 9 48 52 7 93 101 13 123 134 18 177 192 30 149 162 22 56 60 8 101 109 14 134 146 19 134 146 19 89 97 13 184 197 50 157 170 23 59 65 8 33 36 4 26 28 3 33 36 4 26 28 3 44 48 6 142 154 21 33 36 4 22 24 3 22 24 3 22 24 3 26 28 3 26 28 3 89 97 13 63 69 9 22 24 3 26 28 3 44 48 6 18 20 2 14 16 2 14 16 2 18 20 2 18 20 2 18 20 2 18 20 2 26 28 3 26 28 3 33 36 4 26 28 3 26 28 3 18 20 2 18 20 2 22 24 3 18 20 2 18 20 2 22 24 3 22 24 3 22 24 3 22 24 3 14 16 2 14 16 2 14 16 2 18 20 2 18 20 2 18 20 2 14 16 2 18 20 2 18 20 2 14 16 2 14 16 2 14 16 2 14 16 2 14 16 2 14 16 2 14 16 2 14 16 2 18 20 2 18 20 2 22 24 3 26 28 3 22 24 3 18 20 2 22 24 3 22 24 3 18 20 2 18 20 2 18 20 2 18 20 2 18 20 2 18 20 2 18 20 2 18 20 2 22 24 3 18 20 2 18 20 2 22 24 3 22 24 3 22 24 3 18 20 2 14 16 2 14 16 2 14 16 2 18 20 2 18 20 2 18 20 2 18 20 2 18 20 2 18 20 2 14 16 2 14 16 2 14 16 2 18 20 2 18 20 2 18 20 2 18 20 2 18 20 2 18 20 2 18 20 2 18 20 2 18 20 2 18 20 2 18 20 2 18 20 2 18 20 2 18 20 2 18 20 2 18 20 2 18 20 2 18 20 2 18 20 2 18 20 2 18 20 2 18 20 2 18 20 2 18 20 2 18 20 2 18 20 2 18 20 2 18 20 2 18 20 2 18 20 2 18 20 2 18 20 2 
18 20 2 18 20 2 18 20 2 18 20 2 18 20 2 18 20 2 18 20 2 18 20 2 18 20 2 18 20 2 18 20 2 18 20 2 18 20 2 18 20 2 18 20 2 18 20 2 18 20 2 18 20 2 18 20 2 18 20 2 18 20 2 18 20 2 18 20 2 18 20 2 18 20 2 18 20 2 18 20 2 18 20 2 18 20 2 18 20 2 18 20 2 22 24 3 63 69 9 63 69 9 48 52 7 37 40 5 56 60 8 89 97 13 56 60 8 59 65 8 89 97 13 63 69 9 123 134 18 153 166 22 196 207 84 134 146 19 108 117 16 89 97 13 48 52 7 37 40 5 22 24 3 18 20 2 18 20 2 22 24 3 44 48 6 26 28 3 14 16 2 14 16 2 18 20 2 18 20 2 22 24 3 22 24 3 22 24 3 18 20 2 18 20 2 18 20 2 14 16 2 14 16 2 22 24 3 26 28 3 22 24 3 18 20 2 18 20 2 22 24 3 33 36 4 37 40 5 26 28 3 22 24 3 26 28 3 26 28 3 37 40 5 33 36 4 56 60 8 63 69 9 63 69 9 48 52 7 93 101 13 123 134 18 177 192 30 149 162 22 56 60 8 101 109 14 134 146 19 134 146 19 89 97 13 184 197 50 157 170 23 59 65 8 33 36 4 26 28 3 33 36 4 26 28 3 44 48 6 142 154 21 33 36 4 22 24 3 22 24 3 22 24 3 26 28 3 26 28 3 89 97 13 63 69 9 22 24 3 26 28 3 44 48 6 18 20 2 14 16 2 14 16 2 18 20 2 18 20 2 18 20 2 18 20 2 26 28 3 26 28 3 33 36 4 26 28 3 26 28 3 18 20 2 18 20 2 22 24 3 18 20 2 18 20 2 22 24 3 22 24 3 22 24 3 22 24 3 14 16 2 14 16 2 14 16 2 18 20 2 18 20 2 18 20 2 14 16 2 18 20 2 18 20 2 14 16 2 14 16 2 14 16 2 14 16 2 14 16 2 14 16 2 14 16 2 14 16 2 18 20 2 18 20 2 22 24 3 26 28 3 22 24 3 18 20 2 22 24 3 22 24 3 18 20 2 18 20 2 18 20 2 18 20 2 18 20 2 18 20 2 18 20 2 18 20 2 22 24 3 18 20 2 18 20 2 22 24 3 22 24 3 22 24 3 18 20 2 14 16 2 14 16 2 14 16 2 18 20 2 18 20 2 18 20 2 18 20 2 18 20 2 18 20 2 14 16 2 14 16 2 14 16 2 18 20 2 18 20 2 18 20 2 18 20 2 18 20 2 18 20 2 18 20 2 18 20 2 18 20 2 18 20 2 18 20 2 18 20 2 18 20 2 18 20 2 18 20 2 18 20 2 18 20 2 18 20 2 18 20 2 18 20 2 18 20 2 18 20 2 18 20 2 18 20 2 18 20 2 18 20 2 18 20 2 18 20 2 18 20 2 18 20 2 18 20 2 18 20 2 
18 20 2 18 20 2 18 20 2 18 20 2 18 20 2 18 20 2 18 20 2 18 20 2 18 20 2 18 20 2 18 20 2 18 20 2 18 20 2 18 20 2 18 20 2 18 20 2 18 20 2 18 20 2 18 20 2 18 20 2 18 20 2 18 20 2 18 20 2 18 20 2 18 20 2 18 20 2 18 20 2 18 20 2 18 20 2 18 20 2 18 20 2 22 24 3 33 36 4 33 36 4 33 36 4 44 48 6 37 40 5 33 36 4 44 48 6 63 69 9 93 101 13 101 109 14 63 69 9 56 60 8 56 60 8 93 101 13 89 97 13 48 52 7 33 36 4 177 192 30 56 60 8 22 24 3 18 20 2 44 48 6 44 48 6 26 28 3 18 20 2 37 40 5 26 28 3 18 20 2 14 16 2 14 16 2 14 16 2 14 16 2 18 20 2 14 16 2 18 20 2 33 36 4 63 69 9 26 28 3 26 28 3 22 24 3 26 28 3 33 36 4 22 24 3 18 20 2 14 16 2 22 24 3 37 40 5 26 28 3 63 69 9 108 117 16 142 154 21 153 166 22 123 134 18 59 65 8 48 52 7 44 48 6 48 52 7 37 40 5 33 36 4 44 48 6 89 97 13 63 69 9 44 48 6 33 36 4 22 24 3 33 36 4 48 52 7 123 134 18 123 134 18 59 65 8 37 40 5 26 28 3 22 24 3 59 65 8 63 69 9 33 36 4 22 24 3 18 20 2 26 28 3 22 24 3 37 40 5 89 97 13 56 60 8 33 36 4 18 20 2 18 20 2 18 20 2 18 20 2 18 20 2 14 16 2 14 16 2 14 16 2 14 16 2 14 16 2 14 16 2 18 20 2 18 20 2 14 16 2 14 16 2 14 16 2 14 16 2 18 20 2 18 20 2 18 20 2 18 20 2 18 20 2 14 16 2 14 16 2 14 16 2 18 20 2 18 20 2 14 16 2 14 16 2 14 16 2 14 16 2 14 16 2 14 16 2 14 16 2 14 16 2 14 16 2 18 20 2 18 20 2 14 16 2 18 20 2 18 20 2 18 20 2 26 28 3 26 28 3 22 24 3 18 20 2 18 20 2 18 20 2 22 24 3 22 24 3 18 20 2 14 16 2 14 16 2 18 20 2 18 20 2 18 20 2 18 20 2 22 24 3 22 24 3 18 20 2 18 20 2 18 20 2 14 16 2 14 16 2 18 20 2 14 16 2 14 16 2 18 20 2 18 20 2 14 16 2 14 16 2 18 20 2 18 20 2 18 20 2 18 20 2 18 20 2 18 20 2 18 20 2 18 20 2 18 20 2 18 20 2 18 20 2 18 20 2 18 20 2 18 20 2 18 20 2 18 20 2 18 20 2 18 20 2 18 20 2 18 20 2 18 20 2 18 20 2 18 20 2 18 20 2 18 20 2 18 20 2 18 20 2 18 20 2 18 20 2 18 20 2 18 20 2 18 20 2 18 20 2 
18 20 2 18 20 2 18 20 2 18 20 2 18 20 2 18 20 2 18 20 2 18 20 2 18 20 2 18 20 2 18 20 2 18 20 2 18 20 2 18 20 2 18 20 2 18 20 2 18 20 2 18 20 2 18 20 2 18 20 2 18 20 2 18 20 2 18 20 2 18 20 2 18 20 2 18 20 2 18 20 2 18 20 2 18 20 2 18 20 2 18 20 2 22 24 3 33 36 4 33 36 4 33 36 4 44 48 6 37 40 5 33 36 4 44 48 6 63 69 9 93 101 13 101 109 14 63 69 9 56 60 8 56 60 8 93 101 13 89 97 13 48 52 7 33 36 4 177 192 30 56 60 8 22 24 3 18 20 2 44 48 6 44 48 6 26 28 3 18 20 2 37 40 5 26 28 3 18 20 2 14 16 2 14 16 2 14 16 2 14 16 2 18 20 2 14 16 2 18 20 2 33 36 4 63 69 9 26 28 3 26 28 3 22 24 3 26 28 3 33 36 4 22 24 3 18 20 2 14 16 2 22 24 3 37 40 5 26 28 3 63 69 9 108 117 16 142 154 21 153 166 22 123 134 18 59 65 8 48 52 7 44 48 6 48 52 7 37 40 5 33 36 4 44 48 6 89 97 13 63 69 9 44 48 6 33 36 4 22 24 3 33 36 4 48 52 7 123 134 18 123 134 18 59 65 8 37 40 5 26 28 3 22 24 3 59 65 8 63 69 9 33 36 4 22 24 3 18 20 2 26 28 3 22 24 3 37 40 5 89 97 13 56 60 8 33 36 4 18 20 2 18 20 2 18 20 2 18 20 2 18 20 2 14 16 2 14 16 2 14 16 2 14 16 2 14 16 2 14 16 2 18 20 2 18 20 2 14 16 2 14 16 2 14 16 2 14 16 2 18 20 2 18 20 2 18 20 2 18 20 2 18 20 2 14 16 2 14 16 2 14 16 2 18 20 2 18 20 2 14 16 2 14 16 2 14 16 2 14 16 2 14 16 2 14 16 2 14 16 2 14 16 2 14 16 2 18 20 2 18 20 2 14 16 2 18 20 2 18 20 2 18 20 2 26 28 3 26 28 3 22 24 3 18 20 2 18 20 2 18 20 2 22 24 3 22 24 3 18 20 2 14 16 2 14 16 2 18 20 2 18 20 2 18 20 2 18 20 2 22 24 3 22 24 3 18 20 2 18 20 2 18 20 2 14 16 2 14 16 2 18 20 2 14 16 2 14 16 2 18 20 2 18 20 2 14 16 2 14 16 2 18 20 2 18 20 2 18 20 2 18 20 2 18 20 2 18 20 2 18 20 2 18 20 2 18 20 2 18 20 2 18 20 2 18 20 2 18 20 2 18 20 2 18 20 2 18 20 2 18 20 2 18 20 2 18 20 2 18 20 2 18 20 2 18 20 2 18 20 2 18 20 2 18 20 2 18 20 2 18 20 2 18 20 2 18 20 2 18 20 2 18 20 2 18 20 2 18 20 2 
18 20 2 18 20 2 18 20 2 18 20 2 18 20 2 18 20 2 18 20 2 18 20 2 18 20 2 18 20 2 18 20 2 18 20 2 18 20 2 18 20 2 18 20 2 18 20 2 18 20 2 18 20 2 18 20 2 18 20 2 18 20 2 18 20 2 18 20 2 18 20 2 18 20 2 18 20 2 14 16 2 18 20 2 18 20 2 18 20 2 22 24 3 26 28 3 37 40 5 56 60 8 56 60 8 37 40 5 37 40 5 44 48 6 181 195 40 138 150 20 48 52 7 44 48 6 37 40 5 56 60 8 63 69 9 59 65 8 37 40 5 18 20 2 22 24 3 26 28 3 18 20 2 14 16 2 14 16 2 14 16 2 14 16 2 18 20 2 14 16 2 14 16 2 22 24 3 37 40 5 26 28 3 18 20 2 18 20 2 18 20 2 14 16 2 18 20 2 26 28 3 37 40 5 18 20 2 18 20 2 18 20 2 18 20 2 26 28 3 37 40 5 33 36 4 22 24 3 18 20 2 26 28 3 26 28 3 26 28 3 44 48 6 44 48 6 33 36 4 26 28 3 22 24 3 22 24 3 37 40 5 101 109 14 56 60 8 89 97 13 89 97 13 101 109 14 134 146 19 138 150 20 142 154 21 123 134 18 63 69 9 149 162 22 153 166 22 142 154 21 123 134 18 37 40 5 63 69 9 63 69 9 44 48 6 33 36 4 26 28 3 44 48 6 63 69 9 33 36 4 26 28 3 18 20 2 18 20 2 18 20 2 18 20 2 26 28 3 33 36 4 26 28 3 33 36 4 44 48 6 26 28 3 26 28 3 18 20 2 18 20 2 18 20 2 18 20 2 18 20 2 18 20 2 18 20 2 18 20 2 18 20 2 14 16 2 14 16 2 14 16 2 14 16 2 14 16 2 18 20 2 18 20 2 18 20 2 14 16 2 14 16 2 14 16 2 14 16 2 14 16 2 14 16 2 14 16 2 14 16 2 14 16 2 14 16 2 22 24 3 22 24 3 22 24 3 18 20 2 18 20 2 18 20 2 18 20 2 22 24 3 18 20 2 18 20 2 18 20 2 14 16 2 18 20 2 18 20 2 18 20 2 18 20 2 18 20 2 18 20 2 18 20 2 22 24 3 22 24 3 18 20 2 18 20 2 18 20 2 18 20 2 18 20 2 18 20 2 18 20 2 18 20 2 18 20 2 18 20 2 14 16 2 18 20 2 18 20 2 18 20 2 18 20 2 18 20 2 18 20 2 18 20 2 18 20 2 18 20 2 18 20 2 18 20 2 18 20 2 18 20 2 18 20 2 18 20 2 18 20 2 18 20 2 18 20 2 18 20 2 18 20 2 18 20 2 18 20 2 18 20 2 18 20 2 18 20 2 18 20 2 18 20 2 18 20 2 18 20 2 18 20 2 18 20 2 18 20 2 18 20 2 18 20 2 18 20 2 18 20 2 18 20 2 18 20 2 18 20 2 
18 20 2 18 20 2 18 20 2 18 20 2 18 20 2 18 20 2 18 20 2 18 20 2 18 20 2 18 20 2 18 20 2 18 20 2 18 20 2 18 20 2 18 20 2 18 20 2 18 20 2 18 20 2 18 20 2 18 20 2 18 20 2 18 20 2 18 20 2 18 20 2 18 20 2 18 20 2 14 16 2 18 20 2 18 20 2 18 20 2 22 24 3 26 28 3 37 40 5 56 60 8 56 60 8 37 40 5 37 40 5 44 48 6 181 195 40 138 150 20 48 52 7 44 48 6 37 40 5 56 60 8 63 69 9 59 65 8 37 40 5 18 20 2 22 24 3 26 28 3 18 20 2 14 16 2 14 16 2 14 16 2 14 16 2 18 20 2 14 16 2 14 16 2 22 24 3 37 40 5 26 28 3 18 20 2 18 20 2 18 20 2 14 16 2 18 20 2 26 28 3 37 40 5 18 20 2 18 20 2 18 20 2 18 20 2 26 28 3 37 40 5 33 36 4 22 24 3 18 20 2 26 28 3 26 28 3 26 28 3 44 48 6 44 48 6 33 36 4 26 28 3 22 24 3 22 24 3 37 40 5 101 109 14 56 60 8 89 97 13 89 97 13 101 109 14 134 146 19 138 150 20 142 154 21 123 134 18 63 69 9 149 162 22 153 166 22 142 154 21 123 134 18 37 40 5 63 69 9 63 69 9 44 48 6 33 36 4 26 28 3 44 48 6 63 69 9 33 36 4 26 28 3 18 20 2 18 20 2 18 20 2 18 20 2 26 28 3 33 36 4 26 28 3 33 36 4 44 48 6 26 28 3 26 28 3 18 20 2 18 20 2 18 20 2 18 20 2 18 20 2 18 20 2 18 20 2 18 20 2 18 20 2 14 16 2 14 16 2 14 16 2 14 16 2 14 16 2 18 20 2 18 20 2 18 20 2 14 16 2 14 16 2 14 16 2 14 16 2 14 16 2 14 16 2 14 16 2 14 16 2 14 16 2 14 16 2 22 24 3 22 24 3 22 24 3 18 20 2 18 20 2 18 20 2 18 20 2 22 24 3 18 20 2 18 20 2 18 20 2 14 16 2 18 20 2 18 20 2 18 20 2 18 20 2 18 20 2 18 20 2 18 20 2 22 24 3 22 24 3 18 20 2 18 20 2 18 20 2 18 20 2 18 20 2 18 20 2 18 20 2 18 20 2 18 20 2 18 20 2 14 16 2 18 20 2 18 20 2 18 20 2 18 20 2 18 20 2 18 20 2 18 20 2 18 20 2 18 20 2 18 20 2 18 20 2 18 20 2 18 20 2 18 20 2 18 20 2 18 20 2 18 20 2 18 20 2 18 20 2 18 20 2 18 20 2 18 20 2 18 20 2 18 20 2 18 20 2 18 20 2 18 20 2 18 20 2 18 20 2 18 20 2 18 20 2 18 20 2 18 20 2 18 20 2 18 20 2 18 20 2 18 20 2 18 20 2 18 20 2 
18 20 2 18 20 2 18 20 2 18 20 2 18 20 2 18 20 2 18 20 2 18 20 2 18 20 2 18 20 2 18 20 2 18 20 2 18 20 2 18 20 2 18 20 2 18 20 2 18 20 2 18 20 2 18 20 2 18 20 2 18 20 2 18 20 2 18 20 2 18 20 2 18 20 2 18 20 2 14 16 2 18 20 2 18 20 2 22 24 3 22 24 3 26 28 3 33 36 4 63 69 9 56 60 8 33 36 4 37 40 5 37 40 5 33 36 4 33 36 4 33 36 4 26 28 3 26 28 3 33 36 4 22 24 3 18 20 2 22 24 3 26 28 3 44 48 6 37 40 5 33 36 4 18 20 2 22 24 3 44 48 6 26 28 3 18 20 2 26 28 3 59 65 8 63 69 9 26 28 3 18 20 2 14 16 2 18 20 2 22 24 3 14 16 2 14 16 2 18 20 2 14 16 2 14 16 2 22 24 3 18 20 2 18 20 2 18 20 2 18 20 2 18 20 2 33 36 4 142 154 21 89 97 13 101 109 14 108 117 16 93 101 13 63 69 9 153 166 22 161 174 23 138 150 20 59 65 8 59 65 8 56 60 8 63 69 9 59 65 8 48 52 7 101 109 14 89 97 13 37 40 5 56 60 8 93 101 13 56 60 8 33 36 4 26 28 3 26 28 3 33 36 4 37 40 5 59 65 8 56 60 8 48 52 7 37 40 5 33 36 4 44 48 6 22 24 3 18 20 2 33 36 4 44 48 6 59 65 8 26 28 3 22 24 3 14 16 2 14 16 2 18 20 2 18 20 2 22 24 3 18 20 2 18 20 2 18 20 2 18 20 2 18 20 2 18 20 2 22 24 3 18 20 2 22 24 3 18 20 2 22 24 3 18 20 2 18 20 2 18 20 2 18 20 2 18 20 2 14 16 2 14 16 2 14 16 2 14 16 2 14 16 2 14 16 2 14 16 2 14 16 2 14 16 2 18 20 2 18 20 2 18 20 2 18 20 2 18 20 2 18 20 2 18 20 2 18 20 2 22 24 3 22 24 3 26 28 3 22 24 3 18 20 2 18 20 2 14 16 2 18 20 2 18 20 2 22 24 3 22 24 3 18 20 2 14 16 2 18 20 2 18 20 2 22 24 3 22 24 3 18 20 2 18 20 2 22 24 3 22 24 3 18 20 2 18 20 2 18 20 2 18 20 2 18 20 2 18 20 2 18 20 2 18 20 2 18 20 2 18 20 2 18 20 2 18 20 2 18 20 2 18 20 2 18 20 2 18 20 2 18 20 2 18 20 2 18 20 2 18 20 2 18 20 2 18 20 2 18 20 2 18 20 2 18 20 2 18 20 2 18 20 2 18 20 2 18 20 2 18 20 2 18 20 2 18 20 2 18 20 2 18 20 2 18 20 2 18 20 2 18 20 2 18 20 2 18 20 2 18 20 2 18 20 2 18 20 2 18 20 2 18 20 2 18 20 2 18 20 2 
18 20 2 18 20 2 18 20 2 18 20 2 18 20 2 18 20 2 18 20 2 18 20 2 18 20 2 18 20 2 18 20 2 18 20 2 18 20 2 18 20 2 18 20 2 18 20 2 18 20 2 18 20 2 18 20 2 18 20 2 18 20 2 18 20 2 18 20 2 18 20 2 18 20 2 18 20 2 14 16 2 18 20 2 18 20 2 22 24 3 22 24 3 26 28 3 33 36 4 63 69 9 56 60 8 33 36 4 37 40 5 37 40 5 33 36 4 33 36 4 33 36 4 26 28 3 26 28 3 33 36 4 22 24 3 18 20 2 22 24 3 26 28 3 44 48 6 37 40 5 33 36 4 18 20 2 22 24 3 44 48 6 26 28 3 18 20 2 26 28 3 59 65 8 63 69 9 26 28 3 18 20 2 14 16 2 18 20 2 22 24 3 14 16 2 14 16 2 18 20 2 14 16 2 14 16 2 22 24 3 18 20 2 18 20 2 18 20 2 18 20 2 18 20 2 33 36 4 142 154 21 89 97 13 101 109 14 108 117 16 93 101 13 63 69 9 153 166 22 161 174 23 138 150 20 59 65 8 59 65 8 56 60 8 63 69 9 59 65 8 48 52 7 101 109 14 89 97 13 37 40 5 56 60 8 93 101 13 56 60 8 33 36 4 26 28 3 26 28 3 33 36 4 37 40 5 59 65 8 56 60 8 48 52 7 37 40 5 33 36 4 44 48 6 22 24 3 18 20 2 33 36 4 44 48 6 59 65 8 26 28 3 22 24 3 14 16 2 14 16 2 18 20 2 18 20 2 22 24 3 18 20 2 18 20 2 18 20 2 18 20 2 18 20 2 18 20 2 22 24 3 18 20 2 22 24 3 18 20 2 22 24 3 18 20 2 18 20 2 18 20 2 18 20 2 18 20 2 14 16 2 14 16 2 14 16 2 14 16 2 14 16 2 14 16 2 14 16 2 14 16 2 14 16 2 18 20 2 18 20 2 18 20 2 18 20 2 18 20 2 18 20 2 18 20 2 18 20 2 22 24 3 22 24 3 26 28 3 22 24 3 18 20 2 18 20 2 14 16 2 18 20 2 18 20 2 22 24 3 22 24 3 18 20 2 14 16 2 18 20 2 18 20 2 22 24 3 22 24 3 18 20 2 18 20 2 22 24 3 22 24 3 18 20 2 18 20 2 18 20 2 18 20 2 18 20 2 18 20 2 18 20 2 18 20 2 18 20 2 18 20 2 18 20 2 18 20 2 18 20 2 18 20 2 18 20 2 18 20 2 18 20 2 18 20 2 18 20 2 18 20 2 18 20 2 18 20 2 18 20 2 18 20 2 18 20 2 18 20 2 18 20 2 18 20 2 18 20 2 18 20 2 18 20 2 18 20 2 18 20 2 18 20 2 18 20 2 18 20 2 18 20 2 18 20 2 18 20 2 18 20 2 18 20 2 18 20 2 18 20 2 18 20 2 18 20 2 18 20 2 
18 20 2 18 20 2 18 20 2 18 20 2 18 20 2 18 20 2 18 20 2 18 20 2 18 20 2 18 20 2 18 20 2 18 20 2 18 20 2 18 20 2 18 20 2 18 20 2 18 20 2 18 20 2 18 20 2 18 20 2 18 20 2 18 20 2 18 20 2 18 20 2 18 20 2 18 20 2 18 20 2 18 20 2 18 20 2 26 28 3 22 24 3 26 28 3 22 24 3 26 28 3 33 36 4 63 69 9 33 36 4 33 36 4 33 36 4 22 24 3 63 69 9 108 117 16 33 36 4 37 40 5 56 60 8 44 48 6 22 24 3 22 24 3 33 36 4 33 36 4 22 24 3 14 16 2 18 20 2 18 20 2 18 20 2 18 20 2 33 36 4 22 24 3 18 20 2 18 20 2 14 16 2 14 16 2 14 16 2 18 20 2 26 28 3 22 24 3 18 20 2 26 28 3 33 36 4 33 36 4 44 48 6 89 97 13 22 24 3 33 36 4 33 36 4 48 52 7 56 60 8 59 65 8 59 65 8 56 60 8 44 48 6 37 40 5 59 65 8 127 138 18 157 170 23 187 200 60 184 197 50 172 186 25 161 174 23 192 204 74 194 205 79 197 208 89 192 204 74 177 192 30 157 170 23 177 192 30 138 150 20 101 109 14 93 101 13 134 146 19 108 117 16 157 170 23 142 154 21 93 101 13 37 40 5 101 109 14 89 97 13 44 48 6 48 52 7 37 40 5 44 48 6 59 65 8 44 48 6 22 24 3 18 20 2 18 20 2 18 20 2 18 20 2 18 20 2 18 20 2 14 16 2 14 16 2 14 16 2 14 16 2 18 20 2 18 20 2 18 20 2 14 16 2 14 16 2 14 16 2 14 16 2 14 16 2 14 16 2 14 16 2 14 16 2 14 16 2 14 16 2 14 16 2 18 20 2 18 20 2 22 24 3 18 20 2 18 20 2 22 24 3 26 28 3 22 24 3 18 20 2 18 20 2 18 20 2 18 20 2 22 24 3 26 28 3 22 24 3 18 20 2 22 24 3 18 20 2 14 16 2 14 16 2 18 20 2 18 20 2 22 24 3 22 24 3 33 36 4 33 36 4 26 28 3 22 24 3 18 20 2 18 20 2 18 20 2 18 20 2 18 20 2 18 20 2 22 24 3 22 24 3 18 20 2 18 20 2 18 20 2 18 20 2 18 20 2 18 20 2 14 16 2 18 20 2 18 20 2 18 20 2 18 20 2 14 16 2 18 20 2 18 20 2 18 20 2 18 20 2 18 20 2 18 20 2 18 20 2 18 20 2 18 20 2 18 20 2 18 20 2 18 20 2 18 20 2 18 20 2 18 20 2 18 20 2 18 20 2 18 20 2 18 20 2 18 20 2 18 20 2 18 20 2 18 20 2 18 20 2 18 20 2 18 20 2 18 20 2 18 20 2 18 20 2 18 20 2 18 20 2 18 20 2 18 20 2 18 20 2 
18 20 2 18 20 2 18 20 2 18 20 2 18 20 2 18 20 2 18 20 2 18 20 2 18 20 2 18 20 2 18 20 2 18 20 2 18 20 2 18 20 2 18 20 2 18 20 2 18 20 2 18 20 2 18 20 2 18 20 2 18 20 2 18 20 2 18 20 2 18 20 2 18 20 2 18 20 2 18 20 2 18 20 2 18 20 2 26 28 3 22 24 3 26 28 3 22 24 3 26 28 3 33 36 4 63 69 9 33 36 4 33 36 4 33 36 4 22 24 3 63 69 9 108 117 16 33 36 4 37 40 5 56 60 8 44 48 6 22 24 3 22 24 3 33 36 4 33 36 4 22 24 3 14 16 2 18 20 2 18 20 2 18 20 2 18 20 2 33 36 4 22 24 3 18 20 2 18 20 2 14 16 2 14 16 2 14 16 2 18 20 2 26 28 3 22 24 3 18 20 2 26 28 3 33 36 4 33 36 4 44 48 6 89 97 13 22 24 3 33 36 4 33 36 4 48 52 7 56 60 8 59 65 8 59 65 8 56 60 8 44 48 6 37 40 5 59 65 8 127 138 18 157 170 23 187 200 60 184 197 50 172 186 25 161 174 23 192 204 74 194 205 79 197 208 89 192 204 74 177 192 30 157 170 23 177 192 30 138 150 20 101 109 14 93 101 13 134 146 19 108 117 16 157 170 23 142 154 21 93 101 13 37 40 5 101 109 14 89 97 13 44 48 6 48 52 7 37 40 5 44 48 6 59 65 8 44 48 6 22 24 3 18 20 2 18 20 2 18 20 2 18 20 2 18 20 2 18 20 2 14 16 2 14 16 2 14 16 2 14 16 2 18 20 2 18 20 2 18 20 2 14 16 2 14 16 2 14 16 2 14 16 2 14 16 2 14 16 2 14 16 2 14 16 2 14 16 2 14 16 2 14 16 2 18 20 2 18 20 2 22 24 3 18 20 2 18 20 2 22 24 3 26 28 3 22 24 3 18 20 2 18 20 2 18 20 2 18 20 2 22 24 3 26 28 3 22 24 3 18 20 2 22 24 3 18 20 2 14 16 2 14 16 2 18 20 2 18 20 2 22 24 3 22 24 3 33 36 4 33 36 4 26 28 3 22 24 3 18 20 2 18 20 2 18 20 2 18 20 2 18 20 2 18 20 2 22 24 3 22 24 3 18 20 2 18 20 2 18 20 2 18 20 2 18 20 2 18 20 2 14 16 2 18 20 2 18 20 2 18 20 2 18 20 2 14 16 2 18 20 2 18 20 2 18 20 2 18 20 2 18 20 2 18 20 2 18 20 2 18 20 2 18 20 2 18 20 2 18 20 2 18 20 2 18 20 2 18 20 2 18 20 2 18 20 2 18 20 2 18 20 2 18 20 2 18 20 2 18 20 2 18 20 2 18 20 2 18 20 2 18 20 2 18 20 2 18 20 2 18 20 2 18 20 2 18 20 2 18 20 2 18 20 2 18 20 2 18 20 2 
18 20 2 18 20 2 18 20 2 18 20 2 18 20 2 18 20 2 18 20 2 18 20 2 18 20 2 18 20 2 18 20 2 18 20 2 18 20 2 18 20 2 18 20 2 18 20 2 18 20 2 18 20 2 18 20 2 18 20 2 18 20 2 18 20 2 18 20 2 18 20 2 18 20 2 18 20 2 18 20 2 18 20 2 18 20 2 22 24 3 26 28 3 33 36 4 26 28 3 26 28 3 37 40 5 33 36 4 33 36 4 59 65 8 33 36 4 44 48 6 33 36 4 33 36 4 33 36 4 22 24 3 22 24 3 18 20 2 18 20 2 18 20 2 18 20 2 18 20 2 22 24 3 33 36 4 44 48 6 63 69 9 48 52 7 22 24 3 18 20 2 18 20 2 18 20 2 26 28 3 37 40 5 18 20 2 22 24 3 44 48 6 44 48 6 22 24 3 22 24 3 22 24 3 26 28 3 22 24 3 26 28 3 44 48 6 48 52 7 63 69 9 93 101 13 108 117 16 63 69 9 63 69 9 127 138 18 63 69 9 149 162 22 146 158 21 138 150 20 153 166 22 181 195 40 196 207 84 157 170 23 157 170 23 127 138 18 63 69 9 63 69 9 59 65 8 59 65 8 108 117 16 138 150 20 212 220 133 228 233 177 236 240 201 231 235 186 221 227 157 202 212 103 172 186 25 123 134 18 153 166 22 181 195 40 157 170 23 56 60 8 56 60 8 59 65 8 89 97 13 44 48 6 101 109 14 37 40 5 37 40 5 33 36 4 26 28 3 37 40 5 108 117 16 101 109 14 33 36 4 48 52 7 48 52 7 48 52 7 37 40 5 18 20 2 18 20 2 18 20 2 18 20 2 18 20 2 18 20 2 22 24 3 22 24 3 18 20 2 18 20 2 18 20 2 18 20 2 14 16 2 14 16 2 14 16 2 14 16 2 14 16 2 18 20 2 18 20 2 18 20 2 22 24 3 22 24 3 26 28 3 26 28 3 26 28 3 33 36 4 33 36 4 26 28 3 26 28 3 22 24 3 18 20 2 18 20 2 18 20 2 22 24 3 18 20 2 18 20 2 22 24 3 26 28 3 26 28 3 26 28 3 22 24 3 22 24 3 22 24 3 26 28 3 22 24 3 18 20 2 18 20 2 14 16 2 14 16 2 18 20 2 14 16 2 18 20 2 18 20 2 18 20 2 18 20 2 18 20 2 18 20 2 18 20 2 18 20 2 18 20 2 18 20 2 14 16 2 18 20 2 14 16 2 18 20 2 18 20 2 18 20 2 18 20 2 18 20 2 18 20 2 18 20 2 18 20 2 18 20 2 18 20 2 18 20 2 18 20 2 18 20 2 18 20 2 18 20 2 18 20 2 18 20 2 18 20 2 18 20 2 18 20 2 18 20 2 18 20 2 18 20 2 18 20 2 18 20 2 18 20 2 18 20 2 18 20 2 18 20 2 18 20 2 18 20 2 18 20 2 
18 20 2 18 20 2 18 20 2 18 20 2 18 20 2 18 20 2 18 20 2 18 20 2 18 20 2 18 20 2 18 20 2 18 20 2 18 20 2 18 20 2 18 20 2 18 20 2 18 20 2 18 20 2 18 20 2 18 20 2 18 20 2 18 20 2 18 20 2 18 20 2 18 20 2 18 20 2 18 20 2 18 20 2 18 20 2 22 24 3 26 28 3 33 36 4 26 28 3 26 28 3 37 40 5 33 36 4 33 36 4 59 65 8 33 36 4 44 48 6 33 36 4 33 36 4 33 36 4 22 24 3 22 24 3 18 20 2 18 20 2 18 20 2 18 20 2 18 20 2 22 24 3 33 36 4 44 48 6 63 69 9 48 52 7 22 24 3 18 20 2 18 20 2 18 20 2 26 28 3 37 40 5 18 20 2 22 24 3 44 48 6 44 48 6 22 24 3 22 24 3 22 24 3 26 28 3 22 24 3 26 28 3 44 48 6 48 52 7 63 69 9 93 101 13 108 117 16 63 69 9 63 69 9 127 138 18 63 69 9 149 162 22 146 158 21 138 150 20 153 166 22 181 195 40 196 207 84 157 170 23 157 170 23 127 138 18 63 69 9 63 69 9 59 65 8 59 65 8 108 117 16 138 150 20 212 220 133 228 233 177 236 240 201 231 235 186 221 227 157 202 212 103 172 186 25 123 134 18 153 166 22 181 195 40 157 170 23 56 60 8 56 60 8 59 65 8 89 97 13 44 48 6 101 109 14 37 40 5 37 40 5 33 36 4 26 28 3 37 40 5 108 117 16 101 109 14 33 36 4 48 52 7 48 52 7 48 52 7 37 40 5 18 20 2 18 20 2 18 20 2 18 20 2 18 20 2 18 20 2 22 24 3 22 24 3 18 20 2 18 20 2 18 20 2 18 20 2 14 16 2 14 16 2 14 16 2 14 16 2 14 16 2 18 20 2 18 20 2 18 20 2 22 24 3 22 24 3 26 28 3 26 28 3 26 28 3 33 36 4 33 36 4 26 28 3 26 28 3 22 24 3 18 20 2 18 20 2 18 20 2 22 24 3 18 20 2 18 20 2 22 24 3 26 28 3 26 28 3 26 28 3 22 24 3 22 24 3 22 24 3 26 28 3 22 24 3 18 20 2 18 20 2 14 16 2 14 16 2 18 20 2 14 16 2 18 20 2 18 20 2 18 20 2 18 20 2 18 20 2 18 20 2 18 20 2 18 20 2 18 20 2 18 20 2 14 16 2 18 20 2 14 16 2 18 20 2 18 20 2 18 20 2 18 20 2 18 20 2 18 20 2 18 20 2 18 20 2 18 20 2 18 20 2 18 20 2 18 20 2 18 20 2 18 20 2 18 20 2 18 20 2 18 20 2 18 20 2 18 20 2 18 20 2 18 20 2 18 20 2 18 20 2 18 20 2 18 20 2 18 20 2 18 20 2 18 20 2 18 20 2 18 20 2 18 20 2 18 20 2 
18 20 2 18 20 2 18 20 2 18 20 2 18 20 2 18 20 2 18 20 2 18 20 2 18 20 2 18 20 2 18 20 2 18 20 2 18 20 2 18 20 2 18 20 2 18 20 2 18 20 2 18 20 2 18 20 2 18 20 2 18 20 2 18 20 2 18 20 2 18 20 2 18 20 2 18 20 2 18 20 2 18 20 2 22 24 3 18 20 2 18 20 2 22 24 3 26 28 3 26 28 3 59 65 8 33 36 4 26 28 3 26 28 3 26 28 3 26 28 3 22 24 3 22 24 3 22 24 3 33 36 4 33 36 4 33 36 4 33 36 4 33 36 4 59 65 8 26 28 3 26 28 3 33 36 4 33 36 4 18 20 2 18 20 2 18 20 2 89 97 13 56 60 8 56 60 8 18 20 2 26 28 3 37 40 5 37 40 5 26 28 3 44 48 6 56 60 8 59 65 8 56 60 8 59 65 8 56 60 8 199 210 94 194 205 79 127 138 18 181 195 40 153 166 22 127 138 18 63 69 9 56 60 8 56 60 8 56 60 8 56 60 8 44 48 6 26 28 3 56 60 8 48 52 7 48 52 7 89 97 13 108 117 16 93 101 13 146 158 21 149 162 22 214 222 138 212 220 133 168 182 24 108 117 16 142 154 21 186 199 55 197 208 89 196 207 84 142 154 21 59 65 8 63 69 9 138 150 20 149 162 22 181 195 40 192 204 74 161 174 23 142 154 21 196 207 84 212 220 133 204 214 108 181 195 40 157 170 23 127 138 18 63 69 9 123 134 18 149 162 22 127 138 18 59 65 8 33 36 4 37 40 5 37 40 5 33 36 4 33 36 4 22 24 3 22 24 3 33 36 4 33 36 4 22 24 3 18 20 2 18 20 2 18 20 2 22 24 3 26 28 3 26 28 3 22 24 3 22 24 3 26 28 3 26 28 3 18 20 2 18 20 2 22 24 3 26 28 3 33 36 4 22 24 3 18 20 2 18 20 2 22 24 3 26 28 3 22 24 3 18 20 2 18 20 2 18 20 2 18 20 2 18 20 2 22 24 3 33 36 4 26 28 3 22 24 3 18 20 2 18 20 2 22 24 3 22 24 3 22 24 3 22 24 3 26 28 3 33 36 4 26 28 3 26 28 3 26 28 3 26 28 3 22 24 3 18 20 2 22 24 3 22 24 3 22 24 3 18 20 2 18 20 2 18 20 2 18 20 2 18 20 2 18 20 2 18 20 2 18 20 2 14 16 2 18 20 2 18 20 2 14 16 2 18 20 2 18 20 2 18 20 2 18 20 2 18 20 2 18 20 2 18 20 2 18 20 2 18 20 2 18 20 2 18 20 2 18 20 2 18 20 2 18 20 2 18 20 2 18 20 2 18 20 2 18 20 2 18 20 2 18 20 2 18 20 2 18 20 2 18 20 2 18 20 2 18 20 2 18 20 2 18 20 2 18 20 2 18 20 2 18 20 2 18 20 2 18 20 2 
18 20 2 18 20 2 18 20 2 18 20 2 18 20 2 18 20 2 18 20 2 18 20 2 18 20 2 18 20 2 18 20 2 18 20 2 18 20 2 18 20 2 18 20 2 18 20 2 18 20 2 18 20 2 18 20 2 18 20 2 18 20 2 18 20 2 18 20 2 18 20 2 18 20 2 18 20 2 18 20 2 18 20 2 22 24 3 18 20 2 18 20 2 22 24 3 26 28 3 26 28 3 59 65 8 33 36 4 26 28 3 26 28 3 26 28 3 26 28 3 22 24 3 22 24 3 22 24 3 33 36 4 33 36 4 33 36 4 33 36 4 33 36 4 59 65 8 26 28 3 26 28 3 33 36 4 33 36 4 18 20 2 18 20 2 18 20 2 89 97 13 56 60 8 56 60 8 18 20 2 26 28 3 37 40 5 37 40 5 26 28 3 44 48 6 56 60 8 59 65 8 56 60 8 59 65 8 56 60 8 199 210 94 194 205 79 127 138 18 181 195 40 153 166 22 127 138 18 63 69 9 56 60 8 56 60 8 56 60 8 56 60 8 44 48 6 26 28 3 56 60 8 48 52 7 48 52 7 89 97 13 108 117 16 93 101 13 146 158 21 149 162 22 214 222 138 212 220 133 168 182 24 108 117 16 142 154 21 186 199 55 197 208 89 196 207 84 142 154 21 59 65 8 63 69 9 138 150 20 149 162 22 181 195 40 192 204 74 161 174 23 142 154 21 196 207 84 212 220 133 204 214 108 181 195 40 157 170 23 127 138 18 63 69 9 123 134 18 149 162 22 127 138 18 59 65 8 33 36 4 37 40 5 37 40 5 33 36 4 33 36 4 22 24 3 22 24 3 33 36 4 33 36 4 22 24 3 18 20 2 18 20 2 18 20 2 22 24 3 26 28 3 26 28 3 22 24 3 22 24 3 26 28 3 26 28 3 18 20 2 18 20 2 22 24 3 26 28 3 33 36 4 22 24 3 18 20 2 18 20 2 22 24 3 26 28 3 22 24 3 18 20 2 18 20 2 18 20 2 18 20 2 18 20 2 22 24 3 33 36 4 26 28 3 22 24 3 18 20 2 18 20 2 22 24 3 22 24 3 22 24 3 22 24 3 26 28 3 33 36 4 26 28 3 26 28 3 26 28 3 26 28 3 22 24 3 18 20 2 22 24 3 22 24 3 22 24 3 18 20 2 18 20 2 18 20 2 18 20 2 18 20 2 18 20 2 18 20 2 18 20 2 14 16 2 18 20 2 18 20 2 14 16 2 18 20 2 18 20 2 18 20 2 18 20 2 18 20 2 18 20 2 18 20 2 18 20 2 18 20 2 18 20 2 18 20 2 18 20 2 18 20 2 18 20 2 18 20 2 18 20 2 18 20 2 18 20 2 18 20 2 18 20 2 18 20 2 18 20 2 18 20 2 18 20 2 18 20 2 18 20 2 18 20 2 18 20 2 18 20 2 18 20 2 18 20 2 18 20 2 
18 20 2 18 20 2 18 20 2 18 20 2 18 20 2 18 20 2 18 20 2 18 20 2 18 20 2 18 20 2 18 20 2 18 20 2 18 20 2 18 20 2 18 20 2 18 20 2 18 20 2 18 20 2 18 20 2 18 20 2 18 20 2 18 20 2 18 20 2 18 20 2 18 20 2 18 20 2 18 20 2 18 20 2 26 28 3 22 24 3 26 28 3 59 65 8 22 24 3 22 24 3 22 24 3 33 36 4 26 28 3 22 24 3 26 28 3 101 109 14 26 28 3 26 28 3 22 24 3 26 28 3 26 28 3 26 28 3 22 24 3 33 36 4 93 101 13 44 48 6 48 52 7 37 40 5 22 24 3 22 24 3 37 40 5 37 40 5 44 48 6 33 36 4 48 52 7 123 134 18 108 117 16 59 65 8 26 28 3 93 101 13 161 174 23 157 170 23 134 146 19 101 109 14 63 69 9 44 48 6 56 60 8 48 52 7 56 60 8 44 48 6 56 60 8 108 117 16 189 201 64 207 216 118 223 229 162 184 197 50 177 192 30 161 174 23 146 158 21 63 69 9 108 117 16 201 211 99 186 199 55 168 182 24 108 117 16 108 117 16 101 109 14 101 109 14 108 117 16 101 109 14 184 197 50 187 200 60 184 197 50 101 109 14 63 69 9 59 65 8 134 146 19 196 207 84 157 170 23 127 138 18 93 101 13 56 60 8 89 97 13 181 195 40 199 210 94 138 150 20 89 97 13 63 69 9 177 192 30 204 214 108 197 208 89 177 192 30 108 117 16 48 52 7 59 65 8 108 117 16 93 101 13 59 65 8 44 48 6 93 101 13 127 138 18 108 117 16 56 60 8 33 36 4 59 65 8 63 69 9 59 65 8 56 60 8 44 48 6 33 36 4 22 24 3 18 20 2 18 20 2 18 20 2 22 24 3 22 24 3 18 20 2 18 20 2 18 20 2 18 20 2 18 20 2 18 20 2 18 20 2 22 24 3 18 20 2 18 20 2 18 20 2 18 20 2 18 20 2 22 24 3 22 24 3 18 20 2 18 20 2 22 24 3 22 24 3 18 20 2 22 24 3 18 20 2 18 20 2 22 24 3 26 28 3 26 28 3 26 28 3 26 28 3 22 24 3 22 24 3 22 24 3 18 20 2 18 20 2 22 24 3 22 24 3 18 20 2 18 20 2 18 20 2 18 20 2 18 20 2 18 20 2 18 20 2 14 16 2 14 16 2 18 20 2 18 20 2 18 20 2 14 16 2 18 20 2 18 20 2 18 20 2 18 20 2 18 20 2 18 20 2 18 20 2 18 20 2 18 20 2 18 20 2 18 20 2 18 20 2 18 20 2 18 20 2 18 20 2 18 20 2 18 20 2 18 20 2 18 20 2 18 20 2 18 20 2 18 20 2 18 20 2 18 20 2 18 20 2 18 20 2 18 20 2 18 20 2 18 20 2 18 20 2 18 20 2 18 20 2 
18 20 2 18 20 2 18 20 2 18 20 2 18 20 2 18 20 2 18 20 2 18 20 2 18 20 2 18 20 2 18 20 2 18 20 2 18 20 2 18 20 2 18 20 2 18 20 2 18 20 2 18 20 2 18 20 2 18 20 2 18 20 2 18 20 2 18 20 2 18 20 2 18 20 2 18 20 2 18 20 2 18 20 2 26 28 3 22 24 3 26 28 3 59 65 8 22 24 3 22 24 3 22 24 3 33 36 4 26 28 3 22 24 3 26 28 3 101 109 14 26 28 3 26 28 3 22 24 3 26 28 3 26 28 3 26 28 3 22 24 3 33 36 4 93 101 13 44 48 6 48 52 7 37 40 5 22 24 3 22 24 3 37 40 5 37 40 5 44 48 6 33 36 4 48 52 7 123 134 18 108 117 16 59 65 8 26 28 3 93 101 13 161 174 23 157 170 23 134 146 19 101 109 14 63 69 9 44 48 6 56 60 8 48 52 7 56 60 8 44 48 6 56 60 8 108 117 16 189 201 64 207 216 118 223 229 162 184 197 50 177 192 30 161 174 23 146 158 21 63 69 9 108 117 16 201 211 99 186 199 55 168 182 24 108 117 16 108 117 16 101 109 14 101 109 14 108 117 16 101 109 14 184 197 50 187 200 60 184 197 50 101 109 14 63 69 9 59 65 8 134 146 19 196 207 84 157 170 23 127 138 18 93 101 13 56 60 8 89 97 13 181 195 40 199 210 94 138 150 20 89 97 13 63 69 9 177 192 30 204 214 108 197 208 89 177 192 30 108 117 16 48 52 7 59 65 8 108 117 16 93 101 13 59 65 8 44 48 6 93 101 13 127 138 18 108 117 16 56 60 8 33 36 4 59 65 8 63 69 9 59 65 8 56 60 8 44 48 6 33 36 4 22 24 3 18 20 2 18 20 2 18 20 2 22 24 3 22 24 3 18 20 2 18 20 2 18 20 2 18 20 2 18 20 2 18 20 2 18 20 2 22 24 3 18 20 2 18 20 2 18 20 2 18 20 2 18 20 2 22 24 3 22 24 3 18 20 2 18 20 2 22 24 3 22 24 3 18 20 2 22 24 3 18 20 2 18 20 2 22 24 3 26 28 3 26 28 3 26 28 3 26 28 3 22 24 3 22 24 3 22 24 3 18 20 2 18 20 2 22 24 3 22 24 3 18 20 2 18 20 2 18 20 2 18 20 2 18 20 2 18 20 2 18 20 2 14 16 2 14 16 2 18 20 2 18 20 2 18 20 2 14 16 2 18 20 2 18 20 2 18 20 2 18 20 2 18 20 2 18 20 2 18 20 2 18 20 2 18 20 2 18 20 2 18 20 2 18 20 2 18 20 2 18 20 2 18 20 2 18 20 2 18 20 2 18 20 2 18 20 2 18 20 2 18 20 2 18 20 2 18 20 2 18 20 2 18 20 2 18 20 2 18 20 2 18 20 2 18 20 2 18 20 2 18 20 2 18 20 2 
18 20 2 18 20 2 18 20 2 18 20 2 18 20 2 18 20 2 18 20 2 18 20 2 18 20 2 18 20 2 18 20 2 18 20 2 18 20 2 18 20 2 18 20 2 18 20 2 18 20 2 18 20 2 18 20 2 18 20 2 18 20 2 18 20 2 18 20 2 18 20 2 18 20 2 18 20 2 18 20 2 22 24 3 26 28 3 22 24 3 22 24 3 26 28 3 33 36 4 44 48 6 48 52 7 37 40 5 44 48 6 33 36 4 89 97 13 44 48 6 22 24 3 37 40 5 59 65 8 26 28 3 26 28 3 26 28 3 26 28 3 37 40 5 44 48 6 56 60 8 26 28 3 22 24 3 22 24 3 44 48 6 44 48 6 44 48 6 26 28 3 101 109 14 101 109 14 48 52 7 26 28 3 33 36 4 48 52 7 56 60 8 56 60 8 33 36 4 37 40 5 56 60 8 101 109 14 153 166 22 189 201 64 146 158 21 142 154 21 108 117 16 93 101 13 89 97 13 108 117 16 138 150 20 123 134 18 101 109 14 63 69 9 63 69 9 63 69 9 187 200 60 187 200 60 172 186 25 138 150 20 63 69 9 44 48 6 63 69 9 146 158 21 197 208 89 189 201 64 192 204 74 172 186 25 157 170 23 93 101 13 138 150 20 184 197 50 157 170 23 161 174 23 172 186 25 197 208 89 207 216 118 196 207 84 153 166 22 168 182 24 194 205 79 194 205 79 197 208 89 142 154 21 138 150 20 168 182 24 181 195 40 192 204 74 172 186 25 142 154 21 134 146 19 187 200 60 192 204 74 184 197 50 138 150 20 108 117 16 168 182 24 168 182 24 146 158 21 123 134 18 59 65 8 63 69 9 108 117 16 93 101 13 56 60 8 56 60 8 48 52 7 37 40 5 26 28 3 37 40 5 33 36 4 37 40 5 37 40 5 37 40 5 33 36 4 33 36 4 37 40 5 37 40 5 37 40 5 37 40 5 37 40 5 26 28 3 26 28 3 33 36 4 26 28 3 26 28 3 33 36 4 22 24 3 26 28 3 26 28 3 26 28 3 26 28 3 26 28 3 33 36 4 26 28 3 18 20 2 18 20 2 22 24 3 22 24 3 22 24 3 22 24 3 22 24 3 22 24 3 22 24 3 22 24 3 18 20 2 18 20 2 18 20 2 18 20 2 18 20 2 18 20 2 18 20 2 18 20 2 18 20 2 18 20 2 18 20 2 18 20 2 18 20 2 18 20 2 18 20 2 18 20 2 18 20 2 18 20 2 18 20 2 18 20 2 18 20 2 18 20 2 18 20 2 18 20 2 18 20 2 18 20 2 18 20 2 18 20 2 18 20 2 18 20 2 18 20 2 18 20 2 18 20 2 18 20 2 18 20 2 18 20 2 18 20 2 18 20 2 18 20 2 18 20 2 18 20 2 18 20 2 18 20 2 18 20 2 18 20 2 18 20 2 18 20 2 18 20 2 
18 20 2 18 20 2 18 20 2 18 20 2 18 20 2 18 20 2 18 20 2 18 20 2 18 20 2 18 20 2 18 20 2 18 20 2 18 20 2 18 20 2 18 20 2 18 20 2 18 20 2 18 20 2 18 20 2 18 20 2 18 20 2 18 20 2 18 20 2 18 20 2 18 20 2 18 20 2 18 20 2 22 24 3 26 28 3 22 24 3 22 24 3 26 28 3 33 36 4 44 48 6 48 52 7 37 40 5 44 48 6 33 36 4 89 97 13 44 48 6 22 24 3 37 40 5 59 65 8 26 28 3 26 28 3 26 28 3 26 28 3 37 40 5 44 48 6 56 60 8 26 28 3 22 24 3 22 24 3 44 48 6 44 48 6 44 48 6 26 28 3 101 109 14 101 109 14 48 52 7 26 28 3 33 36 4 48 52 7 56 60 8 56 60 8 33 36 4 37 40 5 56 60 8 101 109 14 153 166 22 189 201 64 146 158 21 142 154 21 108 117 16 93 101 13 89 97 13 108 117 16 138 150 20 123 134 18 101 109 14 63 69 9 63 69 9 63 69 9 187 200 60 187 200 60 172 186 25 138 150 20 63 69 9 44 48 6 63 69 9 146 158 21 197 208 89 189 201 64 192 204 74 172 186 25 157 170 23 93 101 13 138 150 20 184 197 50 157 170 23 161 174 23 172 186 25 197 208 89 207 216 118 196 207 84 153 166 22 168 182 24 194 205 79 194 205 79 197 208 89 142 154 21 138 150 20 168 182 24 181 195 40 192 204 74 172 186 25 142 154 21 134 146 19 187 200 60 192 204 74 184 197 50 138 150 20 108 117 16 168 182 24 168 182 24 146 158 21 123 134 18 59 65 8 63 69 9 108 117 16 93 101 13 56 60 8 56 60 8 48 52 7 37 40 5 26 28 3 37 40 5 33 36 4 37 40 5 37 40 5 37 40 5 33 36 4 33 36 4 37 40 5 37 40 5 37 40 5 37 40 5 37 40 5 26 28 3 26 28 3 33 36 4 26 28 3 26 28 3 33 36 4 22 24 3 26 28 3 26 28 3 26 28 3 26 28 3 26 28 3 33 36 4 26 28 3 18 20 2 18 20 2 22 24 3 22 24 3 22 24 3 22 24 3 22 24 3 22 24 3 22 24 3 22 24 3 18 20 2 18 20 2 18 20 2 18 20 2 18 20 2 18 20 2 18 20 2 18 20 2 18 20 2 18 20 2 18 20 2 18 20 2 18 20 2 18 20 2 18 20 2 18 20 2 18 20 2 18 20 2 18 20 2 18 20 2 18 20 2 18 20 2 18 20 2 18 20 2 18 20 2 18 20 2 18 20 2 18 20 2 18 20 2 18 20 2 18 20 2 18 20 2 18 20 2 18 20 2 18 20 2 18 20 2 18 20 2 18 20 2 18 20 2 18 20 2 18 20 2 18 20 2 18 20 2 18 20 2 18 20 2 18 20 2 18 20 2 18 20 2 
18 20 2 18 20 2 18 20 2 18 20 2 18 20 2 18 20 2 18 20 2 18 20 2 18 20 2 18 20 2 18 20 2 18 20 2 18 20 2 18 20 2 18 20 2 18 20 2 18 20 2 18 20 2 18 20 2 18 20 2 18 20 2 18 20 2 18 20 2 18 20 2 18 20 2 18 20 2 18 20 2 18 20 2 18 20 2 33 36 4 26 28 3 26 28 3 22 24 3 22 24 3 18 20 2 33 36 4 22 24 3 33 36 4 33 36 4 18 20 2 18 20 2 22 24 3 22 24 3 18 20 2 26 28 3 56 60 8 22 24 3 37 40 5 22 24 3 18 20 2 33 36 4 63 69 9 26 28 3 63 69 9 48 52 7 48 52 7 37 40 5 37 40 5 26 28 3 146 158 21 201 211 99 184 197 50 134 146 19 93 101 13 93 101 13 93 101 13 59 65 8 196 207 84 172 186 25 168 182 24 138 150 20 146 158 21 153 166 22 142 154 21 101 109 14 134 146 19 138 150 20 123 134 18 108 117 16 134 146 19 108 117 16 93 101 13 149 162 22 127 138 18 161 174 23 172 186 25 187 200 60 181 195 40 149 162 22 93 101 13 134 146 19 161 174 23 177 192 30 192 204 74 206 215 113 207 216 118 184 197 50 149 162 22 197 208 89 196 207 84 199 210 94 197 208 89 204 214 108 207 216 118 212 220 133 168 182 24 93 101 13 146 158 21 168 182 24 146 158 21 149 162 22 108 117 16 101 109 14 146 158 21 142 154 21 108 117 16 63 69 9 89 97 13 153 166 22 157 170 23 108 117 16 63 69 9 59 65 8 138 150 20 123 134 18 59 65 8 63 69 9 56 60 8 44 48 6 63 69 9 56 60 8 44 48 6 44 48 6 44 48 6 26 28 3 33 36 4 44 48 6 37 40 5 26 28 3 26 28 3 26 28 3 18 20 2 22 24 3 22 24 3 18 20 2 18 20 2 18 20 2 18 20 2 14 16 2 14 16 2 18 20 2 14 16 2 14 16 2 14 16 2 18 20 2 18 20 2 18 20 2 14 16 2 22 24 3 22 24 3 22 24 3 22 24 3 14 16 2 18 20 2 22 24 3 22 24 3 22 24 3 22 24 3 22 24 3 22 24 3 22 24 3 18 20 2 22 24 3 18 20 2 18 20 2 18 20 2 18 20 2 18 20 2 18 20 2 18 20 2 18 20 2 18 20 2 18 20 2 18 20 2 18 20 2 18 20 2 14 16 2 18 20 2 18 20 2 18 20 2 18 20 2 18 20 2 18 20 2 18 20 2 18 20 2 18 20 2 18 20 2 18 20 2 18 20 2 18 20 2 18 20 2 18 20 2 18 20 2 18 20 2 18 20 2 18 20 2 18 20 2 18 20 2 18 20 2 18 20 2 18 20 2 18 20 2 18 20 2 18 20 2 18 20 2 18 20 2 18 20 2 18 20 2 18 20 2 18 20 2 
18 20 2 18 20 2 18 20 2 18 20 2 18 20 2 18 20 2 18 20 2 18 20 2 18 20 2 18 20 2 18 20 2 18 20 2 18 20 2 18 20 2 18 20 2 18 20 2 18 20 2 18 20 2 18 20 2 18 20 2 18 20 2 18 20 2 18 20 2 18 20 2 18 20 2 18 20 2 18 20 2 18 20 2 18 20 2 33 36 4 26 28 3 26 28 3 22 24 3 22 24 3 18 20 2 33 36 4 22 24 3 33 36 4 33 36 4 18 20 2 18 20 2 22 24 3 22 24 3 18 20 2 26 28 3 56 60 8 22 24 3 37 40 5 22 24 3 18 20 2 33 36 4 63 69 9 26 28 3 63 69 9 48 52 7 48 52 7 37 40 5 37 40 5 26 28 3 146 158 21 201 211 99 184 197 50 134 146 19 93 101 13 93 101 13 93 101 13 59 65 8 196 207 84 172 186 25 168 182 24 138 150 20 146 158 21 153 166 22 142 154 21 101 109 14 134 146 19 138 150 20 123 134 18 108 117 16 134 146 19 108 117 16 93 101 13 149 162 22 127 138 18 161 174 23 172 186 25 187 200 60 181 195 40 149 162 22 93 101 13 134 146 19 161 174 23 177 192 30 192 204 74 206 215 113 207 216 118 184 197 50 149 162 22 197 208 89 196 207 84 199 210 94 197 208 89 204 214 108 207 216 118 212 220 133 168 182 24 93 101 13 146 158 21 168 182 24 146 158 21 149 162 22 108 117 16 101 109 14 146 158 21 142 154 21 108 117 16 63 69 9 89 97 13 153 166 22 157 170 23 108 117 16 63 69 9 59 65 8 138 150 20 123 134 18 59 65 8 63 69 9 56 60 8 44 48 6 63 69 9 56 60 8 44 48 6 44 48 6 44 48 6 26 28 3 33 36 4 44 48 6 37 40 5 26 28 3 26 28 3 26 28 3 18 20 2 22 24 3 22 24 3 18 20 2 18 20 2 18 20 2 18 20 2 14 16 2 14 16 2 18 20 2 14 16 2 14 16 2 14 16 2 18 20 2 18 20 2 18 20 2 14 16 2 22 24 3 22 24 3 22 24 3 22 24 3 14 16 2 18 20 2 22 24 3 22 24 3 22 24 3 22 24 3 22 24 3 22 24 3 22 24 3 18 20 2 22 24 3 18 20 2 18 20 2 18 20 2 18 20 2 18 20 2 18 20 2 18 20 2 18 20 2 18 20 2 18 20 2 18 20 2 18 20 2 18 20 2 14 16 2 18 20 2 18 20 2 18 20 2 18 20 2 18 20 2 18 20 2 18 20 2 18 20 2 18 20 2 18 20 2 18 20 2 18 20 2 18 20 2 18 20 2 18 20 2 18 20 2 18 20 2 18 20 2 18 20 2 18 20 2 18 20 2 18 20 2 18 20 2 18 20 2 18 20 2 18 20 2 18 20 2 18 20 2 18 20 2 18 20 2 18 20 2 18 20 2 18 20 2 
18 20 2 18 20 2 18 20 2 18 20 2 18 20 2 18 20 2 18 20 2 18 20 2 18 20 2 18 20 2 18 20 2 18 20 2 18 20 2 18 20 2 18 20 2 18 20 2 18 20 2 18 20 2 18 20 2 18 20 2 18 20 2 18 20 2 18 20 2 18 20 2 18 20 2 18 20 2 18 20 2 22 24 3 22 24 3 18 20 2 26 28 3 22 24 3 26 28 3 56 60 8 33 36 4 22 24 3 26 28 3 33 36 4 22 24 3 44 48 6 44 48 6 26 28 3 22 24 3 33 36 4 22 24 3 44 48 6 44 48 6 26 28 3 26 28 3 26 28 3 22 24 3 33 36 4 127 138 18 48 52 7 56 60 8 89 97 13 63 69 9 44 48 6 26 28 3 63 69 9 89 97 13 93 101 13 63 69 9 134 146 19 142 154 21 89 97 13 37 40 5 63 69 9 63 69 9 101 109 14 127 138 18 172 186 25 194 205 79 172 186 25 127 138 18 56 60 8 123 134 18 146 158 21 153 166 22 189 201 64 168 182 24 138 150 20 89 97 13 149 162 22 177 192 30 146 158 21 177 192 30 196 207 84 186 199 55 93 101 13 177 192 30 192 204 74 157 170 23 157 170 23 184 197 50 177 192 30 146 158 21 93 101 13 172 186 25 168 182 24 138 150 20 108 117 16 127 138 18 134 146 19 108 117 16 48 52 7 26 28 3 33 36 4 48 52 7 44 48 6 37 40 5 22 24 3 18 20 2 22 24 3 26 28 3 26 28 3 22 24 3 14 16 2 18 20 2 18 20 2 18 20 2 14 16 2 14 16 2 18 20 2 18 20 2 14 16 2 18 20 2 18 20 2 18 20 2 14 16 2 14 16 2 14 16 2 18 20 2 18 20 2 18 20 2 22 24 3 22 24 3 18 20 2 18 20 2 18 20 2 22 24 3 22 24 3 22 24 3 18 20 2 22 24 3 26 28 3 18 20 2 18 20 2 22 24 3 22 24 3 26 28 3 26 28 3 33 36 4 22 24 3 14 16 2 18 20 2 22 24 3 22 24 3 22 24 3 14 16 2 18 20 2 18 20 2 14 16 2 14 16 2 14 16 2 14 16 2 14 16 2 14 16 2 18 20 2 18 20 2 18 20 2 22 24 3 22 24 3 18 20 2 18 20 2 18 20 2 18 20 2 18 20 2 18 20 2 18 20 2 18 20 2 14 16 2 18 20 2 18 20 2 18 20 2 18 20 2 18 20 2 18 20 2 18 20 2 18 20 2 18 20 2 18 20 2 18 20 2 18 20 2 18 20 2 18 20 2 18 20 2 18 20 2 18 20 2 18 20 2 18 20 2 18 20 2 18 20 2 18 20 2 18 20 2 18 20 2 18 20 2 18 20 2 18 20 2 18 20 2 18 20 2 18 20 2 18 20 2 18 20 2 18 20 2 18 20 2 18 20 2 18 20 2 18 20 2 18 20 2 
18 20 2 18 20 2 18 20 2 18 20 2 18 20 2 18 20 2 18 20 2 18 20 2 18 20 2 18 20 2 18 20 2 18 20 2 18 20 2 18 20 2 18 20 2 18 20 2 18 20 2 18 20 2 18 20 2 18 20 2 18 20 2 18 20 2 18 20 2 18 20 2 18 20 2 18 20 2 18 20 2 22 24 3 22 24 3 18 20 2 26 28 3 22 24 3 26 28 3 56 60 8 33 36 4 22 24 3 26 28 3 33 36 4 22 24 3 44 48 6 44 48 6 26 28 3 22 24 3 33 36 4 22 24 3 44 48 6 44 48 6 26 28 3 26 28 3 26 28 3 22 24 3 33 36 4 127 138 18 48 52 7 56 60 8 89 97 13 63 69 9 44 48 6 26 28 3 63 69 9 89 97 13 93 101 13 63 69 9 134 146 19 142 154 21 89 97 13 37 40 5 63 69 9 63 69 9 101 109 14 127 138 18 172 186 25 194 205 79 172 186 25 127 138 18 56 60 8 123 134 18 146 158 21 153 166 22 189 201 64 168 182 24 138 150 20 89 97 13 149 162 22 177 192 30 146 158 21 177 192 30 196 207 84 186 199 55 93 101 13 177 192 30 192 204 74 157 170 23 157 170 23 184 197 50 177 192 30 146 158 21 93 101 13 172 186 25 168 182 24 138 150 20 108 117 16 127 138 18 134 146 19 108 117 16 48 52 7 26 28 3 33 36 4 48 52 7 44 48 6 37 40 5 22 24 3 18 20 2 22 24 3 26 28 3 26 28 3 22 24 3 14 16 2 18 20 2 18 20 2 18 20 2 14 16 2 14 16 2 18 20 2 18 20 2 14 16 2 18 20 2 18 20 2 18 20 2 14 16 2 14 16 2 14 16 2 18 20 2 18 20 2 18 20 2 22 24 3 22 24 3 18 20 2 18 20 2 18 20 2 22 24 3 22 24 3 22 24 3 18 20 2 22 24 3 26 28 3 18 20 2 18 20 2 22 24 3 22 24 3 26 28 3 26 28 3 33 36 4 22 24 3 14 16 2 18 20 2 22 24 3 22 24 3 22 24 3 14 16 2 18 20 2 18 20 2 14 16 2 14 16 2 14 16 2 14 16 2 14 16 2 14 16 2 18 20 2 18 20 2 18 20 2 22 24 3 22 24 3 18 20 2 18 20 2 18 20 2 18 20 2 18 20 2 18 20 2 18 20 2 18 20 2 14 16 2 18 20 2 18 20 2 18 20 2 18 20 2 18 20 2 18 20 2 18 20 2 18 20 2 18 20 2 18 20 2 18 20 2 18 20 2 18 20 2 18 20 2 18 20 2 18 20 2 18 20 2 18 20 2 18 20 2 18 20 2 18 20 2 18 20 2 18 20 2 18 20 2 18 20 2 18 20 2 18 20 2 18 20 2 18 20 2 18 20 2 18 20 2 18 20 2 18 20 2 18 20 2 18 20 2 18 20 2 18 20 2 18 20 2 
18 20 2 18 20 2 18 20 2 18 20 2 18 20 2 18 20 2 18 20 2 18 20 2 18 20 2 18 20 2 18 20 2 18 20 2 18 20 2 18 20 2 18 20 2 18 20 2 18 20 2 18 20 2 18 20 2 18 20 2 18 20 2 18 20 2 18 20 2 14 16 2 14 16 2 18 20 2 18 20 2 18 20 2 18 20 2 18 20 2 18 20 2 18 20 2 18 20 2 18 20 2 22 24 3 22 24 3 18 20 2 18 20 2 18 20 2 18 20 2 18 20 2 18 20 2 22 24 3 22 24 3 18 20 2 22 24 3 22 24 3 22 24 3 26 28 3 26 28 3 22 24 3 22 24 3 37 40 5 33 36 4 48 52 7 89 97 13 127 138 18 56 60 8 33 36 4 37 40 5 56 60 8 63 69 9 59 65 8 101 109 14 127 138 18 101 109 14 48 52 7 56 60 8 127 138 18 93 101 13 63 69 9 108 117 16 127 138 18 123 134 18 63 69 9 48 52 7 153 166 22 108 117 16 56 60 8 59 65 8 59 65 8 56 60 8 44 48 6 108 117 16 63 69 9 37 40 5 37 40 5 48 52 7 37 40 5 22 24 3 22 24 3 33 36 4 26 28 3 22 24 3 22 24 3 22 24 3 18 20 2 14 16 2 18 20 2 18 20 2 18 20 2 18 20 2 18 20 2 18 20 2 18 20 2 22 24 3 33 36 4 59 65 8 59 65 8 59 65 8 93 101 13 127 138 18 108 117 16 48 52 7 22 24 3 33 36 4 138 150 20 142 154 21 127 138 18 123 134 18 134 146 19 108 117 16 48 52 7 93 101 13 127 138 18 89 97 13 44 48 6 33 36 4 26 28 3 22 24 3 18 20 2 18 20 2 26 28 3 37 40 5 37 40 5 44 48 6 44 48 6 37 40 5 18 20 2 33 36 4 33 36 4 33 36 4 33 36 4 37 40 5 33 36 4 26 28 3 18 20 2 18 20 2 22 24 3 26 28 3 26 28 3 26 28 3 22 24 3 18 20 2 22 24 3 22 24 3 26 28 3 22 24 3 18 20 2 22 24 3 22 24 3 22 24 3 22 24 3 22 24 3 18 20 2 18 20 2 18 20 2 18 20 2 18 20 2 14 16 2 14 16 2 14 16 2 14 16 2 18 20 2 18 20 2 18 20 2 18 20 2 18 20 2 18 20 2 18 20 2 18 20 2 18 20 2 18 20 2 18 20 2 18 20 2 18 20 2 18 20 2 18 20 2 18 20 2 18 20 2 18 20 2 18 20 2 18 20 2 18 20 2 18 20 2 18 20 2 18 20 2 18 20 2 18 20 2 18 20 2 18 20 2 18 20 2 18 20 2 18 20 2 18 20 2 18 20 2 18 20 2 18 20 2 18 20 2 18 20 2 18 20 2 18 20 2 18 20 2 18 20 2 18 20 2 18 20 2 18 20 2 18 20 2 18 20 2 18 20 2 
18 20 2 18 20 2 18 20 2 18 20 2 18 20 2 18 20 2 18 20 2 18 20 2 18 20 2 18 20 2 18 20 2 18 20 2 18 20 2 18 20 2 18 20 2 18 20 2 18 20 2 18 20 2 18 20 2 18 20 2 18 20 2 18 20 2 18 20 2 14 16 2 14 16 2 18 20 2 18 20 2 18 20 2 18 20 2 18 20 2 18 20 2 18 20 2 18 20 2 18 20 2 22 24 3 22 24 3 18 20 2 18 20 2 18 20 2 18 20 2 18 20 2 18 20 2 22 24 3 22 24 3 18 20 2 22 24 3 22 24 3 22 24 3 26 28 3 26 28 3 22 24 3 22 24 3 37 40 5 33 36 4 48 52 7 89 97 13 127 138 18 56 60 8 33 36 4 37 40 5 56 60 8 63 69 9 59 65 8 101 109 14 127 138 18 101 109 14 48 52 7 56 60 8 127 138 18 93 101 13 63 69 9 108 117 16 127 138 18 123 134 18 63 69 9 48 52 7 153 166 22 108 117 16 56 60 8 59 65 8 59 65 8 56 60 8 44 48 6 108 117 16 63 69 9 37 40 5 37 40 5 48 52 7 37 40 5 22 24 3 22 24 3 33 36 4 26 28 3 22 24 3 22 24 3 22 24 3 18 20 2 14 16 2 18 20 2 18 20 2 18 20 2 18 20 2 18 20 2 18 20 2 18 20 2 22 24 3 33 36 4 59 65 8 59 65 8 59 65 8 93 101 13 127 138 18 108 117 16 48 52 7 22 24 3 33 36 4 138 150 20 142 154 21 127 138 18 123 134 18 134 146 19 108 117 16 48 52 7 93 101 13 127 138 18 89 97 13 44 48 6 33 36 4 26 28 3 22 24 3 18 20 2 18 20 2 26 28 3 37 40 5 37 40 5 44 48 6 44 48 6 37 40 5 18 20 2 33 36 4 33 36 4 33 36 4 33 36 4 37 40 5 33 36 4 26 28 3 18 20 2 18 20 2 22 24 3 26 28 3 26 28 3 26 28 3 22 24 3 18 20 2 22 24 3 22 24 3 26 28 3 22 24 3 18 20 2 22 24 3 22 24 3 22 24 3 22 24 3 22 24 3 18 20 2 18 20 2 18 20 2 18 20 2 18 20 2 14 16 2 14 16 2 14 16 2 14 16 2 18 20 2 18 20 2 18 20 2 18 20 2 18 20 2 18 20 2 18 20 2 18 20 2 18 20 2 18 20 2 18 20 2 18 20 2 18 20 2 18 20 2 18 20 2 18 20 2 18 20 2 18 20 2 18 20 2 18 20 2 18 20 2 18 20 2 18 20 2 18 20 2 18 20 2 18 20 2 18 20 2 18 20 2 18 20 2 18 20 2 18 20 2 18 20 2 18 20 2 18 20 2 18 20 2 18 20 2 18 20 2 18 20 2 18 20 2 18 20 2 18 20 2 18 20 2 18 20 2 18 20 2 18 20 2 18 20 2 18 20 2 
18 20 2 18 20 2 18 20 2 18 20 2 18 20 2 18 20 2 18 20 2 18 20 2 18 20 2 18 20 2 18 20 2 18 20 2 18 20 2 18 20 2 18 20 2 18 20 2 18 20 2 18 20 2 18 20 2 18 20 2 18 20 2 18 20 2 18 20 2 14 16 2 14 16 2 18 20 2 18 20 2 18 20 2 18 20 2 18 20 2 22 24 3 18 20 2 18 20 2 18 20 2 22 24 3 18 20 2 18 20 2 18 20 2 18 20 2 18 20 2 18 20 2 18 20 2 18 20 2 22 24 3 18 20 2 18 20 2 22 24 3 22 24 3 22 24 3 33 36 4 26 28 3 22 24 3 44 48 6 48 52 7 26 28 3 33 36 4 44 48 6 37 40 5 22 24 3 26 28 3 56 60 8 33 36 4 22 24 3 26 28 3 26 28 3 26 28 3 18 20 2 18 20 2 18 20 2 22 24 3 22 24 3 18 20 2 18 20 2 18 20 2 14 16 2 14 16 2 14 16 2 14 16 2 14 16 2 14 16 2 14 16 2 14 16 2 14 16 2 18 20 2 22 24 3 22 24 3 26 28 3 48 52 7 89 97 13 63 69 9 63 69 9 153 166 22 192 204 74 189 201 64 189 201 64 186 199 55 149 162 22 59 65 8 168 182 24 196 207 84 161 174 23 123 134 18 134 146 19 123 134 18 89 97 13 37 40 5 134 146 19 138 150 20 127 138 18 101 109 14 101 109 14 123 134 18 93 101 13 37 40 5 18 20 2 48 52 7 56 60 8 48 52 7 37 40 5 37 40 5 33 36 4 33 36 4 26 28 3 44 48 6 37 40 5 33 36 4 37 40 5 44 48 6 33 36 4 22 24 3 18 20 2 26 28 3 33 36 4 37 40 5 26 28 3 26 28 3 22 24 3 18 20 2 22 24 3 22 24 3 26 28 3 22 24 3 22 24 3 18 20 2 18 20 2 18 20 2 18 20 2 18 20 2 22 24 3 22 24 3 18 20 2 18 20 2 18 20 2 22 24 3 22 24 3 22 24 3 18 20 2 18 20 2 18 20 2 22 24 3 18 20 2 18 20 2 18 20 2 18 20 2 18 20 2 18 20 2 18 20 2 22 24 3 22 24 3 18 20 2 18 20 2 18 20 2 18 20 2 18 20 2 18 20 2 18 20 2 18 20 2 18 20 2 18 20 2 18 20 2 18 20 2 18 20 2 18 20 2 18 20 2 18 20 2 18 20 2 18 20 2 18 20 2 18 20 2 18 20 2 18 20 2 18 20 2 18 20 2 18 20 2 18 20 2 18 20 2 18 20 2 18 20 2 18 20 2 18 20 2 18 20 2 18 20 2 18 20 2 18 20 2 18 20 2 18 20 2 18 20 2 18 20 2 18 20 2 18 20 2 18 20 2 18 20 2 18 20 2 18 20 2 18 20 2 18 20 2 18 20 2 18 20 2 18 20 2 18 20 2 
18 20 2 18 20 2 18 20 2 18 20 2 18 20 2 18 20 2 18 20 2 18 20 2 18 20 2 18 20 2 18 20 2 18 20 2 18 20 2 18 20 2 18 20 2 18 20 2 18 20 2 18 20 2 18 20 2 18 20 2 18 20 2 18 20 2 18 20 2 14 16 2 14 16 2 18 20 2 18 20 2 18 20 2 18 20 2 18 20 2 22 24 3 18 20 2 18 20 2 18 20 2 22 24 3 18 20 2 18 20 2 18 20 2 18 20 2 18 20 2 18 20 2 18 20 2 18 20 2 22 24 3 18 20 2 18 20 2 22 24 3 22 24 3 22 24 3 33 36 4 26 28 3 22 24 3 44 48 6 48 52 7 26 28 3 33 36 4 44 48 6 37 40 5 22 24 3 26 28 3 56 60 8 33 36 4 22 24 3 26 28 3 26 28 3 26 28 3 18 20 2 18 20 2 18 20 2 22 24 3 22 24 3 18 20 2 18 20 2 18 20 2 14 16 2 14 16 2 14 16 2 14 16 2 14 16 2 14 16 2 14 16 2 14 16 2 14 16 2 18 20 2 22 24 3 22 24 3 26 28 3 48 52 7 89 97 13 63 69 9 63 69 9 153 166 22 192 204 74 189 201 64 189 201 64 186 199 55 149 162 22 59 65 8 168 182 24 196 207 84 161 174 23 123 134 18 134 146 19 123 134 18 89 97 13 37 40 5 134 146 19 138 150 20 127 138 18 101 109 14 101 109 14 123 134 18 93 101 13 37 40 5 18 20 2 48 52 7 56 60 8 48 52 7 37 40 5 37 40 5 33 36 4 33 36 4 26 28 3 44 48 6 37 40 5 33 36 4 37 40 5 44 48 6 33 36 4 22 24 3 18 20 2 26 28 3 33 36 4 37 40 5 26 28 3 26 28 3 22 24 3 18 20 2 22 24 3 22 24 3 26 28 3 22 24 3 22 24 3 18 20 2 18 20 2 18 20 2 18 20 2 18 20 2 22 24 3 22 24 3 18 20 2 18 20 2 18 20 2 22 24 3 22 24 3 22 24 3 18 20 2 18 20 2 18 20 2 22 24 3 18 20 2 18 20 2 18 20 2 18 20 2 18 20 2 18 20 2 18 20 2 22 24 3 22 24 3 18 20 2 18 20 2 18 20 2 18 20 2 18 20 2 18 20 2 18 20 2 18 20 2 18 20 2 18 20 2 18 20 2 18 20 2 18 20 2 18 20 2 18 20 2 18 20 2 18 20 2 18 20 2 18 20 2 18 20 2 18 20 2 18 20 2 18 20 2 18 20 2 18 20 2 18 20 2 18 20 2 18 20 2 18 20 2 18 20 2 18 20 2 18 20 2 18 20 2 18 20 2 18 20 2 18 20 2 18 20 2 18 20 2 18 20 2 18 20 2 18 20 2 18 20 2 18 20 2 18 20 2 18 20 2 18 20 2 18 20 2 18 20 2 18 20 2 18 20 2 18 20 2 
18 20 2 18 20 2 18 20 2 18 20 2 18 20 2 18 20 2 18 20 2 18 20 2 18 20 2 18 20 2 18 20 2 18 20 2 18 20 2 18 20 2 18 20 2 18 20 2 18 20 2 18 20 2 18 20 2 18 20 2 18 20 2 18 20 2 18 20 2 18 20 2 14 16 2 18 20 2 18 20 2 18 20 2 18 20 2 18 20 2 18 20 2 18 20 2 18 20 2 18 20 2 18 20 2 18 20 2 18 20 2 18 20 2 18 20 2 18 20 2 18 20 2 18 20 2 18 20 2 18 20 2 18 20 2 14 16 2 14 16 2 14 16 2 14 16 2 14 16 2 14 16 2 14 16 2 14 16 2 14 16 2 14 16 2 14 16 2 14 16 2 14 16 2 14 16 2 18 20 2 18 20 2 18 20 2 18 20 2 26 28 3 26 28 3 22 24 3 37 40 5 59 65 8 63 69 9 59 65 8 63 69 9 138 150 20 123 134 18 56 60 8 63 69 9 204 214 108 202 212 103 184 197 50 146 158 21 172 186 25 172 186 25 142 154 21 63 69 9 157 170 23 161 174 23 149 162 22 127 138 18 93 101 13 89 97 13 56 60 8 37 40 5 101 109 14 101 109 14 59 65 8 37 40 5 26 28 3 26 28 3 26 28 3 37 40 5 44 48 6 33 36 4 33 36 4 26 28 3 26 28 3 26 28 3 33 36 4 37 40 5 33 36 4 26 28 3 26 28 3 33 36 4 37 40 5 26 28 3 22 24 3 22 24 3 18 20 2 26 28 3 33 36 4 26 28 3 26 28 3 26 28 3 22 24 3 22 24 3 22 24 3 33 36 4 33 36 4 33 36 4 33 36 4 22 24 3 18 20 2 22 24 3 22 24 3 22 24 3 22 24 3 22 24 3 18 20 2 18 20 2 18 20 2 22 24 3 22 24 3 22 24 3 22 24 3 18 20 2 18 20 2 22 24 3 22 24 3 18 20 2 18 20 2 18 20 2 18 20 2 18 20 2 22 24 3 18 20 2 18 20 2 22 24 3 22 24 3 18 20 2 18 20 2 18 20 2 18 20 2 18 20 2 18 20 2 18 20 2 18 20 2 18 20 2 18 20 2 18 20 2 18 20 2 18 20 2 14 16 2 18 20 2 18 20 2 18 20 2 18 20 2 18 20 2 18 20 2 18 20 2 18 20 2 18 20 2 18 20 2 18 20 2 18 20 2 18 20 2 18 20 2 18 20 2 18 20 2 18 20 2 18 20 2 18 20 2 18 20 2 18 20 2 18 20 2 18 20 2 18 20 2 18 20 2 18 20 2 18 20 2 18 20 2 18 20 2 18 20 2 18 20 2 18 20 2 18 20 2 18 20 2 18 20 2 18 20 2 18 20 2 18 20 2 18 20 2 18 20 2 18 20 2 18 20 2 18 20 2 18 20 2 18 20 2 18 20 2 18 20 2 18 20 2 18 20 2 18 20 2 
18 20 2 18 20 2 18 20 2 18 20 2 18 20 2 18 20 2 18 20 2 18 20 2 18 20 2 18 20 2 18 20 2 18 20 2 18 20 2 18 20 2 18 20 2 18 20 2 18 20 2 18 20 2 18 20 2 18 20 2 18 20 2 18 20 2 18 20 2 18 20 2 14 16 2 18 20 2 18 20 2 18 20 2 18 20 2 18 20 2 18 20 2 18 20 2 18 20 2 18 20 2 18 20 2 18 20 2 18 20 2 18 20 2 18 20 2 18 20 2 18 20 2 18 20 2 18 20 2 18 20 2 18 20 2 14 16 2 14 16 2 14 16 2 14 16 2 14 16 2 14 16 2 14 16 2 14 16 2 14 16 2 14 16 2 14 16 2 14 16 2 14 16 2 14 16 2 18 20 2 18 20 2 18 20 2 18 20 2 26 28 3 26 28 3 22 24 3 37 40 5 59 65 8 63 69 9 59 65 8 63 69 9 138 150 20 123 134 18 56 60 8 63 69 9 204 214 108 202 212 103 184 197 50 146 158 21 172 186 25 172 186 25 142 154 21 63 69 9 157 170 23 161 174 23 149 162 22 127 138 18 93 101 13 89 97 13 56 60 8 37 40 5 101 109 14 101 109 14 59 65 8 37 40 5 26 28 3 26 28 3 26 28 3 37 40 5 44 48 6 33 36 4 33 36 4 26 28 3 26 28 3 26 28 3 33 36 4 37 40 5 33 36 4 26 28 3 26 28 3 33 36 4 37 40 5 26 28 3 22 24 3 22 24 3 18 20 2 26 28 3 33 36 4 26 28 3 26 28 3 26 28 3 22 24 3 22 24 3 22 24 3 33 36 4 33 36 4 33 36 4 33 36 4 22 24 3 18 20 2 22 24 3 22 24 3 22 24 3 22 24 3 22 24 3 18 20 2 18 20 2 18 20 2 22 24 3 22 24 3 22 24 3 22 24 3 18 20 2 18 20 2 22 24 3 22 24 3 18 20 2 18 20 2 18 20 2 18 20 2 18 20 2 22 24 3 18 20 2 18 20 2 22 24 3 22 24 3 18 20 2 18 20 2 18 20 2 18 20 2 18 20 2 18 20 2 18 20 2 18 20 2 18 20 2 18 20 2 18 20 2 18 20 2 18 20 2 14 16 2 18 20 2 18 20 2 18 20 2 18 20 2 18 20 2 18 20 2 18 20 2 18 20 2 18 20 2 18 20 2 18 20 2 18 20 2 18 20 2 18 20 2 18 20 2 18 20 2 18 20 2 18 20 2 18 20 2 18 20 2 18 20 2 18 20 2 18 20 2 18 20 2 18 20 2 18 20 2 18 20 2 18 20 2 18 20 2 18 20 2 18 20 2 18 20 2 18 20 2 18 20 2 18 20 2 18 20 2 18 20 2 18 20 2 18 20 2 18 20 2 18 20 2 18 20 2 18 20 2 18 20 2 18 20 2 18 20 2 18 20 2 18 20 2 18 20 2 18 20 2 
18 20 2 18 20 2 18 20 2 18 20 2 18 20 2 18 20 2 18 20 2 18 20 2 18 20 2 18 20 2 18 20 2 18 20 2 18 20 2 18 20 2 18 20 2 18 20 2 18 20 2 18 20 2 18 20 2 18 20 2 18 20 2 18 20 2 18 20 2 18 20 2 18 20 2 18 20 2 14 16 2 18 20 2 18 20 2 18 20 2 18 20 2 22 24 3 22 24 3 26 28 3 26 28 3 22 24 3 26 28 3 37 40 5 26 28 3 37 40 5 44 48 6 93 101 13 59 65 8 37 40 5 59 65 8 161 174 23 184 197 50 149 162 22 101 109 14 48 52 7 37 40 5 157 170 23 184 197 50 161 174 23 138 150 20 127 138 18 63 69 9 44 48 6 63 69 9 146 158 21 134 146 19 89 97 13 89 97 13 108 117 16 59 65 8 37 40 5 127 138 18 157 170 23 149 162 22 127 138 18 93 101 13 101 109 14 59 65 8 37 40 5 37 40 5 63 69 9 48 52 7 33 36 4 26 28 3 26 28 3 33 36 4 22 24 3 18 20 2 33 36 4 33 36 4 26 28 3 26 28 3 26 28 3 22 24 3 18 20 2 18 20 2 22 24 3 26 28 3 33 36 4 26 28 3 22 24 3 18 20 2 18 20 2 22 24 3 26 28 3 22 24 3 18 20 2 18 20 2 18 20 2 33 36 4 26 28 3 22 24 3 22 24 3 26 28 3 26 28 3 22 24 3 22 24 3 22 24 3 18 20 2 26 28 3 33 36 4 22 24 3 26 28 3 26 28 3 18 20 2 14 16 2 18 20 2 22 24 3 18 20 2 18 20 2 18 20 2 18 20 2 26 28 3 26 28 3 33 36 4 22 24 3 18 20 2 22 24 3 26 28 3 26 28 3 26 28 3 18 20 2 14 16 2 18 20 2 26 28 3 26 28 3 18 20 2 22 24 3 22 24 3 22 24 3 18 20 2 18 20 2 22 24 3 22 24 3 18 20 2 18 20 2 18 20 2 18 20 2 18 20 2 18 20 2 22 24 3 18 20 2 18 20 2 18 20 2 18 20 2 18 20 2 18 20 2 18 20 2 18 20 2 14 16 2 18 20 2 18 20 2 18 20 2 18 20 2 18 20 2 18 20 2 18 20 2 14 16 2 14 16 2 18 20 2 18 20 2 18 20 2 14 16 2 18 20 2 18 20 2 18 20 2 18 20 2 18 20 2 18 20 2 18 20 2 18 20 2 18 20 2 18 20 2 18 20 2 18 20 2 18 20 2 18 20 2 18 20 2 18 20 2 18 20 2 18 20 2 18 20 2 18 20 2 18 20 2 18 20 2 18 20 2 18 20 2 18 20 2 18 20 2 18 20 2 18 20 2 18 20 2 18 20 2 18 20 2 18 20 2 18 20 2 18 20 2 18 20 2 18 20 2 18 20 2 18 20 2 18 20 2 18 20 2 18 20 2 18 20 2 
18 20 2 18 20 2 18 20 2 18 20 2 18 20 2 18 20 2 18 20 2 18 20 2 18 20 2 18 20 2 18 20 2 18 20 2 18 20 2 18 20 2 18 20 2 18 20 2 18 20 2 18 20 2 18 20 2 18 20 2 18 20 2 18 20 2 18 20 2 18 20 2 18 20 2 18 20 2 14 16 2 18 20 2 18 20 2 18 20 2 18 20 2 22 24 3 22 24 3 26 28 3 26 28 3 22 24 3 26 28 3 37 40 5 26 28 3 37 40 5 44 48 6 93 101 13 59 65 8 37 40 5 59 65 8 161 174 23 184 197 50 149 162 22 101 109 14 48 52 7 37 40 5 157 170 23 184 197 50 161 174 23 138 150 20 127 138 18 63 69 9 44 48 6 63 69 9 146 158 21 134 146 19 89 97 13 89 97 13 108 117 16 59 65 8 37 40 5 127 138 18 157 170 23 149 162 22 127 138 18 93 101 13 101 109 14 59 65 8 37 40 5 37 40 5 63 69 9 48 52 7 33 36 4 26 28 3 26 28 3 33 36 4 22 24 3 18 20 2 33 36 4 33 36 4 26 28 3 26 28 3 26 28 3 22 24 3 18 20 2 18 20 2 22 24 3 26 28 3 33 36 4 26 28 3 22 24 3 18 20 2 18 20 2 22 24 3 26 28 3 22 24 3 18 20 2 18 20 2 18 20 2 33 36 4 26 28 3 22 24 3 22 24 3 26 28 3 26 28 3 22 24 3 22 24 3 22 24 3 18 20 2 26 28 3 33 36 4 22 24 3 26 28 3 26 28 3 18 20 2 14 16 2 18 20 2 22 24 3 18 20 2 18 20 2 18 20 2 18 20 2 26 28 3 26 28 3 33 36 4 22 24 3 18 20 2 22 24 3 26 28 3 26 28 3 26 28 3 18 20 2 14 16 2 18 20 2 26 28 3 26 28 3 18 20 2 22 24 3 22 24 3 22 24 3 18 20 2 18 20 2 22 24 3 22 24 3 18 20 2 18 20 2 18 20 2 18 20 2 18 20 2 18 20 2 22 24 3 18 20 2 18 20 2 18 20 2 18 20 2 18 20 2 18 20 2 18 20 2 18 20 2 14 16 2 18 20 2 18 20 2 18 20 2 18 20 2 18 20 2 18 20 2 18 20 2 14 16 2 14 16 2 18 20 2 18 20 2 18 20 2 14 16 2 18 20 2 18 20 2 18 20 2 18 20 2 18 20 2 18 20 2 18 20 2 18 20 2 18 20 2 18 20 2 18 20 2 18 20 2 18 20 2 18 20 2 18 20 2 18 20 2 18 20 2 18 20 2 18 20 2 18 20 2 18 20 2 18 20 2 18 20 2 18 20 2 18 20 2 18 20 2 18 20 2 18 20 2 18 20 2 18 20 2 18 20 2 18 20 2 18 20 2 18 20 2 18 20 2 18 20 2 18 20 2 18 20 2 18 20 2 18 20 2 18 20 2 18 20 2 
18 20 2 18 20 2 18 20 2 18 20 2 18 20 2 18 20 2 18 20 2 18 20 2 18 20 2 18 20 2 18 20 2 18 20 2 18 20 2 18 20 2 18 20 2 18 20 2 18 20 2 18 20 2 18 20 2 18 20 2 18 20 2 18 20 2 18 20 2 18 20 2 18 20 2 18 20 2 18 20 2 18 20 2 18 20 2 22 24 3 26 28 3 22 24 3 22 24 3 22 24 3 26 28 3 33 36 4 26 28 3 22 24 3 26 28 3 33 36 4 26 28 3 26 28 3 22 24 3 18 20 2 33 36 4 37 40 5 26 28 3 33 36 4 26 28 3 22 24 3 22 24 3 44 48 6 33 36 4 26 28 3 26 28 3 26 28 3 22 24 3 18 20 2 37 40 5 44 48 6 22 24 3 26 28 3 26 28 3 22 24 3 18 20 2 18 20 2 44 48 6 56 60 8 44 48 6 37 40 5 37 40 5 33 36 4 22 24 3 18 20 2 18 20 2 22 24 3 18 20 2 22 24 3 22 24 3 22 24 3 22 24 3 18 20 2 18 20 2 18 20 2 18 20 2 22 24 3 22 24 3 22 24 3 18 20 2 18 20 2 26 28 3 22 24 3 18 20 2 18 20 2 18 20 2 18 20 2 22 24 3 33 36 4 44 48 6 26 28 3 22 24 3 22 24 3 33 36 4 26 28 3 22 24 3 22 24 3 22 24 3 33 36 4 56 60 8 48 52 7 26 28 3 22 24 3 33 36 4 37 40 5 44 48 6 26 28 3 22 24 3 37 40 5 48 52 7 44 48 6 33 36 4 22 24 3 22 24 3 33 36 4 33 36 4 22 24 3 18 20 2 18 20 2 18 20 2 18 20 2 18 20 2 18 20 2 18 20 2 18 20 2 18 20 2 18 20 2 14 16 2 14 16 2 18 20 2 18 20 2 18 20 2 18 20 2 18 20 2 18 20 2 22 24 3 22 24 3 18 20 2 14 16 2 18 20 2 22 24 3 18 20 2 18 20 2 18 20 2 22 24 3 22 24 3 22 24 3 18 20 2 18 20 2 18 20 2 18 20 2 18 20 2 18 20 2 18 20 2 18 20 2 18 20 2 18 20 2 18 20 2 18 20 2 18 20 2 14 16 2 18 20 2 18 20 2 18 20 2 18 20 2 14 16 2 14 16 2 14 16 2 18 20 2 18 20 2 18 20 2 18 20 2 18 20 2 18 20 2 18 20 2 18 20 2 18 20 2 18 20 2 18 20 2 18 20 2 18 20 2 18 20 2 18 20 2 18 20 2 18 20 2 18 20 2 18 20 2 18 20 2 18 20 2 18 20 2 18 20 2 18 20 2 18 20 2 18 20 2 18 20 2 18 20 2 18 20 2 18 20 2 18 20 2 18 20 2 18 20 2 18 20 2 18 20 2 18 20 2 18 20 2 18 20 2 18 20 2 18 20 2 18 20 2 18 20 2 18 20 2 
18 20 2 18 20 2 18 20 2 18 20 2 18 20 2 18 20 2 18 20 2 18 20 2 18 20 2 18 20 2 18 20 2 18 20 2 18 20 2 18 20 2 18 20 2 18 20 2 18 20 2 18 20 2 18 20 2 18 20 2 18 20 2 18 20 2 18 20 2 18 20 2 18 20 2 18 20 2 18 20 2 18 20 2 18 20 2 22 24 3 26 28 3 22 24 3 22 24 3 22 24 3 26 28 3 33 36 4 26 28 3 22 24 3 26 28 3 33 36 4 26 28 3 26 28 3 22 24 3 18 20 2 33 36 4 37 40 5 26 28 3 33 36 4 26 28 3 22 24 3 22 24 3 44 48 6 33 36 4 26 28 3 26 28 3 26 28 3 22 24 3 18 20 2 37 40 5 44 48 6 22 24 3 26 28 3 26 28 3 22 24 3 18 20 2 18 20 2 44 48 6 56 60 8 44 48 6 37 40 5 37 40 5 33 36 4 22 24 3 18 20 2 18 20 2 22 24 3 18 20 2 22 24 3 22 24 3 22 24 3 22 24 3 18 20 2 18 20 2 18 20 2 18 20 2 22 24 3 22 24 3 22 24 3 18 20 2 18 20 2 26 28 3 22 24 3 18 20 2 18 20 2 18 20 2 18 20 2 22 24 3 33 36 4 44 48 6 26 28 3 22 24 3 22 24 3 33 36 4 26 28 3 22 24 3 22 24 3 22 24 3 33 36 4 56 60 8 48 52 7 26 28 3 22 24 3 33 36 4 37 40 5 44 48 6 26 28 3 22 24 3 37 40 5 48 52 7 44 48 6 33 36 4 22 24 3 22 24 3 33 36 4 33 36 4 22 24 3 18 20 2 18 20 2 18 20 2 18 20 2 18 20 2 18 20 2 18 20 2 18 20 2 18 20 2 18 20 2 14 16 2 14 16 2 18 20 2 18 20 2 18 20 2 18 20 2 18 20 2 18 20 2 22 24 3 22 24 3 18 20 2 14 16 2 18 20 2 22 24 3 18 20 2 18 20 2 18 20 2 22 24 3 22 24 3 22 24 3 18 20 2 18 20 2 18 20 2 18 20 2 18 20 2 18 20 2 18 20 2 18 20 2 18 20 2 18 20 2 18 20 2 18 20 2 18 20 2 14 16 2 18 20 2 18 20 2 18 20 2 18 20 2 14 16 2 14 16 2 14 16 2 18 20 2 18 20 2 18 20 2 18 20 2 18 20 2 18 20 2 18 20 2 18 20 2 18 20 2 18 20 2 18 20 2 18 20 2 18 20 2 18 20 2 18 20 2 18 20 2 18 20 2 18 20 2 18 20 2 18 20 2 18 20 2 18 20 2 18 20 2 18 20 2 18 20 2 18 20 2 18 20 2 18 20 2 18 20 2 18 20 2 18 20 2 18 20 2 18 20 2 18 20 2 18 20 2 18 20 2 18 20 2 18 20 2 18 20 2 18 20 2 18 20 2 18 20 2 18 20 2 
18 20 2 18 20 2 18 20 2 18 20 2 18 20 2 18 20 2 18 20 2 18 20 2 18 20 2 18 20 2 18 20 2 18 20 2 18 20 2 18 20 2 18 20 2 18 20 2 18 20 2 18 20 2 18 20 2 18 20 2 18 20 2 18 20 2 18 20 2 18 20 2 18 20 2 18 20 2 18 20 2 14 16 2 18 20 2 18 20 2 18 20 2 18 20 2 18 20 2 18 20 2 18 20 2 22 24 3 18 20 2 18 20 2 22 24 3 18 20 2 22 24 3 22 24 3 18 20 2 18 20 2 18 20 2 18 20 2 18 20 2 22 24 3 18 20 2 18 20 2 18 20 2 18 20 2 18 20 2 18 20 2 22 24 3 18 20 2 18 20 2 18 20 2 22 24 3 18 20 2 18 20 2 18 20 2 18 20 2 18 20 2 18 20 2 26 28 3 26 28 3 18 20 2 18 20 2 22 24 3 22 24 3 18 20 2 18 20 2 18 20 2 26 28 3 33 36 4 26 28 3 26 28 3 22 24 3 22 24 3 18 20 2 22 24 3 26 28 3 37 40 5 44 48 6 26 28 3 22 24 3 22 24 3 22 24 3 33 36 4 33 36 4 18 20 2 18 20 2 18 20 2 33 36 4 37 40 5 37 40 5 26 28 3 18 20 2 18 20 2 22 24 3 22 24 3 22 24 3 22 24 3 22 24 3 22 24 3 26 28 3 33 36 4 22 24 3 22 24 3 22 24 3 22 24 3 26 28 3 37 40 5 33 36 4 22 24 3 18 20 2 18 20 2 18 20 2 18 20 2 18 20 2 18 20 2 18 20 2 18 20 2 18 20 2 18 20 2 14 16 2 14 16 2 18 20 2 18 20 2 18 20 2 18 20 2 18 20 2 18 20 2 18 20 2 18 20 2 18 20 2 18 20 2 18 20 2 18 20 2 22 24 3 22 24 3 18 20 2 18 20 2 18 20 2 18 20 2 18 20 2 14 16 2 18 20 2 18 20 2 18 20 2 18 20 2 18 20 2 18 20 2 18 20 2 18 20 2 18 20 2 18 20 2 18 20 2 14 16 2 14 16 2 14 16 2 18 20 2 18 20 2 18 20 2 18 20 2 18 20 2 18 20 2 14 16 2 18 20 2 14 16 2 14 16 2 14 16 2 18 20 2 18 20 2 18 20 2 18 20 2 18 20 2 18 20 2 18 20 2 18 20 2 18 20 2 18 20 2 18 20 2 18 20 2 18 20 2 18 20 2 18 20 2 18 20 2 18 20 2 18 20 2 18 20 2 18 20 2 18 20 2 18 20 2 18 20 2 18 20 2 18 20 2 18 20 2 18 20 2 18 20 2 18 20 2 18 20 2 18 20 2 18 20 2 18 20 2 18 20 2 18 20 2 18 20 2 18 20 2 18 20 2 18 20 2 18 20 2 18 20 2 18 20 2 18 20 2 18 20 2 18 20 2 18 20 2 18 20 2 
18 20 2 18 20 2 18 20 2 18 20 2 18 20 2 18 20 2 18 20 2 18 20 2 18 20 2 18 20 2 18 20 2 18 20 2 18 20 2 18 20 2 18 20 2 18 20 2 18 20 2 18 20 2 18 20 2 18 20 2 18 20 2 18 20 2 18 20 2 18 20 2 18 20 2 18 20 2 18 20 2 14 16 2 18 20 2 18 20 2 18 20 2 18 20 2 18 20 2 18 20 2 18 20 2 22 24 3 18 20 2 18 20 2 22 24 3 18 20 2 22 24 3 22 24 3 18 20 2 18 20 2 18 20 2 18 20 2 18 20 2 22 24 3 18 20 2 18 20 2 18 20 2 18 20 2 18 20 2 18 20 2 22 24 3 18 20 2 18 20 2 18 20 2 22 24 3 18 20 2 18 20 2 18 20 2 18 20 2 18 20 2 18 20 2 26 28 3 26 28 3 18 20 2 18 20 2 22 24 3 22 24 3 18 20 2 18 20 2 18 20 2 26 28 3 33 36 4 26 28 3 26 28 3 22 24 3 22 24 3 18 20 2 22 24 3 26 28 3 37 40 5 44 48 6 26 28 3 22 24 3 22 24 3 22 24 3 33 36 4 33 36 4 18 20 2 18 20 2 18 20 2 33 36 4 37 40 5 37 40 5 26 28 3 18 20 2 18 20 2 22 24 3 22 24 3 22 24 3 22 24 3 22 24 3 22 24 3 26 28 3 33 36 4 22 24 3 22 24 3 22 24 3 22 24 3 26 28 3 37 40 5 33 36 4 22 24 3 18 20 2 18 20 2 18 20 2 18 20 2 18 20 2 18 20 2 18 20 2 18 20 2 18 20 2 18 20 2 14 16 2 14 16 2 18 20 2 18 20 2 18 20 2 18 20 2 18 20 2 18 20 2 18 20 2 18 20 2 18 20 2 18 20 2 18 20 2 18 20 2 22 24 3 22 24 3 18 20 2 18 20 2 18 20 2 18 20 2 18 20 2 14 16 2 18 20 2 18 20 2 18 20 2 18 20 2 18 20 2 18 20 2 18 20 2 18 20 2 18 20 2 18 20 2 18 20 2 14 16 2 14 16 2 14 16 2 18 20 2 18 20 2 18 20 2 18 20 2 18 20 2 18 20 2 14 16 2 18 20 2 14 16 2 14 16 2 14 16 2 18 20 2 18 20 2 18 20 2 18 20 2 18 20 2 18 20 2 18 20 2 18 20 2 18 20 2 18 20 2 18 20 2 18 20 2 18 20 2 18 20 2 18 20 2 18 20 2 18 20 2 18 20 2 18 20 2 18 20 2 18 20 2 18 20 2 18 20 2 18 20 2 18 20 2 18 20 2 18 20 2 18 20 2 18 20 2 18 20 2 18 20 2 18 20 2 18 20 2 18 20 2 18 20 2 18 20 2 18 20 2 18 20 2 18 20 2 18 20 2 18 20 2 18 20 2 18 20 2 18 20 2 18 20 2 18 20 2 18 20 2 
18 20 2 18 20 2 18 20 2 18 20 2 18 20 2 18 20 2 18 20 2 18 20 2 18 20 2 18 20 2 18 20 2 18 20 2 18 20 2 18 20 2 18 20 2 18 20 2 18 20 2 18 20 2 18 20 2 18 20 2 18 20 2 18 20 2 18 20 2 18 20 2 18 20 2 18 20 2 18 20 2 18 20 2 18 20 2 18 20 2 18 20 2 18 20 2 18 20 2 18 20 2 18 20 2 18 20 2 18 20 2 18 20 2 18 20 2 18 20 2 18 20 2 18 20 2 18 20 2 18 20 2 18 20 2 18 20 2 18 20 2 18 20 2 18 20 2 22 24 3 22 24 3 22 24 3 22 24 3 18 20 2 18 20 2 18 20 2 18 20 2 22 24 3 22 24 3 18 20 2 18 20 2 26 28 3 33 36 4 37 40 5 22 24 3 18 20 2 18 20 2 26 28 3 26 28 3 33 36 4 26 28 3 22 24 3 33 36 4 44 48 6 44 48 6 56 60 8 33 36 4 22 24 3 22 24 3 22 24 3 37 40 5 37 40 5 33 36 4 26 28 3 18 20 2 18 20 2 18 20 2 22 24 3 22 24 3 22 24 3 18 20 2 18 20 2 22 24 3 26 28 3 22 24 3 18 20 2 18 20 2 22 24 3 26 28 3 33 36 4 33 36 4 26 28 3 33 36 4 33 36 4 26 28 3 26 28 3 26 28 3 26 28 3 26 28 3 22 24 3 22 24 3 22 24 3 22 24 3 22 24 3 22 24 3 22 24 3 22 24 3 22 24 3 18 20 2 22 24 3 22 24 3 22 24 3 18 20 2 18 20 2 18 20 2 18 20 2 18 20 2 18 20 2 14 16 2 22 24 3 18 20 2 18 20 2 18 20 2 22 24 3 22 24 3 22 24 3 18 20 2 18 20 2 18 20 2 18 20 2 18 20 2 14 16 2 18 20 2 18 20 2 18 20 2 18 20 2 18 20 2 14 16 2 18 20 2 18 20 2 18 20 2 18 20 2 18 20 2 18 20 2 18 20 2 18 20 2 18 20 2 18 20 2 18 20 2 18 20 2 18 20 2 14 16 2 18 20 2 18 20 2 18 20 2 18 20 2 14 16 2 14 16 2 14 16 2 14 16 2 18 20 2 18 20 2 18 20 2 18 20 2 18 20 2 18 20 2 18 20 2 18 20 2 18 20 2 18 20 2 18 20 2 18 20 2 18 20 2 18 20 2 18 20 2 18 20 2 18 20 2 18 20 2 18 20 2 18 20 2 18 20 2 18 20 2 18 20 2 18 20 2 18 20 2 18 20 2 18 20 2 18 20 2 18 20 2 18 20 2 18 20 2 18 20 2 18 20 2 18 20 2 18 20 2 18 20 2 18 20 2 18 20 2 18 20 2 18 20 2 18 20 2 18 20 2 18 20 2 18 20 2 18 20 2 18 20 2 18 20 2 18 20 2 18 20 2 18 20 2 
18 20 2 18 20 2 18 20 2 18 20 2 18 20 2 18 20 2 18 20 2 18 20 2 18 20 2 18 20 2 18 20 2 18 20 2 18 20 2 18 20 2 18 20 2 18 20 2 18 20 2 18 20 2 18 20 2 18 20 2 18 20 2 18 20 2 18 20 2 18 20 2 18 20 2 18 20 2 18 20 2 18 20 2 18 20 2 18 20 2 18 20 2 18 20 2 18 20 2 18 20 2 18 20 2 18 20 2 18 20 2 18 20 2 18 20 2 18 20 2 18 20 2 18 20 2 18 20 2 18 20 2 18 20 2 18 20 2 18 20 2 18 20 2 18 20 2 22 24 3 22 24 3 22 24 3 22 24 3 18 20 2 18 20 2 18 20 2 18 20 2 22 24 3 22 24 3 18 20 2 18 20 2 26 28 3 33 36 4 37 40 5 22 24 3 18 20 2 18 20 2 26 28 3 26 28 3 33 36 4 26 28 3 22 24 3 33 36 4 44 48 6 44 48 6 56 60 8 33 36 4 22 24 3 22 24 3 22 24 3 37 40 5 37 40 5 33 36 4 26 28 3 18 20 2 18 20 2 18 20 2 22 24 3 22 24 3 22 24 3 18 20 2 18 20 2 22 24 3 26 28 3 22 24 3 18 20 2 18 20 2 22 24 3 26 28 3 33 36 4 33 36 4 26 28 3 33 36 4 33 36 4 26 28 3 26 28 3 26 28 3 26 28 3 26 28 3 22 24 3 22 24 3 22 24 3 22 24 3 22 24 3 22 24 3 22 24 3 22 24 3 22 24 3 18 20 2 22 24 3 22 24 3 22 24 3 18 20 2 18 20 2 18 20 2 18 20 2 18 20 2 18 20 2 14 16 2 22 24 3 18 20 2 18 20 2 18 20 2 22 24 3 22 24 3 22 24 3 18 20 2 18 20 2 18 20 2 18 20 2 18 20 2 14 16 2 18 20 2 18 20 2 18 20 2 18 20 2 18 20 2 14 16 2 18 20 2 18 20 2 18 20 2 18 20 2 18 20 2 18 20 2 18 20 2 18 20 2 18 20 2 18 20 2 18 20 2 18 20 2 18 20 2 14 16 2 18 20 2 18 20 2 18 20 2 18 20 2 14 16 2 14 16 2 14 16 2 14 16 2 18 20 2 18 20 2 18 20 2 18 20 2 18 20 2 18 20 2 18 20 2 18 20 2 18 20 2 18 20 2 18 20 2 18 20 2 18 20 2 18 20 2 18 20 2 18 20 2 18 20 2 18 20 2 18 20 2 18 20 2 18 20 2 18 20 2 18 20 2 18 20 2 18 20 2 18 20 2 18 20 2 18 20 2 18 20 2 18 20 2 18 20 2 18 20 2 18 20 2 18 20 2 18 20 2 18 20 2 18 20 2 18 20 2 18 20 2 18 20 2 18 20 2 18 20 2 18 20 2 18 20 2 18 20 2 18 20 2 18 20 2 18 20 2 18 20 2 18 20 2 
18 20 2 18 20 2 18 20 2 18 20 2 18 20 2 18 20 2 18 20 2 18 20 2 18 20 2 18 20 2 18 20 2 18 20 2 18 20 2 18 20 2 18 20 2 18 20 2 18 20 2 18 20 2 18 20 2 18 20 2 18 20 2 18 20 2 18 20 2 18 20 2 18 20 2 18 20 2 18 20 2 18 20 2 18 20 2 18 20 2 18 20 2 18 20 2 18 20 2 18 20 2 18 20 2 18 20 2 18 20 2 18 20 2 18 20 2 18 20 2 18 20 2 18 20 2 18 20 2 18 20 2 18 20 2 18 20 2 18 20 2 18 20 2 18 20 2 18 20 2 18 20 2 18 20 2 18 20 2 18 20 2 18 20 2 18 20 2 18 20 2 18 20 2 18 20 2 18 20 2 18 20 2 18 20 2 18 20 2 18 20 2 18 20 2 18 20 2 18 20 2 22 24 3 22 24 3 18 20 2 18 20 2 18 20 2 22 24 3 22 24 3 18 20 2 18 20 2 18 20 2 18 20 2 18 20 2 18 20 2 22 24 3 18 20 2 18 20 2 18 20 2 22 24 3 18 20 2 18 20 2 22 24 3 22 24 3 22 24 3 22 24 3 22 24 3 22 24 3 22 24 3 26 28 3 22 24 3 22 24 3 22 24 3 26 28 3 26 28 3 22 24 3 22 24 3 26 28 3 26 28 3 22 24 3 22 24 3 22 24 3 22 24 3 22 24 3 18 20 2 22 24 3 26 28 3 26 28 3 22 24 3 22 24 3 22 24 3 18 20 2 22 24 3 22 24 3 26 28 3 26 28 3 22 24 3 18 20 2 18 20 2 22 24 3 22 24 3 22 24 3 22 24 3 18 20 2 18 20 2 18 20 2 18 20 2 14 16 2 14 16 2 18 20 2 18 20 2 18 20 2 18 20 2 18 20 2 18 20 2 18 20 2 14 16 2 14 16 2 14 16 2 18 20 2 18 20 2 18 20 2 18 20 2 18 20 2 18 20 2 14 16 2 14 16 2 14 16 2 18 20 2 18 20 2 18 20 2 18 20 2 18 20 2 18 20 2 18 20 2 14 16 2 18 20 2 18 20 2 14 16 2 14 16 2 18 20 2 18 20 2 18 20 2 18 20 2 18 20 2 14 16 2 18 20 2 18 20 2 18 20 2 18 20 2 18 20 2 18 20 2 18 20 2 18 20 2 18 20 2 18 20 2 18 20 2 18 20 2 18 20 2 18 20 2 18 20 2 18 20 2 18 20 2 18 20 2 18 20 2 18 20 2 18 20 2 18 20 2 18 20 2 18 20 2 18 20 2 18 20 2 18 20 2 18 20 2 18 20 2 18 20 2 18 20 2 18 20 2 18 20 2 18 20 2 18 20 2 18 20 2 18 20 2 18 20 2 18 20 2 18 20 2 18 20 2 18 20 2 18 20 2 18 20 2 18 20 2 18 20 2 18 20 2 18 20 2 18 20 2 
18 20 2 18 20 2 18 20 2 18 20 2 18 20 2 18 20 2 18 20 2 18 20 2 18 20 2 18 20 2 18 20 2 18 20 2 18 20 2 18 20 2 18 20 2 18 20 2 18 20 2 18 20 2 18 20 2 18 20 2 18 20 2 18 20 2 18 20 2 18 20 2 18 20 2 18 20 2 18 20 2 18 20 2 18 20 2 18 20 2 18 20 2 18 20 2 18 20 2 18 20 2 18 20 2 18 20 2 18 20 2 18 20 2 18 20 2 18 20 2 18 20 2 18 20 2 18 20 2 18 20 2 18 20 2 18 20 2 18 20 2 18 20 2 18 20 2 18 20 2 18 20 2 18 20 2 18 20 2 18 20 2 18 20 2 18 20 2 18 20 2 18 20 2 18 20 2 18 20 2 18 20 2 18 20 2 18 20 2 18 20 2 18 20 2 18 20 2 18 20 2 22 24 3 22 24 3 18 20 2 18 20 2 18 20 2 22 24 3 22 24 3 18 20 2 18 20 2 18 20 2 18 20 2 18 20 2 18 20 2 22 24 3 18 20 2 18 20 2 18 20 2 22 24 3 18 20 2 18 20 2 22 24 3 22 24 3 22 24 3 22 24 3 22 24 3 22 24 3 22 24 3 26 28 3 22 24 3 22 24 3 22 24 3 26 28 3 26 28 3 22 24 3 22 24 3 26 28 3 26 28 3 22 24 3 22 24 3 22 24 3 22 24 3 22 24 3 18 20 2 22 24 3 26 28 3 26 28 3 22 24 3 22 24 3 22 24 3 18 20 2 22 24 3 22 24 3 26 28 3 26 28 3 22 24 3 18 20 2 18 20 2 22 24 3 22 24 3 22 24 3 22 24 3 18 20 2 18 20 2 18 20 2 18 20 2 14 16 2 14 16 2 18 20 2 18 20 2 18 20 2 18 20 2 18 20 2 18 20 2 18 20 2 14 16 2 14 16 2 14 16 2 18 20 2 18 20 2 18 20 2 18 20 2 18 20 2 18 20 2 14 16 2 14 16 2 14 16 2 18 20 2 18 20 2 18 20 2 18 20 2 18 20 2 18 20 2 18 20 2 14 16 2 18 20 2 18 20 2 14 16 2 14 16 2 18 20 2 18 20 2 18 20 2 18 20 2 18 20 2 14 16 2 18 20 2 18 20 2 18 20 2 18 20 2 18 20 2 18 20 2 18 20 2 18 20 2 18 20 2 18 20 2 18 20 2 18 20 2 18 20 2 18 20 2 18 20 2 18 20 2 18 20 2 18 20 2 18 20 2 18 20 2 18 20 2 18 20 2 18 20 2 18 20 2 18 20 2 18 20 2 18 20 2 18 20 2 18 20 2 18 20 2 18 20 2 18 20 2 18 20 2 18 20 2 18 20 2 18 20 2 18 20 2 18 20 2 18 20 2 18 20 2 18 20 2 18 20 2 18 20 2 18 20 2 18 20 2 18 20 2 18 20 2 18 20 2 18 20 2 
18 20 2 18 20 2 18 20 2 18 20 2 18 20 2 18 20 2 18 20 2 18 20 2 18 20 2 18 20 2 18 20 2 18 20 2 18 20 2 18 20 2 18 20 2 18 20 2 18 20 2 18 20 2 18 20 2 18 20 2 18 20 2 18 20 2 18 20 2 18 20 2 18 20 2 18 20 2 18 20 2 18 20 2 18 20 2 18 20 2 18 20 2 18 20 2 18 20 2 18 20 2 18 20 2 18 20 2 18 20 2 18 20 2 18 20 2 18 20 2 18 20 2 18 20 2 18 20 2 18 20 2 18 20 2 18 20 2 18 20 2 18 20 2 18 20 2 18 20 2 18 20 2 18 20 2 14 16 2 14 16 2 18 20 2 14 16 2 14 16 2 14 16 2 14 16 2 18 20 2 18 20 2 18 20 2 14 16 2 14 16 2 18 20 2 18 20 2 18 20 2 18 20 2 18 20 2 18 20 2 18 20 2 18 20 2 18 20 2 18 20 2 18 20 2 18 20 2 18 20 2 18 20 2 18 20 2 22 24 3 18 20 2 18 20 2 18 20 2 22 24 3 26 28 3 18 20 2 22 24 3 22 24 3 26 28 3 26 28 3 22 24 3 22 24 3 22 24 3 22 24 3 18 20 2 18 20 2 18 20 2 22 24 3 18 20 2 18 20 2 18 20 2 22 24 3 22 24 3 18 20 2 18 20 2 18 20 2 22 24 3 18 20 2 18 20 2 18 20 2 18 20 2 22 24 3 22 24 3 22 24 3 18 20 2 18 20 2 22 24 3 18 20 2 18 20 2 18 20 2 18 20 2 18 20 2 22 24 3 22 24 3 18 20 2 18 20 2 18 20 2 18 20 2 18 20 2 22 24 3 18 20 2 18 20 2 14 16 2 18 20 2 18 20 2 18 20 2 18 20 2 18 20 2 14 16 2 18 20 2 18 20 2 18 20 2 18 20 2 18 20 2 18 20 2 18 20 2 14 16 2 14 16 2 14 16 2 14 16 2 18 20 2 18 20 2 18 20 2 18 20 2 18 20 2 18 20 2 18 20 2 18 20 2 18 20 2 18 20 2 14 16 2 14 16 2 14 16 2 14 16 2 18 20 2 18 20 2 18 20 2 18 20 2 14 16 2 14 16 2 18 20 2 18 20 2 18 20 2 18 20 2 18 20 2 18 20 2 18 20 2 18 20 2 18 20 2 18 20 2 18 20 2 18 20 2 18 20 2 18 20 2 18 20 2 18 20 2 18 20 2 18 20 2 18 20 2 18 20 2 18 20 2 18 20 2 18 20 2 18 20 2 18 20 2 18 20 2 18 20 2 18 20 2 18 20 2 18 20 2 18 20 2 18 20 2 18 20 2 18 20 2 18 20 2 18 20 2 18 20 2 18 20 2 18 20 2 18 20 2 18 20 2 18 20 2 18 20 2 18 20 2 18 20 2 18 20 2 18 20 2 18 20 2 18 20 2 18 20 2 
18 20 2 18 20 2 18 20 2 18 20 2 18 20 2 18 20 2 18 20 2 18 20 2 18 20 2 18 20 2 18 20 2 18 20 2 18 20 2 18 20 2 18 20 2 18 20 2 18 20 2 18 20 2 18 20 2 18 20 2 18 20 2 18 20 2 18 20 2 18 20 2 18 20 2 18 20 2 18 20 2 18 20 2 18 20 2 18 20 2 18 20 2 18 20 2 18 20 2 18 20 2 18 20 2 18 20 2 18 20 2 18 20 2 18 20 2 18 20 2 18 20 2 18 20 2 18 20 2 18 20 2 18 20 2 18 20 2 18 20 2 18 20 2 18 20 2 18 20 2 18 20 2 18 20 2 14 16 2 14 16 2 18 20 2 14 16 2 14 16 2 14 16 2 14 16 2 18 20 2 18 20 2 18 20 2 14 16 2 14 16 2 18 20 2 18 20 2 18 20 2 18 20 2 18 20 2 18 20 2 18 20 2 18 20 2 18 20 2 18 20 2 18 20 2 18 20 2 18 20 2 18 20 2 18 20 2 22 24 3 18 20 2 18 20 2 18 20 2 22 24 3 26 28 3 18 20 2 22 24 3 22 24 3 26 28 3 26 28 3 22 24 3 22 24 3 22 24 3 22 24 3 18 20 2 18 20 2 18 20 2 22 24 3 18 20 2 18 20 2 18 20 2 22 24 3 22 24 3 18 20 2 18 20 2 18 20 2 22 24 3 18 20 2 18 20 2 18 20 2 18 20 2 22 24 3 22 24 3 22 24 3 18 20 2 18 20 2 22 24 3 18 20 2 18 20 2 18 20 2 18 20 2 18 20 2 22 24 3 22 24 3 18 20 2 18 20 2 18 20 2 18 20 2 18 20 2 22 24 3 18 20 2 18 20 2 14 16 2 18 20 2 18 20 2 18 20 2 18 20 2 18 20 2 14 16 2 18 20 2 18 20 2 18 20 2 18 20 2 18 20 2 18 20 2 18 20 2 14 16 2 14 16 2 14 16 2 14 16 2 18 20 2 18 20 2 18 20 2 18 20 2 18 20 2 18 20 2 18 20 2 18 20 2 18 20 2 18 20 2 14 16 2 14 16 2 14 16 2 14 16 2 18 20 2 18 20 2 18 20 2 18 20 2 14 16 2 14 16 2 18 20 2 18 20 2 18 20 2 18 20 2 18 20 2 18 20 2 18 20 2 18 20 2 18 20 2 18 20 2 18 20 2 18 20 2 18 20 2 18 20 2 18 20 2 18 20 2 18 20 2 18 20 2 18 20 2 18 20 2 18 20 2 18 20 2 18 20 2 18 20 2 18 20 2 18 20 2 18 20 2 18 20 2 18 20 2 18 20 2 18 20 2 18 20 2 18 20 2 18 20 2 18 20 2 18 20 2 18 20 2 18 20 2 18 20 2 18 20 2 18 20 2 18 20 2 18 20 2 18 20 2 18 20 2 18 20 2 18 20 2 18 20 2 18 20 2 18 20 2 
18 20 2 18 20 2 18 20 2 18 20 2 18 20 2 18 20 2 18 20 2 18 20 2 18 20 2 18 20 2 18 20 2 18 20 2 18 20 2 18 20 2 18 20 2 18 20 2 18 20 2 18 20 2 18 20 2 18 20 2 18 20 2 18 20 2 18 20 2 18 20 2 18 20 2 18 20 2 18 20 2 18 20 2 18 20 2 18 20 2 18 20 2 18 20 2 18 20 2 18 20 2 18 20 2 18 20 2 18 20 2 18 20 2 18 20 2 18 20 2 18 20 2 18 20 2 18 20 2 18 20 2 18 20 2 18 20 2 18 20 2 18 20 2 18 20 2 18 20 2 18 20 2 18 20 2 18 20 2 18 20 2 18 20 2 18 20 2 18 20 2 18 20 2 18 20 2 18 20 2 18 20 2 18 20 2 18 20 2 18 20 2 22 24 3 22 24 3 18 20 2 18 20 2 14 16 2 18 20 2 18 20 2 18 20 2 18 20 2 18 20 2 18 20 2 18 20 2 18 20 2 18 20 2 18 20 2 18 20 2 18 20 2 18 20 2 18 20 2 18 20 2 18 20 2 18 20 2 18 20 2 18 20 2 18 20 2 18 20 2 18 20 2 18 20 2 18 20 2 18 20 2 18 20 2 18 20 2 18 20 2 18 20 2 18 20 2 22 24 3 22 24 3 18 20 2 18 20 2 22 24 3 22 24 3 22 24 3 18 20 2 18 20 2 18 20 2 18 20 2 18 20 2 18 20 2 18 20 2 18 20 2 18 20 2 18 20 2 18 20 2 18 20 2 18 20 2 18 20 2 18 20 2 18 20 2 18 20 2 18 20 2 18 20 2 18 20 2 18 20 2 18 20 2 18 20 2 18 20 2 14 16 2 18 20 2 18 20 2 18 20 2 18 20 2 18 20 2 14 16 2 14 16 2 18 20 2 18 20 2 18 20 2 18 20 2 14 16 2 18 20 2 14 16 2 18 20 2 18 20 2 18 20 2 14 16 2 18 20 2 18 20 2 18 20 2 14 16 2 14 16 2 14 16 2 14 16 2 14 16 2 14 16 2 14 16 2 14 16 2 18 20 2 18 20 2 14 16 2 14 16 2 18 20 2 18 20 2 18 20 2 18 20 2 18 20 2 18 20 2 18 20 2 18 20 2 18 20 2 18 20 2 18 20 2 18 20 2 18 20 2 18 20 2 18 20 2 18 20 2 18 20 2 18 20 2 18 20 2 18 20 2 18 20 2 18 20 2 18 20 2 18 20 2 18 20 2 18 20 2 18 20 2 18 20 2 18 20 2 18 20 2 18 20 2 18 20 2 18 20 2 18 20 2 18 20 2 18 20 2 18 20 2 18 20 2 18 20 2 18 20 2 18 20 2 18 20 2 18 20 2 18 20 2 18 20 2 18 20 2 18 20 2 18 20 2 18 20 2 18 20 2 18 20 2 18 20 2 18 20 2 18 20 2 18 20 2 18 20 2 
18 20 2 18 20 2 18 20 2 18 20 2 18 20 2 18 20 2 18 20 2 18 20 2 18 20 2 18 20 2 18 20 2 18 20 2 18 20 2 18 20 2 18 20 2 18 20 2 18 20 2 18 20 2 18 20 2 18 20 2 18 20 2 18 20 2 18 20 2 18 20 2 18 20 2 18 20 2 18 20 2 18 20 2 18 20 2 18 20 2 18 20 2 18 20 2 18 20 2 18 20 2 18 20 2 18 20 2 18 20 2 18 20 2 18 20 2 18 20 2 18 20 2 18 20 2 18 20 2 18 20 2 18 20 2 18 20 2 18 20 2 18 20 2 18 20 2 18 20 2 18 20 2 18 20 2 18 20 2 18 20 2 18 20 2 18 20 2 18 20 2 18 20 2 18 20 2 18 20 2 18 20 2 18 20 2 18 20 2 18 20 2 22 24 3 22 24 3 18 20 2 18 20 2 14 16 2 18 20 2 18 20 2 18 20 2 18 20 2 18 20 2 18 20 2 18 20 2 18 20 2 18 20 2 18 20 2 18 20 2 18 20 2 18 20 2 18 20 2 18 20 2 18 20 2 18 20 2 18 20 2 18 20 2 18 20 2 18 20 2 18 20 2 18 20 2 18 20 2 18 20 2 18 20 2 18 20 2 18 20 2 18 20 2 18 20 2 22 24 3 22 24 3 18 20 2 18 20 2 22 24 3 22 24 3 22 24 3 18 20 2 18 20 2 18 20 2 18 20 2 18 20 2 18 20 2 18 20 2 18 20 2 18 20 2 18 20 2 18 20 2 18 20 2 18 20 2 18 20 2 18 20 2 18 20 2 18 20 2 18 20 2 18 20 2 18 20 2 18 20 2 18 20 2 18 20 2 18 20 2 14 16 2 18 20 2 18 20 2 18 20 2 18 20 2 18 20 2 14 16 2 14 16 2 18 20 2 18 20 2 18 20 2 18 20 2 14 16 2 18 20 2 14 16 2 18 20 2 18 20 2 18 20 2 14 16 2 18 20 2 18 20 2 18 20 2 14 16 2 14 16 2 14 16 2 14 16 2 14 16 2 14 16 2 14 16 2 14 16 2 18 20 2 18 20 2 14 16 2 14 16 2 18 20 2 18 20 2 18 20 2 18 20 2 18 20 2 18 20 2 18 20 2 18 20 2 18 20 2 18 20 2 18 20 2 18 20 2 18 20 2 18 20 2 18 20 2 18 20 2 18 20 2 18 20 2 18 20 2 18 20 2 18 20 2 18 20 2 18 20 2 18 20 2 18 20 2 18 20 2 18 20 2 18 20 2 18 20 2 18 20 2 18 20 2 18 20 2 18 20 2 18 20 2 18 20 2 18 20 2 18 20 2 18 20 2 18 20 2 18 20 2 18 20 2 18 20 2 18 20 2 18 20 2 18 20 2 18 20 2 18 20 2 18 20 2 18 20 2 18 20 2 18 20 2 18 20 2 18 20 2 18 20 2 18 20 2 18 20 2 
18 20 2 18 20 2 18 20 2 18 20 2 18 20 2 18 20 2 18 20 2 18 20 2 18 20 2 18 20 2 18 20 2 18 20 2 18 20 2 18 20 2 18 20 2 18 20 2 18 20 2 18 20 2 18 20 2 18 20 2 18 20 2 18 20 2 18 20 2 18 20 2 18 20 2 18 20 2 18 20 2 18 20 2 18 20 2 18 20 2 18 20 2 18 20 2 18 20 2 18 20 2 18 20 2 18 20 2 18 20 2 18 20 2 18 20 2 18 20 2 18 20 2 18 20 2 18 20 2 18 20 2 18 20 2 18 20 2 18 20 2 18 20 2 18 20 2 18 20 2 18 20 2 18 20 2 18 20 2 14 16 2 14 16 2 18 20 2 14 16 2 14 16 2 14 16 2 14 16 2 18 20 2 14 16 2 14 16 2 14 16 2 18 20 2 18 20 2 14 16 2 14 16 2 18 20 2 18 20 2 18 20 2 18 20 2 14 16 2 18 20 2 18 20 2 18 20 2 18 20 2 18 20 2 18 20 2 18 20 2 18 20 2 18 20 2 22 24 3 22 24 3 18 20 2 18 20 2 18 20 2 18 20 2 18 20 2 18 20 2 18 20 2 18 20 2 18 20 2 18 20 2 18 20 2 18 20 2 18 20 2 18 20 2 18 20 2 18 20 2 18 20 2 18 20 2 18 20 2 18 20 2 18 20 2 18 20 2 18 20 2 18 20 2 18 20 2 22 24 3 22 24 3 22 24 3 18 20 2 18 20 2 18 20 2 18 20 2 18 20 2 18 20 2 18 20 2 18 20 2 18 20 2 18 20 2 18 20 2 18 20 2 18 20 2 18 20 2 18 20 2 18 20 2 18 20 2 18 20 2 18 20 2 18 20 2 18 20 2 14 16 2 18 20 2 18 20 2 18 20 2 18 20 2 18 20 2 18 20 2 18 20 2 18 20 2 18 20 2 14 16 2 14 16 2 18 20 2 14 16 2 14 16 2 18 20 2 18 20 2 18 20 2 18 20 2 18 20 2 18 20 2 18 20 2 14 16 2 14 16 2 18 20 2 18 20 2 18 20 2 14 16 2 18 20 2 18 20 2 18 20 2 14 16 2 14 16 2 18 20 2 18 20 2 18 20 2 18 20 2 18 20 2 18 20 2 18 20 2 18 20 2 18 20 2 18 20 2 18 20 2 18 20 2 18 20 2 18 20 2 18 20 2 18 20 2 18 20 2 18 20 2 18 20 2 18 20 2 18 20 2 18 20 2 18 20 2 18 20 2 18 20 2 18 20 2 18 20 2 18 20 2 18 20 2 18 20 2 18 20 2 18 20 2 18 20 2 18 20 2 18 20 2 18 20 2 18 20 2 18 20 2 18 20 2 18 20 2 18 20 2 18 20 2 18 20 2 18 20 2 18 20 2 18 20 2 18 20 2 18 20 2 18 20 2 18 20 2 18 20 2 18 20 2 18 20 2 18 20 2 
18 20 2 18 20 2 18 20 2 18 20 2 18 20 2 18 20 2 18 20 2 18 20 2 18 20 2 18 20 2 18 20 2 18 20 2 18 20 2 18 20 2 18 20 2 18 20 2 18 20 2 18 20 2 18 20 2 18 20 2 18 20 2 18 20 2 18 20 2 18 20 2 18 20 2 18 20 2 18 20 2 18 20 2 18 20 2 18 20 2 18 20 2 18 20 2 18 20 2 18 20 2 18 20 2 18 20 2 18 20 2 18 20 2 18 20 2 18 20 2 18 20 2 18 20 2 18 20 2 18 20 2 18 20 2 18 20 2 18 20 2 18 20 2 18 20 2 18 20 2 18 20 2 18 20 2 18 20 2 14 16 2 14 16 2 18 20 2 14 16 2 14 16 2 14 16 2 14 16 2 18 20 2 14 16 2 14 16 2 14 16 2 18 20 2 18 20 2 14 16 2 14 16 2 18 20 2 18 20 2 18 20 2 18 20 2 14 16 2 18 20 2 18 20 2 18 20 2 18 20 2 18 20 2 18 20 2 18 20 2 18 20 2 18 20 2 22 24 3 22 24 3 18 20 2 18 20 2 18 20 2 18 20 2 18 20 2 18 20 2 18 20 2 18 20 2 18 20 2 18 20 2 18 20 2 18 20 2 18 20 2 18 20 2 18 20 2 18 20 2 18 20 2 18 20 2 18 20 2 18 20 2 18 20 2 18 20 2 18 20 2 18 20 2 18 20 2 22 24 3 22 24 3 22 24 3 18 20 2 18 20 2 18 20 2 18 20 2 18 20 2 18 20 2 18 20 2 18 20 2 18 20 2 18 20 2 18 20 2 18 20 2 18 20 2 18 20 2 18 20 2 18 20 2 18 20 2 18 20 2 18 20 2 18 20 2 18 20 2 14 16 2 18 20 2 18 20 2 18 20 2 18 20 2 18 20 2 18 20 2 18 20 2 18 20 2 18 20 2 14 16 2 14 16 2 18 20 2 14 16 2 14 16 2 18 20 2 18 20 2 18 20 2 18 20 2 18 20 2 18 20 2 18 20 2 14 16 2 14 16 2 18 20 2 18 20 2 18 20 2 14 16 2 18 20 2 18 20 2 18 20 2 14 16 2 14 16 2 18 20 2 18 20 2 18 20 2 18 20 2 18 20 2 18 20 2 18 20 2 18 20 2 18 20 2 18 20 2 18 20 2 18 20 2 18 20 2 18 20 2 18 20 2 18 20 2 18 20 2 18 20 2 18 20 2 18 20 2 18 20 2 18 20 2 18 20 2 18 20 2 18 20 2 18 20 2 18 20 2 18 20 2 18 20 2 18 20 2 18 20 2 18 20 2 18 20 2 18 20 2 18 20 2 18 20 2 18 20 2 18 20 2 18 20 2 18 20 2 18 20 2 18 20 2 18 20 2 18 20 2 18 20 2 18 20 2 18 20 2 18 20 2 18 20 2 18 20 2 18 20 2 18 20 2 18 20 2 18 20 2 
18 20 2 18 20 2 18 20 2 18 20 2 18 20 2 18 20 2 18 20 2 18 20 2 18 20 2 18 20 2 18 20 2 18 20 2 18 20 2 18 20 2 18 20 2 18 20 2 18 20 2 18 20 2 18 20 2 18 20 2 18 20 2 18 20 2 18 20 2 18 20 2 18 20 2 18 20 2 18 20 2 18 20 2 18 20 2 18 20 2 18 20 2 18 20 2 18 20 2 18 20 2 18 20 2 18 20 2 18 20 2 18 20 2 18 20 2 18 20 2 18 20 2 18 20 2 18 20 2 18 20 2 18 20 2 18 20 2 18 20 2 18 20 2 18 20 2 14 16 2 18 20 2 18 20 2 18 20 2 18 20 2 18 20 2 18 20 2 18 20 2 18 20 2 18 20 2 18 20 2 18 20 2 18 20 2 18 20 2 18 20 2 18 20 2 18 20 2 14 16 2 18 20 2 14 16 2 18 20 2 18 20 2 18 20 2 18 20 2 18 20 2 14 16 2 14 16 2 14 16 2 18 20 2 18 20 2 18 20 2 18 20 2 18 20 2 18 20 2 18 20 2 18 20 2 18 20 2 18 20 2 18 20 2 22 24 3 18 20 2 18 20 2 18 20 2 18 20 2 18 20 2 18 20 2 18 20 2 18 20 2 18 20 2 18 20 2 18 20 2 18 20 2 18 20 2 18 20 2 18 20 2 18 20 2 18 20 2 18 20 2 18 20 2 18 20 2 18 20 2 18 20 2 18 20 2 18 20 2 18 20 2 22 24 3 18 20 2 22 24 3 18 20 2 18 20 2 18 20 2 18 20 2 18 20 2 14 16 2 18 20 2 18 20 2 14 16 2 18 20 2 18 20 2 18 20 2 18 20 2 18 20 2 18 20 2 18 20 2 18 20 2 18 20 2 18 20 2 14 16 2 14 16 2 18 20 2 18 20 2 18 20 2 18 20 2 14 16 2 14 16 2 14 16 2 14 16 2 18 20 2 18 20 2 18 20 2 18 20 2 18 20 2 14 16 2 18 20 2 18 20 2 18 20 2 18 20 2 14 16 2 18 20 2 18 20 2 18 20 2 18 20 2 18 20 2 18 20 2 18 20 2 18 20 2 18 20 2 18 20 2 18 20 2 18 20 2 18 20 2 18 20 2 18 20 2 18 20 2 18 20 2 18 20 2 18 20 2 18 20 2 18 20 2 18 20 2 18 20 2 18 20 2 18 20 2 18 20 2 18 20 2 18 20 2 18 20 2 18 20 2 18 20 2 18 20 2 18 20 2 18 20 2 18 20 2 18 20 2 18 20 2 18 20 2 18 20 2 18 20 2 18 20 2 18 20 2 18 20 2 18 20 2 18 20 2 18 20 2 18 20 2 18 20 2 18 20 2 18 20 2 18 20 2 18 20 2 18 20 2 18 20 2 18 20 2 18 20 2 18 20 2 18 20 2 18 20 2 18 20 2 18 20 2 18 20 2 18 20 2 
18 20 2 18 20 2 18 20 2 18 20 2 18 20 2 18 20 2 18 20 2 18 20 2 18 20 2 18 20 2 18 20 2 18 20 2 18 20 2 18 20 2 18 20 2 18 20 2 18 20 2 18 20 2 18 20 2 18 20 2 18 20 2 18 20 2 18 20 2 18 20 2 18 20 2 18 20 2 18 20 2 18 20 2 18 20 2 18 20 2 18 20 2 18 20 2 18 20 2 18 20 2 18 20 2 18 20 2 18 20 2 18 20 2 18 20 2 18 20 2 18 20 2 18 20 2 18 20 2 18 20 2 18 20 2 18 20 2 18 20 2 18 20 2 18 20 2 14 16 2 18 20 2 18 20 2 18 20 2 18 20 2 18 20 2 18 20 2 18 20 2 18 20 2 18 20 2 18 20 2 18 20 2 18 20 2 18 20 2 18 20 2 18 20 2 18 20 2 14 16 2 18 20 2 14 16 2 18 20 2 18 20 2 18 20 2 18 20 2 18 20 2 14 16 2 14 16 2 14 16 2 18 20 2 18 20 2 18 20 2 18 20 2 18 20 2 18 20 2 18 20 2 18 20 2 18 20 2 18 20 2 18 20 2 22 24 3 18 20 2 18 20 2 18 20 2 18 20 2 18 20 2 18 20 2 18 20 2 18 20 2 18 20 2 18 20 2 18 20 2 18 20 2 18 20 2 18 20 2 18 20 2 18 20 2 18 20 2 18 20 2 18 20 2 18 20 2 18 20 2 18 20 2 18 20 2 18 20 2 18 20 2 22 24 3 18 20 2 22 24 3 18 20 2 18 20 2 18 20 2 18 20 2 18 20 2 14 16 2 18 20 2 18 20 2 14 16 2 18 20 2 18 20 2 18 20 2 18 20 2 18 20 2 18 20 2 18 20 2 18 20 2 18 20 2 18 20 2 14 16 2 14 16 2 18 20 2 18 20 2 18 20 2 18 20 2 14 16 2 14 16 2 14 16 2 14 16 2 18 20 2 18 20 2 18 20 2 18 20 2 18 20 2 14 16 2 18 20 2 18 20 2 18 20 2 18 20 2 14 16 2 18 20 2 18 20 2 18 20 2 18 20 2 18 20 2 18 20 2 18 20 2 18 20 2 18 20 2 18 20 2 18 20 2 18 20 2 18 20 2 18 20 2 18 20 2 18 20 2 18 20 2 18 20 2 18 20 2 18 20 2 18 20 2 18 20 2 18 20 2 18 20 2 18 20 2 18 20 2 18 20 2 18 20 2 18 20 2 18 20 2 18 20 2 18 20 2 18 20 2 18 20 2 18 20 2 18 20 2 18 20 2 18 20 2 18 20 2 18 20 2 18 20 2 18 20 2 18 20 2 18 20 2 18 20 2 18 20 2 18 20 2 18 20 2 18 20 2 18 20 2 18 20 2 18 20 2 18 20 2 18 20 2 18 20 2 18 20 2 18 20 2 18 20 2 18 20 2 18 20 2 18 20 2 18 20 2 18 20 2 
18 20 2 18 20 2 18 20 2 18 20 2 18 20 2 18 20 2 18 20 2 18 20 2 18 20 2 18 20 2 18 20 2 18 20 2 18 20 2 18 20 2 18 20 2 18 20 2 18 20 2 18 20 2 18 20 2 18 20 2 18 20 2 18 20 2 18 20 2 18 20 2 18 20 2 18 20 2 18 20 2 18 20 2 18 20 2 18 20 2 18 20 2 18 20 2 18 20 2 18 20 2 18 20 2 18 20 2 18 20 2 18 20 2 18 20 2 18 20 2 18 20 2 18 20 2 18 20 2 18 20 2 18 20 2 18 20 2 18 20 2 18 20 2 18 20 2 14 16 2 18 20 2 18 20 2 14 16 2 14 16 2 18 20 2 18 20 2 18 20 2 18 20 2 18 20 2 18 20 2 18 20 2 18 20 2 14 16 2 14 16 2 18 20 2 14 16 2 14 16 2 18 20 2 18 20 2 18 20 2 18 20 2 18 20 2 18 20 2 14 16 2 18 20 2 18 20 2 18 20 2 18 20 2 18 20 2 14 16 2 14 16 2 18 20 2 18 20 2 18 20 2 18 20 2 18 20 2 18 20 2 18 20 2 18 20 2 18 20 2 14 16 2 18 20 2 18 20 2 18 20 2 18 20 2 18 20 2 18 20 2 18 20 2 18 20 2 18 20 2 18 20 2 18 20 2 18 20 2 18 20 2 18 20 2 18 20 2 18 20 2 18 20 2 18 20 2 18 20 2 18 20 2 18 20 2 18 20 2 18 20 2 18 20 2 18 20 2 18 20 2 18 20 2 18 20 2 18 20 2 18 20 2 18 20 2 18 20 2 18 20 2 18 20 2 14 16 2 18 20 2 18 20 2 18 20 2 18 20 2 18 20 2 18 20 2 14 16 2 14 16 2 14 16 2 14 16 2 14 16 2 14 16 2 14 16 2 14 16 2 14 16 2 18 20 2 18 20 2 18 20 2 18 20 2 14 16 2 14 16 2 14 16 2 14 16 2 14 16 2 18 20 2 18 20 2 18 20 2 18 20 2 18 20 2 14 16 2 18 20 2 18 20 2 18 20 2 18 20 2 18 20 2 18 20 2 18 20 2 18 20 2 18 20 2 18 20 2 18 20 2 18 20 2 18 20 2 18 20 2 18 20 2 18 20 2 18 20 2 18 20 2 18 20 2 18 20 2 18 20 2 18 20 2 18 20 2 18 20 2 18 20 2 18 20 2 18 20 2 18 20 2 18 20 2 18 20 2 18 20 2 18 20 2 18 20 2 18 20 2 18 20 2 18 20 2 18 20 2 18 20 2 18 20 2 18 20 2 18 20 2 18 20 2 18 20 2 18 20 2 18 20 2 18 20 2 18 20 2 18 20 2 18 20 2 18 20 2 18 20 2 18 20 2 18 20 2 18 20 2 18 20 2 18 20 2 18 20 2 18 20 2 18 20 2 18 20 2 18 20 2 18 20 2 18 20 2 18 20 2 
18 20 2 18 20 2 18 20 2 18 20 2 18 20 2 18 20 2 18 20 2 18 20 2 18 20 2 18 20 2 18 20 2 18 20 2 18 20 2 18 20 2 18 20 2 18 20 2 18 20 2 18 20 2 18 20 2 18 20 2 18 20 2 18 20 2 18 20 2 18 20 2 18 20 2 18 20 2 18 20 2 18 20 2 18 20 2 18 20 2 18 20 2 18 20 2 18 20 2 18 20 2 18 20 2 18 20 2 18 20 2 18 20 2 18 20 2 18 20 2 18 20 2 18 20 2 18 20 2 18 20 2 18 20 2 18 20 2 18 20 2 18 20 2 18 20 2 14 16 2 18 20 2 18 20 2 14 16 2 14 16 2 18 20 2 18 20 2 18 20 2 18 20 2 18 20 2 18 20 2 18 20 2 18 20 2 14 16 2 14 16 2 18 20 2 14 16 2 14 16 2 18 20 2 18 20 2 18 20 2 18 20 2 18 20 2 18 20 2 14 16 2 18 20 2 18 20 2 18 20 2 18 20 2 18 20 2 14 16 2 14 16 2 18 20 2 18 20 2 18 20 2 18 20 2 18 20 2 18 20 2 18 20 2 18 20 2 18 20 2 14 16 2 18 20 2 18 20 2 18 20 2 18 20 2 18 20 2 18 20 2 18 20 2 18 20 2 18 20 2 18 20 2 18 20 2 18 20 2 18 20 2 18 20 2 18 20 2 18 20 2 18 20 2 18 20 2 18 20 2 18 20 2 18 20 2 18 20 2 18 20 2 18 20 2 18 20 2 18 20 2 18 20 2 18 20 2 18 20 2 18 20 2 18 20 2 18 20 2 18 20 2 18 20 2 14 16 2 18 20 2 18 20 2 18 20 2 18 20 2 18 20 2 18 20 2 14 16 2 14 16 2 14 16 2 14 16 2 14 16 2 14 16 2 14 16 2 14 16 2 14 16 2 18 20 2 18 20 2 18 20 2 18 20 2 14 16 2 14 16 2 14 16 2 14 16 2 14 16 2 18 20 2 18 20 2 18 20 2 18 20 2 18 20 2 14 16 2 18 20 2 18 20 2 18 20 2 18 20 2 18 20 2 18 20 2 18 20 2 18 20 2 18 20 2 18 20 2 18 20 2 18 20 2 18 20 2 18 20 2 18 20 2 18 20 2 18 20 2 18 20 2 18 20 2 18 20 2 18 20 2 18 20 2 18 20 2 18 20 2 18 20 2 18 20 2 18 20 2 18 20 2 18 20 2 18 20 2 18 20 2 18 20 2 18 20 2 18 20 2 18 20 2 18 20 2 18 20 2 18 20 2 18 20 2 18 20 2 18 20 2 18 20 2 18 20 2 18 20 2 18 20 2 18 20 2 18 20 2 18 20 2 18 20 2 18 20 2 18 20 2 18 20 2 18 20 2 18 20 2 18 20 2 18 20 2 18 20 2 18 20 2 18 20 2 18 20 2 18 20 2 18 20 2 18 20 2 18 20 2 
18 20 2 18 20 2 18 20 2 18 20 2 18 20 2 18 20 2 18 20 2 18 20 2 18 20 2 18 20 2 18 20 2 18 20 2 18 20 2 18 20 2 18 20 2 18 20 2 18 20 2 18 20 2 18 20 2 18 20 2 18 20 2 18 20 2 18 20 2 18 20 2 18 20 2 18 20 2 18 20 2 18 20 2 18 20 2 18 20 2 18 20 2 18 20 2 18 20 2 18 20 2 18 20 2 18 20 2 18 20 2 18 20 2 18 20 2 18 20 2 18 20 2 18 20 2 18 20 2 18 20 2 18 20 2 18 20 2 18 20 2 18 20 2 18 20 2 18 20 2 18 20 2 18 20 2 14 16 2 14 16 2 18 20 2 14 16 2 14 16 2 14 16 2 18 20 2 18 20 2 18 20 2 14 16 2 18 20 2 18 20 2 18 20 2 18 20 2 18 20 2 18 20 2 18 20 2 18 20 2 18 20 2 14 16 2 18 20 2 18 20 2 18 20 2 18 20 2 18 20 2 18 20 2 14 16 2 18 20 2 18 20 2 18 20 2 18 20 2 18 20 2 18 20 2 18 20 2 18 20 2 18 20 2 18 20 2 18 20 2 18 20 2 14 16 2 14 16 2 14 16 2 18 20 2 18 20 2 18 20 2 18 20 2 14 16 2 14 16 2 18 20 2 18 20 2 18 20 2 18 20 2 14 16 2 14 16 2 18 20 2 14 16 2 14 16 2 14 16 2 14 16 2 14 16 2 14 16 2 18 20 2 18 20 2 18 20 2 18 20 2 14 16 2 18 20 2 18 20 2 18 20 2 18 20 2 18 20 2 18 20 2 18 20 2 18 20 2 18 20 2 18 20 2 18 20 2 18 20 2 18 20 2 18 20 2 18 20 2 18 20 2 18 20 2 18 20 2 18 20 2 18 20 2 18 20 2 18 20 2 14 16 2 14 16 2 14 16 2 14 16 2 18 20 2 14 16 2 14 16 2 14 16 2 14 16 2 14 16 2 18 20 2 18 20 2 18 20 2 14 16 2 18 20 2 18 20 2 18 20 2 18 20 2 14 16 2 14 16 2 18 20 2 18 20 2 18 20 2 18 20 2 18 20 2 18 20 2 18 20 2 18 20 2 18 20 2 18 20 2 18 20 2 18 20 2 18 20 2 18 20 2 18 20 2 18 20 2 18 20 2 18 20 2 18 20 2 18 20 2 18 20 2 18 20 2 18 20 2 18 20 2 18 20 2 18 20 2 18 20 2 18 20 2 18 20 2 18 20 2 18 20 2 18 20 2 18 20 2 18 20 2 18 20 2 18 20 2 18 20 2 18 20 2 18 20 2 18 20 2 18 20 2 18 20 2 18 20 2 18 20 2 18 20 2 18 20 2 18 20 2 18 20 2 18 20 2 18 20 2 18 20 2 18 20 2 18 20 2 18 20 2 18 20 2 18 20 2 18 20 2 18 20 2 18 20 2 18 20 2 
18 20 2 18 20 2 18 20 2 18 20 2 18 20 2 18 20 2 18 20 2 18 20 2 18 20 2 18 20 2 18 20 2 18 20 2 18 20 2 18 20 2 18 20 2 18 20 2 18 20 2 18 20 2 18 20 2 18 20 2 18 20 2 18 20 2 18 20 2 18 20 2 18 20 2 18 20 2 18 20 2 18 20 2 18 20 2 18 20 2 18 20 2 18 20 2 18 20 2 18 20 2 18 20 2 18 20 2 18 20 2 18 20 2 18 20 2 18 20 2 18 20 2 18 20 2 18 20 2 18 20 2 18 20 2 18 20 2 18 20 2 18 20 2 18 20 2 18 20 2 18 20 2 18 20 2 14 16 2 14 16 2 18 20 2 14 16 2 14 16 2 14 16 2 18 20 2 18 20 2 18 20 2 14 16 2 18 20 2 18 20 2 18 20 2 18 20 2 18 20 2 18 20 2 18 20 2 18 20 2 18 20 2 14 16 2 18 20 2 18 20 2 18 20 2 18 20 2 18 20 2 18 20 2 14 16 2 18 20 2 18 20 2 18 20 2 18 20 2 18 20 2 18 20 2 18 20 2 18 20 2 18 20 2 18 20 2 18 20 2 18 20 2 14 16 2 14 16 2 14 16 2 18 20 2 18 20 2 18 20 2 18 20 2 14 16 2 14 16 2 18 20 2 18 20 2 18 20 2 18 20 2 14 16 2 14 16 2 18 20 2 14 16 2 14 16 2 14 16 2 14 16 2 14 16 2 14 16 2 18 20 2 18 20 2 18 20 2 18 20 2 14 16 2 18 20 2 18 20 2 18 20 2 18 20 2 18 20 2 18 20 2 18 20 2 18 20 2 18 20 2 18 20 2 18 20 2 18 20 2 18 20 2 18 20 2 18 20 2 18 20 2 18 20 2 18 20 2 18 20 2 18 20 2 18 20 2 18 20 2 14 16 2 14 16 2 14 16 2 14 16 2 18 20 2 14 16 2 14 16 2 14 16 2 14 16 2 14 16 2 18 20 2 18 20 2 18 20 2 14 16 2 18 20 2 18 20 2 18 20 2 18 20 2 14 16 2 14 16 2 18 20 2 18 20 2 18 20 2 18 20 2 18 20 2 18 20 2 18 20 2 18 20 2 18 20 2 18 20 2 18 20 2 18 20 2 18 20 2 18 20 2 18 20 2 18 20 2 18 20 2 18 20 2 18 20 2 18 20 2 18 20 2 18 20 2 18 20 2 18 20 2 18 20 2 18 20 2 18 20 2 18 20 2 18 20 2 18 20 2 18 20 2 18 20 2 18 20 2 18 20 2 18 20 2 18 20 2 18 20 2 18 20 2 18 20 2 18 20 2 18 20 2 18 20 2 18 20 2 18 20 2 18 20 2 18 20 2 18 20 2 18 20 2 18 20 2 18 20 2 18 20 2 18 20 2 18 20 2 18 20 2 18 20 2 18 20 2 18 20 2 18 20 2 18 20 2 18 20 2 
18 20 2 18 20 2 18 20 2 18 20 2 18 20 2 18 20 2 18 20 2 18 20 2 18 20 2 18 20 2 18 20 2 18 20 2 18 20 2 18 20 2 18 20 2 18 20 2 18 20 2 18 20 2 18 20 2 18 20 2 18 20 2 18 20 2 18 20 2 18 20 2 18 20 2 18 20 2 18 20 2 18 20 2 18 20 2 18 20 2 18 20 2 18 20 2 18 20 2 18 20 2 18 20 2 18 20 2 18 20 2 18 20 2 18 20 2 18 20 2 18 20 2 18 20 2 18 20 2 18 20 2 18 20 2 18 20 2 18 20 2 18 20 2 18 20 2 18 20 2 18 20 2 18 20 2 18 20 2 18 20 2 18 20 2 14 16 2 18 20 2 18 20 2 18 20 2 18 20 2 14 16 2 18 20 2 18 20 2 18 20 2 18 20 2 18 20 2 18 20 2 18 20 2 18 20 2 18 20 2 18 20 2 18 20 2 18 20 2 18 20 2 18 20 2 18 20 2 18 20 2 18 20 2 18 20 2 18 20 2 18 20 2 18 20 2 14 16 2 18 20 2 18 20 2 14 16 2 18 20 2 18 20 2 18 20 2 14 16 2 14 16 2 14 16 2 18 20 2 14 16 2 14 16 2 14 16 2 18 20 2 14 16 2 14 16 2 18 20 2 18 20 2 18 20 2 18 20 2 18 20 2 18 20 2 18 20 2 18 20 2 18 20 2 18 20 2 18 20 2 18 20 2 14 16 2 18 20 2 18 20 2 18 20 2 18 20 2 14 16 2 14 16 2 18 20 2 18 20 2 18 20 2 18 20 2 14 16 2 14 16 2 18 20 2 18 20 2 18 20 2 14 16 2 18 20 2 18 20 2 18 20 2 18 20 2 18 20 2 18 20 2 18 20 2 18 20 2 18 20 2 18 20 2 18 20 2 18 20 2 18 20 2 14 16 2 18 20 2 18 20 2 18 20 2 18 20 2 14 16 2 14 16 2 18 20 2 14 16 2 18 20 2 18 20 2 18 20 2 18 20 2 18 20 2 18 20 2 18 20 2 18 20 2 18 20 2 18 20 2 18 20 2 18 20 2 18 20 2 18 20 2 18 20 2 18 20 2 18 20 2 18 20 2 18 20 2 18 20 2 18 20 2 18 20 2 18 20 2 18 20 2 18 20 2 18 20 2 18 20 2 18 20 2 18 20 2 18 20 2 18 20 2 18 20 2 18 20 2 18 20 2 18 20 2 18 20 2 18 20 2 18 20 2 18 20 2 18 20 2 18 20 2 18 20 2 18 20 2 18 20 2 18 20 2 18 20 2 18 20 2 18 20 2 18 20 2 18 20 2 18 20 2 18 20 2 18 20 2 18 20 2 18 20 2 18 20 2 18 20 2 18 20 2 18 20 2 18 20 2 18 20 2 18 20 2 18 20 2 18 20 2 18 20 2 18 20 2 18 20 2 18 20 2 18 20 2 18 20 2 
18 20 2 18 20 2 18 20 2 18 20 2 18 20 2 18 20 2 18 20 2 18 20 2 18 20 2 18 20 2 18 20 2 18 20 2 18 20 2 18 20 2 18 20 2 18 20 2 18 20 2 18 20 2 18 20 2 18 20 2 18 20 2 18 20 2 18 20 2 18 20 2 18 20 2 18 20 2 18 20 2 18 20 2 18 20 2 18 20 2 18 20 2 18 20 2 18 20 2 18 20 2 18 20 2 18 20 2 18 20 2 18 20 2 18 20 2 18 20 2 18 20 2 18 20 2 18 20 2 18 20 2 18 20 2 18 20 2 18 20 2 18 20 2 18 20 2 18 20 2 18 20 2 18 20 2 18 20 2 18 20 2 18 20 2 14 16 2 18 20 2 18 20 2 18 20 2 18 20 2 14 16 2 18 20 2 18 20 2 18 20 2 18 20 2 18 20 2 18 20 2 18 20 2 18 20 2 18 20 2 18 20 2 18 20 2 18 20 2 18 20 2 18 20 2 18 20 2 18 20 2 18 20 2 18 20 2 18 20 2 18 20 2 18 20 2 14 16 2 18 20 2 18 20 2 14 16 2 18 20 2 18 20 2 18 20 2 14 16 2 14 16 2 14 16 2 18 20 2 14 16 2 14 16 2 14 16 2 18 20 2 14 16 2 14 16 2 18 20 2 18 20 2 18 20 2 18 20 2 18 20 2 18 20 2 18 20 2 18 20 2 18 20 2 18 20 2 18 20 2 18 20 2 14 16 2 18 20 2 18 20 2 18 20 2 18 20 2 14 16 2 14 16 2 18 20 2 18 20 2 18 20 2 18 20 2 14 16 2 14 16 2 18 20 2 18 20 2 18 20 2 14 16 2 18 20 2 18 20 2 18 20 2 18 20 2 18 20 2 18 20 2 18 20 2 18 20 2 18 20 2 18 20 2 18 20 2 18 20 2 18 20 2 14 16 2 18 20 2 18 20 2 18 20 2 18 20 2 14 16 2 14 16 2 18 20 2 14 16 2 18 20 2 18 20 2 18 20 2 18 20 2 18 20 2 18 20 2 18 20 2 18 20 2 18 20 2 18 20 2 18 20 2 18 20 2 18 20 2 18 20 2 18 20 2 18 20 2 18 20 2 18 20 2 18 20 2 18 20 2 18 20 2 18 20 2 18 20 2 18 20 2 18 20 2 18 20 2 18 20 2 18 20 2 18 20 2 18 20 2 18 20 2 18 20 2 18 20 2 18 20 2 18 20 2 18 20 2 18 20 2 18 20 2 18 20 2 18 20 2 18 20 2 18 20 2 18 20 2 18 20 2 18 20 2 18 20 2 18 20 2 18 20 2 18 20 2 18 20 2 18 20 2 18 20 2 18 20 2 18 20 2 18 20 2 18 20 2 18 20 2 18 20 2 18 20 2 18 20 2 18 20 2 18 20 2 18 20 2 18 20 2 18 20 2 18 20 2 18 20 2 18 20 2 18 20 2 18 20 2 
18 20 2 18 20 2 18 20 2 18 20 2 18 20 2 18 20 2 18 20 2 18 20 2 18 20 2 18 20 2 18 20 2 18 20 2 18 20 2 18 20 2 18 20 2 18 20 2 18 20 2 18 20 2 18 20 2 18 20 2 18 20 2 18 20 2 18 20 2 18 20 2 18 20 2 18 20 2 18 20 2 18 20 2 18 20 2 18 20 2 18 20 2 18 20 2 18 20 2 18 20 2 18 20 2 18 20 2 18 20 2 18 20 2 18 20 2 18 20 2 18 20 2 18 20 2 18 20 2 18 20 2 18 20 2 18 20 2 18 20 2 18 20 2 18 20 2 18 20 2 18 20 2 18 20 2 18 20 2 18 20 2 18 20 2 18 20 2 18 20 2 18 20 2 18 20 2 18 20 2 18 20 2 18 20 2 18 20 2 18 20 2 18 20 2 18 20 2 18 20 2 18 20 2 18 20 2 18 20 2 18 20 2 18 20 2 18 20 2 18 20 2 18 20 2 18 20 2 18 20 2 14 16 2 14 16 2 14 16 2 18 20 2 18 20 2 18 20 2 18 20 2 18 20 2 18 20 2 18 20 2 18 20 2 18 20 2 18 20 2 18 20 2 18 20 2 18 20 2 18 20 2 18 20 2 18 20 2 18 20 2 14 16 2 14 16 2 14 16 2 14 16 2 14 16 2 18 20 2 18 20 2 18 20 2 18 20 2 18 20 2 18 20 2 18 20 2 18 20 2 18 20 2 18 20 2 18 20 2 14 16 2 18 20 2 18 20 2 18 20 2 18 20 2 18 20 2 18 20 2 18 20 2 18 20 2 18 20 2 14 16 2 18 20 2 18 20 2 18 20 2 18 20 2 18 20 2 18 20 2 18 20 2 18 20 2 18 20 2 18 20 2 18 20 2 18 20 2 18 20 2 18 20 2 18 20 2 18 20 2 18 20 2 18 20 2 18 20 2 14 16 2 14 16 2 18 20 2 18 20 2 18 20 2 14 16 2 14 16 2 18 20 2 18 20 2 18 20 2 18 20 2 18 20 2 18 20 2 18 20 2 18 20 2 18 20 2 18 20 2 18 20 2 18 20 2 18 20 2 18 20 2 18 20 2 18 20 2 18 20 2 18 20 2 18 20 2 18 20 2 18 20 2 18 20 2 18 20 2 18 20 2 18 20 2 18 20 2 18 20 2 18 20 2 18 20 2 18 20 2 18 20 2 18 20 2 18 20 2 18 20 2 18 20 2 18 20 2 18 20 2 18 20 2 18 20 2 18 20 2 18 20 2 18 20 2 18 20 2 18 20 2 18 20 2 18 20 2 18 20 2 18 20 2 18 20 2 18 20 2 18 20 2 18 20 2 18 20 2 18 20 2 18 20 2 18 20 2 18 20 2 18 20 2 18 20 2 18 20 2 18 20 2 18 20 2 18 20 2 18 20 2 18 20 2 18 20 2 18 20 2 18 20 2 18 20 2 18 20 2 
18 20 2 18 20 2 18 20 2 18 20 2 18 20 2 18 20 2 18 20 2 18 20 2 18 20 2 18 20 2 18 20 2 18 20 2 18 20 2 18 20 2 18 20 2 18 20 2 18 20 2 18 20 2 18 20 2 18 20 2 18 20 2 18 20 2 18 20 2 18 20 2 18 20 2 18 20 2 18 20 2 18 20 2 18 20 2 18 20 2 18 20 2 18 20 2 18 20 2 18 20 2 18 20 2 18 20 2 18 20 2 18 20 2 18 20 2 18 20 2 18 20 2 18 20 2 18 20 2 18 20 2 18 20 2 18 20 2 18 20 2 18 20 2 18 20 2 18 20 2 18 20 2 18 20 2 18 20 2 18 20 2 18 20 2 18 20 2 18 20 2 18 20 2 18 20 2 18 20 2 18 20 2 18 20 2 18 20 2 18 20 2 18 20 2 18 20 2 18 20 2 18 20 2 18 20 2 18 20 2 18 20 2 18 20 2 18 20 2 18 20 2 18 20 2 18 20 2 18 20 2 14 16 2 14 16 2 14 16 2 18 20 2 18 20 2 18 20 2 18 20 2 18 20 2 18 20 2 18 20 2 18 20 2 18 20 2 18 20 2 18 20 2 18 20 2 18 20 2 18 20 2 18 20 2 18 20 2 18 20 2 14 16 2 14 16 2 14 16 2 14 16 2 14 16 2 18 20 2 18 20 2 18 20 2 18 20 2 18 20 2 18 20 2 18 20 2 18 20 2 18 20 2 18 20 2 18 20 2 14 16 2 18 20 2 18 20 2 18 20 2 18 20 2 18 20 2 18 20 2 18 20 2 18 20 2 18 20 2 14 16 2 18 20 2 18 20 2 18 20 2 18 20 2 18 20 2 18 20 2 18 20 2 18 20 2 18 20 2 18 20 2 18 20 2 18 20 2 18 20 2 18 20 2 18 20 2 18 20 2 18 20 2 18 20 2 18 20 2 14 16 2 14 16 2 18 20 2 18 20 2 18 20 2 14 16 2 14 16 2 18 20 2 18 20 2 18 20 2 18 20 2 18 20 2 18 20 2 18 20 2 18 20 2 18 20 2 18 20 2 18 20 2 18 20 2 18 20 2 18 20 2 18 20 2 18 20 2 18 20 2 18 20 2 18 20 2 18 20 2 18 20 2 18 20 2 18 20 2 18 20 2 18 20 2 18 20 2 18 20 2 18 20 2 18 20 2 18 20 2 18 20 2 18 20 2 18 20 2 18 20 2 18 20 2 18 20 2 18 20 2 18 20 2 18 20 2 18 20 2 18 20 2 18 20 2 18 20 2 18 20 2 18 20 2 18 20 2 18 20 2 18 20 2 18 20 2 18 20 2 18 20 2 18 20 2 18 20 2 18 20 2 18 20 2 18 20 2 18 20 2 18 20 2 18 20 2 18 20 2 18 20 2 18 20 2 18 20 2 18 20 2 18 20 2 18 20 2 18 20 2 18 20 2 18 20 2 18 20 2 
18 20 2 18 20 2 18 20 2 18 20 2 18 20 2 18 20 2 18 20 2 18 20 2 18 20 2 18 20 2 18 20 2 18 20 2 18 20 2 18 20 2 18 20 2 18 20 2 18 20 2 18 20 2 18 20 2 18 20 2 18 20 2 18 20 2 18 20 2 18 20 2 18 20 2 18 20 2 18 20 2 18 20 2 18 20 2 18 20 2 18 20 2 18 20 2 18 20 2 18 20 2 18 20 2 18 20 2 18 20 2 18 20 2 18 20 2 18 20 2 18 20 2 18 20 2 18 20 2 18 20 2 18 20 2 18 20 2 18 20 2 18 20 2 18 20 2 18 20 2 18 20 2 18 20 2 18 20 2 18 20 2 18 20 2 18 20 2 18 20 2 18 20 2 18 20 2 18 20 2 18 20 2 18 20 2 18 20 2 18 20 2 18 20 2 18 20 2 18 20 2 18 20 2 18 20 2 18 20 2 18 20 2 18 20 2 18 20 2 18 20 2 18 20 2 18 20 2 18 20 2 18 20 2 18 20 2 18 20 2 18 20 2 18 20 2 18 20 2 18 20 2 18 20 2 14 16 2 18 20 2 18 20 2 18 20 2 18 20 2 18 20 2 18 20 2 18 20 2 18 20 2 18 20 2 18 20 2 18 20 2 18 20 2 18 20 2 14 16 2 18 20 2 18 20 2 18 20 2 18 20 2 18 20 2 18 20 2 18 20 2 18 20 2 18 20 2 18 20 2 18 20 2 18 20 2 18 20 2 18 20 2 18 20 2 18 20 2 14 16 2 18 20 2 18 20 2 18 20 2 18 20 2 18 20 2 18 20 2 18 20 2 18 20 2 18 20 2 18 20 2 18 20 2 18 20 2 18 20 2 18 20 2 18 20 2 18 20 2 18 20 2 18 20 2 18 20 2 18 20 2 18 20 2 18 20 2 18 20 2 18 20 2 18 20 2 18 20 2 18 20 2 18 20 2 18 20 2 18 20 2 18 20 2 18 20 2 18 20 2 18 20 2 18 20 2 18 20 2 18 20 2 18 20 2 18 20 2 18 20 2 18 20 2 18 20 2 18 20 2 18 20 2 18 20 2 18 20 2 18 20 2 18 20 2 18 20 2 18 20 2 18 20 2 18 20 2 18 20 2 18 20 2 18 20 2 18 20 2 18 20 2 18 20 2 18 20 2 18 20 2 18 20 2 18 20 2 18 20 2 18 20 2 18 20 2 18 20 2 18 20 2 18 20 2 18 20 2 18 20 2 18 20 2 18 20 2 18 20 2 18 20 2 18 20 2 18 20 2 18 20 2 18 20 2 18 20 2 18 20 2 18 20 2 18 20 2 18 20 2 18 20 2 18 20 2 18 20 2 18 20 2 18 20 2 18 20 2 18 20 2 18 20 2 18 20 2 18 20 2 18 20 2 18 20 2 18 20 2 18 20 2 18 20 2 18 20 2 18 20 2 18 20 2 18 20 2 18 20 2 
18 20 2 18 20 2 18 20 2 18 20 2 18 20 2 18 20 2 18 20 2 18 20 2 18 20 2 18 20 2 18 20 2 18 20 2 18 20 2 18 20 2 18 20 2 18 20 2 18 20 2 18 20 2 18 20 2 18 20 2 18 20 2 18 20 2 18 20 2 18 20 2 18 20 2 18 20 2 18 20 2 18 20 2 18 20 2 18 20 2 18 20 2 18 20 2 18 20 2 18 20 2 18 20 2 18 20 2 18 20 2 18 20 2 18 20 2 18 20 2 18 20 2 18 20 2 18 20 2 18 20 2 18 20 2 18 20 2 18 20 2 18 20 2 18 20 2 18 20 2 18 20 2 18 20 2 18 20 2 18 20 2 18 20 2 18 20 2 18 20 2 18 20 2 18 20 2 18 20 2 18 20 2 18 20 2 18 20 2 18 20 2 18 20 2 18 20 2 18 20 2 18 20 2 18 20 2 18 20 2 18 20 2 18 20 2 18 20 2 18 20 2 18 20 2 18 20 2 18 20 2 18 20 2 18 20 2 18 20 2 18 20 2 18 20 2 18 20 2 18 20 2 18 20 2 14 16 2 18 20 2 18 20 2 18 20 2 18 20 2 18 20 2 18 20 2 18 20 2 18 20 2 18 20 2 18 20 2 18 20 2 18 20 2 18 20 2 14 16 2 18 20 2 18 20 2 18 20 2 18 20 2 18 20 2 18 20 2 18 20 2 18 20 2 18 20 2 18 20 2 18 20 2 18 20 2 18 20 2 18 20 2 18 20 2 18 20 2 14 16 2 18 20 2 18 20 2 18 20 2 18 20 2 18 20 2 18 20 2 18 20 2 18 20 2 18 20 2 18 20 2 18 20 2 18 20 2 18 20 2 18 20 2 18 20 2 18 20 2 18 20 2 18 20 2 18 20 2 18 20 2 18 20 2 18 20 2 18 20 2 18 20 2 18 20 2 18 20 2 18 20 2 18 20 2 18 20 2 18 20 2 18 20 2 18 20 2 18 20 2 18 20 2 18 20 2 18 20 2 18 20 2 18 20 2 18 20 2 18 20 2 18 20 2 18 20 2 18 20 2 18 20 2 18 20 2 18 20 2 18 20 2 18 20 2 18 20 2 18 20 2 18 20 2 18 20 2 18 20 2 18 20 2 18 20 2 18 20 2 18 20 2 18 20 2 18 20 2 18 20 2 18 20 2 18 20 2 18 20 2 18 20 2 18 20 2 18 20 2 18 20 2 18 20 2 18 20 2 18 20 2 18 20 2 18 20 2 18 20 2 18 20 2 18 20 2 18 20 2 18 20 2 18 20 2 18 20 2 18 20 2 18 20 2 18 20 2 18 20 2 18 20 2 18 20 2 18 20 2 18 20 2 18 20 2 18 20 2 18 20 2 18 20 2 18 20 2 18 20 2 18 20 2 18 20 2 18 20 2 18 20 2 18 20 2 18 20 2 18 20 2 18 20 2 18 20 2 18 20 2 
18 20 2 18 20 2 18 20 2 18 20 2 18 20 2 18 20 2 18 20 2 18 20 2 18 20 2 18 20 2 18 20 2 18 20 2 18 20 2 18 20 2 18 20 2 18 20 2 18 20 2 18 20 2 18 20 2 18 20 2 18 20 2 18 20 2 18 20 2 18 20 2 18 20 2 18 20 2 18 20 2 18 20 2 18 20 2 18 20 2 18 20 2 18 20 2 18 20 2 18 20 2 18 20 2 18 20 2 18 20 2 18 20 2 18 20 2 18 20 2 18 20 2 18 20 2 18 20 2 18 20 2 18 20 2 18 20 2 18 20 2 18 20 2 18 20 2 18 20 2 18 20 2 18 20 2 18 20 2 18 20 2 18 20 2 18 20 2 18 20 2 18 20 2 18 20 2 18 20 2 18 20 2 18 20 2 18 20 2 18 20 2 18 20 2 18 20 2 18 20 2 18 20 2 18 20 2 18 20 2 18 20 2 18 20 2 18 20 2 18 20 2 14 16 2 18 20 2 18 20 2 18 20 2 18 20 2 18 20 2 18 20 2 18 20 2 18 20 2 18 20 2 18 20 2 18 20 2 18 20 2 18 20 2 18 20 2 18 20 2 18 20 2 18 20 2 18 20 2 18 20 2 18 20 2 18 20 2 18 20 2 18 20 2 18 20 2 18 20 2 18 20 2 18 20 2 18 20 2 18 20 2 18 20 2 18 20 2 18 20 2 18 20 2 18 20 2 18 20 2 18 20 2 18 20 2 18 20 2 18 20 2 14 16 2 14 16 2 14 16 2 18 20 2 18 20 2 18 20 2 18 20 2 18 20 2 18 20 2 14 16 2 18 20 2 14 16 2 18 20 2 18 20 2 18 20 2 18 20 2 18 20 2 18 20 2 18 20 2 18 20 2 18 20 2 18 20 2 18 20 2 18 20 2 18 20 2 18 20 2 18 20 2 18 20 2 18 20 2 18 20 2 18 20 2 18 20 2 18 20 2 18 20 2 18 20 2 18 20 2 18 20 2 18 20 2 18 20 2 18 20 2 18 20 2 18 20 2 18 20 2 18 20 2 18 20 2 18 20 2 18 20 2 18 20 2 18 20 2 18 20 2 18 20 2 18 20 2 18 20 2 18 20 2 18 20 2 18 20 2 18 20 2 18 20 2 18 20 2 18 20 2 18 20 2 18 20 2 18 20 2 18 20 2 18 20 2 18 20 2 18 20 2 18 20 2 18 20 2 18 20 2 18 20 2 18 20 2 18 20 2 18 20 2 18 20 2 18 20 2 18 20 2 18 20 2 18 20 2 18 20 2 18 20 2 18 20 2 18 20 2 18 20 2 18 20 2 18 20 2 18 20 2 18 20 2 18 20 2 18 20 2 18 20 2 18 20 2 18 20 2 18 20 2 18 20 2 18 20 2 18 20 2 18 20 2 18 20 2 18 20 2 18 20 2 18 20 2 18 20 2 18 20 2 18 20 2 18 20 2 
18 20 2 18 20 2 18 20 2 18 20 2 18 20 2 18 20 2 18 20 2 18 20 2 18 20 2 18 20 2 18 20 2 18 20 2 18 20 2 18 20 2 18 20 2 18 20 2 18 20 2 18 20 2 18 20 2 18 20 2 18 20 2 18 20 2 18 20 2 18 20 2 18 20 2 18 20 2 18 20 2 18 20 2 18 20 2 18 20 2 18 20 2 18 20 2 18 20 2 18 20 2 18 20 2 18 20 2 18 20 2 18 20 2 18 20 2 18 20 2 18 20 2 18 20 2 18 20 2 18 20 2 18 20 2 18 20 2 18 20 2 18 20 2 18 20 2 18 20 2 18 20 2 18 20 2 18 20 2 18 20 2 18 20 2 18 20 2 18 20 2 18 20 2 18 20 2 18 20 2 18 20 2 18 20 2 18 20 2 18 20 2 18 20 2 18 20 2 18 20 2 18 20 2 18 20 2 18 20 2 18 20 2 18 20 2 18 20 2 18 20 2 14 16 2 18 20 2 18 20 2 18 20 2 18 20 2 18 20 2 18 20 2 18 20 2 18 20 2 18 20 2 18 20 2 18 20 2 18 20 2 18 20 2 18 20 2 18 20 2 18 20 2 18 20 2 18 20 2 18 20 2 18 20 2 18 20 2 18 20 2 18 20 2 18 20 2 18 20 2 18 20 2 18 20 2 18 20 2 18 20 2 18 20 2 18 20 2 18 20 2 18 20 2 18 20 2 18 20 2 18 20 2 18 20 2 18 20 2 18 20 2 14 16 2 14 16 2 14 16 2 18 20 2 18 20 2 18 20 2 18 20 2 18 20 2 18 20 2 14 16 2 18 20 2 14 16 2 18 20 2 18 20 2 18 20 2 18 20 2 18 20 2 18 20 2 18 20 2 18 20 2 18 20 2 18 20 2 18 20 2 18 20 2 18 20 2 18 20 2 18 20 2 18 20 2 18 20 2 18 20 2 18 20 2 18 20 2 18 20 2 18 20 2 18 20 2 18 20 2 18 20 2 18 20 2 18 20 2 18 20 2 18 20 2 18 20 2 18 20 2 18 20 2 18 20 2 18 20 2 18 20 2 18 20 2 18 20 2 18 20 2 18 20 2 18 20 2 18 20 2 18 20 2 18 20 2 18 20 2 18 20 2 18 20 2 18 20 2 18 20 2 18 20 2 18 20 2 18 20 2 18 20 2 18 20 2 18 20 2 18 20 2 18 20 2 18 20 2 18 20 2 18 20 2 18 20 2 18 20 2 18 20 2 18 20 2 18 20 2 18 20 2 18 20 2 18 20 2 18 20 2 18 20 2 18 20 2 18 20 2 18 20 2 18 20 2 18 20 2 18 20 2 18 20 2 18 20 2 18 20 2 18 20 2 18 20 2 18 20 2 18 20 2 18 20 2 18 20 2 18 20 2 18 20 2 18 20 2 18 20 2 18 20 2 18 20 2 18 20 2 18 20 2 18 20 2 18 20 2 
18 20 2 18 20 2 18 20 2 18 20 2 18 20 2 18 20 2 18 20 2 18 20 2 18 20 2 18 20 2 18 20 2 18 20 2 18 20 2 18 20 2 18 20 2 18 20 2 18 20 2 18 20 2 18 20 2 18 20 2 18 20 2 18 20 2 18 20 2 18 20 2 18 20 2 18 20 2 18 20 2 18 20 2 18 20 2 18 20 2 18 20 2 18 20 2 18 20 2 18 20 2 18 20 2 18 20 2 18 20 2 18 20 2 18 20 2 18 20 2 18 20 2 18 20 2 18 20 2 18 20 2 18 20 2 18 20 2 18 20 2 18 20 2 18 20 2 18 20 2 18 20 2 18 20 2 18 20 2 18 20 2 18 20 2 18 20 2 18 20 2 18 20 2 18 20 2 18 20 2 18 20 2 18 20 2 18 20 2 18 20 2 18 20 2 18 20 2 18 20 2 18 20 2 18 20 2 18 20 2 18 20 2 18 20 2 18 20 2 18 20 2 18 20 2 18 20 2 18 20 2 18 20 2 18 20 2 18 20 2 18 20 2 18 20 2 18 20 2 18 20 2 18 20 2 18 20 2 18 20 2 18 20 2 18 20 2 18 20 2 18 20 2 18 20 2 18 20 2 18 20 2 18 20 2 18 20 2 18 20 2 18 20 2 18 20 2 18 20 2 18 20 2 18 20 2 18 20 2 18 20 2 18 20 2 18 20 2 18 20 2 18 20 2 18 20 2 18 20 2 18 20 2 18 20 2 18 20 2 14 16 2 18 20 2 18 20 2 18 20 2 18 20 2 18 20 2 18 20 2 18 20 2 18 20 2 18 20 2 18 20 2 18 20 2 18 20 2 18 20 2 18 20 2 18 20 2 18 20 2 18 20 2 18 20 2 18 20 2 18 20 2 18 20 2 18 20 2 18 20 2 18 20 2 18 20 2 18 20 2 18 20 2 18 20 2 18 20 2 18 20 2 18 20 2 18 20 2 18 20 2 18 20 2 18 20 2 18 20 2 18 20 2 18 20 2 18 20 2 18 20 2 18 20 2 18 20 2 18 20 2 18 20 2 18 20 2 18 20 2 18 20 2 18 20 2 18 20 2 18 20 2 18 20 2 18 20 2 18 20 2 18 20 2 18 20 2 18 20 2 18 20 2 18 20 2 18 20 2 18 20 2 18 20 2 18 20 2 18 20 2 18 20 2 18 20 2 18 20 2 18 20 2 18 20 2 18 20 2 18 20 2 18 20 2 18 20 2 18 20 2 18 20 2 18 20 2 18 20 2 18 20 2 18 20 2 18 20 2 18 20 2 18 20 2 18 20 2 18 20 2 18 20 2 18 20 2 18 20 2 18 20 2 18 20 2 18 20 2 18 20 2 18 20 2 18 20 2 18 20 2 18 20 2 18 20 2 18 20 2 18 20 2 18 20 2 18 20 2 18 20 2 18 20 2 18 20 2 18 20 2 18 20 2 18 20 2 18 20 2 
18 20 2 18 20 2 18 20 2 18 20 2 18 20 2 18 20 2 18 20 2 18 20 2 18 20 2 18 20 2 18 20 2 18 20 2 18 20 2 18 20 2 18 20 2 18 20 2 18 20 2 18 20 2 18 20 2 18 20 2 18 20 2 18 20 2 18 20 2 18 20 2 18 20 2 18 20 2 18 20 2 18 20 2 18 20 2 18 20 2 18 20 2 18 20 2 18 20 2 18 20 2 18 20 2 18 20 2 18 20 2 18 20 2 18 20 2 18 20 2 18 20 2 18 20 2 18 20 2 18 20 2 18 20 2 18 20 2 18 20 2 18 20 2 18 20 2 18 20 2 18 20 2 18 20 2 18 20 2 18 20 2 18 20 2 18 20 2 18 20 2 18 20 2 18 20 2 18 20 2 18 20 2 18 20 2 18 20 2 18 20 2 18 20 2 18 20 2 18 20 2 18 20 2 18 20 2 18 20 2 18 20 2 18 20 2 18 20 2 18 20 2 18 20 2 18 20 2 18 20 2 18 20 2 18 20 2 18 20 2 18 20 2 18 20 2 18 20 2 18 20 2 18 20 2 18 20 2 18 20 2 18 20 2 18 20 2 18 20 2 18 20 2 18 20 2 18 20 2 18 20 2 18 20 2 18 20 2 18 20 2 18 20 2 18 20 2 18 20 2 18 20 2 18 20 2 18 20 2 18 20 2 18 20 2 18 20 2 18 20 2 18 20 2 18 20 2 18 20 2 18 20 2 18 20 2 18 20 2 14 16 2 18 20 2 18 20 2 18 20 2 18 20 2 18 20 2 18 20 2 18 20 2 18 20 2 18 20 2 18 20 2 18 20 2 18 20 2 18 20 2 18 20 2 18 20 2 18 20 2 18 20 2 18 20 2 18 20 2 18 20 2 18 20 2 18 20 2 18 20 2 18 20 2 18 20 2 18 20 2 18 20 2 18 20 2 18 20 2 18 20 2 18 20 2 18 20 2 18 20 2 18 20 2 18 20 2 18 20 2 18 20 2 18 20 2 18 20 2 18 20 2 18 20 2 18 20 2 18 20 2 18 20 2 18 20 2 18 20 2 18 20 2 18 20 2 18 20 2 18 20 2 18 20 2 18 20 2 18 20 2 18 20 2 18 20 2 18 20 2 18 20 2 18 20 2 18 20 2 18 20 2 18 20 2 18 20 2 18 20 2 18 20 2 18 20 2 18 20 2 18 20 2 18 20 2 18 20 2 18 20 2 18 20 2 18 20 2 18 20 2 18 20 2 18 20 2 18 20 2 18 20 2 18 20 2 18 20 2 18 20 2 18 20 2 18 20 2 18 20 2 18 20 2 18 20 2 18 20 2 18 20 2 18 20 2 18 20 2 18 20 2 18 20 2 18 20 2 18 20 2 18 20 2 18 20 2 18 20 2 18 20 2 18 20 2 18 20 2 18 20 2 18 20 2 18 20 2 18 20 2 18 20 2 18 20 2 18 20 2 
18 20 2 18 20 2 18 20 2 18 20 2 18 20 2 18 20 2 18 20 2 18 20 2 18 20 2 18 20 2 18 20 2 18 20 2 18 20 2 18 20 2 18 20 2 18 20 2 18 20 2 18 20 2 18 20 2 18 20 2 18 20 2 18 20 2 18 20 2 18 20 2 18 20 2 18 20 2 18 20 2 18 20 2 18 20 2 18 20 2 18 20 2 18 20 2 18 20 2 18 20 2 18 20 2 18 20 2 18 20 2 18 20 2 18 20 2 18 20 2 18 20 2 18 20 2 18 20 2 18 20 2 18 20 2 18 20 2 18 20 2 18 20 2 18 20 2 18 20 2 18 20 2 18 20 2 18 20 2 18 20 2 18 20 2 18 20 2 18 20 2 18 20 2 18 20 2 18 20 2 18 20 2 18 20 2 18 20 2 18 20 2 18 20 2 18 20 2 18 20 2 18 20 2 18 20 2 18 20 2 18 20 2 18 20 2 18 20 2 18 20 2 18 20 2 18 20 2 18 20 2 18 20 2 18 20 2 18 20 2 18 20 2 18 20 2 18 20 2 18 20 2 18 20 2 18 20 2 18 20 2 18 20 2 18 20 2 18 20 2 18 20 2 18 20 2 18 20 2 18 20 2 18 20 2 18 20 2 18 20 2 18 20 2 18 20 2 18 20 2 18 20 2 18 20 2 18 20 2 18 20 2 18 20 2 18 20 2 18 20 2 18 20 2 18 20 2 18 20 2 18 20 2 18 20 2 18 20 2 18 20 2 18 20 2 18 20 2 18 20 2 18 20 2 18 20 2 18 20 2 18 20 2 18 20 2 18 20 2 18 20 2 18 20 2 18 20 2 18 20 2 18 20 2 18 20 2 18 20 2 18 20 2 18 20 2 18 20 2 18 20 2 18 20 2 18 20 2 18 20 2 18 20 2 18 20 2 18 20 2 18 20 2 18 20 2 18 20 2 18 20 2 18 20 2 18 20 2 18 20 2 18 20 2 18 20 2 18 20 2 18 20 2 18 20 2 18 20 2 18 20 2 18 20 2 18 20 2 18 20 2 18 20 2 18 20 2 18 20 2 18 20 2 18 20 2 18 20 2 18 20 2 18 20 2 18 20 2 18 20 2 18 20 2 18 20 2 18 20 2 18 20 2 18 20 2 18 20 2 18 20 2 18 20 2 18 20 2 18 20 2 18 20 2 18 20 2 18 20 2 18 20 2 18 20 2 18 20 2 18 20 2 18 20 2 18 20 2 18 20 2 18 20 2 18 20 2 18 20 2 18 20 2 18 20 2 18 20 2 18 20 2 18 20 2 18 20 2 18 20 2 18 20 2 18 20 2 18 20 2 18 20 2 18 20 2 18 20 2 18 20 2 18 20 2 18 20 2 18 20 2 18 20 2 18 20 2 18 20 2 18 20 2 18 20 2 18 20 2 18 20 2 18 20 2 18 20 2 18 20 2 18 20 2 18 20 2 18 20 2 
18 20 2 18 20 2 18 20 2 18 20 2 18 20 2 18 20 2 18 20 2 18 20 2 18 20 2 18 20 2 18 20 2 18 20 2 18 20 2 18 20 2 18 20 2 18 20 2 18 20 2 18 20 2 18 20 2 18 20 2 18 20 2 18 20 2 18 20 2 18 20 2 18 20 2 18 20 2 18 20 2 18 20 2 18 20 2 18 20 2 18 20 2 18 20 2 18 20 2 18 20 2 18 20 2 18 20 2 18 20 2 18 20 2 18 20 2 18 20 2 18 20 2 18 20 2 18 20 2 18 20 2 18 20 2 18 20 2 18 20 2 18 20 2 18 20 2 18 20 2 18 20 2 18 20 2 18 20 2 18 20 2 18 20 2 18 20 2 18 20 2 18 20 2 18 20 2 18 20 2 18 20 2 18 20 2 18 20 2 18 20 2 18 20 2 18 20 2 18 20 2 18 20 2 18 20 2 18 20 2 18 20 2 18 20 2 18 20 2 18 20 2 18 20 2 18 20 2 18 20 2 18 20 2 18 20 2 18 20 2 18 20 2 18 20 2 18 20 2 18 20 2 18 20 2 18 20 2 18 20 2 18 20 2 18 20 2 18 20 2 18 20 2 18 20 2 18 20 2 18 20 2 18 20 2 18 20 2 18 20 2 18 20 2 18 20 2 18 20 2 18 20 2 18 20 2 18 20 2 18 20 2 18 20 2 18 20 2 18 20 2 18 20 2 18 20 2 18 20 2 18 20 2 18 20 2 18 20 2 18 20 2 18 20 2 18 20 2 18 20 2 18 20 2 18 20 2 18 20 2 18 20 2 18 20 2 18 20 2 18 20 2 18 20 2 18 20 2 18 20 2 18 20 2 18 20 2 18 20 2 18 20 2 18 20 2 18 20 2 18 20 2 18 20 2 18 20 2 18 20 2 18 20 2 18 20 2 18 20 2 18 20 2 18 20 2 18 20 2 18 20 2 18 20 2 18 20 2 18 20 2 18 20 2 18 20 2 18 20 2 18 20 2 18 20 2 18 20 2 18 20 2 18 20 2 18 20 2 18 20 2 18 20 2 18 20 2 18 20 2 18 20 2 18 20 2 18 20 2 18 20 2 18 20 2 18 20 2 18 20 2 18 20 2 18 20 2 18 20 2 18 20 2 18 20 2 18 20 2 18 20 2 18 20 2 18 20 2 18 20 2 18 20 2 18 20 2 18 20 2 18 20 2 18 20 2 18 20 2 18 20 2 18 20 2 18 20 2 18 20 2 18 20 2 18 20 2 18 20 2 18 20 2 18 20 2 18 20 2 18 20 2 18 20 2 18 20 2 18 20 2 18 20 2 18 20 2 18 20 2 18 20 2 18 20 2 18 20 2 18 20 2 18 20 2 18 20 2 18 20 2 18 20 2 18 20 2 18 20 2 18 20 2 18 20 2 18 20 2 18 20 2 18 20 2 18 20 2 18 20 2 18 20 2 18 20 2 18 20 2 
