P3
220 242
255
5 250 248 5 250 248 8 248 244 5 250 248 5 250 248 5 250 248 5 250 248 5 250 248 5 250 248 5 250 248 5 250 248 5 250 248 5 250 248 5 250 248 5 250 248 5 250 248 5 250 248 5 250 248 8 248 244 8 248 244 5 250 248 5 250 248 5 250 248 5 250 248 5 250 248 5 250 248 5 250 248 8 248 244 5 250 248 5 250 248 5 250 248 5 250 248 5 250 248 5 250 248 5 250 248 8 248 244 8 248 244 5 250 248 8 248 244 5 250 248 5 250 248 5 250 248 5 250 248 5 250 248 5 250 248 5 250 248 8 248 244 5 250 248 5 250 248 5 250 248 5 250 248 5 250 248 5 250 248 5 250 248 5 250 248 8 248 244 5 250 248 5 250 248 8 248 244 8 248 244 5 250 248 5 250 248 5 250 248 5 250 248 8 248 244 5 250 248 5 250 248 5 250 248 8 248 244 8 248 244 5 250 248 8 248 244 5 250 248 5 250 248 5 250 248 5 250 248 5 250 248 5 250 248 5 250 248 5 250 248 5 250 248 5 250 248 5 250 248 5 250 248 5 250 248 8 248 244 5 250 248 5 250 248 5 250 248 5 250 248 5 250 248 5 250 248 5 250 248 5 250 248 5 250 248 5 250 248 5 250 248 5 250 248 5 250 248 5 250 248 5 250 248 5 250 248 5 250 248 5 250 248 5 250 248 5 250 248 5 250 248 5 250 248 5 250 248 5 250 248 5 250 248 5 250 248 5 250 248 5 250 248 5 250 248 5 250 248 5 250 248 5 250 248 5 250 248 5 250 248 5 250 248 5 250 248 5 250 248 5 250 248 5 250 248 5 250 248 5 250 248 5 250 248 5 250 248 5 250 248 5 250 248 5 250 248 8 248 244 8 248 244 8 248 244 8 248 244 5 250 248 8 248 244 5 250 248 5 250 248 8 248 244 8 248 244 8 248 244 8 248 244 8 248 244 5 250 248 5 250 248 5 250 248 5 250 248 8 248 244 8 248 244 8 248 244 5 250 248 8 248 244 8 248 244 8 248 244 8 248 244 5 250 248 5 250 248 8 248 244 5 250 248 5 250 248 5 250 248 5 250 248 5 250 248 5 250 248 5 250 248 8 248 244 5 250 248 5 250 248 5 250 248 8 248 244 5 250 248 5 250 248 5 250 248 8 248 244 5 250 248 5 250 248 5 250 248 5 250 248 5 250 248 5 250 248 5 250 248 8 248 244 8 248 244 8 248 244 8 248 244 8 248 244 8 248 244 5 250 248 8 248 244 5 250 248 5 250 248 5 250 248 8 248 244 5 250 248 5 250 248 5 250 248 5 250 248 8 248 244 5 250 248 8 248 244 8 248 244 8 248 244 5 250 248 5 250 248 5 250 248 8 248 244 5 250 248 5 250 248 5 250 248 5 250 248 5 250 248 8 248 244 5 250 248 5 250 248 5 250 248 5 250 248 5 250 248 8 248 244 
5 250 248 5 250 248 8 248 244 5 250 248 5 250 248 5 250 248 5 250 248 5 250 248 5 250 248 5 250 248 5 250 248 5 250 248 5 250 248 5 250 248 5 250 248 5 250 248 5 250 248 5 250 248 8 248 244 8 248 244 5 250 248 5 250 248 5 250 248 5 250 248 5 250 248 5 250 248 5 250 248 8 248 244 5 250 248 5 250 248 5 250 248 5 250 248 5 250 248 5 250 248 5 250 248 8 248 244 8 248 244 5 250 248 8 248 244 5 250 248 5 250 248 5 250 248 5 250 248 5 250 248 5 250 248 5 250 248 8 248 244 5 250 248 5 250 248 5 250 248 5 250 248 5 250 248 5 250 248 5 250 248 5 250 248 8 248 244 5 250 248 5 250 248 8 248 244 8 248 244 5 250 248 5 250 248 5 250 248 5 250 248 8 248 244 5 250 248 5 250 248 5 250 248 8 248 244 8 248 244 5 250 248 8 248 244 5 250 248 5 250 248 5 250 248 5 250 248 5 250 248 5 250 248 5 250 248 5 250 248 5 250 248 5 250 248 5 250 248 5 250 248 5 250 248 8 248 244 5 250 248 5 250 248 5 250 248 5 250 248 5 250 248 5 250 248 5 250 248 5 250 248 5 250 248 5 250 248 5 250 248 5 250 248 5 250 248 5 250 248 5 250 248 5 250 248 5 250 248 5 250 248 5 250 248 5 250 248 5 250 248 5 250 248 5 250 248 5 250 248 5 250 248 5 250 248 5 250 248 5 250 248 5 250 248 5 250 248 5 250 248 5 250 248 5 250 248 5 250 248 5 250 248 5 250 248 5 250 248 5 250 248 5 250 248 5 250 248 5 250 248 5 250 248 5 250 248 5 250 248 5 250 248 5 250 248 8 248 244 8 248 244 8 248 244 8 248 244 5 250 248 8 248 244 5 250 248 5 250 248 8 248 244 8 248 244 8 248 244 8 248 244 8 248 244 5 250 248 5 250 248 5 250 248 5 250 248 8 248 244 8 248 244 8 248 244 5 250 248 8 248 244 8 248 244 8 248 244 8 248 244 5 250 248 5 250 248 8 248 244 5 250 248 5 250 248 5 250 248 5 250 248 5 250 248 5 250 248 5 250 248 8 248 244 5 250 248 5 250 248 5 250 248 8 248 244 5 250 248 5 250 248 5 250 248 8 248 244 5 250 248 5 250 248 5 250 248 5 250 248 5 250 248 5 250 248 5 250 248 8 248 244 8 248 244 8 248 244 8 248 244 8 248 244 8 248 244 5 250 248 8 248 244 5 250 248 5 250 248 5 250 248 8 248 244 5 250 248 5 250 248 5 250 248 5 250 248 8 248 244 5 250 248 8 248 244 8 248 244 8 248 244 5 250 248 5 250 248 5 250 248 8 248 244 5 250 248 5 250 248 5 250 248 5 250 248 5 250 248 8 248 244 5 250 248 5 250 248 5 250 248 5 250 248 5 250 248 8 248 244 
8 248 244 8 248 244 5 250 248 5 250 248 5 250 248 5 250 248 8 248 244 8 248 244 5 250 248 5 250 248 5 250 248 5 250 248 5 250 248 5 250 248 5 250 248 5 250 248 5 250 248 8 248 244 8 248 244 5 250 248 5 250 248 5 250 248 5 250 248 8 248 244 5 250 248 5 250 248 5 250 248 5 250 248 8 248 244 8 248 244 8 248 244 8 248 244 8 248 244 8 248 244 8 248 244 8 248 244 5 250 248 8 248 244 5 250 248 5 250 248 5 250 248 5 250 248 5 250 248 5 250 248 5 250 248 5 250 248 5 250 248 5 250 248 5 250 248 5 250 248 5 250 248 5 250 248 5 250 248 5 250 248 8 248 244 8 248 244 8 248 244 8 248 244 8 248 244 8 248 244 5 250 248 5 250 248 8 248 244 8 248 244 8 248 244 8 248 244 8 248 244 8 248 244 8 248 244 8 248 244 8 248 244 8 248 244 8 248 244 5 250 248 5 250 248 5 250 248 8 248 244 5 250 248 5 250 248 8 248 244 8 248 244 5 250 248 8 248 244 5 250 248 8 248 244 8 248 244 5 250 248 8 248 244 8 248 244 8 248 244 5 250 248 5 250 248 5 250 248 5 250 248 5 250 248 5 250 248 5 250 248 5 250 248 8 248 244 5 250 248 5 250 248 5 250 248 5 250 248 8 248 244 5 250 248 5 250 248 5 250 248 5 250 248 5 250 248 5 250 248 8 248 244 8 248 244 8 248 244 5 250 248 5 250 248 5 250 248 5 250 248 8 248 244 5 250 248 8 248 244 8 248 244 5 250 248 5 250 248 8 248 244 5 250 248 5 250 248 5 250 248 5 250 248 5 250 248 8 248 244 8 248 244 8 248 244 8 248 244 8 248 244 8 248 244 8 248 244 8 248 244 8 248 244 5 250 248 5 250 248 8 248 244 8 248 244 8 248 244 8 248 244 8 248 244 5 250 248 8 248 244 8 248 244 8 248 244 8 248 244 8 248 244 8 248 244 8 248 244 8 248 244 8 248 244 8 248 244 8 248 244 8 248 244 8 248 244 8 248 244 8 248 244 8 248 244 5 250 248 5 250 248 5 250 248 5 250 248 5 250 248 5 250 248 8 248 244 8 248 244 5 250 248 8 248 244 8 248 244 5 250 248 5 250 248 5 250 248 5 250 248 5 250 248 8 248 244 8 248 244 5 250 248 8 248 244 5 250 248 8 248 244 8 248 244 8 248 244 8 248 244 8 248 244 8 248 244 8 248 244 5 250 248 5 250 248 8 248 244 8 248 244 5 250 248 8 248 244 5 250 248 8 248 244 5 250 248 5 250 248 8 248 244 5 250 248 5 250 248 8 248 244 8 248 244 8 248 244 5 250 248 8 248 244 8 248 244 8 248 244 8 248 244 5 250 248 8 248 244 8 248 244 5 250 248 8 248 244 8 248 244 8 248 244 8 248 244 8 248 244 
8 248 244 8 248 244 5 250 248 5 250 248 5 250 248 5 250 248 8 248 244 8 248 244 5 250 248 5 250 248 5 250 248 5 250 248 5 250 248 5 250 248 5 250 248 5 250 248 5 250 248 8 248 244 8 248 244 5 250 248 5 250 248 5 250 248 5 250 248 8 248 244 5 250 248 5 250 248 5 250 248 5 250 248 8 248 244 8 248 244 8 248 244 8 248 244 8 248 244 8 248 244 8 248 244 8 248 244 5 250 248 8 248 244 5 250 248 5 250 248 5 250 248 5 250 248 5 250 248 5 250 248 5 250 248 5 250 248 5 250 248 5 250 248 5 250 248 5 250 248 5 250 248 5 250 248 5 250 248 5 250 248 8 248 244 8 248 244 8 248 244 8 248 244 8 248 244 8 248 244 5 250 248 5 250 248 8 248 244 8 248 244 8 248 244 8 248 244 8 248 244 8 248 244 8 248 244 8 248 244 8 248 244 8 248 244 8 248 244 5 250 248 5 250 248 5 250 248 8 248 244 5 250 248 5 250 248 8 248 244 8 248 244 5 250 248 8 248 244 5 250 248 8 248 244 8 248 244 5 250 248 8 248 244 8 248 244 8 248 244 5 250 248 5 250 248 5 250 248 5 250 248 5 250 248 5 250 248 5 250 248 5 250 248 8 248 244 5 250 248 5 250 248 5 250 248 5 250 248 8 248 244 5 250 248 5 250 248 5 250 248 5 250 248 5 250 248 5 250 248 8 248 244 8 248 244 8 248 244 5 250 248 5 250 248 5 250 248 5 250 248 8 248 244 5 250 248 8 248 244 8 248 244 5 250 248 5 250 248 8 248 244 5 250 248 5 250 248 5 250 248 5 250 248 5 250 248 8 248 244 8 248 244 8 248 244 8 248 244 8 248 244 8 248 244 8 248 244 8 248 244 8 248 244 5 250 248 5 250 248 8 248 244 8 248 244 8 248 244 8 248 244 8 248 244 5 250 248 8 248 244 8 248 244 8 248 244 8 248 244 8 248 244 8 248 244 8 248 244 8 248 244 8 248 244 8 248 244 8 248 244 8 248 244 8 248 244 8 248 244 8 248 244 8 248 244 5 250 248 5 250 248 5 250 248 5 250 248 5 250 248 5 250 248 8 248 244 8 248 244 5 250 248 8 248 244 8 248 244 5 250 248 5 250 248 5 250 248 5 250 248 5 250 248 8 248 244 8 248 244 5 250 248 8 248 244 5 250 248 8 248 244 8 248 244 8 248 244 8 248 244 8 248 244 8 248 244 8 248 244 5 250 248 5 250 248 8 248 244 8 248 244 5 250 248 8 248 244 5 250 248 8 248 244 5 250 248 5 250 248 8 248 244 5 250 248 5 250 248 8 248 244 8 248 244 8 248 244 5 250 248 8 248 244 8 248 244 8 248 244 8 248 244 5 250 248 8 248 244 8 248 244 5 250 248 8 248 244 8 248 244 8 248 244 8 248 244 8 248 244 
5 250 248 5 250 248 5 250 248 5 250 248 5 250 248 5 250 248 5 250 248 5 250 248 5 250 248 5 250 248 8 248 244 5 250 248 5 250 248 5 250 248 5 250 248 5 250 248 5 250 248 5 250 248 8 248 244 5 250 248 5 250 248 5 250 248 5 250 248 8 248 244 8 248 244 5 250 248 8 248 244 5 250 248 5 250 248 8 248 244 8 248 244 5 250 248 8 248 244 8 248 244 8 248 244 5 250 248 11 246 241 8 248 244 8 248 244 8 248 244 8 248 244 8 248 244 5 250 248 8 248 244 5 250 248 5 250 248 5 250 248 5 250 248 5 250 248 8 248 244 5 250 248 5 250 248 8 248 244 5 250 248 5 250 248 5 250 248 8 248 244 8 248 244 5 250 248 5 250 248 5 250 248 8 248 244 8 248 244 8 248 244 8 248 244 8 248 244 5 250 248 8 248 244 5 250 248 5 250 248 8 248 244 8 248 244 5 250 248 8 248 244 5 250 248 5 250 248 5 250 248 8 248 244 5 250 248 8 248 244 5 250 248 8 248 244 5 250 248 5 250 248 5 250 248 8 248 244 5 250 248 5 250 248 5 250 248 8 248 244 8 248 244 8 248 244 5 250 248 8 248 244 5 250 248 5 250 248 5 250 248 5 250 248 5 250 248 5 250 248 5 250 248 5 250 248 5 250 248 5 250 248 8 248 244 8 248 244 5 250 248 5 250 248 5 250 248 5 250 248 5 250 248 5 250 248 5 250 248 5 250 248 5 250 248 5 250 248 5 250 248 8 248 244 8 248 244 8 248 244 5 250 248 5 250 248 5 250 248 5 250 248 5 250 248 5 250 248 5 250 248 5 250 248 5 250 248 8 248 244 8 248 244 5 250 248 5 250 248 8 248 244 8 248 244 8 248 244 8 248 244 8 248 244 8 248 244 8 248 244 8 248 244 8 248 244 5 250 248 8 248 244 8 248 244 8 248 244 8 248 244 8 248 244 8 248 244 8 248 244 8 248 244 8 248 244 8 248 244 8 248 244 5 250 248 5 250 248 5 250 248 5 250 248 5 250 248 11 246 241 5 250 248 5 250 248 8 248 244 8 248 244 5 250 248 5 250 248 5 250 248 8 248 244 5 250 248 5 250 248 5 250 248 5 250 248 5 250 248 5 250 248 8 248 244 8 248 244 8 248 244 5 250 248 5 250 248 5 250 248 8 248 244 8 248 244 8 248 244 8 248 244 8 248 244 8 248 244 5 250 248 8 248 244 8 248 244 5 250 248 8 248 244 8 248 244 8 248 244 8 248 244 11 246 241 8 248 244 8 248 244 8 248 244 8 248 244 8 248 244 5 250 248 5 250 248 8 248 244 8 248 244 5 250 248 8 248 244 5 250 248 5 250 248 5 250 248 8 248 244 5 250 248 8 248 244 8 248 244 8 248 244 5 250 248 5 250 248 8 248 244 5 250 248 8 248 244 8 248 244 
5 250 248 5 250 248 5 250 248 5 250 248 5 250 248 5 250 248 5 250 248 5 250 248 5 250 248 5 250 248 8 248 244 5 250 248 5 250 248 5 250 248 5 250 248 5 250 248 5 250 248 5 250 248 8 248 244 5 250 248 5 250 248 5 250 248 5 250 248 8 248 244 8 248 244 5 250 248 8 248 244 5 250 248 5 250 248 8 248 244 8 248 244 5 250 248 8 248 244 8 248 244 8 248 244 5 250 248 11 246 241 8 248 244 8 248 244 8 248 244 8 248 244 8 248 244 5 250 248 8 248 244 5 250 248 5 250 248 5 250 248 5 250 248 5 250 248 8 248 244 5 250 248 5 250 248 8 248 244 5 250 248 5 250 248 5 250 248 8 248 244 8 248 244 5 250 248 5 250 248 5 250 248 8 248 244 8 248 244 8 248 244 8 248 244 8 248 244 5 250 248 8 248 244 5 250 248 5 250 248 8 248 244 8 248 244 5 250 248 8 248 244 5 250 248 5 250 248 5 250 248 8 248 244 5 250 248 8 248 244 5 250 248 8 248 244 5 250 248 5 250 248 5 250 248 8 248 244 5 250 248 5 250 248 5 250 248 8 248 244 8 248 244 8 248 244 5 250 248 8 248 244 5 250 248 5 250 248 5 250 248 5 250 248 5 250 248 5 250 248 5 250 248 5 250 248 5 250 248 5 250 248 8 248 244 8 248 244 5 250 248 5 250 248 5 250 248 5 250 248 5 250 248 5 250 248 5 250 248 5 250 248 5 250 248 5 250 248 5 250 248 8 248 244 8 248 244 8 248 244 5 250 248 5 250 248 5 250 248 5 250 248 5 250 248 5 250 248 5 250 248 5 250 248 5 250 248 8 248 244 8 248 244 5 250 248 5 250 248 8 248 244 8 248 244 8 248 244 8 248 244 8 248 244 8 248 244 8 248 244 8 248 244 8 248 244 5 250 248 8 248 244 8 248 244 8 248 244 8 248 244 8 248 244 8 248 244 8 248 244 8 248 244 8 248 244 8 248 244 8 248 244 5 250 248 5 250 248 5 250 248 5 250 248 5 250 248 11 246 241 5 250 248 5 250 248 8 248 244 8 248 244 5 250 248 5 250 248 5 250 248 8 248 244 5 250 248 5 250 248 5 250 248 5 250 248 5 250 248 5 250 248 8 248 244 8 248 244 8 248 244 5 250 248 5 250 248 5 250 248 8 248 244 8 248 244 8 248 244 8 248 244 8 248 244 8 248 244 5 250 248 8 248 244 8 248 244 5 250 248 8 248 244 8 248 244 8 248 244 8 248 244 11 246 241 8 248 244 8 248 244 8 248 244 8 248 244 8 248 244 5 250 248 5 250 248 8 248 244 8 248 244 5 250 248 8 248 244 5 250 248 5 250 248 5 250 248 8 248 244 5 250 248 8 248 244 8 248 244 8 248 244 5 250 248 5 250 248 8 248 244 5 250 248 8 248 244 8 248 244 
5 250 248 5 250 248 5 250 248 5 250 248 5 250 248 5 250 248 5 250 248 5 250 248 5 250 248 5 250 248 5 250 248 5 250 248 5 250 248 5 250 248 5 250 248 8 248 244 5 250 248 5 250 248 5 250 248 5 250 248 5 250 248 5 250 248 5 250 248 5 250 248 5 250 248 8 248 244 5 250 248 5 250 248 8 248 244 8 248 244 5 250 248 5 250 248 5 250 248 8 248 244 8 248 244 8 248 244 8 248 244 8 248 244 8 248 244 8 248 244 5 250 248 8 248 244 8 248 244 5 250 248 8 248 244 5 250 248 5 250 248 5 250 248 5 250 248 8 248 244 5 250 248 5 250 248 8 248 244 5 250 248 5 250 248 8 248 244 8 248 244 8 248 244 8 248 244 5 250 248 5 250 248 8 248 244 8 248 244 8 248 244 8 248 244 8 248 244 8 248 244 8 248 244 8 248 244 8 248 244 8 248 244 8 248 244 5 250 248 5 250 248 8 248 244 5 250 248 8 248 244 8 248 244 5 250 248 5 250 248 8 248 244 5 250 248 8 248 244 5 250 248 5 250 248 5 250 248 5 250 248 8 248 244 8 248 244 5 250 248 8 248 244 5 250 248 5 250 248 5 250 248 5 250 248 5 250 248 5 250 248 5 250 248 8 248 244 5 250 248 5 250 248 5 250 248 8 248 244 5 250 248 8 248 244 5 250 248 8 248 244 5 250 248 5 250 248 8 248 244 5 250 248 5 250 248 5 250 248 5 250 248 5 250 248 5 250 248 8 248 244 8 248 244 8 248 244 8 248 244 5 250 248 8 248 244 5 250 248 5 250 248 8 248 244 8 248 244 8 248 244 5 250 248 8 248 244 5 250 248 5 250 248 8 248 244 8 248 244 8 248 244 8 248 244 8 248 244 8 248 244 8 248 244 8 248 244 8 248 244 8 248 244 5 250 248 8 248 244 5 250 248 8 248 244 8 248 244 8 248 244 8 248 244 8 248 244 8 248 244 8 248 244 8 248 244 8 248 244 8 248 244 8 248 244 5 250 248 8 248 244 8 248 244 5 250 248 5 250 248 5 250 248 5 250 248 5 250 248 5 250 248 5 250 248 5 250 248 8 248 244 8 248 244 5 250 248 5 250 248 5 250 248 5 250 248 5 250 248 8 248 244 8 248 244 8 248 244 8 248 244 8 248 244 8 248 244 8 248 244 5 250 248 5 250 248 8 248 244 8 248 244 8 248 244 8 248 244 8 248 244 8 248 244 8 248 244 8 248 244 5 250 248 8 248 244 8 248 244 8 248 244 8 248 244 8 248 244 8 248 244 8 248 244 8 248 244 8 248 244 8 248 244 5 250 248 5 250 248 8 248 244 5 250 248 8 248 244 5 250 248 5 250 248 8 248 244 5 250 248 5 250 248 5 250 248 5 250 248 5 250 248 8 248 244 5 250 248 5 250 248 5 250 248 5 250 248 8 248 244 
5 250 248 5 250 248 5 250 248 5 250 248 5 250 248 5 250 248 5 250 248 5 250 248 5 250 248 5 250 248 5 250 248 5 250 248 5 250 248 5 250 248 5 250 248 8 248 244 5 250 248 5 250 248 5 250 248 5 250 248 5 250 248 5 250 248 5 250 248 5 250 248 5 250 248 8 248 244 5 250 248 5 250 248 8 248 244 8 248 244 5 250 248 5 250 248 5 250 248 8 248 244 8 248 244 8 248 244 8 248 244 8 248 244 8 248 244 8 248 244 5 250 248 8 248 244 8 248 244 5 250 248 8 248 244 5 250 248 5 250 248 5 250 248 5 250 248 8 248 244 5 250 248 5 250 248 8 248 244 5 250 248 5 250 248 8 248 244 8 248 244 8 248 244 8 248 244 5 250 248 5 250 248 8 248 244 8 248 244 8 248 244 8 248 244 8 248 244 8 248 244 8 248 244 8 248 244 8 248 244 8 248 244 8 248 244 5 250 248 5 250 248 8 248 244 5 250 248 8 248 244 8 248 244 5 250 248 5 250 248 8 248 244 5 250 248 8 248 244 5 250 248 5 250 248 5 250 248 5 250 248 8 248 244 8 248 244 5 250 248 8 248 244 5 250 248 5 250 248 5 250 248 5 250 248 5 250 248 5 250 248 5 250 248 8 248 244 5 250 248 5 250 248 5 250 248 8 248 244 5 250 248 8 248 244 5 250 248 8 248 244 5 250 248 5 250 248 8 248 244 5 250 248 5 250 248 5 250 248 5 250 248 5 250 248 5 250 248 8 248 244 8 248 244 8 248 244 8 248 244 5 250 248 8 248 244 5 250 248 5 250 248 8 248 244 8 248 244 8 248 244 5 250 248 8 248 244 5 250 248 5 250 248 8 248 244 8 248 244 8 248 244 8 248 244 8 248 244 8 248 244 8 248 244 8 248 244 8 248 244 8 248 244 5 250 248 8 248 244 5 250 248 8 248 244 8 248 244 8 248 244 8 248 244 8 248 244 8 248 244 8 248 244 8 248 244 8 248 244 8 248 244 8 248 244 5 250 248 8 248 244 8 248 244 5 250 248 5 250 248 5 250 248 5 250 248 5 250 248 5 250 248 5 250 248 5 250 248 8 248 244 8 248 244 5 250 248 5 250 248 5 250 248 5 250 248 5 250 248 8 248 244 8 248 244 8 248 244 8 248 244 8 248 244 8 248 244 8 248 244 5 250 248 5 250 248 8 248 244 8 248 244 8 248 244 8 248 244 8 248 244 8 248 244 8 248 244 8 248 244 5 250 248 8 248 244 8 248 244 8 248 244 8 248 244 8 248 244 8 248 244 8 248 244 8 248 244 8 248 244 8 248 244 5 250 248 5 250 248 8 248 244 5 250 248 8 248 244 5 250 248 5 250 248 8 248 244 5 250 248 5 250 248 5 250 248 5 250 248 5 250 248 8 248 244 5 250 248 5 250 248 5 250 248 5 250 248 8 248 244 
5 250 248 5 250 248 5 250 248 5 250 248 8 248 244 5 250 248 5 250 248 5 250 248 5 250 248 5 250 248 5 250 248 5 250 248 5 250 248 5 250 248 5 250 248 5 250 248 5 250 248 5 250 248 5 250 248 5 250 248 5 250 248 8 248 244 5 250 248 5 250 248 5 250 248 5 250 248 5 250 248 5 250 248 5 250 248 8 248 244 8 248 244 5 250 248 5 250 248 8 248 244 5 250 248 5 250 248 5 250 248 5 250 248 8 248 244 5 250 248 5 250 248 8 248 244 8 248 244 8 248 244 8 248 244 8 248 244 5 250 248 5 250 248 5 250 248 5 250 248 5 250 248 5 250 248 8 248 244 5 250 248 8 248 244 5 250 248 8 248 244 8 248 244 5 250 248 8 248 244 8 248 244 8 248 244 8 248 244 5 250 248 8 248 244 8 248 244 8 248 244 8 248 244 5 250 248 8 248 244 8 248 244 8 248 244 5 250 248 5 250 248 5 250 248 8 248 244 5 250 248 5 250 248 8 248 244 5 250 248 5 250 248 5 250 248 5 250 248 5 250 248 5 250 248 8 248 244 5 250 248 8 248 244 5 250 248 5 250 248 8 248 244 5 250 248 5 250 248 5 250 248 5 250 248 5 250 248 5 250 248 5 250 248 5 250 248 5 250 248 5 250 248 5 250 248 5 250 248 8 248 244 5 250 248 5 250 248 8 248 244 5 250 248 5 250 248 8 248 244 5 250 248 8 248 244 8 248 244 5 250 248 8 248 244 5 250 248 5 250 248 8 248 244 8 248 244 8 248 244 8 248 244 5 250 248 8 248 244 8 248 244 5 250 248 5 250 248 5 250 248 5 250 248 5 250 248 5 250 248 8 248 244 5 250 248 5 250 248 8 248 244 8 248 244 8 248 244 8 248 244 8 248 244 5 250 248 8 248 244 8 248 244 5 250 248 5 250 248 8 248 244 8 248 244 8 248 244 11 246 241 8 248 244 8 248 244 8 248 244 8 248 244 8 248 244 5 250 248 5 250 248 5 250 248 8 248 244 8 248 244 5 250 248 5 250 248 5 250 248 8 248 244 5 250 248 8 248 244 8 248 244 8 248 244 8 248 244 5 250 248 5 250 248 8 248 244 8 248 244 8 248 244 5 250 248 5 250 248 5 250 248 8 248 244 8 248 244 8 248 244 8 248 244 5 250 248 5 250 248 5 250 248 8 248 244 8 248 244 5 250 248 8 248 244 5 250 248 8 248 244 5 250 248 5 250 248 5 250 248 5 250 248 5 250 248 8 248 244 8 248 244 8 248 244 8 248 244 5 250 248 8 248 244 8 248 244 8 248 244 5 250 248 5 250 248 8 248 244 8 248 244 8 248 244 5 250 248 5 250 248 8 248 244 5 250 248 5 250 248 5 250 248 5 250 248 8 248 244 8 248 244 5 250 248 5 250 248 5 250 248 5 250 248 5 250 248 8 248 244 
5 250 248 5 250 248 5 250 248 5 250 248 8 248 244 5 250 248 5 250 248 5 250 248 5 250 248 5 250 248 5 250 248 5 250 248 5 250 248 5 250 248 5 250 248 5 250 248 5 250 248 5 250 248 5 250 248 5 250 248 5 250 248 8 248 244 5 250 248 5 250 248 5 250 248 5 250 248 5 250 248 5 250 248 5 250 248 8 248 244 8 248 244 5 250 248 5 250 248 8 248 244 5 250 248 5 250 248 5 250 248 5 250 248 8 248 244 5 250 248 5 250 248 8 248 244 8 248 244 8 248 244 8 248 244 8 248 244 5 250 248 5 250 248 5 250 248 5 250 248 5 250 248 5 250 248 8 248 244 5 250 248 8 248 244 5 250 248 8 248 244 8 248 244 5 250 248 8 248 244 8 248 244 8 248 244 8 248 244 5 250 248 8 248 244 8 248 244 8 248 244 8 248 244 5 250 248 8 248 244 8 248 244 8 248 244 5 250 248 5 250 248 5 250 248 8 248 244 5 250 248 5 250 248 8 248 244 5 250 248 5 250 248 5 250 248 5 250 248 5 250 248 5 250 248 8 248 244 5 250 248 8 248 244 5 250 248 5 250 248 8 248 244 5 250 248 5 250 248 5 250 248 5 250 248 5 250 248 5 250 248 5 250 248 5 250 248 5 250 248 5 250 248 5 250 248 5 250 248 8 248 244 5 250 248 5 250 248 8 248 244 5 250 248 5 250 248 8 248 244 5 250 248 8 248 244 8 248 244 5 250 248 8 248 244 5 250 248 5 250 248 8 248 244 8 248 244 8 248 244 8 248 244 5 250 248 8 248 244 8 248 244 5 250 248 5 250 248 5 250 248 5 250 248 5 250 248 5 250 248 8 248 244 5 250 248 5 250 248 8 248 244 8 248 244 8 248 244 8 248 244 8 248 244 5 250 248 8 248 244 8 248 244 5 250 248 5 250 248 8 248 244 8 248 244 8 248 244 11 246 241 8 248 244 8 248 244 8 248 244 8 248 244 8 248 244 5 250 248 5 250 248 5 250 248 8 248 244 8 248 244 5 250 248 5 250 248 5 250 248 8 248 244 5 250 248 8 248 244 8 248 244 8 248 244 8 248 244 5 250 248 5 250 248 8 248 244 8 248 244 8 248 244 5 250 248 5 250 248 5 250 248 8 248 244 8 248 244 8 248 244 8 248 244 5 250 248 5 250 248 5 250 248 8 248 244 8 248 244 5 250 248 8 248 244 5 250 248 8 248 244 5 250 248 5 250 248 5 250 248 5 250 248 5 250 248 8 248 244 8 248 244 8 248 244 8 248 244 5 250 248 8 248 244 8 248 244 8 248 244 5 250 248 5 250 248 8 248 244 8 248 244 8 248 244 5 250 248 5 250 248 8 248 244 5 250 248 5 250 248 5 250 248 5 250 248 8 248 244 8 248 244 5 250 248 5 250 248 5 250 248 5 250 248 5 250 248 8 248 244 
5 250 248 5 250 248 5 250 248 5 250 248 5 250 248 5 250 248 8 248 244 5 250 248 5 250 248 5 250 248 5 250 248 8 248 244 5 250 248 5 250 248 5 250 248 5 250 248 5 250 248 5 250 248 5 250 248 5 250 248 8 248 244 5 250 248 5 250 248 5 250 248 5 250 248 5 250 248 5 250 248 8 248 244 5 250 248 5 250 248 5 250 248 8 248 244 8 248 244 5 250 248 8 248 244 8 248 244 5 250 248 5 250 248 8 248 244 8 248 244 5 250 248 8 248 244 8 248 244 8 248 244 5 250 248 5 250 248 8 248 244 8 248 244 5 250 248 5 250 248 8 248 244 5 250 248 8 248 244 5 250 248 5 250 248 8 248 244 5 250 248 8 248 244 8 248 244 8 248 244 8 248 244 8 248 244 5 250 248 8 248 244 8 248 244 8 248 244 8 248 244 8 248 244 5 250 248 8 248 244 8 248 244 5 250 248 5 250 248 5 250 248 8 248 244 5 250 248 5 250 248 5 250 248 5 250 248 5 250 248 5 250 248 5 250 248 5 250 248 5 250 248 8 248 244 5 250 248 5 250 248 5 250 248 8 248 244 8 248 244 5 250 248 8 248 244 5 250 248 5 250 248 8 248 244 11 246 241 17 242 234 20 239 230 23 237 227 23 237 227 23 237 227 26 235 223 44 222 202 61 209 181 82 194 157 93 186 143 102 179 132 105 177 129 32 231 216 8 248 244 5 250 248 17 242 234 55 214 188 52 216 192 46 220 199 41 224 206 35 229 213 23 237 227 17 242 234 14 244 237 14 244 237 14 244 237 14 244 237 11 246 241 11 246 241 8 248 244 5 250 248 8 248 244 5 250 248 5 250 248 8 248 244 8 248 244 5 250 248 8 248 244 8 248 244 5 250 248 8 248 244 8 248 244 8 248 244 5 250 248 5 250 248 5 250 248 8 248 244 8 248 244 8 248 244 8 248 244 8 248 244 8 248 244 8 248 244 8 248 244 8 248 244 8 248 244 8 248 244 8 248 244 5 250 248 8 248 244 5 250 248 5 250 248 8 248 244 8 248 244 5 250 248 8 248 244 8 248 244 8 248 244 5 250 248 8 248 244 8 248 244 8 248 244 8 248 244 8 248 244 5 250 248 8 248 244 11 246 241 5 250 248 5 250 248 5 250 248 5 250 248 5 250 248 8 248 244 8 248 244 8 248 244 8 248 244 5 250 248 8 248 244 8 248 244 8 248 244 8 248 244 8 248 244 5 250 248 8 248 244 5 250 248 5 250 248 5 250 248 5 250 248 5 250 248 5 250 248 5 250 248 5 250 248 5 250 248 5 250 248 8 248 244 5 250 248 8 248 244 8 248 244 8 248 244 8 248 244 8 248 244 8 248 244 5 250 248 8 248 244 8 248 244 5 250 248 5 250 248 8 248 244 5 250 248 5 250 248 5 250 248 8 248 244 8 248 244 8 248 244 
5 250 248 5 250 248 5 250 248 5 250 248 5 250 248 5 250 248 8 248 244 5 250 248 5 250 248 5 250 248 5 250 248 8 248 244 5 250 248 5 250 248 5 250 248 5 250 248 5 250 248 5 250 248 5 250 248 5 250 248 8 248 244 5 250 248 5 250 248 5 250 248 5 250 248 5 250 248 5 250 248 8 248 244 5 250 248 5 250 248 5 250 248 8 248 244 8 248 244 5 250 248 8 248 244 8 248 244 5 250 248 5 250 248 8 248 244 8 248 244 5 250 248 8 248 244 8 248 244 8 248 244 5 250 248 5 250 248 8 248 244 8 248 244 5 250 248 5 250 248 8 248 244 5 250 248 8 248 244 5 250 248 5 250 248 8 248 244 5 250 248 8 248 244 8 248 244 8 248 244 8 248 244 8 248 244 5 250 248 8 248 244 8 248 244 8 248 244 8 248 244 8 248 244 5 250 248 8 248 244 8 248 244 5 250 248 5 250 248 5 250 248 8 248 244 5 250 248 5 250 248 5 250 248 5 250 248 5 250 248 5 250 248 5 250 248 5 250 248 5 250 248 8 248 244 5 250 248 5 250 248 5 250 248 8 248 244 8 248 244 5 250 248 8 248 244 5 250 248 5 250 248 8 248 244 11 246 241 17 242 234 20 239 230 23 237 227 23 237 227 23 237 227 26 235 223 44 222 202 61 209 181 82 194 157 93 186 143 102 179 132 105 177 129 32 231 216 8 248 244 5 250 248 17 242 234 55 214 188 52 216 192 46 220 199 41 224 206 35 229 213 23 237 227 17 242 234 14 244 237 14 244 237 14 244 237 14 244 237 11 246 241 11 246 241 8 248 244 5 250 248 8 248 244 5 250 248 5 250 248 8 248 244 8 248 244 5 250 248 8 248 244 8 248 244 5 250 248 8 248 244 8 248 244 8 248 244 5 250 248 5 250 248 5 250 248 8 248 244 8 248 244 8 248 244 8 248 244 8 248 244 8 248 244 8 248 244 8 248 244 8 248 244 8 248 244 8 248 244 8 248 244 5 250 248 8 248 244 5 250 248 5 250 248 8 248 244 8 248 244 5 250 248 8 248 244 8 248 244 8 248 244 5 250 248 8 248 244 8 248 244 8 248 244 8 248 244 8 248 244 5 250 248 8 248 244 11 246 241 5 250 248 5 250 248 5 250 248 5 250 248 5 250 248 8 248 244 8 248 244 8 248 244 8 248 244 5 250 248 8 248 244 8 248 244 8 248 244 8 248 244 8 248 244 5 250 248 8 248 244 5 250 248 5 250 248 5 250 248 5 250 248 5 250 248 5 250 248 5 250 248 5 250 248 5 250 248 5 250 248 8 248 244 5 250 248 8 248 244 8 248 244 8 248 244 8 248 244 8 248 244 8 248 244 5 250 248 8 248 244 8 248 244 5 250 248 5 250 248 8 248 244 5 250 248 5 250 248 5 250 248 8 248 244 8 248 244 8 248 244 
8 248 244 5 250 248 5 250 248 5 250 248 5 250 248 5 250 248 5 250 248 5 250 248 5 250 248 5 250 248 5 250 248 5 250 248 5 250 248 5 250 248 5 250 248 5 250 248 5 250 248 5 250 248 8 248 244 8 248 244 5 250 248 8 248 244 8 248 244 5 250 248 5 250 248 5 250 248 8 248 244 5 250 248 5 250 248 5 250 248 5 250 248 5 250 248 5 250 248 5 250 248 5 250 248 5 250 248 5 250 248 5 250 248 8 248 244 5 250 248 5 250 248 8 248 244 5 250 248 8 248 244 8 248 244 8 248 244 8 248 244 8 248 244 8 248 244 8 248 244 5 250 248 5 250 248 5 250 248 5 250 248 5 250 248 8 248 244 8 248 244 8 248 244 5 250 248 8 248 244 5 250 248 8 248 244 5 250 248 5 250 248 5 250 248 5 250 248 5 250 248 8 248 244 8 248 244 5 250 248 5 250 248 5 250 248 5 250 248 8 248 244 5 250 248 5 250 248 5 250 248 8 248 244 5 250 248 5 250 248 5 250 248 8 248 244 8 248 244 8 248 244 5 250 248 8 248 244 11 246 241 20 239 230 35 229 213 35 229 213 49 218 195 82 194 157 108 175 125 108 175 125 108 175 125 108 175 125 108 175 125 108 175 125 114 171 118 114 171 118 114 171 118 108 175 125 114 171 118 114 171 118 114 171 118 114 171 118 114 171 118 117 169 115 35 229 213 8 248 244 8 248 244 17 242 234 52 216 192 52 216 192 52 216 192 52 216 192 55 214 188 55 214 188 55 214 188 52 216 192 55 214 188 55 214 188 52 216 192 55 214 188 55 214 188 55 214 188 58 212 185 55 214 188 46 220 199 32 231 216 20 239 230 17 242 234 14 244 237 8 248 244 8 248 244 8 248 244 8 248 244 8 248 244 8 248 244 8 248 244 8 248 244 8 248 244 8 248 244 8 248 244 8 248 244 8 248 244 5 250 248 5 250 248 8 248 244 8 248 244 8 248 244 8 248 244 5 250 248 5 250 248 5 250 248 5 250 248 5 250 248 5 250 248 5 250 248 8 248 244 5 250 248 8 248 244 8 248 244 8 248 244 8 248 244 11 246 241 8 248 244 8 248 244 8 248 244 8 248 244 8 248 244 5 250 248 8 248 244 8 248 244 5 250 248 5 250 248 8 248 244 8 248 244 8 248 244 8 248 244 8 248 244 8 248 244 5 250 248 5 250 248 5 250 248 5 250 248 5 250 248 5 250 248 5 250 248 8 248 244 8 248 244 5 250 248 5 250 248 5 250 248 8 248 244 5 250 248 5 250 248 5 250 248 5 250 248 5 250 248 8 248 244 5 250 248 5 250 248 5 250 248 8 248 244 8 248 244 5 250 248 5 250 248 8 248 244 5 250 248 8 248 244 8 248 244 8 248 244 8 248 244 5 250 248 5 250 248 5 250 248 5 250 248 5 250 248 5 250 248 
8 248 244 5 250 248 5 250 248 5 250 248 5 250 248 5 250 248 5 250 248 5 250 248 5 250 248 5 250 248 5 250 248 5 250 248 5 250 248 5 250 248 5 250 248 5 250 248 5 250 248 5 250 248 8 248 244 8 248 244 5 250 248 8 248 244 8 248 244 5 250 248 5 250 248 5 250 248 8 248 244 5 250 248 5 250 248 5 250 248 5 250 248 5 250 248 5 250 248 5 250 248 5 250 248 5 250 248 5 250 248 5 250 248 8 248 244 5 250 248 5 250 248 8 248 244 5 250 248 8 248 244 8 248 244 8 248 244 8 248 244 8 248 244 8 248 244 8 248 244 5 250 248 5 250 248 5 250 248 5 250 248 5 250 248 8 248 244 8 248 244 8 248 244 5 250 248 8 248 244 5 250 248 8 248 244 5 250 248 5 250 248 5 250 248 5 250 248 5 250 248 8 248 244 8 248 244 5 250 248 5 250 248 5 250 248 5 250 248 8 248 244 5 250 248 5 250 248 5 250 248 8 248 244 5 250 248 5 250 248 5 250 248 8 248 244 8 248 244 8 248 244 5 250 248 8 248 244 11 246 241 20 239 230 35 229 213 35 229 213 49 218 195 82 194 157 108 175 125 108 175 125 108 175 125 108 175 125 108 175 125 108 175 125 114 171 118 114 171 118 114 171 118 108 175 125 114 171 118 114 171 118 114 171 118 114 171 118 114 171 118 117 169 115 35 229 213 8 248 244 8 248 244 17 242 234 52 216 192 52 216 192 52 216 192 52 216 192 55 214 188 55 214 188 55 214 188 52 216 192 55 214 188 55 214 188 52 216 192 55 214 188 55 214 188 55 214 188 58 212 185 55 214 188 46 220 199 32 231 216 20 239 230 17 242 234 14 244 237 8 248 244 8 248 244 8 248 244 8 248 244 8 248 244 8 248 244 8 248 244 8 248 244 8 248 244 8 248 244 8 248 244 8 248 244 8 248 244 5 250 248 5 250 248 8 248 244 8 248 244 8 248 244 8 248 244 5 250 248 5 250 248 5 250 248 5 250 248 5 250 248 5 250 248 5 250 248 8 248 244 5 250 248 8 248 244 8 248 244 8 248 244 8 248 244 11 246 241 8 248 244 8 248 244 8 248 244 8 248 244 8 248 244 5 250 248 8 248 244 8 248 244 5 250 248 5 250 248 8 248 244 8 248 244 8 248 244 8 248 244 8 248 244 8 248 244 5 250 248 5 250 248 5 250 248 5 250 248 5 250 248 5 250 248 5 250 248 8 248 244 8 248 244 5 250 248 5 250 248 5 250 248 8 248 244 5 250 248 5 250 248 5 250 248 5 250 248 5 250 248 8 248 244 5 250 248 5 250 248 5 250 248 8 248 244 8 248 244 5 250 248 5 250 248 8 248 244 5 250 248 8 248 244 8 248 244 8 248 244 8 248 244 5 250 248 5 250 248 5 250 248 5 250 248 5 250 248 5 250 248 
5 250 248 5 250 248 5 250 248 5 250 248 8 248 244 5 250 248 5 250 248 5 250 248 5 250 248 8 248 244 5 250 248 5 250 248 5 250 248 5 250 248 5 250 248 5 250 248 5 250 248 5 250 248 5 250 248 5 250 248 5 250 248 5 250 248 5 250 248 5 250 248 5 250 248 8 248 244 5 250 248 5 250 248 5 250 248 5 250 248 5 250 248 5 250 248 5 250 248 5 250 248 5 250 248 5 250 248 5 250 248 5 250 248 8 248 244 8 248 244 8 248 244 5 250 248 5 250 248 5 250 248 5 250 248 5 250 248 8 248 244 8 248 244 8 248 244 8 248 244 8 248 244 8 248 244 5 250 248 11 246 241 8 248 244 11 246 241 5 250 248 8 248 244 5 250 248 8 248 244 8 248 244 5 250 248 5 250 248 5 250 248 5 250 248 5 250 248 5 250 248 5 250 248 5 250 248 5 250 248 5 250 248 5 250 248 8 248 244 5 250 248 8 248 244 8 248 244 8 248 244 5 250 248 5 250 248 5 250 248 11 246 241 35 229 213 44 222 202 58 212 185 96 184 139 108 175 125 102 179 132 105 177 129 105 177 129 105 177 129 108 175 125 108 175 125 108 175 125 108 175 125 108 175 125 108 175 125 108 175 125 108 175 125 114 171 118 114 171 118 114 171 118 114 171 118 114 171 118 114 171 118 114 171 118 114 171 118 114 171 118 117 169 115 35 229 213 8 248 244 8 248 244 17 242 234 52 216 192 52 216 192 55 214 188 55 214 188 55 214 188 52 216 192 55 214 188 55 214 188 55 214 188 55 214 188 55 214 188 55 214 188 55 214 188 55 214 188 55 214 188 55 214 188 55 214 188 55 214 188 55 214 188 55 214 188 55 214 188 55 214 188 55 214 188 49 218 195 35 229 213 23 237 227 20 239 230 11 246 241 8 248 244 8 248 244 8 248 244 8 248 244 8 248 244 8 248 244 8 248 244 8 248 244 5 250 248 5 250 248 5 250 248 8 248 244 5 250 248 5 250 248 5 250 248 8 248 244 8 248 244 5 250 248 5 250 248 5 250 248 5 250 248 5 250 248 5 250 248 5 250 248 5 250 248 8 248 244 5 250 248 8 248 244 8 248 244 8 248 244 8 248 244 8 248 244 8 248 244 8 248 244 8 248 244 8 248 244 8 248 244 8 248 244 8 248 244 8 248 244 5 250 248 5 250 248 5 250 248 8 248 244 5 250 248 5 250 248 5 250 248 5 250 248 5 250 248 8 248 244 5 250 248 5 250 248 5 250 248 5 250 248 5 250 248 8 248 244 8 248 244 5 250 248 5 250 248 8 248 244 5 250 248 8 248 244 5 250 248 5 250 248 5 250 248 5 250 248 5 250 248 5 250 248 5 250 248 5 250 248 8 248 244 8 248 244 8 248 244 5 250 248 5 250 248 5 250 248 5 250 248 8 248 244 5 250 248 5 250 248 
5 250 248 5 250 248 5 250 248 5 250 248 8 248 244 5 250 248 5 250 248 5 250 248 5 250 248 8 248 244 5 250 248 5 250 248 5 250 248 5 250 248 5 250 248 5 250 248 5 250 248 5 250 248 5 250 248 5 250 248 5 250 248 5 250 248 5 250 248 5 250 248 5 250 248 8 248 244 5 250 248 5 250 248 5 250 248 5 250 248 5 250 248 5 250 248 5 250 248 5 250 248 5 250 248 5 250 248 5 250 248 5 250 248 8 248 244 8 248 244 8 248 244 5 250 248 5 250 248 5 250 248 5 250 248 5 250 248 8 248 244 8 248 244 8 248 244 8 248 244 8 248 244 8 248 244 5 250 248 11 246 241 8 248 244 11 246 241 5 250 248 8 248 244 5 250 248 8 248 244 8 248 244 5 250 248 5 250 248 5 250 248 5 250 248 5 250 248 5 250 248 5 250 248 5 250 248 5 250 248 5 250 248 5 250 248 8 248 244 5 250 248 8 248 244 8 248 244 8 248 244 5 250 248 5 250 248 5 250 248 11 246 241 35 229 213 44 222 202 58 212 185 96 184 139 108 175 125 102 179 132 105 177 129 105 177 129 105 177 129 108 175 125 108 175 125 108 175 125 108 175 125 108 175 125 108 175 125 108 175 125 108 175 125 114 171 118 114 171 118 114 171 118 114 171 118 114 171 118 114 171 118 114 171 118 114 171 118 114 171 118 117 169 115 35 229 213 8 248 244 8 248 244 17 242 234 52 216 192 52 216 192 55 214 188 55 214 188 55 214 188 52 216 192 55 214 188 55 214 188 55 214 188 55 214 188 55 214 188 55 214 188 55 214 188 55 214 188 55 214 188 55 214 188 55 214 188 55 214 188 55 214 188 55 214 188 55 214 188 55 214 188 55 214 188 49 218 195 35 229 213 23 237 227 20 239 230 11 246 241 8 248 244 8 248 244 8 248 244 8 248 244 8 248 244 8 248 244 8 248 244 8 248 244 5 250 248 5 250 248 5 250 248 8 248 244 5 250 248 5 250 248 5 250 248 8 248 244 8 248 244 5 250 248 5 250 248 5 250 248 5 250 248 5 250 248 5 250 248 5 250 248 5 250 248 8 248 244 5 250 248 8 248 244 8 248 244 8 248 244 8 248 244 8 248 244 8 248 244 8 248 244 8 248 244 8 248 244 8 248 244 8 248 244 8 248 244 8 248 244 5 250 248 5 250 248 5 250 248 8 248 244 5 250 248 5 250 248 5 250 248 5 250 248 5 250 248 8 248 244 5 250 248 5 250 248 5 250 248 5 250 248 5 250 248 8 248 244 8 248 244 5 250 248 5 250 248 8 248 244 5 250 248 8 248 244 5 250 248 5 250 248 5 250 248 5 250 248 5 250 248 5 250 248 5 250 248 5 250 248 8 248 244 8 248 244 8 248 244 5 250 248 5 250 248 5 250 248 5 250 248 8 248 244 5 250 248 5 250 248 
5 250 248 5 250 248 5 250 248 5 250 248 8 248 244 8 248 244 8 248 244 5 250 248 5 250 248 5 250 248 5 250 248 5 250 248 5 250 248 5 250 248 5 250 248 5 250 248 5 250 248 5 250 248 5 250 248 5 250 248 5 250 248 5 250 248 5 250 248 5 250 248 5 250 248 5 250 248 5 250 248 5 250 248 5 250 248 5 250 248 8 248 244 8 248 244 5 250 248 5 250 248 5 250 248 5 250 248 5 250 248 8 248 244 8 248 244 5 250 248 5 250 248 8 248 244 5 250 248 5 250 248 8 248 244 8 248 244 8 248 244 8 248 244 8 248 244 8 248 244 5 250 248 5 250 248 5 250 248 5 250 248 5 250 248 8 248 244 8 248 244 8 248 244 5 250 248 5 250 248 5 250 248 5 250 248 5 250 248 8 248 244 5 250 248 5 250 248 5 250 248 8 248 244 5 250 248 8 248 244 8 248 244 8 248 244 8 248 244 8 248 244 8 248 244 17 242 234 44 222 202 55 214 188 85 192 153 105 177 129 105 177 129 105 177 129 105 177 129 105 177 129 108 175 125 108 175 125 108 175 125 108 175 125 108 175 125 108 175 125 108 175 125 108 175 125 114 171 118 108 175 125 108 175 125 114 171 118 108 175 125 114 171 118 114 171 118 108 175 125 114 171 118 114 171 118 114 171 118 114 171 118 114 171 118 114 171 118 114 171 118 117 169 115 35 229 213 8 248 244 8 248 244 17 242 234 52 216 192 52 216 192 55 214 188 55 214 188 55 214 188 52 216 192 52 216 192 52 216 192 55 214 188 55 214 188 55 214 188 55 214 188 55 214 188 55 214 188 55 214 188 55 214 188 55 214 188 55 214 188 55 214 188 55 214 188 55 214 188 55 214 188 55 214 188 55 214 188 55 214 188 58 212 185 55 214 188 55 214 188 55 214 188 46 220 199 35 229 213 26 235 223 11 246 241 8 248 244 5 250 248 5 250 248 5 250 248 5 250 248 8 248 244 8 248 244 8 248 244 5 250 248 5 250 248 5 250 248 5 250 248 5 250 248 5 250 248 5 250 248 5 250 248 8 248 244 8 248 244 5 250 248 5 250 248 5 250 248 8 248 244 8 248 244 8 248 244 8 248 244 8 248 244 8 248 244 8 248 244 5 250 248 5 250 248 8 248 244 8 248 244 8 248 244 8 248 244 5 250 248 5 250 248 5 250 248 5 250 248 8 248 244 8 248 244 8 248 244 8 248 244 5 250 248 5 250 248 8 248 244 8 248 244 8 248 244 8 248 244 8 248 244 5 250 248 8 248 244 5 250 248 5 250 248 5 250 248 5 250 248 5 250 248 5 250 248 5 250 248 8 248 244 8 248 244 5 250 248 5 250 248 5 250 248 8 248 244 8 248 244 8 248 244 8 248 244 5 250 248 5 250 248 5 250 248 5 250 248 5 250 248 5 250 248 5 250 248 5 250 248 
5 250 248 5 250 248 5 250 248 5 250 248 8 248 244 8 248 244 8 248 244 5 250 248 5 250 248 5 250 248 5 250 248 5 250 248 5 250 248 5 250 248 5 250 248 5 250 248 5 250 248 5 250 248 5 250 248 5 250 248 5 250 248 5 250 248 5 250 248 5 250 248 5 250 248 5 250 248 5 250 248 5 250 248 5 250 248 5 250 248 8 248 244 8 248 244 5 250 248 5 250 248 5 250 248 5 250 248 5 250 248 8 248 244 8 248 244 5 250 248 5 250 248 8 248 244 5 250 248 5 250 248 8 248 244 8 248 244 8 248 244 8 248 244 8 248 244 8 248 244 5 250 248 5 250 248 5 250 248 5 250 248 5 250 248 8 248 244 8 248 244 8 248 244 5 250 248 5 250 248 5 250 248 5 250 248 5 250 248 8 248 244 5 250 248 5 250 248 5 250 248 8 248 244 5 250 248 8 248 244 8 248 244 8 248 244 8 248 244 8 248 244 8 248 244 17 242 234 44 222 202 55 214 188 85 192 153 105 177 129 105 177 129 105 177 129 105 177 129 105 177 129 108 175 125 108 175 125 108 175 125 108 175 125 108 175 125 108 175 125 108 175 125 108 175 125 114 171 118 108 175 125 108 175 125 114 171 118 108 175 125 114 171 118 114 171 118 108 175 125 114 171 118 114 171 118 114 171 118 114 171 118 114 171 118 114 171 118 114 171 118 117 169 115 35 229 213 8 248 244 8 248 244 17 242 234 52 216 192 52 216 192 55 214 188 55 214 188 55 214 188 52 216 192 52 216 192 52 216 192 55 214 188 55 214 188 55 214 188 55 214 188 55 214 188 55 214 188 55 214 188 55 214 188 55 214 188 55 214 188 55 214 188 55 214 188 55 214 188 55 214 188 55 214 188 55 214 188 55 214 188 58 212 185 55 214 188 55 214 188 55 214 188 46 220 199 35 229 213 26 235 223 11 246 241 8 248 244 5 250 248 5 250 248 5 250 248 5 250 248 8 248 244 8 248 244 8 248 244 5 250 248 5 250 248 5 250 248 5 250 248 5 250 248 5 250 248 5 250 248 5 250 248 8 248 244 8 248 244 5 250 248 5 250 248 5 250 248 8 248 244 8 248 244 8 248 244 8 248 244 8 248 244 8 248 244 8 248 244 5 250 248 5 250 248 8 248 244 8 248 244 8 248 244 8 248 244 5 250 248 5 250 248 5 250 248 5 250 248 8 248 244 8 248 244 8 248 244 8 248 244 5 250 248 5 250 248 8 248 244 8 248 244 8 248 244 8 248 244 8 248 244 5 250 248 8 248 244 5 250 248 5 250 248 5 250 248 5 250 248 5 250 248 5 250 248 5 250 248 8 248 244 8 248 244 5 250 248 5 250 248 5 250 248 8 248 244 8 248 244 8 248 244 8 248 244 5 250 248 5 250 248 5 250 248 5 250 248 5 250 248 5 250 248 5 250 248 5 250 248 
5 250 248 5 250 248 5 250 248 5 250 248 5 250 248 8 248 244 8 248 244 5 250 248 8 248 244 8 248 244 8 248 244 5 250 248 5 250 248 5 250 248 5 250 248 5 250 248 5 250 248 5 250 248 5 250 248 5 250 248 5 250 248 5 250 248 5 250 248 5 250 248 8 248 244 5 250 248 5 250 248 5 250 248 5 250 248 8 248 244 8 248 244 5 250 248 8 248 244 8 248 244 8 248 244 5 250 248 5 250 248 5 250 248 5 250 248 5 250 248 5 250 248 5 250 248 5 250 248 8 248 244 8 248 244 5 250 248 8 248 244 8 248 244 8 248 244 8 248 244 8 248 244 8 248 244 5 250 248 8 248 244 8 248 244 8 248 244 8 248 244 8 248 244 8 248 244 5 250 248 5 250 248 5 250 248 8 248 244 8 248 244 5 250 248 5 250 248 5 250 248 8 248 244 8 248 244 8 248 244 8 248 244 35 229 213 61 209 181 76 199 164 99 181 136 102 179 132 102 179 132 105 177 129 102 179 132 105 177 129 108 175 125 108 175 125 105 177 129 105 177 129 105 177 129 108 175 125 108 175 125 108 175 125 108 175 125 108 175 125 108 175 125 108 175 125 108 175 125 108 175 125 114 171 118 114 171 118 114 171 118 108 175 125 114 171 118 114 171 118 114 171 118 114 171 118 108 175 125 114 171 118 114 171 118 117 169 115 114 171 118 114 171 118 35 229 213 5 250 248 8 248 244 17 242 234 55 214 188 55 214 188 52 216 192 52 216 192 55 214 188 52 216 192 52 216 192 55 214 188 55 214 188 55 214 188 55 214 188 55 214 188 55 214 188 55 214 188 55 214 188 58 212 185 55 214 188 55 214 188 55 214 188 55 214 188 58 212 185 58 212 185 55 214 188 55 214 188 55 214 188 55 214 188 55 214 188 55 214 188 55 214 188 55 214 188 55 214 188 55 214 188 55 214 188 55 214 188 44 222 202 38 227 209 20 239 230 8 248 244 8 248 244 5 250 248 8 248 244 8 248 244 5 250 248 5 250 248 5 250 248 8 248 244 8 248 244 8 248 244 5 250 248 8 248 244 8 248 244 5 250 248 8 248 244 8 248 244 5 250 248 8 248 244 8 248 244 8 248 244 8 248 244 8 248 244 8 248 244 8 248 244 8 248 244 8 248 244 8 248 244 8 248 244 8 248 244 8 248 244 8 248 244 5 250 248 5 250 248 8 248 244 8 248 244 8 248 244 8 248 244 8 248 244 5 250 248 5 250 248 5 250 248 5 250 248 8 248 244 8 248 244 5 250 248 5 250 248 5 250 248 5 250 248 5 250 248 8 248 244 5 250 248 5 250 248 5 250 248 5 250 248 5 250 248 5 250 248 5 250 248 5 250 248 8 248 244 5 250 248 5 250 248 5 250 248 5 250 248 5 250 248 5 250 248 5 250 248 5 250 248 5 250 248 5 250 248 5 250 248 
5 250 248 5 250 248 5 250 248 5 250 248 5 250 248 8 248 244 8 248 244 5 250 248 8 248 244 8 248 244 8 248 244 5 250 248 5 250 248 5 250 248 5 250 248 5 250 248 5 250 248 5 250 248 5 250 248 5 250 248 5 250 248 5 250 248 5 250 248 5 250 248 8 248 244 5 250 248 5 250 248 5 250 248 5 250 248 8 248 244 8 248 244 5 250 248 8 248 244 8 248 244 8 248 244 5 250 248 5 250 248 5 250 248 5 250 248 5 250 248 5 250 248 5 250 248 5 250 248 8 248 244 8 248 244 5 250 248 8 248 244 8 248 244 8 248 244 8 248 244 8 248 244 8 248 244 5 250 248 8 248 244 8 248 244 8 248 244 8 248 244 8 248 244 8 248 244 5 250 248 5 250 248 5 250 248 8 248 244 8 248 244 5 250 248 5 250 248 5 250 248 8 248 244 8 248 244 8 248 244 8 248 244 35 229 213 61 209 181 76 199 164 99 181 136 102 179 132 102 179 132 105 177 129 102 179 132 105 177 129 108 175 125 108 175 125 105 177 129 105 177 129 105 177 129 108 175 125 108 175 125 108 175 125 108 175 125 108 175 125 108 175 125 108 175 125 108 175 125 108 175 125 114 171 118 114 171 118 114 171 118 108 175 125 114 171 118 114 171 118 114 171 118 114 171 118 108 175 125 114 171 118 114 171 118 117 169 115 114 171 118 114 171 118 35 229 213 5 250 248 8 248 244 17 242 234 55 214 188 55 214 188 52 216 192 52 216 192 55 214 188 52 216 192 52 216 192 55 214 188 55 214 188 55 214 188 55 214 188 55 214 188 55 214 188 55 214 188 55 214 188 58 212 185 55 214 188 55 214 188 55 214 188 55 214 188 58 212 185 58 212 185 55 214 188 55 214 188 55 214 188 55 214 188 55 214 188 55 214 188 55 214 188 55 214 188 55 214 188 55 214 188 55 214 188 55 214 188 44 222 202 38 227 209 20 239 230 8 248 244 8 248 244 5 250 248 8 248 244 8 248 244 5 250 248 5 250 248 5 250 248 8 248 244 8 248 244 8 248 244 5 250 248 8 248 244 8 248 244 5 250 248 8 248 244 8 248 244 5 250 248 8 248 244 8 248 244 8 248 244 8 248 244 8 248 244 8 248 244 8 248 244 8 248 244 8 248 244 8 248 244 8 248 244 8 248 244 8 248 244 8 248 244 5 250 248 5 250 248 8 248 244 8 248 244 8 248 244 8 248 244 8 248 244 5 250 248 5 250 248 5 250 248 5 250 248 8 248 244 8 248 244 5 250 248 5 250 248 5 250 248 5 250 248 5 250 248 8 248 244 5 250 248 5 250 248 5 250 248 5 250 248 5 250 248 5 250 248 5 250 248 5 250 248 8 248 244 5 250 248 5 250 248 5 250 248 5 250 248 5 250 248 5 250 248 5 250 248 5 250 248 5 250 248 5 250 248 5 250 248 
5 250 248 8 248 244 5 250 248 5 250 248 5 250 248 8 248 244 5 250 248 5 250 248 8 248 244 8 248 244 5 250 248 5 250 248 8 248 244 5 250 248 5 250 248 5 250 248 5 250 248 5 250 248 5 250 248 5 250 248 5 250 248 8 248 244 5 250 248 5 250 248 8 248 244 8 248 244 8 248 244 8 248 244 8 248 244 5 250 248 8 248 244 8 248 244 8 248 244 8 248 244 8 248 244 8 248 244 8 248 244 8 248 244 8 248 244 8 248 244 8 248 244 8 248 244 8 248 244 5 250 248 5 250 248 5 250 248 8 248 244 8 248 244 8 248 244 8 248 244 8 248 244 8 248 244 8 248 244 8 248 244 8 248 244 8 248 244 8 248 244 8 248 244 5 250 248 5 250 248 8 248 244 5 250 248 8 248 244 8 248 244 8 248 244 8 248 244 8 248 244 23 237 227 73 201 167 88 190 150 99 181 136 99 181 136 105 177 129 99 181 136 102 179 132 105 177 129 105 177 129 105 177 129 108 175 125 105 177 129 105 177 129 105 177 129 105 177 129 108 175 125 108 175 125 108 175 125 105 177 129 108 175 125 108 175 125 108 175 125 108 175 125 108 175 125 114 171 118 114 171 118 108 175 125 108 175 125 108 175 125 108 175 125 108 175 125 114 171 118 114 171 118 114 171 118 114 171 118 114 171 118 114 171 118 114 171 118 114 171 118 117 169 115 35 229 213 8 248 244 8 248 244 20 239 230 55 214 188 52 216 192 55 214 188 55 214 188 55 214 188 55 214 188 55 214 188 55 214 188 55 214 188 55 214 188 55 214 188 55 214 188 55 214 188 55 214 188 55 214 188 55 214 188 55 214 188 55 214 188 55 214 188 58 212 185 55 214 188 55 214 188 55 214 188 55 214 188 55 214 188 55 214 188 55 214 188 55 214 188 55 214 188 55 214 188 55 214 188 58 212 185 58 212 185 58 212 185 58 212 185 58 212 185 58 212 185 58 212 185 49 218 195 44 222 202 14 244 237 8 248 244 8 248 244 8 248 244 8 248 244 8 248 244 5 250 248 8 248 244 8 248 244 8 248 244 8 248 244 5 250 248 8 248 244 8 248 244 5 250 248 8 248 244 8 248 244 8 248 244 8 248 244 8 248 244 8 248 244 11 246 241 8 248 244 8 248 244 8 248 244 8 248 244 8 248 244 8 248 244 8 248 244 8 248 244 8 248 244 8 248 244 8 248 244 8 248 244 8 248 244 8 248 244 8 248 244 8 248 244 8 248 244 5 250 248 5 250 248 8 248 244 8 248 244 8 248 244 5 250 248 5 250 248 5 250 248 8 248 244 5 250 248 8 248 244 5 250 248 5 250 248 5 250 248 5 250 248 5 250 248 8 248 244 8 248 244 5 250 248 5 250 248 5 250 248 5 250 248 5 250 248 5 250 248 5 250 248 5 250 248 5 250 248 5 250 248 5 250 248 
5 250 248 8 248 244 5 250 248 5 250 248 5 250 248 8 248 244 5 250 248 5 250 248 8 248 244 8 248 244 5 250 248 5 250 248 8 248 244 5 250 248 5 250 248 5 250 248 5 250 248 5 250 248 5 250 248 5 250 248 5 250 248 8 248 244 5 250 248 5 250 248 8 248 244 8 248 244 8 248 244 8 248 244 8 248 244 5 250 248 8 248 244 8 248 244 8 248 244 8 248 244 8 248 244 8 248 244 8 248 244 8 248 244 8 248 244 8 248 244 8 248 244 8 248 244 8 248 244 5 250 248 5 250 248 5 250 248 8 248 244 8 248 244 8 248 244 8 248 244 8 248 244 8 248 244 8 248 244 8 248 244 8 248 244 8 248 244 8 248 244 8 248 244 5 250 248 5 250 248 8 248 244 5 250 248 8 248 244 8 248 244 8 248 244 8 248 244 8 248 244 23 237 227 73 201 167 88 190 150 99 181 136 99 181 136 105 177 129 99 181 136 102 179 132 105 177 129 105 177 129 105 177 129 108 175 125 105 177 129 105 177 129 105 177 129 105 177 129 108 175 125 108 175 125 108 175 125 105 177 129 108 175 125 108 175 125 108 175 125 108 175 125 108 175 125 114 171 118 114 171 118 108 175 125 108 175 125 108 175 125 108 175 125 108 175 125 114 171 118 114 171 118 114 171 118 114 171 118 114 171 118 114 171 118 114 171 118 114 171 118 117 169 115 35 229 213 8 248 244 8 248 244 20 239 230 55 214 188 52 216 192 55 214 188 55 214 188 55 214 188 55 214 188 55 214 188 55 214 188 55 214 188 55 214 188 55 214 188 55 214 188 55 214 188 55 214 188 55 214 188 55 214 188 55 214 188 55 214 188 55 214 188 58 212 185 55 214 188 55 214 188 55 214 188 55 214 188 55 214 188 55 214 188 55 214 188 55 214 188 55 214 188 55 214 188 55 214 188 58 212 185 58 212 185 58 212 185 58 212 185 58 212 185 58 212 185 58 212 185 49 218 195 44 222 202 14 244 237 8 248 244 8 248 244 8 248 244 8 248 244 8 248 244 5 250 248 8 248 244 8 248 244 8 248 244 8 248 244 5 250 248 8 248 244 8 248 244 5 250 248 8 248 244 8 248 244 8 248 244 8 248 244 8 248 244 8 248 244 11 246 241 8 248 244 8 248 244 8 248 244 8 248 244 8 248 244 8 248 244 8 248 244 8 248 244 8 248 244 8 248 244 8 248 244 8 248 244 8 248 244 8 248 244 8 248 244 8 248 244 8 248 244 5 250 248 5 250 248 8 248 244 8 248 244 8 248 244 5 250 248 5 250 248 5 250 248 8 248 244 5 250 248 8 248 244 5 250 248 5 250 248 5 250 248 5 250 248 5 250 248 8 248 244 8 248 244 5 250 248 5 250 248 5 250 248 5 250 248 5 250 248 5 250 248 5 250 248 5 250 248 5 250 248 5 250 248 5 250 248 
5 250 248 8 248 244 5 250 248 8 248 244 8 248 244 5 250 248 5 250 248 8 248 244 8 248 244 8 248 244 8 248 244 8 248 244 5 250 248 8 248 244 11 246 241 8 248 244 5 250 248 8 248 244 5 250 248 5 250 248 8 248 244 5 250 248 8 248 244 8 248 244 5 250 248 5 250 248 5 250 248 5 250 248 5 250 248 8 248 244 8 248 244 8 248 244 8 248 244 8 248 244 5 250 248 8 248 244 8 248 244 8 248 244 8 248 244 8 248 244 8 248 244 8 248 244 8 248 244 5 250 248 5 250 248 8 248 244 5 250 248 8 248 244 8 248 244 5 250 248 5 250 248 8 248 244 8 248 244 8 248 244 8 248 244 5 250 248 5 250 248 8 248 244 8 248 244 8 248 244 8 248 244 8 248 244 8 248 244 11 246 241 55 214 188 88 190 150 93 186 143 99 181 136 102 179 132 99 181 136 99 181 136 99 181 136 99 181 136 102 179 132 102 179 132 105 177 129 105 177 129 105 177 129 105 177 129 105 177 129 105 177 129 102 179 132 105 177 129 105 177 129 105 177 129 108 175 125 108 175 125 108 175 125 108 175 125 108 175 125 108 175 125 114 171 118 114 171 118 105 177 129 108 175 125 114 171 118 114 171 118 114 171 118 114 171 118 114 171 118 114 171 118 114 171 118 114 171 118 114 171 118 114 171 118 117 169 115 114 171 118 117 169 115 35 229 213 8 248 244 8 248 244 17 242 234 52 216 192 52 216 192 52 216 192 55 214 188 55 214 188 55 214 188 55 214 188 55 214 188 55 214 188 55 214 188 55 214 188 55 214 188 55 214 188 55 214 188 55 214 188 55 214 188 58 212 185 55 214 188 55 214 188 58 212 185 55 214 188 58 212 185 55 214 188 58 212 185 55 214 188 55 214 188 55 214 188 58 212 185 55 214 188 58 212 185 58 212 185 58 212 185 58 212 185 55 214 188 58 212 185 58 212 185 58 212 185 58 212 185 58 212 185 58 212 185 58 212 185 55 214 188 49 218 195 32 231 216 8 248 244 8 248 244 8 248 244 8 248 244 8 248 244 8 248 244 5 250 248 8 248 244 8 248 244 8 248 244 5 250 248 8 248 244 8 248 244 8 248 244 8 248 244 8 248 244 8 248 244 8 248 244 5 250 248 8 248 244 5 250 248 8 248 244 8 248 244 8 248 244 8 248 244 5 250 248 8 248 244 8 248 244 5 250 248 8 248 244 8 248 244 5 250 248 5 250 248 8 248 244 5 250 248 5 250 248 8 248 244 8 248 244 8 248 244 8 248 244 5 250 248 8 248 244 8 248 244 8 248 244 5 250 248 5 250 248 5 250 248 8 248 244 5 250 248 8 248 244 5 250 248 5 250 248 5 250 248 5 250 248 5 250 248 5 250 248 5 250 248 5 250 248 5 250 248 5 250 248 5 250 248 5 250 248 5 250 248 5 250 248 
5 250 248 8 248 244 5 250 248 8 248 244 8 248 244 5 250 248 5 250 248 8 248 244 8 248 244 8 248 244 8 248 244 8 248 244 5 250 248 8 248 244 11 246 241 8 248 244 5 250 248 8 248 244 5 250 248 5 250 248 8 248 244 5 250 248 8 248 244 8 248 244 5 250 248 5 250 248 5 250 248 5 250 248 5 250 248 8 248 244 8 248 244 8 248 244 8 248 244 8 248 244 5 250 248 8 248 244 8 248 244 8 248 244 8 248 244 8 248 244 8 248 244 8 248 244 8 248 244 5 250 248 5 250 248 8 248 244 5 250 248 8 248 244 8 248 244 5 250 248 5 250 248 8 248 244 8 248 244 8 248 244 8 248 244 5 250 248 5 250 248 8 248 244 8 248 244 8 248 244 8 248 244 8 248 244 8 248 244 11 246 241 55 214 188 88 190 150 93 186 143 99 181 136 102 179 132 99 181 136 99 181 136 99 181 136 99 181 136 102 179 132 102 179 132 105 177 129 105 177 129 105 177 129 105 177 129 105 177 129 105 177 129 102 179 132 105 177 129 105 177 129 105 177 129 108 175 125 108 175 125 108 175 125 108 175 125 108 175 125 108 175 125 114 171 118 114 171 118 105 177 129 108 175 125 114 171 118 114 171 118 114 171 118 114 171 118 114 171 118 114 171 118 114 171 118 114 171 118 114 171 118 114 171 118 117 169 115 114 171 118 117 169 115 35 229 213 8 248 244 8 248 244 17 242 234 52 216 192 52 216 192 52 216 192 55 214 188 55 214 188 55 214 188 55 214 188 55 214 188 55 214 188 55 214 188 55 214 188 55 214 188 55 214 188 55 214 188 55 214 188 55 214 188 58 212 185 55 214 188 55 214 188 58 212 185 55 214 188 58 212 185 55 214 188 58 212 185 55 214 188 55 214 188 55 214 188 58 212 185 55 214 188 58 212 185 58 212 185 58 212 185 58 212 185 55 214 188 58 212 185 58 212 185 58 212 185 58 212 185 58 212 185 58 212 185 58 212 185 55 214 188 49 218 195 32 231 216 8 248 244 8 248 244 8 248 244 8 248 244 8 248 244 8 248 244 5 250 248 8 248 244 8 248 244 8 248 244 5 250 248 8 248 244 8 248 244 8 248 244 8 248 244 8 248 244 8 248 244 8 248 244 5 250 248 8 248 244 5 250 248 8 248 244 8 248 244 8 248 244 8 248 244 5 250 248 8 248 244 8 248 244 5 250 248 8 248 244 8 248 244 5 250 248 5 250 248 8 248 244 5 250 248 5 250 248 8 248 244 8 248 244 8 248 244 8 248 244 5 250 248 8 248 244 8 248 244 8 248 244 5 250 248 5 250 248 5 250 248 8 248 244 5 250 248 8 248 244 5 250 248 5 250 248 5 250 248 5 250 248 5 250 248 5 250 248 5 250 248 5 250 248 5 250 248 5 250 248 5 250 248 5 250 248 5 250 248 5 250 248 
8 248 244 5 250 248 5 250 248 5 250 248 8 248 244 5 250 248 5 250 248 8 248 244 5 250 248 8 248 244 5 250 248 8 248 244 5 250 248 8 248 244 5 250 248 5 250 248 5 250 248 8 248 244 5 250 248 8 248 244 5 250 248 5 250 248 8 248 244 5 250 248 5 250 248 5 250 248 5 250 248 8 248 244 5 250 248 8 248 244 5 250 248 5 250 248 8 248 244 5 250 248 8 248 244 5 250 248 8 248 244 8 248 244 8 248 244 5 250 248 5 250 248 8 248 244 8 248 244 5 250 248 8 248 244 8 248 244 8 248 244 8 248 244 8 248 244 5 250 248 8 248 244 5 250 248 8 248 244 8 248 244 8 248 244 8 248 244 8 248 244 8 248 244 8 248 244 8 248 244 8 248 244 85 192 153 96 184 139 99 181 136 99 181 136 99 181 136 96 184 139 99 181 136 102 179 132 99 181 136 96 184 139 99 181 136 99 181 136 105 177 129 102 179 132 102 179 132 102 179 132 108 175 125 105 177 129 102 179 132 108 175 125 108 175 125 108 175 125 105 177 129 105 177 129 108 175 125 108 175 125 108 175 125 108 175 125 108 175 125 108 175 125 114 171 118 114 171 118 114 171 118 114 171 118 114 171 118 117 169 115 117 169 115 114 171 118 114 171 118 114 171 118 114 171 118 108 175 125 117 169 115 114 171 118 114 171 118 114 171 118 117 169 115 35 229 213 8 248 244 8 248 244 17 242 234 55 214 188 55 214 188 55 214 188 52 216 192 55 214 188 55 214 188 55 214 188 55 214 188 55 214 188 52 216 192 52 216 192 55 214 188 55 214 188 55 214 188 55 214 188 55 214 188 58 212 185 58 212 185 58 212 185 55 214 188 55 214 188 55 214 188 55 214 188 55 214 188 55 214 188 58 212 185 55 214 188 58 212 185 58 212 185 55 214 188 58 212 185 58 212 185 58 212 185 58 212 185 58 212 185 58 212 185 61 209 181 55 214 188 55 214 188 58 212 185 55 214 188 58 212 185 58 212 185 55 214 188 55 214 188 52 216 192 46 220 199 8 248 244 8 248 244 8 248 244 8 248 244 8 248 244 8 248 244 8 248 244 5 250 248 8 248 244 5 250 248 8 248 244 8 248 244 8 248 244 5 250 248 5 250 248 8 248 244 8 248 244 5 250 248 5 250 248 8 248 244 8 248 244 8 248 244 8 248 244 8 248 244 8 248 244 8 248 244 8 248 244 8 248 244 5 250 248 5 250 248 8 248 244 5 250 248 8 248 244 11 246 241 8 248 244 8 248 244 8 248 244 8 248 244 8 248 244 8 248 244 8 248 244 5 250 248 5 250 248 5 250 248 5 250 248 8 248 244 5 250 248 5 250 248 5 250 248 8 248 244 5 250 248 5 250 248 5 250 248 5 250 248 5 250 248 5 250 248 5 250 248 8 248 244 5 250 248 5 250 248 5 250 248 
8 248 244 5 250 248 5 250 248 5 250 248 8 248 244 5 250 248 5 250 248 8 248 244 5 250 248 8 248 244 5 250 248 8 248 244 5 250 248 8 248 244 5 250 248 5 250 248 5 250 248 8 248 244 5 250 248 8 248 244 5 250 248 5 250 248 8 248 244 5 250 248 5 250 248 5 250 248 5 250 248 8 248 244 5 250 248 8 248 244 5 250 248 5 250 248 8 248 244 5 250 248 8 248 244 5 250 248 8 248 244 8 248 244 8 248 244 5 250 248 5 250 248 8 248 244 8 248 244 5 250 248 8 248 244 8 248 244 8 248 244 8 248 244 8 248 244 5 250 248 8 248 244 5 250 248 8 248 244 8 248 244 8 248 244 8 248 244 8 248 244 8 248 244 8 248 244 8 248 244 8 248 244 85 192 153 96 184 139 99 181 136 99 181 136 99 181 136 96 184 139 99 181 136 102 179 132 99 181 136 96 184 139 99 181 136 99 181 136 105 177 129 102 179 132 102 179 132 102 179 132 108 175 125 105 177 129 102 179 132 108 175 125 108 175 125 108 175 125 105 177 129 105 177 129 108 175 125 108 175 125 108 175 125 108 175 125 108 175 125 108 175 125 114 171 118 114 171 118 114 171 118 114 171 118 114 171 118 117 169 115 117 169 115 114 171 118 114 171 118 114 171 118 114 171 118 108 175 125 117 169 115 114 171 118 114 171 118 114 171 118 117 169 115 35 229 213 8 248 244 8 248 244 17 242 234 55 214 188 55 214 188 55 214 188 52 216 192 55 214 188 55 214 188 55 214 188 55 214 188 55 214 188 52 216 192 52 216 192 55 214 188 55 214 188 55 214 188 55 214 188 55 214 188 58 212 185 58 212 185 58 212 185 55 214 188 55 214 188 55 214 188 55 214 188 55 214 188 55 214 188 58 212 185 55 214 188 58 212 185 58 212 185 55 214 188 58 212 185 58 212 185 58 212 185 58 212 185 58 212 185 58 212 185 61 209 181 55 214 188 55 214 188 58 212 185 55 214 188 58 212 185 58 212 185 55 214 188 55 214 188 52 216 192 46 220 199 8 248 244 8 248 244 8 248 244 8 248 244 8 248 244 8 248 244 8 248 244 5 250 248 8 248 244 5 250 248 8 248 244 8 248 244 8 248 244 5 250 248 5 250 248 8 248 244 8 248 244 5 250 248 5 250 248 8 248 244 8 248 244 8 248 244 8 248 244 8 248 244 8 248 244 8 248 244 8 248 244 8 248 244 5 250 248 5 250 248 8 248 244 5 250 248 8 248 244 11 246 241 8 248 244 8 248 244 8 248 244 8 248 244 8 248 244 8 248 244 8 248 244 5 250 248 5 250 248 5 250 248 5 250 248 8 248 244 5 250 248 5 250 248 5 250 248 8 248 244 5 250 248 5 250 248 5 250 248 5 250 248 5 250 248 5 250 248 5 250 248 8 248 244 5 250 248 5 250 248 5 250 248 
5 250 248 5 250 248 5 250 248 5 250 248 5 250 248 8 248 244 5 250 248 8 248 244 8 248 244 8 248 244 5 250 248 8 248 244 5 250 248 8 248 244 8 248 244 8 248 244 8 248 244 8 248 244 5 250 248 5 250 248 8 248 244 5 250 248 5 250 248 5 250 248 8 248 244 5 250 248 5 250 248 8 248 244 8 248 244 5 250 248 5 250 248 8 248 244 8 248 244 8 248 244 8 248 244 5 250 248 8 248 244 8 248 244 8 248 244 5 250 248 8 248 244 8 248 244 5 250 248 8 248 244 8 248 244 8 248 244 8 248 244 8 248 244 8 248 244 5 250 248 5 250 248 5 250 248 8 248 244 5 250 248 8 248 244 8 248 244 8 248 244 14 244 237 64 207 178 99 181 136 96 184 139 99 181 136 96 184 139 96 184 139 99 181 136 96 184 139 99 181 136 96 184 139 99 181 136 99 181 136 96 184 139 99 181 136 102 179 132 99 181 136 102 179 132 102 179 132 99 181 136 99 181 136 105 177 129 102 179 132 105 177 129 105 177 129 105 177 129 105 177 129 108 175 125 102 179 132 105 177 129 108 175 125 108 175 125 108 175 125 108 175 125 108 175 125 114 171 118 108 175 125 108 175 125 108 175 125 114 171 118 108 175 125 114 171 118 108 175 125 108 175 125 108 175 125 108 175 125 108 175 125 114 171 118 114 171 118 114 171 118 114 171 118 35 229 213 5 250 248 8 248 244 17 242 234 55 214 188 55 214 188 52 216 192 55 214 188 55 214 188 55 214 188 55 214 188 55 214 188 52 216 192 55 214 188 52 216 192 55 214 188 55 214 188 55 214 188 55 214 188 55 214 188 58 212 185 55 214 188 58 212 185 55 214 188 55 214 188 58 212 185 58 212 185 55 214 188 55 214 188 58 212 185 58 212 185 58 212 185 58 212 185 55 214 188 58 212 185 58 212 185 61 209 181 61 209 181 58 212 185 58 212 185 55 214 188 55 214 188 55 214 188 55 214 188 55 214 188 55 214 188 55 214 188 55 214 188 55 214 188 55 214 188 58 212 185 55 214 188 55 214 188 41 224 206 11 246 241 11 246 241 8 248 244 8 248 244 8 248 244 5 250 248 5 250 248 5 250 248 5 250 248 5 250 248 5 250 248 5 250 248 5 250 248 5 250 248 8 248 244 8 248 244 8 248 244 8 248 244 8 248 244 8 248 244 8 248 244 11 246 241 8 248 244 5 250 248 8 248 244 8 248 244 8 248 244 8 248 244 5 250 248 5 250 248 5 250 248 8 248 244 8 248 244 8 248 244 5 250 248 5 250 248 8 248 244 8 248 244 5 250 248 8 248 244 5 250 248 5 250 248 5 250 248 5 250 248 8 248 244 5 250 248 5 250 248 8 248 244 5 250 248 5 250 248 5 250 248 5 250 248 5 250 248 5 250 248 8 248 244 5 250 248 5 250 248 5 250 248 
5 250 248 5 250 248 5 250 248 5 250 248 5 250 248 8 248 244 5 250 248 8 248 244 8 248 244 8 248 244 5 250 248 8 248 244 5 250 248 8 248 244 8 248 244 8 248 244 8 248 244 8 248 244 5 250 248 5 250 248 8 248 244 5 250 248 5 250 248 5 250 248 8 248 244 5 250 248 5 250 248 8 248 244 8 248 244 5 250 248 5 250 248 8 248 244 8 248 244 8 248 244 8 248 244 5 250 248 8 248 244 8 248 244 8 248 244 5 250 248 8 248 244 8 248 244 5 250 248 8 248 244 8 248 244 8 248 244 8 248 244 8 248 244 8 248 244 5 250 248 5 250 248 5 250 248 8 248 244 5 250 248 8 248 244 8 248 244 8 248 244 14 244 237 64 207 178 99 181 136 96 184 139 99 181 136 96 184 139 96 184 139 99 181 136 96 184 139 99 181 136 96 184 139 99 181 136 99 181 136 96 184 139 99 181 136 102 179 132 99 181 136 102 179 132 102 179 132 99 181 136 99 181 136 105 177 129 102 179 132 105 177 129 105 177 129 105 177 129 105 177 129 108 175 125 102 179 132 105 177 129 108 175 125 108 175 125 108 175 125 108 175 125 108 175 125 114 171 118 108 175 125 108 175 125 108 175 125 114 171 118 108 175 125 114 171 118 108 175 125 108 175 125 108 175 125 108 175 125 108 175 125 114 171 118 114 171 118 114 171 118 114 171 118 35 229 213 5 250 248 8 248 244 17 242 234 55 214 188 55 214 188 52 216 192 55 214 188 55 214 188 55 214 188 55 214 188 55 214 188 52 216 192 55 214 188 52 216 192 55 214 188 55 214 188 55 214 188 55 214 188 55 214 188 58 212 185 55 214 188 58 212 185 55 214 188 55 214 188 58 212 185 58 212 185 55 214 188 55 214 188 58 212 185 58 212 185 58 212 185 58 212 185 55 214 188 58 212 185 58 212 185 61 209 181 61 209 181 58 212 185 58 212 185 55 214 188 55 214 188 55 214 188 55 214 188 55 214 188 55 214 188 55 214 188 55 214 188 55 214 188 55 214 188 58 212 185 55 214 188 55 214 188 41 224 206 11 246 241 11 246 241 8 248 244 8 248 244 8 248 244 5 250 248 5 250 248 5 250 248 5 250 248 5 250 248 5 250 248 5 250 248 5 250 248 5 250 248 8 248 244 8 248 244 8 248 244 8 248 244 8 248 244 8 248 244 8 248 244 11 246 241 8 248 244 5 250 248 8 248 244 8 248 244 8 248 244 8 248 244 5 250 248 5 250 248 5 250 248 8 248 244 8 248 244 8 248 244 5 250 248 5 250 248 8 248 244 8 248 244 5 250 248 8 248 244 5 250 248 5 250 248 5 250 248 5 250 248 8 248 244 5 250 248 5 250 248 8 248 244 5 250 248 5 250 248 5 250 248 5 250 248 5 250 248 5 250 248 8 248 244 5 250 248 5 250 248 5 250 248 
5 250 248 5 250 248 5 250 248 8 248 244 5 250 248 5 250 248 8 248 244 8 248 244 5 250 248 5 250 248 8 248 244 5 250 248 5 250 248 8 248 244 8 248 244 8 248 244 8 248 244 5 250 248 8 248 244 8 248 244 8 248 244 8 248 244 5 250 248 8 248 244 8 248 244 8 248 244 8 248 244 8 248 244 5 250 248 8 248 244 5 250 248 8 248 244 5 250 248 8 248 244 8 248 244 8 248 244 8 248 244 8 248 244 8 248 244 8 248 244 8 248 244 8 248 244 8 248 244 8 248 244 8 248 244 8 248 244 8 248 244 8 248 244 5 250 248 5 250 248 5 250 248 5 250 248 8 248 244 8 248 244 20 239 230 41 224 206 96 184 139 96 184 139 99 181 136 99 181 136 96 184 139 99 181 136 99 181 136 96 184 139 96 184 139 96 184 139 93 186 143 99 181 136 99 181 136 99 181 136 99 181 136 102 179 132 102 179 132 99 181 136 102 179 132 102 179 132 99 181 136 99 181 136 99 181 136 105 177 129 108 175 125 105 177 129 105 177 129 105 177 129 105 177 129 105 177 129 108 175 125 108 175 125 108 175 125 108 175 125 108 175 125 114 171 118 114 171 118 108 175 125 108 175 125 105 177 129 105 177 129 108 175 125 114 171 118 108 175 125 108 175 125 108 175 125 114 171 118 108 175 125 114 171 118 108 175 125 108 175 125 114 171 118 35 229 213 8 248 244 8 248 244 17 242 234 52 216 192 55 214 188 55 214 188 55 214 188 55 214 188 55 214 188 55 214 188 55 214 188 55 214 188 55 214 188 52 216 192 52 216 192 52 216 192 55 214 188 55 214 188 55 214 188 55 214 188 55 214 188 58 212 185 58 212 185 58 212 185 55 214 188 55 214 188 58 212 185 58 212 185 58 212 185 58 212 185 58 212 185 58 212 185 58 212 185 58 212 185 58 212 185 58 212 185 58 212 185 61 209 181 58 212 185 55 214 188 55 214 188 55 214 188 58 212 185 58 212 185 55 214 188 58 212 185 58 212 185 55 214 188 55 214 188 55 214 188 55 214 188 55 214 188 55 214 188 55 214 188 55 214 188 23 237 227 14 244 237 5 250 248 8 248 244 8 248 244 8 248 244 8 248 244 8 248 244 8 248 244 5 250 248 8 248 244 8 248 244 8 248 244 8 248 244 8 248 244 8 248 244 8 248 244 8 248 244 8 248 244 5 250 248 8 248 244 8 248 244 8 248 244 8 248 244 8 248 244 5 250 248 8 248 244 5 250 248 8 248 244 8 248 244 8 248 244 8 248 244 8 248 244 5 250 248 8 248 244 5 250 248 5 250 248 8 248 244 8 248 244 8 248 244 5 250 248 5 250 248 5 250 248 5 250 248 8 248 244 5 250 248 5 250 248 5 250 248 5 250 248 8 248 244 5 250 248 8 248 244 8 248 244 8 248 244 5 250 248 8 248 244 
5 250 248 5 250 248 5 250 248 8 248 244 5 250 248 5 250 248 8 248 244 8 248 244 5 250 248 5 250 248 8 248 244 5 250 248 5 250 248 8 248 244 8 248 244 8 248 244 8 248 244 5 250 248 8 248 244 8 248 244 8 248 244 8 248 244 5 250 248 8 248 244 8 248 244 8 248 244 8 248 244 8 248 244 5 250 248 8 248 244 5 250 248 8 248 244 5 250 248 8 248 244 8 248 244 8 248 244 8 248 244 8 248 244 8 248 244 8 248 244 8 248 244 8 248 244 8 248 244 8 248 244 8 248 244 8 248 244 8 248 244 8 248 244 5 250 248 5 250 248 5 250 248 5 250 248 8 248 244 8 248 244 20 239 230 41 224 206 96 184 139 96 184 139 99 181 136 99 181 136 96 184 139 99 181 136 99 181 136 96 184 139 96 184 139 96 184 139 93 186 143 99 181 136 99 181 136 99 181 136 99 181 136 102 179 132 102 179 132 99 181 136 102 179 132 102 179 132 99 181 136 99 181 136 99 181 136 105 177 129 108 175 125 105 177 129 105 177 129 105 177 129 105 177 129 105 177 129 108 175 125 108 175 125 108 175 125 108 175 125 108 175 125 114 171 118 114 171 118 108 175 125 108 175 125 105 177 129 105 177 129 108 175 125 114 171 118 108 175 125 108 175 125 108 175 125 114 171 118 108 175 125 114 171 118 108 175 125 108 175 125 114 171 118 35 229 213 8 248 244 8 248 244 17 242 234 52 216 192 55 214 188 55 214 188 55 214 188 55 214 188 55 214 188 55 214 188 55 214 188 55 214 188 55 214 188 52 216 192 52 216 192 52 216 192 55 214 188 55 214 188 55 214 188 55 214 188 55 214 188 58 212 185 58 212 185 58 212 185 55 214 188 55 214 188 58 212 185 58 212 185 58 212 185 58 212 185 58 212 185 58 212 185 58 212 185 58 212 185 58 212 185 58 212 185 58 212 185 61 209 181 58 212 185 55 214 188 55 214 188 55 214 188 58 212 185 58 212 185 55 214 188 58 212 185 58 212 185 55 214 188 55 214 188 55 214 188 55 214 188 55 214 188 55 214 188 55 214 188 55 214 188 23 237 227 14 244 237 5 250 248 8 248 244 8 248 244 8 248 244 8 248 244 8 248 244 8 248 244 5 250 248 8 248 244 8 248 244 8 248 244 8 248 244 8 248 244 8 248 244 8 248 244 8 248 244 8 248 244 5 250 248 8 248 244 8 248 244 8 248 244 8 248 244 8 248 244 5 250 248 8 248 244 5 250 248 8 248 244 8 248 244 8 248 244 8 248 244 8 248 244 5 250 248 8 248 244 5 250 248 5 250 248 8 248 244 8 248 244 8 248 244 5 250 248 5 250 248 5 250 248 5 250 248 8 248 244 5 250 248 5 250 248 5 250 248 5 250 248 8 248 244 5 250 248 8 248 244 8 248 244 8 248 244 5 250 248 8 248 244 
5 250 248 5 250 248 5 250 248 5 250 248 5 250 248 5 250 248 8 248 244 5 250 248 8 248 244 5 250 248 8 248 244 8 248 244 8 248 244 5 250 248 8 248 244 8 248 244 8 248 244 8 248 244 8 248 244 8 248 244 8 248 244 8 248 244 8 248 244 5 250 248 8 248 244 5 250 248 8 248 244 8 248 244 8 248 244 5 250 248 5 250 248 8 248 244 8 248 244 8 248 244 8 248 244 8 248 244 8 248 244 8 248 244 8 248 244 8 248 244 8 248 244 5 250 248 5 250 248 5 250 248 5 250 248 5 250 248 5 250 248 8 248 244 8 248 244 8 248 244 8 248 244 14 244 237 32 231 216 85 192 153 99 181 136 99 181 136 96 184 139 96 184 139 99 181 136 96 184 139 96 184 139 99 181 136 96 184 139 99 181 136 96 184 139 96 184 139 96 184 139 99 181 136 99 181 136 99 181 136 99 181 136 99 181 136 99 181 136 102 179 132 102 179 132 102 179 132 99 181 136 99 181 136 105 177 129 105 177 129 102 179 132 105 177 129 105 177 129 102 179 132 102 179 132 108 175 125 108 175 125 108 175 125 108 175 125 108 175 125 105 177 129 108 175 125 108 175 125 105 177 129 108 175 125 108 175 125 105 177 129 114 171 118 114 171 118 108 175 125 105 177 129 108 175 125 108 175 125 114 171 118 105 177 129 108 175 125 114 171 118 114 171 118 35 229 213 11 246 241 8 248 244 17 242 234 55 214 188 55 214 188 55 214 188 55 214 188 55 214 188 55 214 188 55 214 188 55 214 188 55 214 188 55 214 188 52 216 192 55 214 188 52 216 192 55 214 188 55 214 188 55 214 188 55 214 188 55 214 188 55 214 188 55 214 188 58 212 185 58 212 185 58 212 185 58 212 185 55 214 188 55 214 188 58 212 185 58 212 185 58 212 185 58 212 185 61 209 181 61 209 181 58 212 185 58 212 185 58 212 185 55 214 188 55 214 188 55 214 188 58 212 185 55 214 188 58 212 185 58 212 185 58 212 185 55 214 188 55 214 188 58 212 185 55 214 188 55 214 188 55 214 188 55 214 188 55 214 188 55 214 188 55 214 188 52 216 192 44 222 202 17 242 234 11 246 241 8 248 244 8 248 244 8 248 244 5 250 248 5 250 248 5 250 248 8 248 244 8 248 244 5 250 248 8 248 244 8 248 244 8 248 244 8 248 244 8 248 244 8 248 244 5 250 248 5 250 248 5 250 248 8 248 244 8 248 244 5 250 248 8 248 244 8 248 244 8 248 244 8 248 244 8 248 244 8 248 244 8 248 244 8 248 244 8 248 244 8 248 244 8 248 244 8 248 244 8 248 244 8 248 244 8 248 244 8 248 244 8 248 244 5 250 248 8 248 244 8 248 244 8 248 244 5 250 248 5 250 248 5 250 248 5 250 248 5 250 248 8 248 244 8 248 244 8 248 244 5 250 248 
5 250 248 5 250 248 5 250 248 5 250 248 5 250 248 5 250 248 8 248 244 5 250 248 8 248 244 5 250 248 8 248 244 8 248 244 8 248 244 5 250 248 8 248 244 8 248 244 8 248 244 8 248 244 8 248 244 8 248 244 8 248 244 8 248 244 8 248 244 5 250 248 8 248 244 5 250 248 8 248 244 8 248 244 8 248 244 5 250 248 5 250 248 8 248 244 8 248 244 8 248 244 8 248 244 8 248 244 8 248 244 8 248 244 8 248 244 8 248 244 8 248 244 5 250 248 5 250 248 5 250 248 5 250 248 5 250 248 5 250 248 8 248 244 8 248 244 8 248 244 8 248 244 14 244 237 32 231 216 85 192 153 99 181 136 99 181 136 96 184 139 96 184 139 99 181 136 96 184 139 96 184 139 99 181 136 96 184 139 99 181 136 96 184 139 96 184 139 96 184 139 99 181 136 99 181 136 99 181 136 99 181 136 99 181 136 99 181 136 102 179 132 102 179 132 102 179 132 99 181 136 99 181 136 105 177 129 105 177 129 102 179 132 105 177 129 105 177 129 102 179 132 102 179 132 108 175 125 108 175 125 108 175 125 108 175 125 108 175 125 105 177 129 108 175 125 108 175 125 105 177 129 108 175 125 108 175 125 105 177 129 114 171 118 114 171 118 108 175 125 105 177 129 108 175 125 108 175 125 114 171 118 105 177 129 108 175 125 114 171 118 114 171 118 35 229 213 11 246 241 8 248 244 17 242 234 55 214 188 55 214 188 55 214 188 55 214 188 55 214 188 55 214 188 55 214 188 55 214 188 55 214 188 55 214 188 52 216 192 55 214 188 52 216 192 55 214 188 55 214 188 55 214 188 55 214 188 55 214 188 55 214 188 55 214 188 58 212 185 58 212 185 58 212 185 58 212 185 55 214 188 55 214 188 58 212 185 58 212 185 58 212 185 58 212 185 61 209 181 61 209 181 58 212 185 58 212 185 58 212 185 55 214 188 55 214 188 55 214 188 58 212 185 55 214 188 58 212 185 58 212 185 58 212 185 55 214 188 55 214 188 58 212 185 55 214 188 55 214 188 55 214 188 55 214 188 55 214 188 55 214 188 55 214 188 52 216 192 44 222 202 17 242 234 11 246 241 8 248 244 8 248 244 8 248 244 5 250 248 5 250 248 5 250 248 8 248 244 8 248 244 5 250 248 8 248 244 8 248 244 8 248 244 8 248 244 8 248 244 8 248 244 5 250 248 5 250 248 5 250 248 8 248 244 8 248 244 5 250 248 8 248 244 8 248 244 8 248 244 8 248 244 8 248 244 8 248 244 8 248 244 8 248 244 8 248 244 8 248 244 8 248 244 8 248 244 8 248 244 8 248 244 8 248 244 8 248 244 8 248 244 5 250 248 8 248 244 8 248 244 8 248 244 5 250 248 5 250 248 5 250 248 5 250 248 5 250 248 8 248 244 8 248 244 8 248 244 5 250 248 
5 250 248 5 250 248 5 250 248 5 250 248 8 248 244 5 250 248 8 248 244 8 248 244 5 250 248 5 250 248 5 250 248 8 248 244 8 248 244 8 248 244 8 248 244 8 248 244 8 248 244 8 248 244 8 248 244 8 248 244 8 248 244 8 248 244 8 248 244 5 250 248 8 248 244 8 248 244 8 248 244 8 248 244 8 248 244 8 248 244 8 248 244 8 248 244 5 250 248 5 250 248 5 250 248 5 250 248 5 250 248 5 250 248 5 250 248 5 250 248 5 250 248 8 248 244 5 250 248 8 248 244 8 248 244 8 248 244 8 248 244 5 250 248 8 248 244 14 244 237 58 212 185 93 186 143 96 184 139 99 181 136 99 181 136 99 181 136 99 181 136 96 184 139 99 181 136 99 181 136 99 181 136 96 184 139 99 181 136 99 181 136 99 181 136 99 181 136 99 181 136 99 181 136 102 179 132 102 179 132 99 181 136 102 179 132 99 181 136 102 179 132 102 179 132 99 181 136 102 179 132 102 179 132 105 177 129 105 177 129 102 179 132 102 179 132 105 177 129 105 177 129 105 177 129 105 177 129 108 175 125 108 175 125 105 177 129 105 177 129 105 177 129 108 175 125 108 175 125 108 175 125 114 171 118 108 175 125 108 175 125 108 175 125 114 171 118 108 175 125 114 171 118 108 175 125 108 175 125 114 171 118 114 171 118 108 175 125 114 171 118 114 171 118 35 229 213 8 248 244 8 248 244 17 242 234 55 214 188 55 214 188 55 214 188 55 214 188 55 214 188 55 214 188 55 214 188 55 214 188 52 216 192 55 214 188 55 214 188 55 214 188 55 214 188 55 214 188 55 214 188 55 214 188 55 214 188 55 214 188 55 214 188 55 214 188 58 212 185 55 214 188 58 212 185 58 212 185 58 212 185 58 212 185 58 212 185 58 212 185 55 214 188 58 212 185 58 212 185 58 212 185 58 212 185 58 212 185 58 212 185 58 212 185 58 212 185 58 212 185 58 212 185 55 214 188 58 212 185 58 212 185 58 212 185 55 214 188 55 214 188 55 214 188 58 212 185 55 214 188 55 214 188 58 212 185 55 214 188 55 214 188 55 214 188 52 216 192 52 216 192 52 216 192 52 216 192 35 229 213 11 246 241 8 248 244 8 248 244 8 248 244 5 250 248 8 248 244 8 248 244 8 248 244 8 248 244 8 248 244 8 248 244 8 248 244 5 250 248 8 248 244 5 250 248 5 250 248 8 248 244 8 248 244 5 250 248 5 250 248 8 248 244 8 248 244 8 248 244 8 248 244 8 248 244 8 248 244 8 248 244 8 248 244 8 248 244 8 248 244 8 248 244 5 250 248 8 248 244 8 248 244 8 248 244 8 248 244 8 248 244 8 248 244 8 248 244 8 248 244 8 248 244 8 248 244 5 250 248 5 250 248 5 250 248 5 250 248 8 248 244 8 248 244 5 250 248 8 248 244 
5 250 248 5 250 248 5 250 248 5 250 248 8 248 244 5 250 248 8 248 244 8 248 244 5 250 248 5 250 248 5 250 248 8 248 244 8 248 244 8 248 244 8 248 244 8 248 244 8 248 244 8 248 244 8 248 244 8 248 244 8 248 244 8 248 244 8 248 244 5 250 248 8 248 244 8 248 244 8 248 244 8 248 244 8 248 244 8 248 244 8 248 244 8 248 244 5 250 248 5 250 248 5 250 248 5 250 248 5 250 248 5 250 248 5 250 248 5 250 248 5 250 248 8 248 244 5 250 248 8 248 244 8 248 244 8 248 244 8 248 244 5 250 248 8 248 244 14 244 237 58 212 185 93 186 143 96 184 139 99 181 136 99 181 136 99 181 136 99 181 136 96 184 139 99 181 136 99 181 136 99 181 136 96 184 139 99 181 136 99 181 136 99 181 136 99 181 136 99 181 136 99 181 136 102 179 132 102 179 132 99 181 136 102 179 132 99 181 136 102 179 132 102 179 132 99 181 136 102 179 132 102 179 132 105 177 129 105 177 129 102 179 132 102 179 132 105 177 129 105 177 129 105 177 129 105 177 129 108 175 125 108 175 125 105 177 129 105 177 129 105 177 129 108 175 125 108 175 125 108 175 125 114 171 118 108 175 125 108 175 125 108 175 125 114 171 118 108 175 125 114 171 118 108 175 125 108 175 125 114 171 118 114 171 118 108 175 125 114 171 118 114 171 118 35 229 213 8 248 244 8 248 244 17 242 234 55 214 188 55 214 188 55 214 188 55 214 188 55 214 188 55 214 188 55 214 188 55 214 188 52 216 192 55 214 188 55 214 188 55 214 188 55 214 188 55 214 188 55 214 188 55 214 188 55 214 188 55 214 188 55 214 188 55 214 188 58 212 185 55 214 188 58 212 185 58 212 185 58 212 185 58 212 185 58 212 185 58 212 185 55 214 188 58 212 185 58 212 185 58 212 185 58 212 185 58 212 185 58 212 185 58 212 185 58 212 185 58 212 185 58 212 185 55 214 188 58 212 185 58 212 185 58 212 185 55 214 188 55 214 188 55 214 188 58 212 185 55 214 188 55 214 188 58 212 185 55 214 188 55 214 188 55 214 188 52 216 192 52 216 192 52 216 192 52 216 192 35 229 213 11 246 241 8 248 244 8 248 244 8 248 244 5 250 248 8 248 244 8 248 244 8 248 244 8 248 244 8 248 244 8 248 244 8 248 244 5 250 248 8 248 244 5 250 248 5 250 248 8 248 244 8 248 244 5 250 248 5 250 248 8 248 244 8 248 244 8 248 244 8 248 244 8 248 244 8 248 244 8 248 244 8 248 244 8 248 244 8 248 244 8 248 244 5 250 248 8 248 244 8 248 244 8 248 244 8 248 244 8 248 244 8 248 244 8 248 244 8 248 244 8 248 244 8 248 244 5 250 248 5 250 248 5 250 248 5 250 248 8 248 244 8 248 244 5 250 248 8 248 244 
5 250 248 5 250 248 5 250 248 5 250 248 8 248 244 5 250 248 8 248 244 8 248 244 5 250 248 5 250 248 5 250 248 5 250 248 5 250 248 5 250 248 8 248 244 8 248 244 5 250 248 5 250 248 5 250 248 5 250 248 5 250 248 5 250 248 8 248 244 8 248 244 5 250 248 5 250 248 8 248 244 8 248 244 5 250 248 8 248 244 8 248 244 5 250 248 5 250 248 5 250 248 8 248 244 8 248 244 5 250 248 5 250 248 5 250 248 8 248 244 5 250 248 5 250 248 5 250 248 8 248 244 5 250 248 5 250 248 8 248 244 38 227 209 67 205 174 99 181 136 99 181 136 99 181 136 96 184 139 96 184 139 96 184 139 96 184 139 96 184 139 99 181 136 96 184 139 96 184 139 96 184 139 102 179 132 102 179 132 102 179 132 102 179 132 102 179 132 99 181 136 102 179 132 102 179 132 102 179 132 102 179 132 102 179 132 105 177 129 105 177 129 105 177 129 102 179 132 102 179 132 102 179 132 105 177 129 102 179 132 105 177 129 105 177 129 108 175 125 105 177 129 105 177 129 105 177 129 105 177 129 108 175 125 108 175 125 108 175 125 108 175 125 105 177 129 108 175 125 108 175 125 108 175 125 108 175 125 108 175 125 108 175 125 108 175 125 114 171 118 114 171 118 108 175 125 108 175 125 114 171 118 108 175 125 114 171 118 114 171 118 114 171 118 35 229 213 8 248 244 8 248 244 20 239 230 55 214 188 55 214 188 55 214 188 55 214 188 55 214 188 55 214 188 52 216 192 55 214 188 55 214 188 55 214 188 55 214 188 55 214 188 55 214 188 55 214 188 55 214 188 55 214 188 55 214 188 55 214 188 55 214 188 55 214 188 55 214 188 58 212 185 55 214 188 55 214 188 55 214 188 55 214 188 58 212 185 58 212 185 55 214 188 58 212 185 58 212 185 58 212 185 58 212 185 58 212 185 55 214 188 58 212 185 55 214 188 55 214 188 58 212 185 55 214 188 58 212 185 58 212 185 55 214 188 55 214 188 55 214 188 55 214 188 55 214 188 55 214 188 55 214 188 55 214 188 55 214 188 55 214 188 55 214 188 55 214 188 55 214 188 55 214 188 55 214 188 55 214 188 55 214 188 41 224 206 23 237 227 8 248 244 8 248 244 5 250 248 8 248 244 8 248 244 8 248 244 8 248 244 8 248 244 5 250 248 5 250 248 5 250 248 5 250 248 5 250 248 5 250 248 5 250 248 5 250 248 5 250 248 5 250 248 8 248 244 8 248 244 8 248 244 8 248 244 8 248 244 8 248 244 8 248 244 8 248 244 8 248 244 5 250 248 5 250 248 5 250 248 5 250 248 8 248 244 8 248 244 8 248 244 5 250 248 5 250 248 5 250 248 8 248 244 5 250 248 8 248 244 8 248 244 8 248 244 8 248 244 5 250 248 5 250 248 8 248 244 8 248 244 
5 250 248 5 250 248 5 250 248 5 250 248 8 248 244 5 250 248 8 248 244 8 248 244 5 250 248 5 250 248 5 250 248 5 250 248 5 250 248 5 250 248 8 248 244 8 248 244 5 250 248 5 250 248 5 250 248 5 250 248 5 250 248 5 250 248 8 248 244 8 248 244 5 250 248 5 250 248 8 248 244 8 248 244 5 250 248 8 248 244 8 248 244 5 250 248 5 250 248 5 250 248 8 248 244 8 248 244 5 250 248 5 250 248 5 250 248 8 248 244 5 250 248 5 250 248 5 250 248 8 248 244 5 250 248 5 250 248 8 248 244 38 227 209 67 205 174 99 181 136 99 181 136 99 181 136 96 184 139 96 184 139 96 184 139 96 184 139 96 184 139 99 181 136 96 184 139 96 184 139 96 184 139 102 179 132 102 179 132 102 179 132 102 179 132 102 179 132 99 181 136 102 179 132 102 179 132 102 179 132 102 179 132 102 179 132 105 177 129 105 177 129 105 177 129 102 179 132 102 179 132 102 179 132 105 177 129 102 179 132 105 177 129 105 177 129 108 175 125 105 177 129 105 177 129 105 177 129 105 177 129 108 175 125 108 175 125 108 175 125 108 175 125 105 177 129 108 175 125 108 175 125 108 175 125 108 175 125 108 175 125 108 175 125 108 175 125 114 171 118 114 171 118 108 175 125 108 175 125 114 171 118 108 175 125 114 171 118 114 171 118 114 171 118 35 229 213 8 248 244 8 248 244 20 239 230 55 214 188 55 214 188 55 214 188 55 214 188 55 214 188 55 214 188 52 216 192 55 214 188 55 214 188 55 214 188 55 214 188 55 214 188 55 214 188 55 214 188 55 214 188 55 214 188 55 214 188 55 214 188 55 214 188 55 214 188 55 214 188 58 212 185 55 214 188 55 214 188 55 214 188 55 214 188 58 212 185 58 212 185 55 214 188 58 212 185 58 212 185 58 212 185 58 212 185 58 212 185 55 214 188 58 212 185 55 214 188 55 214 188 58 212 185 55 214 188 58 212 185 58 212 185 55 214 188 55 214 188 55 214 188 55 214 188 55 214 188 55 214 188 55 214 188 55 214 188 55 214 188 55 214 188 55 214 188 55 214 188 55 214 188 55 214 188 55 214 188 55 214 188 55 214 188 41 224 206 23 237 227 8 248 244 8 248 244 5 250 248 8 248 244 8 248 244 8 248 244 8 248 244 8 248 244 5 250 248 5 250 248 5 250 248 5 250 248 5 250 248 5 250 248 5 250 248 5 250 248 5 250 248 5 250 248 8 248 244 8 248 244 8 248 244 8 248 244 8 248 244 8 248 244 8 248 244 8 248 244 8 248 244 5 250 248 5 250 248 5 250 248 5 250 248 8 248 244 8 248 244 8 248 244 5 250 248 5 250 248 5 250 248 8 248 244 5 250 248 8 248 244 8 248 244 8 248 244 8 248 244 5 250 248 5 250 248 8 248 244 8 248 244 
5 250 248 5 250 248 5 250 248 5 250 248 5 250 248 5 250 248 5 250 248 5 250 248 5 250 248 5 250 248 5 250 248 5 250 248 5 250 248 5 250 248 8 248 244 8 248 244 8 248 244 8 248 244 8 248 244 8 248 244 8 248 244 5 250 248 8 248 244 8 248 244 5 250 248 8 248 244 5 250 248 8 248 244 5 250 248 5 250 248 5 250 248 5 250 248 5 250 248 5 250 248 5 250 248 5 250 248 5 250 248 8 248 244 5 250 248 5 250 248 8 248 244 8 248 244 8 248 244 8 248 244 8 248 244 35 229 213 85 192 153 96 184 139 99 181 136 99 181 136 99 181 136 99 181 136 99 181 136 99 181 136 99 181 136 99 181 136 99 181 136 96 184 139 99 181 136 99 181 136 96 184 139 102 179 132 102 179 132 99 181 136 99 181 136 99 181 136 99 181 136 102 179 132 99 181 136 102 179 132 102 179 132 102 179 132 99 181 136 105 177 129 105 177 129 105 177 129 102 179 132 105 177 129 105 177 129 105 177 129 105 177 129 105 177 129 105 177 129 105 177 129 105 177 129 105 177 129 105 177 129 114 171 118 114 171 118 108 175 125 108 175 125 108 175 125 108 175 125 108 175 125 108 175 125 108 175 125 108 175 125 108 175 125 108 175 125 105 177 129 108 175 125 108 175 125 108 175 125 114 171 118 108 175 125 114 171 118 108 175 125 114 171 118 35 229 213 8 248 244 8 248 244 17 242 234 52 216 192 55 214 188 55 214 188 55 214 188 52 216 192 55 214 188 55 214 188 55 214 188 52 216 192 52 216 192 55 214 188 55 214 188 55 214 188 55 214 188 55 214 188 55 214 188 52 216 192 55 214 188 55 214 188 55 214 188 55 214 188 58 212 185 55 214 188 58 212 185 58 212 185 58 212 185 58 212 185 58 212 185 61 209 181 55 214 188 55 214 188 55 214 188 58 212 185 55 214 188 58 212 185 58 212 185 55 214 188 55 214 188 55 214 188 55 214 188 55 214 188 55 214 188 55 214 188 55 214 188 55 214 188 55 214 188 58 212 185 55 214 188 55 214 188 55 214 188 58 212 185 55 214 188 55 214 188 55 214 188 55 214 188 55 214 188 55 214 188 55 214 188 58 212 185 55 214 188 55 214 188 49 218 195 20 239 230 8 248 244 8 248 244 8 248 244 8 248 244 5 250 248 8 248 244 8 248 244 8 248 244 5 250 248 5 250 248 8 248 244 5 250 248 8 248 244 5 250 248 8 248 244 5 250 248 5 250 248 8 248 244 8 248 244 8 248 244 8 248 244 8 248 244 8 248 244 8 248 244 5 250 248 8 248 244 5 250 248 8 248 244 8 248 244 8 248 244 8 248 244 5 250 248 5 250 248 5 250 248 5 250 248 5 250 248 5 250 248 5 250 248 5 250 248 8 248 244 8 248 244 5 250 248 8 248 244 8 248 244 5 250 248 
5 250 248 5 250 248 5 250 248 5 250 248 5 250 248 5 250 248 5 250 248 5 250 248 5 250 248 5 250 248 5 250 248 5 250 248 5 250 248 5 250 248 8 248 244 8 248 244 8 248 244 8 248 244 8 248 244 8 248 244 8 248 244 5 250 248 8 248 244 8 248 244 5 250 248 8 248 244 5 250 248 8 248 244 5 250 248 5 250 248 5 250 248 5 250 248 5 250 248 5 250 248 5 250 248 5 250 248 5 250 248 8 248 244 5 250 248 5 250 248 8 248 244 8 248 244 8 248 244 8 248 244 8 248 244 35 229 213 85 192 153 96 184 139 99 181 136 99 181 136 99 181 136 99 181 136 99 181 136 99 181 136 99 181 136 99 181 136 99 181 136 96 184 139 99 181 136 99 181 136 96 184 139 102 179 132 102 179 132 99 181 136 99 181 136 99 181 136 99 181 136 102 179 132 99 181 136 102 179 132 102 179 132 102 179 132 99 181 136 105 177 129 105 177 129 105 177 129 102 179 132 105 177 129 105 177 129 105 177 129 105 177 129 105 177 129 105 177 129 105 177 129 105 177 129 105 177 129 105 177 129 114 171 118 114 171 118 108 175 125 108 175 125 108 175 125 108 175 125 108 175 125 108 175 125 108 175 125 108 175 125 108 175 125 108 175 125 105 177 129 108 175 125 108 175 125 108 175 125 114 171 118 108 175 125 114 171 118 108 175 125 114 171 118 35 229 213 8 248 244 8 248 244 17 242 234 52 216 192 55 214 188 55 214 188 55 214 188 52 216 192 55 214 188 55 214 188 55 214 188 52 216 192 52 216 192 55 214 188 55 214 188 55 214 188 55 214 188 55 214 188 55 214 188 52 216 192 55 214 188 55 214 188 55 214 188 55 214 188 58 212 185 55 214 188 58 212 185 58 212 185 58 212 185 58 212 185 58 212 185 61 209 181 55 214 188 55 214 188 55 214 188 58 212 185 55 214 188 58 212 185 58 212 185 55 214 188 55 214 188 55 214 188 55 214 188 55 214 188 55 214 188 55 214 188 55 214 188 55 214 188 55 214 188 58 212 185 55 214 188 55 214 188 55 214 188 58 212 185 55 214 188 55 214 188 55 214 188 55 214 188 55 214 188 55 214 188 55 214 188 58 212 185 55 214 188 55 214 188 49 218 195 20 239 230 8 248 244 8 248 244 8 248 244 8 248 244 5 250 248 8 248 244 8 248 244 8 248 244 5 250 248 5 250 248 8 248 244 5 250 248 8 248 244 5 250 248 8 248 244 5 250 248 5 250 248 8 248 244 8 248 244 8 248 244 8 248 244 8 248 244 8 248 244 8 248 244 5 250 248 8 248 244 5 250 248 8 248 244 8 248 244 8 248 244 8 248 244 5 250 248 5 250 248 5 250 248 5 250 248 5 250 248 5 250 248 5 250 248 5 250 248 8 248 244 8 248 244 5 250 248 8 248 244 8 248 244 5 250 248 
8 248 244 5 250 248 5 250 248 5 250 248 5 250 248 8 248 244 5 250 248 8 248 244 5 250 248 5 250 248 5 250 248 5 250 248 5 250 248 5 250 248 5 250 248 8 248 244 5 250 248 5 250 248 8 248 244 8 248 244 8 248 244 5 250 248 5 250 248 5 250 248 8 248 244 8 248 244 5 250 248 8 248 244 8 248 244 8 248 244 8 248 244 5 250 248 5 250 248 8 248 244 5 250 248 5 250 248 8 248 244 5 250 248 5 250 248 5 250 248 8 248 244 8 248 244 5 250 248 20 239 230 82 194 157 96 184 139 99 181 136 99 181 136 99 181 136 102 179 132 99 181 136 99 181 136 99 181 136 99 181 136 99 181 136 102 179 132 99 181 136 99 181 136 99 181 136 99 181 136 99 181 136 99 181 136 99 181 136 99 181 136 102 179 132 99 181 136 99 181 136 102 179 132 102 179 132 99 181 136 99 181 136 99 181 136 102 179 132 105 177 129 105 177 129 102 179 132 102 179 132 105 177 129 105 177 129 102 179 132 105 177 129 105 177 129 105 177 129 102 179 132 105 177 129 108 175 125 105 177 129 114 171 118 108 175 125 108 175 125 108 175 125 105 177 129 108 175 125 114 171 118 108 175 125 108 175 125 108 175 125 108 175 125 108 175 125 114 171 118 108 175 125 108 175 125 114 171 118 108 175 125 108 175 125 114 171 118 114 171 118 114 171 118 35 229 213 8 248 244 8 248 244 20 239 230 55 214 188 55 214 188 55 214 188 55 214 188 55 214 188 55 214 188 55 214 188 55 214 188 55 214 188 55 214 188 55 214 188 52 216 192 55 214 188 55 214 188 55 214 188 55 214 188 55 214 188 55 214 188 55 214 188 55 214 188 55 214 188 55 214 188 55 214 188 55 214 188 58 212 185 58 212 185 58 212 185 55 214 188 58 212 185 55 214 188 55 214 188 55 214 188 55 214 188 58 212 185 55 214 188 55 214 188 55 214 188 55 214 188 55 214 188 55 214 188 55 214 188 58 212 185 55 214 188 55 214 188 55 214 188 55 214 188 55 214 188 55 214 188 52 216 192 52 216 192 52 216 192 55 214 188 55 214 188 55 214 188 55 214 188 55 214 188 55 214 188 58 212 185 58 212 185 58 212 185 55 214 188 55 214 188 55 214 188 49 218 195 14 244 237 8 248 244 8 248 244 5 250 248 5 250 248 5 250 248 5 250 248 5 250 248 5 250 248 5 250 248 5 250 248 5 250 248 5 250 248 5 250 248 8 248 244 8 248 244 5 250 248 8 248 244 8 248 244 8 248 244 8 248 244 8 248 244 8 248 244 8 248 244 5 250 248 5 250 248 8 248 244 8 248 244 8 248 244 8 248 244 8 248 244 5 250 248 5 250 248 8 248 244 8 248 244 5 250 248 8 248 244 5 250 248 5 250 248 8 248 244 8 248 244 8 248 244 8 248 244 5 250 248 
8 248 244 5 250 248 5 250 248 5 250 248 5 250 248 8 248 244 5 250 248 8 248 244 5 250 248 5 250 248 5 250 248 5 250 248 5 250 248 5 250 248 5 250 248 8 248 244 5 250 248 5 250 248 8 248 244 8 248 244 8 248 244 5 250 248 5 250 248 5 250 248 8 248 244 8 248 244 5 250 248 8 248 244 8 248 244 8 248 244 8 248 244 5 250 248 5 250 248 8 248 244 5 250 248 5 250 248 8 248 244 5 250 248 5 250 248 5 250 248 8 248 244 8 248 244 5 250 248 20 239 230 82 194 157 96 184 139 99 181 136 99 181 136 99 181 136 102 179 132 99 181 136 99 181 136 99 181 136 99 181 136 99 181 136 102 179 132 99 181 136 99 181 136 99 181 136 99 181 136 99 181 136 99 181 136 99 181 136 99 181 136 102 179 132 99 181 136 99 181 136 102 179 132 102 179 132 99 181 136 99 181 136 99 181 136 102 179 132 105 177 129 105 177 129 102 179 132 102 179 132 105 177 129 105 177 129 102 179 132 105 177 129 105 177 129 105 177 129 102 179 132 105 177 129 108 175 125 105 177 129 114 171 118 108 175 125 108 175 125 108 175 125 105 177 129 108 175 125 114 171 118 108 175 125 108 175 125 108 175 125 108 175 125 108 175 125 114 171 118 108 175 125 108 175 125 114 171 118 108 175 125 108 175 125 114 171 118 114 171 118 114 171 118 35 229 213 8 248 244 8 248 244 20 239 230 55 214 188 55 214 188 55 214 188 55 214 188 55 214 188 55 214 188 55 214 188 55 214 188 55 214 188 55 214 188 55 214 188 52 216 192 55 214 188 55 214 188 55 214 188 55 214 188 55 214 188 55 214 188 55 214 188 55 214 188 55 214 188 55 214 188 55 214 188 55 214 188 58 212 185 58 212 185 58 212 185 55 214 188 58 212 185 55 214 188 55 214 188 55 214 188 55 214 188 58 212 185 55 214 188 55 214 188 55 214 188 55 214 188 55 214 188 55 214 188 55 214 188 58 212 185 55 214 188 55 214 188 55 214 188 55 214 188 55 214 188 55 214 188 52 216 192 52 216 192 52 216 192 55 214 188 55 214 188 55 214 188 55 214 188 55 214 188 55 214 188 58 212 185 58 212 185 58 212 185 55 214 188 55 214 188 55 214 188 49 218 195 14 244 237 8 248 244 8 248 244 5 250 248 5 250 248 5 250 248 5 250 248 5 250 248 5 250 248 5 250 248 5 250 248 5 250 248 5 250 248 5 250 248 8 248 244 8 248 244 5 250 248 8 248 244 8 248 244 8 248 244 8 248 244 8 248 244 8 248 244 8 248 244 5 250 248 5 250 248 8 248 244 8 248 244 8 248 244 8 248 244 8 248 244 5 250 248 5 250 248 8 248 244 8 248 244 5 250 248 8 248 244 5 250 248 5 250 248 8 248 244 8 248 244 8 248 244 8 248 244 5 250 248 
5 250 248 5 250 248 5 250 248 5 250 248 5 250 248 5 250 248 5 250 248 5 250 248 5 250 248 5 250 248 5 250 248 5 250 248 5 250 248 5 250 248 5 250 248 8 248 244 5 250 248 8 248 244 5 250 248 8 248 244 5 250 248 8 248 244 8 248 244 5 250 248 8 248 244 8 248 244 8 248 244 8 248 244 8 248 244 8 248 244 5 250 248 8 248 244 8 248 244 5 250 248 5 250 248 5 250 248 5 250 248 5 250 248 8 248 244 5 250 248 5 250 248 23 237 227 85 192 153 96 184 139 96 184 139 99 181 136 99 181 136 99 181 136 99 181 136 102 179 132 102 179 132 99 181 136 99 181 136 99 181 136 99 181 136 96 184 139 99 181 136 99 181 136 99 181 136 102 179 132 99 181 136 99 181 136 99 181 136 99 181 136 102 179 132 99 181 136 102 179 132 102 179 132 102 179 132 102 179 132 99 181 136 99 181 136 102 179 132 102 179 132 105 177 129 105 177 129 105 177 129 102 179 132 105 177 129 105 177 129 105 177 129 105 177 129 105 177 129 105 177 129 108 175 125 108 175 125 105 177 129 108 175 125 108 175 125 108 175 125 114 171 118 108 175 125 108 175 125 114 171 118 108 175 125 105 177 129 108 175 125 108 175 125 108 175 125 114 171 118 114 171 118 114 171 118 108 175 125 108 175 125 114 171 118 108 175 125 108 175 125 114 171 118 35 229 213 8 248 244 8 248 244 17 242 234 52 216 192 52 216 192 55 214 188 55 214 188 52 216 192 55 214 188 52 216 192 55 214 188 55 214 188 55 214 188 55 214 188 55 214 188 58 212 185 55 214 188 55 214 188 55 214 188 55 214 188 55 214 188 55 214 188 55 214 188 55 214 188 58 212 185 58 212 185 58 212 185 58 212 185 58 212 185 58 212 185 55 214 188 55 214 188 55 214 188 58 212 185 55 214 188 55 214 188 55 214 188 55 214 188 55 214 188 55 214 188 55 214 188 55 214 188 55 214 188 55 214 188 58 212 185 58 212 185 55 214 188 55 214 188 55 214 188 55 214 188 55 214 188 55 214 188 55 214 188 55 214 188 55 214 188 52 216 192 55 214 188 55 214 188 55 214 188 55 214 188 55 214 188 55 214 188 55 214 188 55 214 188 55 214 188 55 214 188 52 216 192 55 214 188 49 218 195 14 244 237 5 250 248 8 248 244 5 250 248 5 250 248 8 248 244 8 248 244 5 250 248 8 248 244 5 250 248 5 250 248 8 248 244 8 248 244 5 250 248 8 248 244 5 250 248 8 248 244 5 250 248 8 248 244 8 248 244 5 250 248 8 248 244 8 248 244 5 250 248 5 250 248 8 248 244 8 248 244 5 250 248 5 250 248 5 250 248 8 248 244 5 250 248 8 248 244 5 250 248 5 250 248 5 250 248 8 248 244 5 250 248 5 250 248 5 250 248 5 250 248 5 250 248 
5 250 248 5 250 248 5 250 248 5 250 248 5 250 248 5 250 248 5 250 248 5 250 248 5 250 248 5 250 248 5 250 248 5 250 248 5 250 248 5 250 248 5 250 248 8 248 244 5 250 248 8 248 244 5 250 248 8 248 244 5 250 248 8 248 244 8 248 244 5 250 248 8 248 244 8 248 244 8 248 244 8 248 244 8 248 244 8 248 244 5 250 248 8 248 244 8 248 244 5 250 248 5 250 248 5 250 248 5 250 248 5 250 248 8 248 244 5 250 248 5 250 248 23 237 227 85 192 153 96 184 139 96 184 139 99 181 136 99 181 136 99 181 136 99 181 136 102 179 132 102 179 132 99 181 136 99 181 136 99 181 136 99 181 136 96 184 139 99 181 136 99 181 136 99 181 136 102 179 132 99 181 136 99 181 136 99 181 136 99 181 136 102 179 132 99 181 136 102 179 132 102 179 132 102 179 132 102 179 132 99 181 136 99 181 136 102 179 132 102 179 132 105 177 129 105 177 129 105 177 129 102 179 132 105 177 129 105 177 129 105 177 129 105 177 129 105 177 129 105 177 129 108 175 125 108 175 125 105 177 129 108 175 125 108 175 125 108 175 125 114 171 118 108 175 125 108 175 125 114 171 118 108 175 125 105 177 129 108 175 125 108 175 125 108 175 125 114 171 118 114 171 118 114 171 118 108 175 125 108 175 125 114 171 118 108 175 125 108 175 125 114 171 118 35 229 213 8 248 244 8 248 244 17 242 234 52 216 192 52 216 192 55 214 188 55 214 188 52 216 192 55 214 188 52 216 192 55 214 188 55 214 188 55 214 188 55 214 188 55 214 188 58 212 185 55 214 188 55 214 188 55 214 188 55 214 188 55 214 188 55 214 188 55 214 188 55 214 188 58 212 185 58 212 185 58 212 185 58 212 185 58 212 185 58 212 185 55 214 188 55 214 188 55 214 188 58 212 185 55 214 188 55 214 188 55 214 188 55 214 188 55 214 188 55 214 188 55 214 188 55 214 188 55 214 188 55 214 188 58 212 185 58 212 185 55 214 188 55 214 188 55 214 188 55 214 188 55 214 188 55 214 188 55 214 188 55 214 188 55 214 188 52 216 192 55 214 188 55 214 188 55 214 188 55 214 188 55 214 188 55 214 188 55 214 188 55 214 188 55 214 188 55 214 188 52 216 192 55 214 188 49 218 195 14 244 237 5 250 248 8 248 244 5 250 248 5 250 248 8 248 244 8 248 244 5 250 248 8 248 244 5 250 248 5 250 248 8 248 244 8 248 244 5 250 248 8 248 244 5 250 248 8 248 244 5 250 248 8 248 244 8 248 244 5 250 248 8 248 244 8 248 244 5 250 248 5 250 248 8 248 244 8 248 244 5 250 248 5 250 248 5 250 248 8 248 244 5 250 248 8 248 244 5 250 248 5 250 248 5 250 248 8 248 244 5 250 248 5 250 248 5 250 248 5 250 248 5 250 248 
5 250 248 5 250 248 5 250 248 5 250 248 5 250 248 5 250 248 5 250 248 5 250 248 8 248 244 5 250 248 5 250 248 5 250 248 5 250 248 5 250 248 5 250 248 5 250 248 5 250 248 8 248 244 8 248 244 5 250 248 8 248 244 5 250 248 5 250 248 8 248 244 8 248 244 8 248 244 8 248 244 8 248 244 5 250 248 8 248 244 8 248 244 5 250 248 8 248 244 5 250 248 5 250 248 5 250 248 5 250 248 5 250 248 8 248 244 17 242 234 67 205 174 96 184 139 93 186 143 99 181 136 99 181 136 99 181 136 99 181 136 102 179 132 102 179 132 99 181 136 99 181 136 99 181 136 99 181 136 102 179 132 102 179 132 99 181 136 102 179 132 99 181 136 102 179 132 99 181 136 102 179 132 96 184 139 99 181 136 102 179 132 105 177 129 102 179 132 102 179 132 99 181 136 99 181 136 102 179 132 102 179 132 102 179 132 102 179 132 99 181 136 102 179 132 102 179 132 102 179 132 102 179 132 108 175 125 105 177 129 105 177 129 105 177 129 105 177 129 105 177 129 105 177 129 105 177 129 105 177 129 108 175 125 108 175 125 108 175 125 105 177 129 108 175 125 114 171 118 114 171 118 114 171 118 108 175 125 108 175 125 108 175 125 108 175 125 114 171 118 108 175 125 114 171 118 114 171 118 108 175 125 114 171 118 108 175 125 108 175 125 114 171 118 35 229 213 8 248 244 8 248 244 17 242 234 52 216 192 55 214 188 55 214 188 52 216 192 55 214 188 55 214 188 55 214 188 55 214 188 55 214 188 58 212 185 55 214 188 58 212 185 58 212 185 58 212 185 58 212 185 55 214 188 55 214 188 58 212 185 55 214 188 55 214 188 55 214 188 55 214 188 55 214 188 58 212 185 55 214 188 58 212 185 55 214 188 55 214 188 55 214 188 55 214 188 55 214 188 58 212 185 58 212 185 58 212 185 58 212 185 58 212 185 58 212 185 55 214 188 58 212 185 58 212 185 55 214 188 58 212 185 55 214 188 55 214 188 55 214 188 55 214 188 55 214 188 55 214 188 55 214 188 55 214 188 55 214 188 55 214 188 55 214 188 55 214 188 55 214 188 55 214 188 55 214 188 55 214 188 55 214 188 52 216 192 55 214 188 55 214 188 55 214 188 55 214 188 55 214 188 55 214 188 55 214 188 41 224 206 11 246 241 5 250 248 5 250 248 8 248 244 8 248 244 8 248 244 8 248 244 5 250 248 5 250 248 5 250 248 5 250 248 5 250 248 5 250 248 5 250 248 5 250 248 8 248 244 8 248 244 5 250 248 8 248 244 8 248 244 5 250 248 8 248 244 5 250 248 8 248 244 8 248 244 5 250 248 5 250 248 5 250 248 8 248 244 8 248 244 8 248 244 5 250 248 5 250 248 8 248 244 5 250 248 8 248 244 8 248 244 5 250 248 5 250 248 8 248 244 
5 250 248 5 250 248 5 250 248 5 250 248 5 250 248 5 250 248 5 250 248 5 250 248 8 248 244 5 250 248 5 250 248 5 250 248 5 250 248 5 250 248 5 250 248 5 250 248 5 250 248 8 248 244 8 248 244 5 250 248 8 248 244 5 250 248 5 250 248 8 248 244 8 248 244 8 248 244 8 248 244 8 248 244 5 250 248 8 248 244 8 248 244 5 250 248 8 248 244 5 250 248 5 250 248 5 250 248 5 250 248 5 250 248 8 248 244 17 242 234 67 205 174 96 184 139 93 186 143 99 181 136 99 181 136 99 181 136 99 181 136 102 179 132 102 179 132 99 181 136 99 181 136 99 181 136 99 181 136 102 179 132 102 179 132 99 181 136 102 179 132 99 181 136 102 179 132 99 181 136 102 179 132 96 184 139 99 181 136 102 179 132 105 177 129 102 179 132 102 179 132 99 181 136 99 181 136 102 179 132 102 179 132 102 179 132 102 179 132 99 181 136 102 179 132 102 179 132 102 179 132 102 179 132 108 175 125 105 177 129 105 177 129 105 177 129 105 177 129 105 177 129 105 177 129 105 177 129 105 177 129 108 175 125 108 175 125 108 175 125 105 177 129 108 175 125 114 171 118 114 171 118 114 171 118 108 175 125 108 175 125 108 175 125 108 175 125 114 171 118 108 175 125 114 171 118 114 171 118 108 175 125 114 171 118 108 175 125 108 175 125 114 171 118 35 229 213 8 248 244 8 248 244 17 242 234 52 216 192 55 214 188 55 214 188 52 216 192 55 214 188 55 214 188 55 214 188 55 214 188 55 214 188 58 212 185 55 214 188 58 212 185 58 212 185 58 212 185 58 212 185 55 214 188 55 214 188 58 212 185 55 214 188 55 214 188 55 214 188 55 214 188 55 214 188 58 212 185 55 214 188 58 212 185 55 214 188 55 214 188 55 214 188 55 214 188 55 214 188 58 212 185 58 212 185 58 212 185 58 212 185 58 212 185 58 212 185 55 214 188 58 212 185 58 212 185 55 214 188 58 212 185 55 214 188 55 214 188 55 214 188 55 214 188 55 214 188 55 214 188 55 214 188 55 214 188 55 214 188 55 214 188 55 214 188 55 214 188 55 214 188 55 214 188 55 214 188 55 214 188 55 214 188 52 216 192 55 214 188 55 214 188 55 214 188 55 214 188 55 214 188 55 214 188 55 214 188 41 224 206 11 246 241 5 250 248 5 250 248 8 248 244 8 248 244 8 248 244 8 248 244 5 250 248 5 250 248 5 250 248 5 250 248 5 250 248 5 250 248 5 250 248 5 250 248 8 248 244 8 248 244 5 250 248 8 248 244 8 248 244 5 250 248 8 248 244 5 250 248 8 248 244 8 248 244 5 250 248 5 250 248 5 250 248 8 248 244 8 248 244 8 248 244 5 250 248 5 250 248 8 248 244 5 250 248 8 248 244 8 248 244 5 250 248 5 250 248 8 248 244 
5 250 248 5 250 248 5 250 248 5 250 248 5 250 248 5 250 248 5 250 248 5 250 248 5 250 248 5 250 248 5 250 248 8 248 244 5 250 248 5 250 248 5 250 248 8 248 244 5 250 248 8 248 244 8 248 244 5 250 248 8 248 244 8 248 244 8 248 244 8 248 244 5 250 248 8 248 244 8 248 244 8 248 244 11 246 241 8 248 244 5 250 248 8 248 244 5 250 248 5 250 248 5 250 248 8 248 244 8 248 244 11 246 241 49 218 195 96 184 139 96 184 139 99 181 136 102 179 132 99 181 136 99 181 136 99 181 136 99 181 136 99 181 136 99 181 136 99 181 136 102 179 132 99 181 136 99 181 136 99 181 136 102 179 132 102 179 132 102 179 132 99 181 136 102 179 132 105 177 129 96 184 139 99 181 136 102 179 132 99 181 136 99 181 136 99 181 136 99 181 136 99 181 136 99 181 136 99 181 136 99 181 136 99 181 136 99 181 136 102 179 132 102 179 132 105 177 129 105 177 129 105 177 129 102 179 132 108 175 125 105 177 129 105 177 129 105 177 129 108 175 125 108 175 125 108 175 125 108 175 125 114 171 118 108 175 125 108 175 125 114 171 118 108 175 125 114 171 118 114 171 118 114 171 118 108 175 125 114 171 118 114 171 118 117 169 115 114 171 118 114 171 118 114 171 118 114 171 118 114 171 118 108 175 125 108 175 125 108 175 125 108 175 125 35 229 213 5 250 248 8 248 244 17 242 234 55 214 188 55 214 188 55 214 188 55 214 188 52 216 192 52 216 192 52 216 192 55 214 188 55 214 188 58 212 185 55 214 188 55 214 188 58 212 185 55 214 188 55 214 188 55 214 188 58 212 185 55 214 188 55 214 188 55 214 188 55 214 188 55 214 188 58 212 185 55 214 188 55 214 188 55 214 188 58 212 185 55 214 188 52 216 192 55 214 188 58 212 185 58 212 185 55 214 188 58 212 185 55 214 188 55 214 188 55 214 188 55 214 188 55 214 188 58 212 185 55 214 188 55 214 188 55 214 188 55 214 188 55 214 188 55 214 188 58 212 185 55 214 188 55 214 188 55 214 188 55 214 188 52 216 192 55 214 188 58 212 185 55 214 188 55 214 188 55 214 188 55 214 188 55 214 188 55 214 188 55 214 188 55 214 188 58 212 185 58 212 185 55 214 188 55 214 188 55 214 188 52 216 192 55 214 188 26 235 223 8 248 244 5 250 248 8 248 244 5 250 248 5 250 248 5 250 248 5 250 248 5 250 248 5 250 248 5 250 248 5 250 248 5 250 248 5 250 248 8 248 244 8 248 244 8 248 244 8 248 244 8 248 244 8 248 244 8 248 244 8 248 244 8 248 244 8 248 244 8 248 244 8 248 244 8 248 244 5 250 248 5 250 248 5 250 248 5 250 248 8 248 244 5 250 248 5 250 248 8 248 244 5 250 248 5 250 248 5 250 248 8 248 244 
5 250 248 5 250 248 5 250 248 5 250 248 5 250 248 5 250 248 5 250 248 5 250 248 5 250 248 5 250 248 5 250 248 8 248 244 5 250 248 5 250 248 5 250 248 8 248 244 5 250 248 8 248 244 8 248 244 5 250 248 8 248 244 8 248 244 8 248 244 8 248 244 5 250 248 8 248 244 8 248 244 8 248 244 11 246 241 8 248 244 5 250 248 8 248 244 5 250 248 5 250 248 5 250 248 8 248 244 8 248 244 11 246 241 49 218 195 96 184 139 96 184 139 99 181 136 102 179 132 99 181 136 99 181 136 99 181 136 99 181 136 99 181 136 99 181 136 99 181 136 102 179 132 99 181 136 99 181 136 99 181 136 102 179 132 102 179 132 102 179 132 99 181 136 102 179 132 105 177 129 96 184 139 99 181 136 102 179 132 99 181 136 99 181 136 99 181 136 99 181 136 99 181 136 99 181 136 99 181 136 99 181 136 99 181 136 99 181 136 102 179 132 102 179 132 105 177 129 105 177 129 105 177 129 102 179 132 108 175 125 105 177 129 105 177 129 105 177 129 108 175 125 108 175 125 108 175 125 108 175 125 114 171 118 108 175 125 108 175 125 114 171 118 108 175 125 114 171 118 114 171 118 114 171 118 108 175 125 114 171 118 114 171 118 117 169 115 114 171 118 114 171 118 114 171 118 114 171 118 114 171 118 108 175 125 108 175 125 108 175 125 108 175 125 35 229 213 5 250 248 8 248 244 17 242 234 55 214 188 55 214 188 55 214 188 55 214 188 52 216 192 52 216 192 52 216 192 55 214 188 55 214 188 58 212 185 55 214 188 55 214 188 58 212 185 55 214 188 55 214 188 55 214 188 58 212 185 55 214 188 55 214 188 55 214 188 55 214 188 55 214 188 58 212 185 55 214 188 55 214 188 55 214 188 58 212 185 55 214 188 52 216 192 55 214 188 58 212 185 58 212 185 55 214 188 58 212 185 55 214 188 55 214 188 55 214 188 55 214 188 55 214 188 58 212 185 55 214 188 55 214 188 55 214 188 55 214 188 55 214 188 55 214 188 58 212 185 55 214 188 55 214 188 55 214 188 55 214 188 52 216 192 55 214 188 58 212 185 55 214 188 55 214 188 55 214 188 55 214 188 55 214 188 55 214 188 55 214 188 55 214 188 58 212 185 58 212 185 55 214 188 55 214 188 55 214 188 52 216 192 55 214 188 26 235 223 8 248 244 5 250 248 8 248 244 5 250 248 5 250 248 5 250 248 5 250 248 5 250 248 5 250 248 5 250 248 5 250 248 5 250 248 5 250 248 8 248 244 8 248 244 8 248 244 8 248 244 8 248 244 8 248 244 8 248 244 8 248 244 8 248 244 8 248 244 8 248 244 8 248 244 8 248 244 5 250 248 5 250 248 5 250 248 5 250 248 8 248 244 5 250 248 5 250 248 8 248 244 5 250 248 5 250 248 5 250 248 8 248 244 
5 250 248 5 250 248 5 250 248 5 250 248 5 250 248 5 250 248 5 250 248 5 250 248 5 250 248 5 250 248 5 250 248 5 250 248 5 250 248 5 250 248 5 250 248 5 250 248 5 250 248 5 250 248 5 250 248 5 250 248 8 248 244 8 248 244 8 248 244 5 250 248 5 250 248 5 250 248 5 250 248 8 248 244 5 250 248 5 250 248 8 248 244 5 250 248 5 250 248 5 250 248 5 250 248 8 248 244 26 235 223 96 184 139 96 184 139 96 184 139 99 181 136 99 181 136 99 181 136 99 181 136 99 181 136 99 181 136 99 181 136 102 179 132 102 179 132 99 181 136 99 181 136 99 181 136 99 181 136 102 179 132 102 179 132 102 179 132 102 179 132 102 179 132 102 179 132 102 179 132 105 177 129 102 179 132 102 179 132 102 179 132 99 181 136 102 179 132 102 179 132 102 179 132 99 181 136 99 181 136 99 181 136 102 179 132 99 181 136 102 179 132 105 177 129 105 177 129 105 177 129 105 177 129 105 177 129 108 175 125 105 177 129 105 177 129 105 177 129 108 175 125 114 171 118 105 177 129 108 175 125 105 177 129 108 175 125 108 175 125 108 175 125 108 175 125 108 175 125 114 171 118 114 171 118 114 171 118 108 175 125 114 171 118 114 171 118 114 171 118 114 171 118 114 171 118 114 171 118 114 171 118 114 171 118 108 175 125 114 171 118 114 171 118 35 229 213 8 248 244 8 248 244 20 239 230 55 214 188 52 216 192 55 214 188 55 214 188 55 214 188 52 216 192 55 214 188 55 214 188 55 214 188 58 212 185 58 212 185 55 214 188 58 212 185 55 214 188 58 212 185 55 214 188 55 214 188 55 214 188 55 214 188 58 212 185 55 214 188 55 214 188 55 214 188 55 214 188 55 214 188 55 214 188 55 214 188 58 212 185 55 214 188 55 214 188 55 214 188 58 212 185 55 214 188 55 214 188 58 212 185 58 212 185 58 212 185 58 212 185 58 212 185 58 212 185 55 214 188 58 212 185 55 214 188 55 214 188 55 214 188 55 214 188 55 214 188 55 214 188 55 214 188 55 214 188 55 214 188 55 214 188 55 214 188 55 214 188 55 214 188 55 214 188 55 214 188 55 214 188 55 214 188 55 214 188 58 212 185 55 214 188 55 214 188 55 214 188 58 212 185 55 214 188 55 214 188 55 214 188 55 214 188 55 214 188 55 214 188 17 242 234 8 248 244 8 248 244 8 248 244 5 250 248 5 250 248 8 248 244 5 250 248 5 250 248 8 248 244 5 250 248 8 248 244 8 248 244 5 250 248 8 248 244 8 248 244 8 248 244 8 248 244 8 248 244 8 248 244 5 250 248 8 248 244 8 248 244 5 250 248 11 246 241 5 250 248 5 250 248 5 250 248 8 248 244 8 248 244 8 248 244 5 250 248 5 250 248 8 248 244 5 250 248 5 250 248 5 250 248 
5 250 248 5 250 248 5 250 248 5 250 248 5 250 248 5 250 248 5 250 248 5 250 248 5 250 248 5 250 248 5 250 248 5 250 248 5 250 248 5 250 248 5 250 248 5 250 248 5 250 248 5 250 248 5 250 248 5 250 248 8 248 244 8 248 244 8 248 244 5 250 248 5 250 248 5 250 248 5 250 248 8 248 244 5 250 248 5 250 248 8 248 244 5 250 248 5 250 248 5 250 248 5 250 248 8 248 244 26 235 223 96 184 139 96 184 139 96 184 139 99 181 136 99 181 136 99 181 136 99 181 136 99 181 136 99 181 136 99 181 136 102 179 132 102 179 132 99 181 136 99 181 136 99 181 136 99 181 136 102 179 132 102 179 132 102 179 132 102 179 132 102 179 132 102 179 132 102 179 132 105 177 129 102 179 132 102 179 132 102 179 132 99 181 136 102 179 132 102 179 132 102 179 132 99 181 136 99 181 136 99 181 136 102 179 132 99 181 136 102 179 132 105 177 129 105 177 129 105 177 129 105 177 129 105 177 129 108 175 125 105 177 129 105 177 129 105 177 129 108 175 125 114 171 118 105 177 129 108 175 125 105 177 129 108 175 125 108 175 125 108 175 125 108 175 125 108 175 125 114 171 118 114 171 118 114 171 118 108 175 125 114 171 118 114 171 118 114 171 118 114 171 118 114 171 118 114 171 118 114 171 118 114 171 118 108 175 125 114 171 118 114 171 118 35 229 213 8 248 244 8 248 244 20 239 230 55 214 188 52 216 192 55 214 188 55 214 188 55 214 188 52 216 192 55 214 188 55 214 188 55 214 188 58 212 185 58 212 185 55 214 188 58 212 185 55 214 188 58 212 185 55 214 188 55 214 188 55 214 188 55 214 188 58 212 185 55 214 188 55 214 188 55 214 188 55 214 188 55 214 188 55 214 188 55 214 188 58 212 185 55 214 188 55 214 188 55 214 188 58 212 185 55 214 188 55 214 188 58 212 185 58 212 185 58 212 185 58 212 185 58 212 185 58 212 185 55 214 188 58 212 185 55 214 188 55 214 188 55 214 188 55 214 188 55 214 188 55 214 188 55 214 188 55 214 188 55 214 188 55 214 188 55 214 188 55 214 188 55 214 188 55 214 188 55 214 188 55 214 188 55 214 188 55 214 188 58 212 185 55 214 188 55 214 188 55 214 188 58 212 185 55 214 188 55 214 188 55 214 188 55 214 188 55 214 188 55 214 188 17 242 234 8 248 244 8 248 244 8 248 244 5 250 248 5 250 248 8 248 244 5 250 248 5 250 248 8 248 244 5 250 248 8 248 244 8 248 244 5 250 248 8 248 244 8 248 244 8 248 244 8 248 244 8 248 244 8 248 244 5 250 248 8 248 244 8 248 244 5 250 248 11 246 241 5 250 248 5 250 248 5 250 248 8 248 244 8 248 244 8 248 244 5 250 248 5 250 248 8 248 244 5 250 248 5 250 248 5 250 248 
5 250 248 5 250 248 5 250 248 5 250 248 5 250 248 5 250 248 8 248 244 5 250 248 5 250 248 5 250 248 8 248 244 8 248 244 5 250 248 5 250 248 5 250 248 5 250 248 5 250 248 5 250 248 8 248 244 8 248 244 8 248 244 5 250 248 8 248 244 8 248 244 5 250 248 5 250 248 5 250 248 5 250 248 5 250 248 5 250 248 5 250 248 8 248 244 8 248 244 8 248 244 23 237 227 85 192 153 96 184 139 96 184 139 96 184 139 99 181 136 99 181 136 99 181 136 99 181 136 99 181 136 99 181 136 96 184 139 99 181 136 99 181 136 102 179 132 99 181 136 99 181 136 102 179 132 102 179 132 102 179 132 102 179 132 102 179 132 102 179 132 102 179 132 99 181 136 102 179 132 99 181 136 102 179 132 102 179 132 99 181 136 99 181 136 105 177 129 102 179 132 105 177 129 102 179 132 102 179 132 102 179 132 102 179 132 102 179 132 105 177 129 105 177 129 105 177 129 102 179 132 102 179 132 105 177 129 108 175 125 108 175 125 105 177 129 105 177 129 108 175 125 108 175 125 108 175 125 108 175 125 108 175 125 108 175 125 108 175 125 114 171 118 114 171 118 105 177 129 114 171 118 114 171 118 114 171 118 108 175 125 114 171 118 108 175 125 108 175 125 114 171 118 108 175 125 114 171 118 114 171 118 108 175 125 114 171 118 114 171 118 114 171 118 35 229 213 8 248 244 8 248 244 17 242 234 55 214 188 55 214 188 55 214 188 55 214 188 52 216 192 52 216 192 55 214 188 55 214 188 55 214 188 58 212 185 58 212 185 55 214 188 58 212 185 58 212 185 55 214 188 55 214 188 55 214 188 55 214 188 55 214 188 55 214 188 58 212 185 58 212 185 55 214 188 58 212 185 55 214 188 58 212 185 58 212 185 55 214 188 55 214 188 55 214 188 58 212 185 58 212 185 58 212 185 55 214 188 58 212 185 58 212 185 58 212 185 55 214 188 55 214 188 55 214 188 58 212 185 58 212 185 55 214 188 58 212 185 55 214 188 55 214 188 58 212 185 55 214 188 55 214 188 55 214 188 55 214 188 55 214 188 55 214 188 58 212 185 55 214 188 58 212 185 55 214 188 55 214 188 55 214 188 58 212 185 55 214 188 55 214 188 55 214 188 55 214 188 55 214 188 55 214 188 55 214 188 55 214 188 55 214 188 55 214 188 55 214 188 55 214 188 49 218 195 17 242 234 8 248 244 8 248 244 8 248 244 5 250 248 5 250 248 8 248 244 5 250 248 5 250 248 5 250 248 5 250 248 5 250 248 8 248 244 8 248 244 8 248 244 8 248 244 5 250 248 8 248 244 8 248 244 8 248 244 8 248 244 8 248 244 5 250 248 8 248 244 5 250 248 5 250 248 5 250 248 5 250 248 8 248 244 8 248 244 8 248 244 5 250 248 5 250 248 5 250 248 5 250 248 
5 250 248 5 250 248 5 250 248 5 250 248 5 250 248 5 250 248 8 248 244 5 250 248 5 250 248 5 250 248 8 248 244 8 248 244 5 250 248 5 250 248 5 250 248 5 250 248 5 250 248 5 250 248 8 248 244 8 248 244 8 248 244 5 250 248 8 248 244 8 248 244 5 250 248 5 250 248 5 250 248 5 250 248 5 250 248 5 250 248 5 250 248 8 248 244 8 248 244 8 248 244 23 237 227 85 192 153 96 184 139 96 184 139 96 184 139 99 181 136 99 181 136 99 181 136 99 181 136 99 181 136 99 181 136 96 184 139 99 181 136 99 181 136 102 179 132 99 181 136 99 181 136 102 179 132 102 179 132 102 179 132 102 179 132 102 179 132 102 179 132 102 179 132 99 181 136 102 179 132 99 181 136 102 179 132 102 179 132 99 181 136 99 181 136 105 177 129 102 179 132 105 177 129 102 179 132 102 179 132 102 179 132 102 179 132 102 179 132 105 177 129 105 177 129 105 177 129 102 179 132 102 179 132 105 177 129 108 175 125 108 175 125 105 177 129 105 177 129 108 175 125 108 175 125 108 175 125 108 175 125 108 175 125 108 175 125 108 175 125 114 171 118 114 171 118 105 177 129 114 171 118 114 171 118 114 171 118 108 175 125 114 171 118 108 175 125 108 175 125 114 171 118 108 175 125 114 171 118 114 171 118 108 175 125 114 171 118 114 171 118 114 171 118 35 229 213 8 248 244 8 248 244 17 242 234 55 214 188 55 214 188 55 214 188 55 214 188 52 216 192 52 216 192 55 214 188 55 214 188 55 214 188 58 212 185 58 212 185 55 214 188 58 212 185 58 212 185 55 214 188 55 214 188 55 214 188 55 214 188 55 214 188 55 214 188 58 212 185 58 212 185 55 214 188 58 212 185 55 214 188 58 212 185 58 212 185 55 214 188 55 214 188 55 214 188 58 212 185 58 212 185 58 212 185 55 214 188 58 212 185 58 212 185 58 212 185 55 214 188 55 214 188 55 214 188 58 212 185 58 212 185 55 214 188 58 212 185 55 214 188 55 214 188 58 212 185 55 214 188 55 214 188 55 214 188 55 214 188 55 214 188 55 214 188 58 212 185 55 214 188 58 212 185 55 214 188 55 214 188 55 214 188 58 212 185 55 214 188 55 214 188 55 214 188 55 214 188 55 214 188 55 214 188 55 214 188 55 214 188 55 214 188 55 214 188 55 214 188 55 214 188 49 218 195 17 242 234 8 248 244 8 248 244 8 248 244 5 250 248 5 250 248 8 248 244 5 250 248 5 250 248 5 250 248 5 250 248 5 250 248 8 248 244 8 248 244 8 248 244 8 248 244 5 250 248 8 248 244 8 248 244 8 248 244 8 248 244 8 248 244 5 250 248 8 248 244 5 250 248 5 250 248 5 250 248 5 250 248 8 248 244 8 248 244 8 248 244 5 250 248 5 250 248 5 250 248 5 250 248 
5 250 248 5 250 248 5 250 248 5 250 248 5 250 248 5 250 248 5 250 248 5 250 248 5 250 248 5 250 248 5 250 248 5 250 248 8 248 244 8 248 244 5 250 248 5 250 248 8 248 244 5 250 248 5 250 248 5 250 248 8 248 244 8 248 244 5 250 248 5 250 248 5 250 248 5 250 248 5 250 248 5 250 248 5 250 248 5 250 248 5 250 248 5 250 248 8 248 244 46 220 199 91 188 146 96 184 139 99 181 136 99 181 136 99 181 136 99 181 136 99 181 136 96 184 139 96 184 139 99 181 136 99 181 136 99 181 136 99 181 136 99 181 136 99 181 136 99 181 136 102 179 132 99 181 136 102 179 132 102 179 132 102 179 132 102 179 132 102 179 132 102 179 132 102 179 132 99 181 136 105 177 129 102 179 132 99 181 136 102 179 132 102 179 132 99 181 136 105 177 129 105 177 129 102 179 132 105 177 129 102 179 132 105 177 129 105 177 129 102 179 132 105 177 129 105 177 129 102 179 132 102 179 132 102 179 132 105 177 129 105 177 129 105 177 129 105 177 129 105 177 129 105 177 129 114 171 118 108 175 125 108 175 125 108 175 125 108 175 125 108 175 125 108 175 125 108 175 125 114 171 118 108 175 125 114 171 118 114 171 118 108 175 125 114 171 118 114 171 118 114 171 118 114 171 118 114 171 118 108 175 125 114 171 118 114 171 118 114 171 118 114 171 118 35 229 213 8 248 244 8 248 244 20 239 230 52 216 192 55 214 188 55 214 188 52 216 192 55 214 188 55 214 188 55 214 188 55 214 188 58 212 185 58 212 185 55 214 188 58 212 185 58 212 185 58 212 185 55 214 188 58 212 185 58 212 185 55 214 188 55 214 188 55 214 188 58 212 185 58 212 185 58 212 185 58 212 185 58 212 185 58 212 185 58 212 185 55 214 188 58 212 185 58 212 185 58 212 185 55 214 188 58 212 185 58 212 185 58 212 185 58 212 185 55 214 188 55 214 188 55 214 188 58 212 185 55 214 188 55 214 188 55 214 188 55 214 188 55 214 188 58 212 185 55 214 188 55 214 188 55 214 188 58 212 185 55 214 188 55 214 188 55 214 188 58 212 185 55 214 188 55 214 188 55 214 188 58 212 185 58 212 185 55 214 188 55 214 188 55 214 188 55 214 188 55 214 188 55 214 188 55 214 188 55 214 188 55 214 188 55 214 188 55 214 188 55 214 188 55 214 188 55 214 188 52 216 192 32 231 216 8 248 244 8 248 244 5 250 248 8 248 244 8 248 244 5 250 248 5 250 248 5 250 248 5 250 248 5 250 248 5 250 248 5 250 248 8 248 244 8 248 244 5 250 248 8 248 244 8 248 244 8 248 244 8 248 244 8 248 244 8 248 244 5 250 248 5 250 248 5 250 248 8 248 244 8 248 244 8 248 244 5 250 248 5 250 248 5 250 248 5 250 248 5 250 248 5 250 248 
5 250 248 5 250 248 5 250 248 5 250 248 5 250 248 5 250 248 5 250 248 5 250 248 5 250 248 5 250 248 5 250 248 5 250 248 8 248 244 8 248 244 5 250 248 5 250 248 8 248 244 5 250 248 5 250 248 5 250 248 8 248 244 8 248 244 5 250 248 5 250 248 5 250 248 5 250 248 5 250 248 5 250 248 5 250 248 5 250 248 5 250 248 5 250 248 8 248 244 46 220 199 91 188 146 96 184 139 99 181 136 99 181 136 99 181 136 99 181 136 99 181 136 96 184 139 96 184 139 99 181 136 99 181 136 99 181 136 99 181 136 99 181 136 99 181 136 99 181 136 102 179 132 99 181 136 102 179 132 102 179 132 102 179 132 102 179 132 102 179 132 102 179 132 102 179 132 99 181 136 105 177 129 102 179 132 99 181 136 102 179 132 102 179 132 99 181 136 105 177 129 105 177 129 102 179 132 105 177 129 102 179 132 105 177 129 105 177 129 102 179 132 105 177 129 105 177 129 102 179 132 102 179 132 102 179 132 105 177 129 105 177 129 105 177 129 105 177 129 105 177 129 105 177 129 114 171 118 108 175 125 108 175 125 108 175 125 108 175 125 108 175 125 108 175 125 108 175 125 114 171 118 108 175 125 114 171 118 114 171 118 108 175 125 114 171 118 114 171 118 114 171 118 114 171 118 114 171 118 108 175 125 114 171 118 114 171 118 114 171 118 114 171 118 35 229 213 8 248 244 8 248 244 20 239 230 52 216 192 55 214 188 55 214 188 52 216 192 55 214 188 55 214 188 55 214 188 55 214 188 58 212 185 58 212 185 55 214 188 58 212 185 58 212 185 58 212 185 55 214 188 58 212 185 58 212 185 55 214 188 55 214 188 55 214 188 58 212 185 58 212 185 58 212 185 58 212 185 58 212 185 58 212 185 58 212 185 55 214 188 58 212 185 58 212 185 58 212 185 55 214 188 58 212 185 58 212 185 58 212 185 58 212 185 55 214 188 55 214 188 55 214 188 58 212 185 55 214 188 55 214 188 55 214 188 55 214 188 55 214 188 58 212 185 55 214 188 55 214 188 55 214 188 58 212 185 55 214 188 55 214 188 55 214 188 58 212 185 55 214 188 55 214 188 55 214 188 58 212 185 58 212 185 55 214 188 55 214 188 55 214 188 55 214 188 55 214 188 55 214 188 55 214 188 55 214 188 55 214 188 55 214 188 55 214 188 55 214 188 55 214 188 55 214 188 52 216 192 32 231 216 8 248 244 8 248 244 5 250 248 8 248 244 8 248 244 5 250 248 5 250 248 5 250 248 5 250 248 5 250 248 5 250 248 5 250 248 8 248 244 8 248 244 5 250 248 8 248 244 8 248 244 8 248 244 8 248 244 8 248 244 8 248 244 5 250 248 5 250 248 5 250 248 8 248 244 8 248 244 8 248 244 5 250 248 5 250 248 5 250 248 5 250 248 5 250 248 5 250 248 
5 250 248 5 250 248 5 250 248 5 250 248 5 250 248 5 250 248 8 248 244 5 250 248 5 250 248 5 250 248 5 250 248 5 250 248 5 250 248 5 250 248 8 248 244 5 250 248 5 250 248 5 250 248 8 248 244 8 248 244 8 248 244 5 250 248 5 250 248 5 250 248 5 250 248 5 250 248 5 250 248 5 250 248 5 250 248 5 250 248 8 248 244 14 244 237 73 201 167 96 184 139 96 184 139 99 181 136 99 181 136 99 181 136 96 184 139 99 181 136 99 181 136 99 181 136 99 181 136 99 181 136 102 179 132 99 181 136 99 181 136 102 179 132 102 179 132 102 179 132 102 179 132 102 179 132 102 179 132 99 181 136 102 179 132 102 179 132 105 177 129 105 177 129 102 179 132 102 179 132 102 179 132 105 177 129 102 179 132 102 179 132 102 179 132 102 179 132 105 177 129 105 177 129 105 177 129 105 177 129 102 179 132 102 179 132 102 179 132 102 179 132 102 179 132 102 179 132 105 177 129 105 177 129 102 179 132 102 179 132 108 175 125 105 177 129 105 177 129 105 177 129 105 177 129 105 177 129 108 175 125 108 175 125 108 175 125 108 175 125 105 177 129 114 171 118 108 175 125 114 171 118 114 171 118 114 171 118 114 171 118 114 171 118 114 171 118 117 169 115 114 171 118 114 171 118 114 171 118 114 171 118 114 171 118 114 171 118 114 171 118 117 169 115 35 229 213 8 248 244 8 248 244 17 242 234 52 216 192 52 216 192 55 214 188 52 216 192 55 214 188 55 214 188 55 214 188 55 214 188 55 214 188 55 214 188 55 214 188 55 214 188 55 214 188 55 214 188 55 214 188 55 214 188 58 212 185 55 214 188 58 212 185 58 212 185 58 212 185 58 212 185 58 212 185 55 214 188 55 214 188 58 212 185 58 212 185 58 212 185 58 212 185 58 212 185 58 212 185 55 214 188 58 212 185 58 212 185 55 214 188 55 214 188 58 212 185 55 214 188 58 212 185 58 212 185 55 214 188 55 214 188 55 214 188 55 214 188 55 214 188 55 214 188 58 212 185 58 212 185 58 212 185 58 212 185 58 212 185 55 214 188 58 212 185 55 214 188 55 214 188 55 214 188 55 214 188 55 214 188 55 214 188 58 212 185 55 214 188 55 214 188 55 214 188 55 214 188 55 214 188 55 214 188 55 214 188 55 214 188 55 214 188 55 214 188 55 214 188 55 214 188 55 214 188 55 214 188 55 214 188 44 222 202 11 246 241 8 248 244 8 248 244 8 248 244 8 248 244 8 248 244 5 250 248 5 250 248 8 248 244 5 250 248 5 250 248 8 248 244 5 250 248 5 250 248 5 250 248 8 248 244 5 250 248 5 250 248 5 250 248 8 248 244 5 250 248 5 250 248 8 248 244 8 248 244 5 250 248 5 250 248 8 248 244 8 248 244 5 250 248 5 250 248 5 250 248 5 250 248 
5 250 248 5 250 248 5 250 248 5 250 248 5 250 248 5 250 248 8 248 244 5 250 248 5 250 248 5 250 248 5 250 248 5 250 248 5 250 248 5 250 248 8 248 244 5 250 248 5 250 248 5 250 248 8 248 244 8 248 244 8 248 244 5 250 248 5 250 248 5 250 248 5 250 248 5 250 248 5 250 248 5 250 248 5 250 248 5 250 248 8 248 244 14 244 237 73 201 167 96 184 139 96 184 139 99 181 136 99 181 136 99 181 136 96 184 139 99 181 136 99 181 136 99 181 136 99 181 136 99 181 136 102 179 132 99 181 136 99 181 136 102 179 132 102 179 132 102 179 132 102 179 132 102 179 132 102 179 132 99 181 136 102 179 132 102 179 132 105 177 129 105 177 129 102 179 132 102 179 132 102 179 132 105 177 129 102 179 132 102 179 132 102 179 132 102 179 132 105 177 129 105 177 129 105 177 129 105 177 129 102 179 132 102 179 132 102 179 132 102 179 132 102 179 132 102 179 132 105 177 129 105 177 129 102 179 132 102 179 132 108 175 125 105 177 129 105 177 129 105 177 129 105 177 129 105 177 129 108 175 125 108 175 125 108 175 125 108 175 125 105 177 129 114 171 118 108 175 125 114 171 118 114 171 118 114 171 118 114 171 118 114 171 118 114 171 118 117 169 115 114 171 118 114 171 118 114 171 118 114 171 118 114 171 118 114 171 118 114 171 118 117 169 115 35 229 213 8 248 244 8 248 244 17 242 234 52 216 192 52 216 192 55 214 188 52 216 192 55 214 188 55 214 188 55 214 188 55 214 188 55 214 188 55 214 188 55 214 188 55 214 188 55 214 188 55 214 188 55 214 188 55 214 188 58 212 185 55 214 188 58 212 185 58 212 185 58 212 185 58 212 185 58 212 185 55 214 188 55 214 188 58 212 185 58 212 185 58 212 185 58 212 185 58 212 185 58 212 185 55 214 188 58 212 185 58 212 185 55 214 188 55 214 188 58 212 185 55 214 188 58 212 185 58 212 185 55 214 188 55 214 188 55 214 188 55 214 188 55 214 188 55 214 188 58 212 185 58 212 185 58 212 185 58 212 185 58 212 185 55 214 188 58 212 185 55 214 188 55 214 188 55 214 188 55 214 188 55 214 188 55 214 188 58 212 185 55 214 188 55 214 188 55 214 188 55 214 188 55 214 188 55 214 188 55 214 188 55 214 188 55 214 188 55 214 188 55 214 188 55 214 188 55 214 188 55 214 188 55 214 188 44 222 202 11 246 241 8 248 244 8 248 244 8 248 244 8 248 244 8 248 244 5 250 248 5 250 248 8 248 244 5 250 248 5 250 248 8 248 244 5 250 248 5 250 248 5 250 248 8 248 244 5 250 248 5 250 248 5 250 248 8 248 244 5 250 248 5 250 248 8 248 244 8 248 244 5 250 248 5 250 248 8 248 244 8 248 244 5 250 248 5 250 248 5 250 248 5 250 248 
5 250 248 5 250 248 5 250 248 5 250 248 8 248 244 5 250 248 5 250 248 5 250 248 5 250 248 5 250 248 5 250 248 5 250 248 5 250 248 8 248 244 8 248 244 5 250 248 8 248 244 8 248 244 5 250 248 8 248 244 8 248 244 8 248 244 8 248 244 5 250 248 5 250 248 5 250 248 5 250 248 8 248 244 5 250 248 8 248 244 32 231 216 93 186 143 99 181 136 102 179 132 99 181 136 102 179 132 102 179 132 99 181 136 96 184 139 99 181 136 99 181 136 99 181 136 96 184 139 102 179 132 102 179 132 102 179 132 102 179 132 102 179 132 102 179 132 102 179 132 102 179 132 105 177 129 102 179 132 102 179 132 102 179 132 102 179 132 99 181 136 102 179 132 102 179 132 102 179 132 105 177 129 105 177 129 102 179 132 102 179 132 102 179 132 102 179 132 102 179 132 105 177 129 105 177 129 102 179 132 102 179 132 102 179 132 105 177 129 102 179 132 102 179 132 105 177 129 105 177 129 102 179 132 102 179 132 102 179 132 102 179 132 105 177 129 105 177 129 105 177 129 105 177 129 108 175 125 108 175 125 108 175 125 114 171 118 114 171 118 114 171 118 114 171 118 108 175 125 114 171 118 114 171 118 114 171 118 114 171 118 117 169 115 114 171 118 117 169 115 117 169 115 114 171 118 114 171 118 117 169 115 114 171 118 114 171 118 114 171 118 117 169 115 35 229 213 8 248 244 8 248 244 17 242 234 52 216 192 55 214 188 55 214 188 55 214 188 55 214 188 52 216 192 52 216 192 55 214 188 55 214 188 55 214 188 55 214 188 52 216 192 55 214 188 55 214 188 55 214 188 55 214 188 55 214 188 58 212 185 55 214 188 58 212 185 58 212 185 58 212 185 58 212 185 58 212 185 58 212 185 58 212 185 58 212 185 58 212 185 55 214 188 55 214 188 55 214 188 55 214 188 58 212 185 58 212 185 58 212 185 55 214 188 55 214 188 55 214 188 58 212 185 58 212 185 58 212 185 58 212 185 58 212 185 58 212 185 58 212 185 58 212 185 55 214 188 58 212 185 55 214 188 58 212 185 58 212 185 55 214 188 58 212 185 55 214 188 55 214 188 55 214 188 55 214 188 55 214 188 55 214 188 55 214 188 55 214 188 55 214 188 55 214 188 55 214 188 55 214 188 55 214 188 55 214 188 55 214 188 55 214 188 55 214 188 55 214 188 52 216 192 52 216 192 52 216 192 52 216 192 55 214 188 52 216 192 17 242 234 5 250 248 8 248 244 8 248 244 8 248 244 5 250 248 8 248 244 8 248 244 8 248 244 8 248 244 8 248 244 5 250 248 5 250 248 5 250 248 5 250 248 5 250 248 5 250 248 5 250 248 5 250 248 5 250 248 5 250 248 8 248 244 5 250 248 5 250 248 8 248 244 8 248 244 8 248 244 5 250 248 5 250 248 5 250 248 5 250 248 
5 250 248 5 250 248 5 250 248 5 250 248 8 248 244 5 250 248 5 250 248 5 250 248 5 250 248 5 250 248 5 250 248 5 250 248 5 250 248 8 248 244 8 248 244 5 250 248 8 248 244 8 248 244 5 250 248 8 248 244 8 248 244 8 248 244 8 248 244 5 250 248 5 250 248 5 250 248 5 250 248 8 248 244 5 250 248 8 248 244 32 231 216 93 186 143 99 181 136 102 179 132 99 181 136 102 179 132 102 179 132 99 181 136 96 184 139 99 181 136 99 181 136 99 181 136 96 184 139 102 179 132 102 179 132 102 179 132 102 179 132 102 179 132 102 179 132 102 179 132 102 179 132 105 177 129 102 179 132 102 179 132 102 179 132 102 179 132 99 181 136 102 179 132 102 179 132 102 179 132 105 177 129 105 177 129 102 179 132 102 179 132 102 179 132 102 179 132 102 179 132 105 177 129 105 177 129 102 179 132 102 179 132 102 179 132 105 177 129 102 179 132 102 179 132 105 177 129 105 177 129 102 179 132 102 179 132 102 179 132 102 179 132 105 177 129 105 177 129 105 177 129 105 177 129 108 175 125 108 175 125 108 175 125 114 171 118 114 171 118 114 171 118 114 171 118 108 175 125 114 171 118 114 171 118 114 171 118 114 171 118 117 169 115 114 171 118 117 169 115 117 169 115 114 171 118 114 171 118 117 169 115 114 171 118 114 171 118 114 171 118 117 169 115 35 229 213 8 248 244 8 248 244 17 242 234 52 216 192 55 214 188 55 214 188 55 214 188 55 214 188 52 216 192 52 216 192 55 214 188 55 214 188 55 214 188 55 214 188 52 216 192 55 214 188 55 214 188 55 214 188 55 214 188 55 214 188 58 212 185 55 214 188 58 212 185 58 212 185 58 212 185 58 212 185 58 212 185 58 212 185 58 212 185 58 212 185 58 212 185 55 214 188 55 214 188 55 214 188 55 214 188 58 212 185 58 212 185 58 212 185 55 214 188 55 214 188 55 214 188 58 212 185 58 212 185 58 212 185 58 212 185 58 212 185 58 212 185 58 212 185 58 212 185 55 214 188 58 212 185 55 214 188 58 212 185 58 212 185 55 214 188 58 212 185 55 214 188 55 214 188 55 214 188 55 214 188 55 214 188 55 214 188 55 214 188 55 214 188 55 214 188 55 214 188 55 214 188 55 214 188 55 214 188 55 214 188 55 214 188 55 214 188 55 214 188 55 214 188 52 216 192 52 216 192 52 216 192 52 216 192 55 214 188 52 216 192 17 242 234 5 250 248 8 248 244 8 248 244 8 248 244 5 250 248 8 248 244 8 248 244 8 248 244 8 248 244 8 248 244 5 250 248 5 250 248 5 250 248 5 250 248 5 250 248 5 250 248 5 250 248 5 250 248 5 250 248 5 250 248 8 248 244 5 250 248 5 250 248 8 248 244 8 248 244 8 248 244 5 250 248 5 250 248 5 250 248 5 250 248 
5 250 248 5 250 248 8 248 244 5 250 248 8 248 244 5 250 248 8 248 244 5 250 248 5 250 248 5 250 248 5 250 248 8 248 244 5 250 248 8 248 244 5 250 248 8 248 244 8 248 244 8 248 244 5 250 248 8 248 244 8 248 244 5 250 248 5 250 248 5 250 248 5 250 248 5 250 248 5 250 248 5 250 248 8 248 244 64 207 178 96 184 139 99 181 136 99 181 136 102 179 132 99 181 136 102 179 132 105 177 129 108 175 125 102 179 132 99 181 136 99 181 136 99 181 136 99 181 136 99 181 136 99 181 136 99 181 136 99 181 136 99 181 136 102 179 132 102 179 132 102 179 132 102 179 132 102 179 132 102 179 132 102 179 132 102 179 132 102 179 132 102 179 132 102 179 132 105 177 129 102 179 132 105 177 129 102 179 132 102 179 132 102 179 132 102 179 132 99 181 136 99 181 136 105 177 129 105 177 129 105 177 129 105 177 129 105 177 129 105 177 129 105 177 129 108 175 125 108 175 125 105 177 129 102 179 132 108 175 125 105 177 129 105 177 129 102 179 132 105 177 129 108 175 125 108 175 125 108 175 125 108 175 125 114 171 118 114 171 118 108 175 125 114 171 118 114 171 118 114 171 118 117 169 115 117 169 115 117 169 115 114 171 118 114 171 118 114 171 118 117 169 115 117 169 115 114 171 118 117 169 115 117 169 115 117 169 115 117 169 115 117 169 115 35 229 213 8 248 244 8 248 244 17 242 234 52 216 192 55 214 188 52 216 192 52 216 192 52 216 192 52 216 192 55 214 188 55 214 188 55 214 188 55 214 188 58 212 185 55 214 188 55 214 188 55 214 188 58 212 185 58 212 185 55 214 188 58 212 185 55 214 188 58 212 185 58 212 185 55 214 188 58 212 185 58 212 185 55 214 188 58 212 185 58 212 185 58 212 185 55 214 188 55 214 188 55 214 188 55 214 188 58 212 185 55 214 188 58 212 185 55 214 188 55 214 188 55 214 188 55 214 188 55 214 188 55 214 188 55 214 188 58 212 185 58 212 185 58 212 185 58 212 185 58 212 185 58 212 185 58 212 185 55 214 188 55 214 188 55 214 188 55 214 188 55 214 188 55 214 188 55 214 188 55 214 188 55 214 188 55 214 188 58 212 185 55 214 188 55 214 188 55 214 188 55 214 188 55 214 188 55 214 188 55 214 188 58 212 185 55 214 188 55 214 188 52 216 192 52 216 192 55 214 188 55 214 188 52 216 192 52 216 192 55 214 188 52 216 192 38 227 209 5 250 248 5 250 248 5 250 248 8 248 244 5 250 248 5 250 248 8 248 244 5 250 248 5 250 248 8 248 244 8 248 244 8 248 244 8 248 244 8 248 244 5 250 248 5 250 248 5 250 248 5 250 248 5 250 248 5 250 248 5 250 248 5 250 248 5 250 248 5 250 248 5 250 248 5 250 248 5 250 248 5 250 248 5 250 248 
5 250 248 5 250 248 8 248 244 5 250 248 8 248 244 5 250 248 8 248 244 5 250 248 5 250 248 5 250 248 5 250 248 8 248 244 5 250 248 8 248 244 5 250 248 8 248 244 8 248 244 8 248 244 5 250 248 8 248 244 8 248 244 5 250 248 5 250 248 5 250 248 5 250 248 5 250 248 5 250 248 5 250 248 8 248 244 64 207 178 96 184 139 99 181 136 99 181 136 102 179 132 99 181 136 102 179 132 105 177 129 108 175 125 102 179 132 99 181 136 99 181 136 99 181 136 99 181 136 99 181 136 99 181 136 99 181 136 99 181 136 99 181 136 102 179 132 102 179 132 102 179 132 102 179 132 102 179 132 102 179 132 102 179 132 102 179 132 102 179 132 102 179 132 102 179 132 105 177 129 102 179 132 105 177 129 102 179 132 102 179 132 102 179 132 102 179 132 99 181 136 99 181 136 105 177 129 105 177 129 105 177 129 105 177 129 105 177 129 105 177 129 105 177 129 108 175 125 108 175 125 105 177 129 102 179 132 108 175 125 105 177 129 105 177 129 102 179 132 105 177 129 108 175 125 108 175 125 108 175 125 108 175 125 114 171 118 114 171 118 108 175 125 114 171 118 114 171 118 114 171 118 117 169 115 117 169 115 117 169 115 114 171 118 114 171 118 114 171 118 117 169 115 117 169 115 114 171 118 117 169 115 117 169 115 117 169 115 117 169 115 117 169 115 35 229 213 8 248 244 8 248 244 17 242 234 52 216 192 55 214 188 52 216 192 52 216 192 52 216 192 52 216 192 55 214 188 55 214 188 55 214 188 55 214 188 58 212 185 55 214 188 55 214 188 55 214 188 58 212 185 58 212 185 55 214 188 58 212 185 55 214 188 58 212 185 58 212 185 55 214 188 58 212 185 58 212 185 55 214 188 58 212 185 58 212 185 58 212 185 55 214 188 55 214 188 55 214 188 55 214 188 58 212 185 55 214 188 58 212 185 55 214 188 55 214 188 55 214 188 55 214 188 55 214 188 55 214 188 55 214 188 58 212 185 58 212 185 58 212 185 58 212 185 58 212 185 58 212 185 58 212 185 55 214 188 55 214 188 55 214 188 55 214 188 55 214 188 55 214 188 55 214 188 55 214 188 55 214 188 55 214 188 58 212 185 55 214 188 55 214 188 55 214 188 55 214 188 55 214 188 55 214 188 55 214 188 58 212 185 55 214 188 55 214 188 52 216 192 52 216 192 55 214 188 55 214 188 52 216 192 52 216 192 55 214 188 52 216 192 38 227 209 5 250 248 5 250 248 5 250 248 8 248 244 5 250 248 5 250 248 8 248 244 5 250 248 5 250 248 8 248 244 8 248 244 8 248 244 8 248 244 8 248 244 5 250 248 5 250 248 5 250 248 5 250 248 5 250 248 5 250 248 5 250 248 5 250 248 5 250 248 5 250 248 5 250 248 5 250 248 5 250 248 5 250 248 5 250 248 
5 250 248 5 250 248 5 250 248 5 250 248 5 250 248 8 248 244 5 250 248 5 250 248 5 250 248 5 250 248 5 250 248 8 248 244 8 248 244 8 248 244 5 250 248 8 248 244 5 250 248 8 248 244 5 250 248 5 250 248 8 248 244 5 250 248 8 248 244 8 248 244 5 250 248 8 248 244 8 248 244 8 248 244 64 207 178 96 184 139 99 181 136 102 179 132 99 181 136 102 179 132 105 177 129 102 179 132 102 179 132 105 177 129 102 179 132 102 179 132 99 181 136 102 179 132 99 181 136 99 181 136 99 181 136 99 181 136 99 181 136 99 181 136 102 179 132 99 181 136 102 179 132 99 181 136 99 181 136 99 181 136 99 181 136 99 181 136 102 179 132 99 181 136 102 179 132 102 179 132 108 175 125 102 179 132 102 179 132 102 179 132 102 179 132 105 177 129 102 179 132 102 179 132 102 179 132 105 177 129 105 177 129 108 175 125 105 177 129 102 179 132 105 177 129 108 175 125 105 177 129 105 177 129 105 177 129 105 177 129 105 177 129 108 175 125 108 175 125 108 175 125 105 177 129 108 175 125 108 175 125 114 171 118 108 175 125 108 175 125 108 175 125 117 169 115 114 171 118 114 171 118 114 171 118 114 171 118 117 169 115 114 171 118 117 169 115 117 169 115 114 171 118 114 171 118 120 166 111 114 171 118 114 171 118 114 171 118 114 171 118 117 169 115 35 229 213 8 248 244 8 248 244 17 242 234 52 216 192 52 216 192 52 216 192 52 216 192 55 214 188 55 214 188 52 216 192 52 216 192 55 214 188 55 214 188 52 216 192 55 214 188 55 214 188 52 216 192 55 214 188 58 212 185 58 212 185 55 214 188 58 212 185 55 214 188 58 212 185 55 214 188 55 214 188 58 212 185 58 212 185 58 212 185 58 212 185 58 212 185 58 212 185 58 212 185 55 214 188 55 214 188 58 212 185 58 212 185 55 214 188 55 214 188 55 214 188 55 214 188 58 212 185 55 214 188 55 214 188 55 214 188 55 214 188 55 214 188 55 214 188 55 214 188 55 214 188 58 212 185 55 214 188 58 212 185 55 214 188 55 214 188 58 212 185 58 212 185 58 212 185 58 212 185 58 212 185 58 212 185 58 212 185 55 214 188 55 214 188 58 212 185 55 214 188 55 214 188 55 214 188 55 214 188 55 214 188 55 214 188 55 214 188 55 214 188 55 214 188 55 214 188 55 214 188 52 216 192 55 214 188 52 216 192 52 216 192 52 216 192 52 216 192 38 227 209 5 250 248 5 250 248 8 248 244 8 248 244 5 250 248 5 250 248 5 250 248 5 250 248 5 250 248 8 248 244 5 250 248 5 250 248 5 250 248 5 250 248 5 250 248 5 250 248 5 250 248 5 250 248 5 250 248 5 250 248 5 250 248 5 250 248 8 248 244 5 250 248 8 248 244 8 248 244 5 250 248 8 248 244 
5 250 248 5 250 248 5 250 248 5 250 248 5 250 248 8 248 244 5 250 248 5 250 248 5 250 248 5 250 248 5 250 248 8 248 244 8 248 244 8 248 244 5 250 248 8 248 244 5 250 248 8 248 244 5 250 248 5 250 248 8 248 244 5 250 248 8 248 244 8 248 244 5 250 248 8 248 244 8 248 244 8 248 244 64 207 178 96 184 139 99 181 136 102 179 132 99 181 136 102 179 132 105 177 129 102 179 132 102 179 132 105 177 129 102 179 132 102 179 132 99 181 136 102 179 132 99 181 136 99 181 136 99 181 136 99 181 136 99 181 136 99 181 136 102 179 132 99 181 136 102 179 132 99 181 136 99 181 136 99 181 136 99 181 136 99 181 136 102 179 132 99 181 136 102 179 132 102 179 132 108 175 125 102 179 132 102 179 132 102 179 132 102 179 132 105 177 129 102 179 132 102 179 132 102 179 132 105 177 129 105 177 129 108 175 125 105 177 129 102 179 132 105 177 129 108 175 125 105 177 129 105 177 129 105 177 129 105 177 129 105 177 129 108 175 125 108 175 125 108 175 125 105 177 129 108 175 125 108 175 125 114 171 118 108 175 125 108 175 125 108 175 125 117 169 115 114 171 118 114 171 118 114 171 118 114 171 118 117 169 115 114 171 118 117 169 115 117 169 115 114 171 118 114 171 118 120 166 111 114 171 118 114 171 118 114 171 118 114 171 118 117 169 115 35 229 213 8 248 244 8 248 244 17 242 234 52 216 192 52 216 192 52 216 192 52 216 192 55 214 188 55 214 188 52 216 192 52 216 192 55 214 188 55 214 188 52 216 192 55 214 188 55 214 188 52 216 192 55 214 188 58 212 185 58 212 185 55 214 188 58 212 185 55 214 188 58 212 185 55 214 188 55 214 188 58 212 185 58 212 185 58 212 185 58 212 185 58 212 185 58 212 185 58 212 185 55 214 188 55 214 188 58 212 185 58 212 185 55 214 188 55 214 188 55 214 188 55 214 188 58 212 185 55 214 188 55 214 188 55 214 188 55 214 188 55 214 188 55 214 188 55 214 188 55 214 188 58 212 185 55 214 188 58 212 185 55 214 188 55 214 188 58 212 185 58 212 185 58 212 185 58 212 185 58 212 185 58 212 185 58 212 185 55 214 188 55 214 188 58 212 185 55 214 188 55 214 188 55 214 188 55 214 188 55 214 188 55 214 188 55 214 188 55 214 188 55 214 188 55 214 188 55 214 188 52 216 192 55 214 188 52 216 192 52 216 192 52 216 192 52 216 192 38 227 209 5 250 248 5 250 248 8 248 244 8 248 244 5 250 248 5 250 248 5 250 248 5 250 248 5 250 248 8 248 244 5 250 248 5 250 248 5 250 248 5 250 248 5 250 248 5 250 248 5 250 248 5 250 248 5 250 248 5 250 248 5 250 248 5 250 248 8 248 244 5 250 248 8 248 244 8 248 244 5 250 248 8 248 244 
5 250 248 5 250 248 5 250 248 5 250 248 5 250 248 8 248 244 5 250 248 8 248 244 5 250 248 5 250 248 11 246 241 8 248 244 5 250 248 5 250 248 8 248 244 5 250 248 5 250 248 8 248 244 5 250 248 5 250 248 8 248 244 8 248 244 5 250 248 8 248 244 5 250 248 5 250 248 20 239 230 73 201 167 96 184 139 102 179 132 102 179 132 99 181 136 102 179 132 102 179 132 99 181 136 102 179 132 105 177 129 102 179 132 102 179 132 105 177 129 102 179 132 105 177 129 102 179 132 105 177 129 102 179 132 99 181 136 105 177 129 105 177 129 105 177 129 102 179 132 102 179 132 102 179 132 102 179 132 105 177 129 99 181 136 99 181 136 99 181 136 99 181 136 102 179 132 102 179 132 102 179 132 105 177 129 102 179 132 102 179 132 102 179 132 105 177 129 105 177 129 105 177 129 108 175 125 102 179 132 108 175 125 108 175 125 108 175 125 99 181 136 105 177 129 105 177 129 108 175 125 114 171 118 108 175 125 114 171 118 105 177 129 105 177 129 108 175 125 105 177 129 108 175 125 114 171 118 114 171 118 108 175 125 108 175 125 114 171 118 108 175 125 114 171 118 108 175 125 114 171 118 114 171 118 108 175 125 114 171 118 114 171 118 114 171 118 114 171 118 114 171 118 117 169 115 117 169 115 117 169 115 114 171 118 114 171 118 114 171 118 117 169 115 38 227 209 8 248 244 8 248 244 17 242 234 52 216 192 55 214 188 55 214 188 52 216 192 55 214 188 55 214 188 58 212 185 55 214 188 55 214 188 55 214 188 55 214 188 55 214 188 55 214 188 52 216 192 55 214 188 55 214 188 55 214 188 52 216 192 55 214 188 58 212 185 58 212 185 58 212 185 55 214 188 58 212 185 55 214 188 55 214 188 55 214 188 55 214 188 55 214 188 55 214 188 55 214 188 55 214 188 58 212 185 55 214 188 52 216 192 55 214 188 55 214 188 58 212 185 58 212 185 58 212 185 55 214 188 58 212 185 58 212 185 55 214 188 55 214 188 55 214 188 58 212 185 55 214 188 55 214 188 55 214 188 55 214 188 55 214 188 55 214 188 55 214 188 55 214 188 55 214 188 58 212 185 55 214 188 52 216 192 55 214 188 58 212 185 58 212 185 58 212 185 58 212 185 55 214 188 55 214 188 55 214 188 55 214 188 55 214 188 55 214 188 55 214 188 55 214 188 55 214 188 58 212 185 58 212 185 55 214 188 55 214 188 55 214 188 55 214 188 55 214 188 44 222 202 14 244 237 8 248 244 8 248 244 5 250 248 5 250 248 5 250 248 5 250 248 8 248 244 5 250 248 8 248 244 5 250 248 5 250 248 5 250 248 8 248 244 5 250 248 8 248 244 8 248 244 8 248 244 5 250 248 8 248 244 5 250 248 5 250 248 8 248 244 5 250 248 5 250 248 5 250 248 5 250 248 
5 250 248 5 250 248 5 250 248 5 250 248 5 250 248 8 248 244 5 250 248 8 248 244 5 250 248 5 250 248 11 246 241 8 248 244 5 250 248 5 250 248 8 248 244 5 250 248 5 250 248 8 248 244 5 250 248 5 250 248 8 248 244 8 248 244 5 250 248 8 248 244 5 250 248 5 250 248 20 239 230 73 201 167 96 184 139 102 179 132 102 179 132 99 181 136 102 179 132 102 179 132 99 181 136 102 179 132 105 177 129 102 179 132 102 179 132 105 177 129 102 179 132 105 177 129 102 179 132 105 177 129 102 179 132 99 181 136 105 177 129 105 177 129 105 177 129 102 179 132 102 179 132 102 179 132 102 179 132 105 177 129 99 181 136 99 181 136 99 181 136 99 181 136 102 179 132 102 179 132 102 179 132 105 177 129 102 179 132 102 179 132 102 179 132 105 177 129 105 177 129 105 177 129 108 175 125 102 179 132 108 175 125 108 175 125 108 175 125 99 181 136 105 177 129 105 177 129 108 175 125 114 171 118 108 175 125 114 171 118 105 177 129 105 177 129 108 175 125 105 177 129 108 175 125 114 171 118 114 171 118 108 175 125 108 175 125 114 171 118 108 175 125 114 171 118 108 175 125 114 171 118 114 171 118 108 175 125 114 171 118 114 171 118 114 171 118 114 171 118 114 171 118 117 169 115 117 169 115 117 169 115 114 171 118 114 171 118 114 171 118 117 169 115 38 227 209 8 248 244 8 248 244 17 242 234 52 216 192 55 214 188 55 214 188 52 216 192 55 214 188 55 214 188 58 212 185 55 214 188 55 214 188 55 214 188 55 214 188 55 214 188 55 214 188 52 216 192 55 214 188 55 214 188 55 214 188 52 216 192 55 214 188 58 212 185 58 212 185 58 212 185 55 214 188 58 212 185 55 214 188 55 214 188 55 214 188 55 214 188 55 214 188 55 214 188 55 214 188 55 214 188 58 212 185 55 214 188 52 216 192 55 214 188 55 214 188 58 212 185 58 212 185 58 212 185 55 214 188 58 212 185 58 212 185 55 214 188 55 214 188 55 214 188 58 212 185 55 214 188 55 214 188 55 214 188 55 214 188 55 214 188 55 214 188 55 214 188 55 214 188 55 214 188 58 212 185 55 214 188 52 216 192 55 214 188 58 212 185 58 212 185 58 212 185 58 212 185 55 214 188 55 214 188 55 214 188 55 214 188 55 214 188 55 214 188 55 214 188 55 214 188 55 214 188 58 212 185 58 212 185 55 214 188 55 214 188 55 214 188 55 214 188 55 214 188 44 222 202 14 244 237 8 248 244 8 248 244 5 250 248 5 250 248 5 250 248 5 250 248 8 248 244 5 250 248 8 248 244 5 250 248 5 250 248 5 250 248 8 248 244 5 250 248 8 248 244 8 248 244 8 248 244 5 250 248 8 248 244 5 250 248 5 250 248 8 248 244 5 250 248 5 250 248 5 250 248 5 250 248 
8 248 244 5 250 248 5 250 248 5 250 248 5 250 248 5 250 248 5 250 248 8 248 244 5 250 248 8 248 244 8 248 244 8 248 244 5 250 248 5 250 248 5 250 248 8 248 244 8 248 244 5 250 248 5 250 248 8 248 244 5 250 248 5 250 248 8 248 244 8 248 244 8 248 244 23 237 227 93 186 143 102 179 132 102 179 132 99 181 136 102 179 132 102 179 132 105 177 129 105 177 129 105 177 129 102 179 132 105 177 129 105 177 129 102 179 132 105 177 129 102 179 132 105 177 129 105 177 129 105 177 129 105 177 129 102 179 132 102 179 132 102 179 132 102 179 132 102 179 132 105 177 129 108 175 125 105 177 129 102 179 132 102 179 132 102 179 132 105 177 129 105 177 129 102 179 132 102 179 132 99 181 136 99 181 136 102 179 132 105 177 129 105 177 129 102 179 132 102 179 132 102 179 132 105 177 129 105 177 129 105 177 129 105 177 129 102 179 132 105 177 129 105 177 129 105 177 129 105 177 129 105 177 129 108 175 125 105 177 129 105 177 129 105 177 129 105 177 129 108 175 125 108 175 125 108 175 125 108 175 125 114 171 118 114 171 118 114 171 118 108 175 125 114 171 118 108 175 125 108 175 125 114 171 118 114 171 118 114 171 118 114 171 118 114 171 118 114 171 118 114 171 118 114 171 118 114 171 118 117 169 115 117 169 115 117 169 115 117 169 115 120 166 111 38 227 209 8 248 244 8 248 244 17 242 234 52 216 192 52 216 192 55 214 188 55 214 188 55 214 188 55 214 188 55 214 188 55 214 188 55 214 188 58 212 185 55 214 188 55 214 188 55 214 188 55 214 188 52 216 192 52 216 192 55 214 188 58 212 185 58 212 185 55 214 188 55 214 188 55 214 188 55 214 188 55 214 188 58 212 185 55 214 188 55 214 188 55 214 188 58 212 185 58 212 185 58 212 185 55 214 188 58 212 185 55 214 188 55 214 188 55 214 188 55 214 188 55 214 188 55 214 188 55 214 188 58 212 185 55 214 188 58 212 185 58 212 185 58 212 185 55 214 188 55 214 188 58 212 185 55 214 188 55 214 188 55 214 188 55 214 188 55 214 188 55 214 188 58 212 185 55 214 188 55 214 188 55 214 188 55 214 188 55 214 188 58 212 185 55 214 188 55 214 188 58 212 185 55 214 188 55 214 188 55 214 188 55 214 188 55 214 188 55 214 188 55 214 188 55 214 188 55 214 188 58 212 185 55 214 188 55 214 188 55 214 188 58 212 185 55 214 188 55 214 188 55 214 188 52 216 192 17 242 234 8 248 244 8 248 244 8 248 244 5 250 248 5 250 248 5 250 248 5 250 248 5 250 248 5 250 248 5 250 248 5 250 248 5 250 248 8 248 244 5 250 248 5 250 248 8 248 244 5 250 248 5 250 248 5 250 248 5 250 248 5 250 248 5 250 248 5 250 248 5 250 248 5 250 248 
8 248 244 5 250 248 5 250 248 5 250 248 5 250 248 5 250 248 5 250 248 8 248 244 5 250 248 8 248 244 8 248 244 8 248 244 5 250 248 5 250 248 5 250 248 8 248 244 8 248 244 5 250 248 5 250 248 8 248 244 5 250 248 5 250 248 8 248 244 8 248 244 8 248 244 23 237 227 93 186 143 102 179 132 102 179 132 99 181 136 102 179 132 102 179 132 105 177 129 105 177 129 105 177 129 102 179 132 105 177 129 105 177 129 102 179 132 105 177 129 102 179 132 105 177 129 105 177 129 105 177 129 105 177 129 102 179 132 102 179 132 102 179 132 102 179 132 102 179 132 105 177 129 108 175 125 105 177 129 102 179 132 102 179 132 102 179 132 105 177 129 105 177 129 102 179 132 102 179 132 99 181 136 99 181 136 102 179 132 105 177 129 105 177 129 102 179 132 102 179 132 102 179 132 105 177 129 105 177 129 105 177 129 105 177 129 102 179 132 105 177 129 105 177 129 105 177 129 105 177 129 105 177 129 108 175 125 105 177 129 105 177 129 105 177 129 105 177 129 108 175 125 108 175 125 108 175 125 108 175 125 114 171 118 114 171 118 114 171 118 108 175 125 114 171 118 108 175 125 108 175 125 114 171 118 114 171 118 114 171 118 114 171 118 114 171 118 114 171 118 114 171 118 114 171 118 114 171 118 117 169 115 117 169 115 117 169 115 117 169 115 120 166 111 38 227 209 8 248 244 8 248 244 17 242 234 52 216 192 52 216 192 55 214 188 55 214 188 55 214 188 55 214 188 55 214 188 55 214 188 55 214 188 58 212 185 55 214 188 55 214 188 55 214 188 55 214 188 52 216 192 52 216 192 55 214 188 58 212 185 58 212 185 55 214 188 55 214 188 55 214 188 55 214 188 55 214 188 58 212 185 55 214 188 55 214 188 55 214 188 58 212 185 58 212 185 58 212 185 55 214 188 58 212 185 55 214 188 55 214 188 55 214 188 55 214 188 55 214 188 55 214 188 55 214 188 58 212 185 55 214 188 58 212 185 58 212 185 58 212 185 55 214 188 55 214 188 58 212 185 55 214 188 55 214 188 55 214 188 55 214 188 55 214 188 55 214 188 58 212 185 55 214 188 55 214 188 55 214 188 55 214 188 55 214 188 58 212 185 55 214 188 55 214 188 58 212 185 55 214 188 55 214 188 55 214 188 55 214 188 55 214 188 55 214 188 55 214 188 55 214 188 55 214 188 58 212 185 55 214 188 55 214 188 55 214 188 58 212 185 55 214 188 55 214 188 55 214 188 52 216 192 17 242 234 8 248 244 8 248 244 8 248 244 5 250 248 5 250 248 5 250 248 5 250 248 5 250 248 5 250 248 5 250 248 5 250 248 5 250 248 8 248 244 5 250 248 5 250 248 8 248 244 5 250 248 5 250 248 5 250 248 5 250 248 5 250 248 5 250 248 5 250 248 5 250 248 5 250 248 
5 250 248 5 250 248 5 250 248 5 250 248 5 250 248 8 248 244 5 250 248 5 250 248 8 248 244 8 248 244 5 250 248 5 250 248 5 250 248 5 250 248 5 250 248 5 250 248 8 248 244 5 250 248 8 248 244 5 250 248 8 248 244 8 248 244 8 248 244 5 250 248 17 242 234 102 179 132 99 181 136 102 179 132 102 179 132 102 179 132 105 177 129 102 179 132 105 177 129 102 179 132 102 179 132 102 179 132 102 179 132 102 179 132 105 177 129 105 177 129 105 177 129 105 177 129 99 181 136 102 179 132 105 177 129 105 177 129 105 177 129 105 177 129 102 179 132 105 177 129 105 177 129 102 179 132 102 179 132 102 179 132 102 179 132 102 179 132 105 177 129 105 177 129 102 179 132 102 179 132 102 179 132 105 177 129 102 179 132 102 179 132 105 177 129 105 177 129 105 177 129 108 175 125 108 175 125 105 177 129 105 177 129 105 177 129 105 177 129 105 177 129 108 175 125 108 175 125 105 177 129 114 171 118 108 175 125 105 177 129 105 177 129 105 177 129 108 175 125 108 175 125 114 171 118 108 175 125 114 171 118 108 175 125 108 175 125 114 171 118 114 171 118 114 171 118 114 171 118 114 171 118 114 171 118 114 171 118 108 175 125 114 171 118 108 175 125 114 171 118 114 171 118 114 171 118 114 171 118 108 175 125 114 171 118 114 171 118 117 169 115 117 169 115 35 229 213 8 248 244 8 248 244 20 239 230 55 214 188 55 214 188 55 214 188 55 214 188 55 214 188 52 216 192 55 214 188 55 214 188 58 212 185 55 214 188 55 214 188 55 214 188 52 216 192 55 214 188 55 214 188 55 214 188 55 214 188 58 212 185 58 212 185 58 212 185 55 214 188 55 214 188 58 212 185 55 214 188 55 214 188 55 214 188 55 214 188 58 212 185 58 212 185 55 214 188 58 212 185 58 212 185 58 212 185 55 214 188 58 212 185 58 212 185 55 214 188 55 214 188 55 214 188 55 214 188 52 216 192 55 214 188 55 214 188 55 214 188 55 214 188 55 214 188 55 214 188 55 214 188 55 214 188 55 214 188 55 214 188 55 214 188 55 214 188 58 212 185 55 214 188 55 214 188 55 214 188 55 214 188 55 214 188 55 214 188 55 214 188 55 214 188 55 214 188 58 212 185 55 214 188 55 214 188 55 214 188 52 216 192 55 214 188 55 214 188 55 214 188 58 212 185 55 214 188 55 214 188 55 214 188 55 214 188 55 214 188 55 214 188 55 214 188 55 214 188 58 212 185 58 212 185 58 212 185 14 244 237 5 250 248 8 248 244 8 248 244 5 250 248 5 250 248 5 250 248 8 248 244 5 250 248 5 250 248 8 248 244 5 250 248 8 248 244 8 248 244 5 250 248 5 250 248 5 250 248 5 250 248 8 248 244 8 248 244 8 248 244 5 250 248 5 250 248 5 250 248 5 250 248 
5 250 248 5 250 248 5 250 248 5 250 248 5 250 248 8 248 244 5 250 248 5 250 248 8 248 244 8 248 244 5 250 248 5 250 248 5 250 248 5 250 248 5 250 248 5 250 248 8 248 244 5 250 248 8 248 244 5 250 248 8 248 244 8 248 244 8 248 244 5 250 248 17 242 234 102 179 132 99 181 136 102 179 132 102 179 132 102 179 132 105 177 129 102 179 132 105 177 129 102 179 132 102 179 132 102 179 132 102 179 132 102 179 132 105 177 129 105 177 129 105 177 129 105 177 129 99 181 136 102 179 132 105 177 129 105 177 129 105 177 129 105 177 129 102 179 132 105 177 129 105 177 129 102 179 132 102 179 132 102 179 132 102 179 132 102 179 132 105 177 129 105 177 129 102 179 132 102 179 132 102 179 132 105 177 129 102 179 132 102 179 132 105 177 129 105 177 129 105 177 129 108 175 125 108 175 125 105 177 129 105 177 129 105 177 129 105 177 129 105 177 129 108 175 125 108 175 125 105 177 129 114 171 118 108 175 125 105 177 129 105 177 129 105 177 129 108 175 125 108 175 125 114 171 118 108 175 125 114 171 118 108 175 125 108 175 125 114 171 118 114 171 118 114 171 118 114 171 118 114 171 118 114 171 118 114 171 118 108 175 125 114 171 118 108 175 125 114 171 118 114 171 118 114 171 118 114 171 118 108 175 125 114 171 118 114 171 118 117 169 115 117 169 115 35 229 213 8 248 244 8 248 244 20 239 230 55 214 188 55 214 188 55 214 188 55 214 188 55 214 188 52 216 192 55 214 188 55 214 188 58 212 185 55 214 188 55 214 188 55 214 188 52 216 192 55 214 188 55 214 188 55 214 188 55 214 188 58 212 185 58 212 185 58 212 185 55 214 188 55 214 188 58 212 185 55 214 188 55 214 188 55 214 188 55 214 188 58 212 185 58 212 185 55 214 188 58 212 185 58 212 185 58 212 185 55 214 188 58 212 185 58 212 185 55 214 188 55 214 188 55 214 188 55 214 188 52 216 192 55 214 188 55 214 188 55 214 188 55 214 188 55 214 188 55 214 188 55 214 188 55 214 188 55 214 188 55 214 188 55 214 188 55 214 188 58 212 185 55 214 188 55 214 188 55 214 188 55 214 188 55 214 188 55 214 188 55 214 188 55 214 188 55 214 188 58 212 185 55 214 188 55 214 188 55 214 188 52 216 192 55 214 188 55 214 188 55 214 188 58 212 185 55 214 188 55 214 188 55 214 188 55 214 188 55 214 188 55 214 188 55 214 188 55 214 188 58 212 185 58 212 185 58 212 185 14 244 237 5 250 248 8 248 244 8 248 244 5 250 248 5 250 248 5 250 248 8 248 244 5 250 248 5 250 248 8 248 244 5 250 248 8 248 244 8 248 244 5 250 248 5 250 248 5 250 248 5 250 248 8 248 244 8 248 244 8 248 244 5 250 248 5 250 248 5 250 248 5 250 248 
8 248 244 5 250 248 5 250 248 5 250 248 5 250 248 5 250 248 5 250 248 5 250 248 5 250 248 5 250 248 5 250 248 8 248 244 5 250 248 5 250 248 5 250 248 8 248 244 8 248 244 5 250 248 5 250 248 5 250 248 8 248 244 8 248 244 8 248 244 26 235 223 105 177 129 105 177 129 102 179 132 102 179 132 105 177 129 105 177 129 105 177 129 105 177 129 102 179 132 102 179 132 105 177 129 102 179 132 102 179 132 105 177 129 105 177 129 105 177 129 102 179 132 102 179 132 105 177 129 102 179 132 102 179 132 102 179 132 102 179 132 102 179 132 105 177 129 102 179 132 105 177 129 105 177 129 105 177 129 105 177 129 102 179 132 105 177 129 105 177 129 102 179 132 105 177 129 102 179 132 105 177 129 102 179 132 105 177 129 105 177 129 105 177 129 105 177 129 105 177 129 105 177 129 108 175 125 108 175 125 105 177 129 105 177 129 108 175 125 108 175 125 105 177 129 105 177 129 105 177 129 105 177 129 108 175 125 108 175 125 105 177 129 108 175 125 108 175 125 108 175 125 114 171 118 117 169 115 114 171 118 108 175 125 114 171 118 114 171 118 114 171 118 114 171 118 114 171 118 108 175 125 114 171 118 114 171 118 108 175 125 114 171 118 117 169 115 114 171 118 114 171 118 114 171 118 114 171 118 114 171 118 114 171 118 117 169 115 114 171 118 117 169 115 35 229 213 5 250 248 8 248 244 17 242 234 52 216 192 55 214 188 55 214 188 55 214 188 55 214 188 55 214 188 55 214 188 55 214 188 55 214 188 55 214 188 55 214 188 58 212 185 55 214 188 55 214 188 55 214 188 55 214 188 55 214 188 55 214 188 55 214 188 55 214 188 55 214 188 58 212 185 58 212 185 55 214 188 55 214 188 55 214 188 55 214 188 55 214 188 55 214 188 55 214 188 58 212 185 58 212 185 58 212 185 58 212 185 55 214 188 58 212 185 58 212 185 58 212 185 55 214 188 55 214 188 52 216 192 55 214 188 55 214 188 55 214 188 55 214 188 55 214 188 55 214 188 55 214 188 55 214 188 55 214 188 58 212 185 55 214 188 55 214 188 55 214 188 55 214 188 58 212 185 58 212 185 58 212 185 55 214 188 55 214 188 55 214 188 55 214 188 52 216 192 55 214 188 55 214 188 55 214 188 58 212 185 55 214 188 55 214 188 52 216 192 55 214 188 55 214 188 55 214 188 58 212 185 55 214 188 55 214 188 55 214 188 58 212 185 58 212 185 58 212 185 58 212 185 55 214 188 55 214 188 55 214 188 17 242 234 8 248 244 8 248 244 8 248 244 8 248 244 8 248 244 8 248 244 8 248 244 8 248 244 8 248 244 8 248 244 8 248 244 8 248 244 8 248 244 8 248 244 8 248 244 5 250 248 5 250 248 5 250 248 8 248 244 5 250 248 5 250 248 5 250 248 5 250 248 
8 248 244 5 250 248 5 250 248 5 250 248 5 250 248 5 250 248 5 250 248 5 250 248 5 250 248 5 250 248 5 250 248 8 248 244 5 250 248 5 250 248 5 250 248 8 248 244 8 248 244 5 250 248 5 250 248 5 250 248 8 248 244 8 248 244 8 248 244 26 235 223 105 177 129 105 177 129 102 179 132 102 179 132 105 177 129 105 177 129 105 177 129 105 177 129 102 179 132 102 179 132 105 177 129 102 179 132 102 179 132 105 177 129 105 177 129 105 177 129 102 179 132 102 179 132 105 177 129 102 179 132 102 179 132 102 179 132 102 179 132 102 179 132 105 177 129 102 179 132 105 177 129 105 177 129 105 177 129 105 177 129 102 179 132 105 177 129 105 177 129 102 179 132 105 177 129 102 179 132 105 177 129 102 179 132 105 177 129 105 177 129 105 177 129 105 177 129 105 177 129 105 177 129 108 175 125 108 175 125 105 177 129 105 177 129 108 175 125 108 175 125 105 177 129 105 177 129 105 177 129 105 177 129 108 175 125 108 175 125 105 177 129 108 175 125 108 175 125 108 175 125 114 171 118 117 169 115 114 171 118 108 175 125 114 171 118 114 171 118 114 171 118 114 171 118 114 171 118 108 175 125 114 171 118 114 171 118 108 175 125 114 171 118 117 169 115 114 171 118 114 171 118 114 171 118 114 171 118 114 171 118 114 171 118 117 169 115 114 171 118 117 169 115 35 229 213 5 250 248 8 248 244 17 242 234 52 216 192 55 214 188 55 214 188 55 214 188 55 214 188 55 214 188 55 214 188 55 214 188 55 214 188 55 214 188 55 214 188 58 212 185 55 214 188 55 214 188 55 214 188 55 214 188 55 214 188 55 214 188 55 214 188 55 214 188 55 214 188 58 212 185 58 212 185 55 214 188 55 214 188 55 214 188 55 214 188 55 214 188 55 214 188 55 214 188 58 212 185 58 212 185 58 212 185 58 212 185 55 214 188 58 212 185 58 212 185 58 212 185 55 214 188 55 214 188 52 216 192 55 214 188 55 214 188 55 214 188 55 214 188 55 214 188 55 214 188 55 214 188 55 214 188 55 214 188 58 212 185 55 214 188 55 214 188 55 214 188 55 214 188 58 212 185 58 212 185 58 212 185 55 214 188 55 214 188 55 214 188 55 214 188 52 216 192 55 214 188 55 214 188 55 214 188 58 212 185 55 214 188 55 214 188 52 216 192 55 214 188 55 214 188 55 214 188 58 212 185 55 214 188 55 214 188 55 214 188 58 212 185 58 212 185 58 212 185 58 212 185 55 214 188 55 214 188 55 214 188 17 242 234 8 248 244 8 248 244 8 248 244 8 248 244 8 248 244 8 248 244 8 248 244 8 248 244 8 248 244 8 248 244 8 248 244 8 248 244 8 248 244 8 248 244 8 248 244 5 250 248 5 250 248 5 250 248 8 248 244 5 250 248 5 250 248 5 250 248 5 250 248 
5 250 248 5 250 248 5 250 248 5 250 248 5 250 248 5 250 248 5 250 248 5 250 248 5 250 248 5 250 248 5 250 248 5 250 248 5 250 248 5 250 248 5 250 248 5 250 248 5 250 248 5 250 248 5 250 248 5 250 248 8 248 244 8 248 244 32 231 216 93 186 143 105 177 129 102 179 132 105 177 129 105 177 129 105 177 129 105 177 129 105 177 129 105 177 129 105 177 129 105 177 129 105 177 129 99 181 136 105 177 129 108 175 125 105 177 129 105 177 129 105 177 129 105 177 129 105 177 129 105 177 129 105 177 129 108 175 125 105 177 129 105 177 129 105 177 129 102 179 132 102 179 132 105 177 129 105 177 129 105 177 129 108 175 125 105 177 129 105 177 129 105 177 129 105 177 129 105 177 129 105 177 129 102 179 132 105 177 129 102 179 132 105 177 129 108 175 125 105 177 129 105 177 129 108 175 125 105 177 129 105 177 129 105 177 129 105 177 129 105 177 129 105 177 129 105 177 129 108 175 125 105 177 129 108 175 125 108 175 125 105 177 129 108 175 125 108 175 125 108 175 125 114 171 118 114 171 118 114 171 118 114 171 118 114 171 118 114 171 118 117 169 115 114 171 118 114 171 118 114 171 118 108 175 125 114 171 118 114 171 118 114 171 118 114 171 118 114 171 118 114 171 118 114 171 118 114 171 118 114 171 118 108 175 125 108 175 125 114 171 118 117 169 115 38 227 209 8 248 244 8 248 244 20 239 230 55 214 188 55 214 188 55 214 188 55 214 188 55 214 188 55 214 188 55 214 188 55 214 188 58 212 185 58 212 185 58 212 185 58 212 185 58 212 185 58 212 185 55 214 188 55 214 188 55 214 188 55 214 188 55 214 188 55 214 188 55 214 188 58 212 185 58 212 185 55 214 188 55 214 188 55 214 188 55 214 188 55 214 188 55 214 188 55 214 188 55 214 188 55 214 188 55 214 188 55 214 188 55 214 188 55 214 188 58 212 185 58 212 185 58 212 185 55 214 188 55 214 188 55 214 188 55 214 188 55 214 188 55 214 188 55 214 188 55 214 188 55 214 188 55 214 188 55 214 188 55 214 188 55 214 188 58 212 185 55 214 188 55 214 188 58 212 185 58 212 185 55 214 188 55 214 188 55 214 188 55 214 188 55 214 188 55 214 188 55 214 188 55 214 188 55 214 188 58 212 185 55 214 188 55 214 188 55 214 188 55 214 188 55 214 188 55 214 188 55 214 188 55 214 188 55 214 188 55 214 188 55 214 188 55 214 188 58 212 185 58 212 185 55 214 188 55 214 188 55 214 188 52 216 192 20 239 230 8 248 244 8 248 244 8 248 244 8 248 244 5 250 248 8 248 244 8 248 244 8 248 244 8 248 244 8 248 244 8 248 244 8 248 244 8 248 244 5 250 248 5 250 248 5 250 248 5 250 248 5 250 248 8 248 244 5 250 248 5 250 248 5 250 248 
5 250 248 5 250 248 5 250 248 5 250 248 5 250 248 5 250 248 5 250 248 5 250 248 5 250 248 5 250 248 5 250 248 5 250 248 5 250 248 5 250 248 5 250 248 5 250 248 5 250 248 5 250 248 5 250 248 5 250 248 8 248 244 8 248 244 32 231 216 93 186 143 105 177 129 102 179 132 105 177 129 105 177 129 105 177 129 105 177 129 105 177 129 105 177 129 105 177 129 105 177 129 105 177 129 99 181 136 105 177 129 108 175 125 105 177 129 105 177 129 105 177 129 105 177 129 105 177 129 105 177 129 105 177 129 108 175 125 105 177 129 105 177 129 105 177 129 102 179 132 102 179 132 105 177 129 105 177 129 105 177 129 108 175 125 105 177 129 105 177 129 105 177 129 105 177 129 105 177 129 105 177 129 102 179 132 105 177 129 102 179 132 105 177 129 108 175 125 105 177 129 105 177 129 108 175 125 105 177 129 105 177 129 105 177 129 105 177 129 105 177 129 105 177 129 105 177 129 108 175 125 105 177 129 108 175 125 108 175 125 105 177 129 108 175 125 108 175 125 108 175 125 114 171 118 114 171 118 114 171 118 114 171 118 114 171 118 114 171 118 117 169 115 114 171 118 114 171 118 114 171 118 108 175 125 114 171 118 114 171 118 114 171 118 114 171 118 114 171 118 114 171 118 114 171 118 114 171 118 114 171 118 108 175 125 108 175 125 114 171 118 117 169 115 38 227 209 8 248 244 8 248 244 20 239 230 55 214 188 55 214 188 55 214 188 55 214 188 55 214 188 55 214 188 55 214 188 55 214 188 58 212 185 58 212 185 58 212 185 58 212 185 58 212 185 58 212 185 55 214 188 55 214 188 55 214 188 55 214 188 55 214 188 55 214 188 55 214 188 58 212 185 58 212 185 55 214 188 55 214 188 55 214 188 55 214 188 55 214 188 55 214 188 55 214 188 55 214 188 55 214 188 55 214 188 55 214 188 55 214 188 55 214 188 58 212 185 58 212 185 58 212 185 55 214 188 55 214 188 55 214 188 55 214 188 55 214 188 55 214 188 55 214 188 55 214 188 55 214 188 55 214 188 55 214 188 55 214 188 55 214 188 58 212 185 55 214 188 55 214 188 58 212 185 58 212 185 55 214 188 55 214 188 55 214 188 55 214 188 55 214 188 55 214 188 55 214 188 55 214 188 55 214 188 58 212 185 55 214 188 55 214 188 55 214 188 55 214 188 55 214 188 55 214 188 55 214 188 55 214 188 55 214 188 55 214 188 55 214 188 55 214 188 58 212 185 58 212 185 55 214 188 55 214 188 55 214 188 52 216 192 20 239 230 8 248 244 8 248 244 8 248 244 8 248 244 5 250 248 8 248 244 8 248 244 8 248 244 8 248 244 8 248 244 8 248 244 8 248 244 8 248 244 5 250 248 5 250 248 5 250 248 5 250 248 5 250 248 8 248 244 5 250 248 5 250 248 5 250 248 
5 250 248 5 250 248 5 250 248 5 250 248 5 250 248 5 250 248 5 250 248 5 250 248 5 250 248 5 250 248 5 250 248 5 250 248 5 250 248 5 250 248 5 250 248 5 250 248 5 250 248 5 250 248 5 250 248 5 250 248 5 250 248 32 231 216 88 190 150 105 177 129 105 177 129 105 177 129 105 177 129 108 175 125 105 177 129 105 177 129 105 177 129 105 177 129 105 177 129 105 177 129 102 179 132 102 179 132 105 177 129 105 177 129 105 177 129 108 175 125 105 177 129 108 175 125 105 177 129 108 175 125 105 177 129 102 179 132 105 177 129 105 177 129 105 177 129 102 179 132 105 177 129 108 175 125 105 177 129 105 177 129 108 175 125 108 175 125 108 175 125 108 175 125 108 175 125 105 177 129 105 177 129 105 177 129 105 177 129 105 177 129 102 179 132 105 177 129 105 177 129 105 177 129 105 177 129 105 177 129 105 177 129 108 175 125 105 177 129 108 175 125 105 177 129 105 177 129 108 175 125 105 177 129 105 177 129 108 175 125 114 171 118 108 175 125 108 175 125 108 175 125 114 171 118 108 175 125 108 175 125 108 175 125 108 175 125 117 169 115 114 171 118 108 175 125 114 171 118 114 171 118 114 171 118 108 175 125 114 171 118 114 171 118 108 175 125 114 171 118 114 171 118 114 171 118 117 169 115 117 169 115 114 171 118 114 171 118 114 171 118 114 171 118 35 229 213 8 248 244 8 248 244 17 242 234 55 214 188 55 214 188 58 212 185 55 214 188 55 214 188 55 214 188 58 212 185 58 212 185 58 212 185 58 212 185 58 212 185 58 212 185 58 212 185 58 212 185 55 214 188 55 214 188 55 214 188 55 214 188 55 214 188 55 214 188 55 214 188 55 214 188 52 216 192 55 214 188 55 214 188 55 214 188 55 214 188 55 214 188 55 214 188 55 214 188 58 212 185 55 214 188 55 214 188 55 214 188 58 212 185 55 214 188 58 212 185 58 212 185 55 214 188 55 214 188 55 214 188 55 214 188 55 214 188 55 214 188 55 214 188 55 214 188 55 214 188 55 214 188 55 214 188 55 214 188 55 214 188 55 214 188 58 212 185 58 212 185 55 214 188 55 214 188 55 214 188 58 212 185 55 214 188 55 214 188 55 214 188 55 214 188 55 214 188 55 214 188 55 214 188 55 214 188 55 214 188 55 214 188 55 214 188 55 214 188 55 214 188 55 214 188 55 214 188 55 214 188 55 214 188 55 214 188 55 214 188 58 212 185 55 214 188 58 212 185 58 212 185 58 212 185 55 214 188 55 214 188 55 214 188 49 218 195 20 239 230 8 248 244 8 248 244 8 248 244 8 248 244 8 248 244 8 248 244 8 248 244 8 248 244 5 250 248 5 250 248 8 248 244 5 250 248 5 250 248 5 250 248 8 248 244 5 250 248 8 248 244 5 250 248 5 250 248 5 250 248 5 250 248 
5 250 248 5 250 248 5 250 248 5 250 248 5 250 248 5 250 248 5 250 248 5 250 248 5 250 248 5 250 248 5 250 248 5 250 248 5 250 248 5 250 248 5 250 248 5 250 248 5 250 248 5 250 248 5 250 248 5 250 248 5 250 248 32 231 216 88 190 150 105 177 129 105 177 129 105 177 129 105 177 129 108 175 125 105 177 129 105 177 129 105 177 129 105 177 129 105 177 129 105 177 129 102 179 132 102 179 132 105 177 129 105 177 129 105 177 129 108 175 125 105 177 129 108 175 125 105 177 129 108 175 125 105 177 129 102 179 132 105 177 129 105 177 129 105 177 129 102 179 132 105 177 129 108 175 125 105 177 129 105 177 129 108 175 125 108 175 125 108 175 125 108 175 125 108 175 125 105 177 129 105 177 129 105 177 129 105 177 129 105 177 129 102 179 132 105 177 129 105 177 129 105 177 129 105 177 129 105 177 129 105 177 129 108 175 125 105 177 129 108 175 125 105 177 129 105 177 129 108 175 125 105 177 129 105 177 129 108 175 125 114 171 118 108 175 125 108 175 125 108 175 125 114 171 118 108 175 125 108 175 125 108 175 125 108 175 125 117 169 115 114 171 118 108 175 125 114 171 118 114 171 118 114 171 118 108 175 125 114 171 118 114 171 118 108 175 125 114 171 118 114 171 118 114 171 118 117 169 115 117 169 115 114 171 118 114 171 118 114 171 118 114 171 118 35 229 213 8 248 244 8 248 244 17 242 234 55 214 188 55 214 188 58 212 185 55 214 188 55 214 188 55 214 188 58 212 185 58 212 185 58 212 185 58 212 185 58 212 185 58 212 185 58 212 185 58 212 185 55 214 188 55 214 188 55 214 188 55 214 188 55 214 188 55 214 188 55 214 188 55 214 188 52 216 192 55 214 188 55 214 188 55 214 188 55 214 188 55 214 188 55 214 188 55 214 188 58 212 185 55 214 188 55 214 188 55 214 188 58 212 185 55 214 188 58 212 185 58 212 185 55 214 188 55 214 188 55 214 188 55 214 188 55 214 188 55 214 188 55 214 188 55 214 188 55 214 188 55 214 188 55 214 188 55 214 188 55 214 188 55 214 188 58 212 185 58 212 185 55 214 188 55 214 188 55 214 188 58 212 185 55 214 188 55 214 188 55 214 188 55 214 188 55 214 188 55 214 188 55 214 188 55 214 188 55 214 188 55 214 188 55 214 188 55 214 188 55 214 188 55 214 188 55 214 188 55 214 188 55 214 188 55 214 188 55 214 188 58 212 185 55 214 188 58 212 185 58 212 185 58 212 185 55 214 188 55 214 188 55 214 188 49 218 195 20 239 230 8 248 244 8 248 244 8 248 244 8 248 244 8 248 244 8 248 244 8 248 244 8 248 244 5 250 248 5 250 248 8 248 244 5 250 248 5 250 248 5 250 248 8 248 244 5 250 248 8 248 244 5 250 248 5 250 248 5 250 248 5 250 248 
5 250 248 5 250 248 5 250 248 5 250 248 5 250 248 5 250 248 5 250 248 5 250 248 5 250 248 5 250 248 5 250 248 5 250 248 5 250 248 5 250 248 5 250 248 5 250 248 5 250 248 5 250 248 5 250 248 5 250 248 23 237 227 82 194 157 102 179 132 105 177 129 102 179 132 105 177 129 105 177 129 105 177 129 105 177 129 105 177 129 105 177 129 102 179 132 105 177 129 105 177 129 105 177 129 105 177 129 108 175 125 108 175 125 105 177 129 108 175 125 108 175 125 108 175 125 108 175 125 105 177 129 108 175 125 108 175 125 108 175 125 108 175 125 105 177 129 108 175 125 108 175 125 108 175 125 105 177 129 105 177 129 105 177 129 108 175 125 105 177 129 108 175 125 108 175 125 108 175 125 108 175 125 108 175 125 108 175 125 105 177 129 105 177 129 108 175 125 105 177 129 108 175 125 105 177 129 105 177 129 108 175 125 108 175 125 105 177 129 114 171 118 108 175 125 105 177 129 105 177 129 108 175 125 108 175 125 108 175 125 108 175 125 108 175 125 108 175 125 108 175 125 108 175 125 108 175 125 114 171 118 114 171 118 114 171 118 114 171 118 108 175 125 114 171 118 108 175 125 114 171 118 114 171 118 114 171 118 114 171 118 114 171 118 114 171 118 114 171 118 114 171 118 114 171 118 114 171 118 114 171 118 114 171 118 114 171 118 114 171 118 117 169 115 38 227 209 8 248 244 5 250 248 17 242 234 52 216 192 52 216 192 55 214 188 55 214 188 55 214 188 55 214 188 55 214 188 58 212 185 58 212 185 58 212 185 58 212 185 58 212 185 58 212 185 58 212 185 55 214 188 58 212 185 58 212 185 55 214 188 55 214 188 55 214 188 55 214 188 55 214 188 55 214 188 55 214 188 55 214 188 55 214 188 55 214 188 55 214 188 55 214 188 55 214 188 55 214 188 55 214 188 55 214 188 55 214 188 55 214 188 58 212 185 55 214 188 55 214 188 55 214 188 55 214 188 55 214 188 58 212 185 55 214 188 55 214 188 55 214 188 52 216 192 55 214 188 55 214 188 55 214 188 55 214 188 55 214 188 55 214 188 55 214 188 58 212 185 55 214 188 55 214 188 55 214 188 55 214 188 55 214 188 55 214 188 55 214 188 55 214 188 55 214 188 55 214 188 55 214 188 52 216 192 55 214 188 55 214 188 52 216 192 55 214 188 55 214 188 55 214 188 55 214 188 55 214 188 55 214 188 55 214 188 55 214 188 58 212 185 58 212 185 58 212 185 58 212 185 58 212 185 55 214 188 55 214 188 58 212 185 58 212 185 44 222 202 14 244 237 8 248 244 8 248 244 8 248 244 8 248 244 8 248 244 8 248 244 5 250 248 8 248 244 5 250 248 8 248 244 8 248 244 8 248 244 8 248 244 8 248 244 5 250 248 5 250 248 8 248 244 5 250 248 8 248 244 8 248 244 
5 250 248 5 250 248 5 250 248 5 250 248 5 250 248 5 250 248 5 250 248 5 250 248 5 250 248 5 250 248 5 250 248 5 250 248 5 250 248 5 250 248 5 250 248 5 250 248 5 250 248 5 250 248 5 250 248 5 250 248 23 237 227 82 194 157 102 179 132 105 177 129 102 179 132 105 177 129 105 177 129 105 177 129 105 177 129 105 177 129 105 177 129 102 179 132 105 177 129 105 177 129 105 177 129 105 177 129 108 175 125 108 175 125 105 177 129 108 175 125 108 175 125 108 175 125 108 175 125 105 177 129 108 175 125 108 175 125 108 175 125 108 175 125 105 177 129 108 175 125 108 175 125 108 175 125 105 177 129 105 177 129 105 177 129 108 175 125 105 177 129 108 175 125 108 175 125 108 175 125 108 175 125 108 175 125 108 175 125 105 177 129 105 177 129 108 175 125 105 177 129 108 175 125 105 177 129 105 177 129 108 175 125 108 175 125 105 177 129 114 171 118 108 175 125 105 177 129 105 177 129 108 175 125 108 175 125 108 175 125 108 175 125 108 175 125 108 175 125 108 175 125 108 175 125 108 175 125 114 171 118 114 171 118 114 171 118 114 171 118 108 175 125 114 171 118 108 175 125 114 171 118 114 171 118 114 171 118 114 171 118 114 171 118 114 171 118 114 171 118 114 171 118 114 171 118 114 171 118 114 171 118 114 171 118 114 171 118 114 171 118 117 169 115 38 227 209 8 248 244 5 250 248 17 242 234 52 216 192 52 216 192 55 214 188 55 214 188 55 214 188 55 214 188 55 214 188 58 212 185 58 212 185 58 212 185 58 212 185 58 212 185 58 212 185 58 212 185 55 214 188 58 212 185 58 212 185 55 214 188 55 214 188 55 214 188 55 214 188 55 214 188 55 214 188 55 214 188 55 214 188 55 214 188 55 214 188 55 214 188 55 214 188 55 214 188 55 214 188 55 214 188 55 214 188 55 214 188 55 214 188 58 212 185 55 214 188 55 214 188 55 214 188 55 214 188 55 214 188 58 212 185 55 214 188 55 214 188 55 214 188 52 216 192 55 214 188 55 214 188 55 214 188 55 214 188 55 214 188 55 214 188 55 214 188 58 212 185 55 214 188 55 214 188 55 214 188 55 214 188 55 214 188 55 214 188 55 214 188 55 214 188 55 214 188 55 214 188 55 214 188 52 216 192 55 214 188 55 214 188 52 216 192 55 214 188 55 214 188 55 214 188 55 214 188 55 214 188 55 214 188 55 214 188 55 214 188 58 212 185 58 212 185 58 212 185 58 212 185 58 212 185 55 214 188 55 214 188 58 212 185 58 212 185 44 222 202 14 244 237 8 248 244 8 248 244 8 248 244 8 248 244 8 248 244 8 248 244 5 250 248 8 248 244 5 250 248 8 248 244 8 248 244 8 248 244 8 248 244 8 248 244 5 250 248 5 250 248 8 248 244 5 250 248 8 248 244 8 248 244 
5 250 248 5 250 248 5 250 248 5 250 248 5 250 248 5 250 248 5 250 248 5 250 248 8 248 244 5 250 248 8 248 244 5 250 248 8 248 244 5 250 248 5 250 248 5 250 248 5 250 248 5 250 248 5 250 248 14 244 237 70 203 171 105 177 129 102 179 132 105 177 129 102 179 132 105 177 129 108 175 125 105 177 129 105 177 129 105 177 129 105 177 129 102 179 132 105 177 129 108 175 125 108 175 125 108 175 125 105 177 129 105 177 129 108 175 125 108 175 125 108 175 125 105 177 129 108 175 125 108 175 125 108 175 125 108 175 125 105 177 129 108 175 125 108 175 125 108 175 125 108 175 125 105 177 129 108 175 125 108 175 125 105 177 129 108 175 125 114 171 118 108 175 125 108 175 125 108 175 125 108 175 125 114 171 118 108 175 125 105 177 129 105 177 129 108 175 125 105 177 129 108 175 125 105 177 129 108 175 125 108 175 125 105 177 129 105 177 129 105 177 129 105 177 129 108 175 125 108 175 125 105 177 129 108 175 125 105 177 129 108 175 125 108 175 125 108 175 125 108 175 125 105 177 129 114 171 118 108 175 125 108 175 125 108 175 125 108 175 125 114 171 118 105 177 129 114 171 118 117 169 115 114 171 118 108 175 125 114 171 118 108 175 125 114 171 118 117 169 115 117 169 115 114 171 118 114 171 118 117 169 115 114 171 118 114 171 118 114 171 118 114 171 118 35 229 213 8 248 244 8 248 244 17 242 234 55 214 188 55 214 188 55 214 188 55 214 188 58 212 185 58 212 185 58 212 185 58 212 185 58 212 185 58 212 185 58 212 185 58 212 185 58 212 185 55 214 188 55 214 188 55 214 188 55 214 188 55 214 188 55 214 188 55 214 188 55 214 188 55 214 188 55 214 188 55 214 188 55 214 188 55 214 188 55 214 188 55 214 188 55 214 188 55 214 188 55 214 188 55 214 188 52 216 192 55 214 188 55 214 188 52 216 192 55 214 188 55 214 188 58 212 185 55 214 188 55 214 188 55 214 188 55 214 188 55 214 188 55 214 188 55 214 188 55 214 188 55 214 188 55 214 188 58 212 185 55 214 188 58 212 185 55 214 188 58 212 185 55 214 188 52 216 192 55 214 188 55 214 188 55 214 188 55 214 188 58 212 185 58 212 185 55 214 188 58 212 185 58 212 185 55 214 188 55 214 188 58 212 185 55 214 188 55 214 188 55 214 188 55 214 188 55 214 188 55 214 188 58 212 185 58 212 185 55 214 188 58 212 185 58 212 185 58 212 185 58 212 185 58 212 185 58 212 185 55 214 188 55 214 188 55 214 188 55 214 188 38 227 209 11 246 241 8 248 244 8 248 244 5 250 248 8 248 244 8 248 244 8 248 244 5 250 248 8 248 244 8 248 244 8 248 244 8 248 244 8 248 244 8 248 244 5 250 248 8 248 244 5 250 248 8 248 244 5 250 248 5 250 248 
5 250 248 5 250 248 5 250 248 5 250 248 5 250 248 5 250 248 5 250 248 5 250 248 8 248 244 5 250 248 8 248 244 5 250 248 8 248 244 5 250 248 5 250 248 5 250 248 5 250 248 5 250 248 5 250 248 14 244 237 70 203 171 105 177 129 102 179 132 105 177 129 102 179 132 105 177 129 108 175 125 105 177 129 105 177 129 105 177 129 105 177 129 102 179 132 105 177 129 108 175 125 108 175 125 108 175 125 105 177 129 105 177 129 108 175 125 108 175 125 108 175 125 105 177 129 108 175 125 108 175 125 108 175 125 108 175 125 105 177 129 108 175 125 108 175 125 108 175 125 108 175 125 105 177 129 108 175 125 108 175 125 105 177 129 108 175 125 114 171 118 108 175 125 108 175 125 108 175 125 108 175 125 114 171 118 108 175 125 105 177 129 105 177 129 108 175 125 105 177 129 108 175 125 105 177 129 108 175 125 108 175 125 105 177 129 105 177 129 105 177 129 105 177 129 108 175 125 108 175 125 105 177 129 108 175 125 105 177 129 108 175 125 108 175 125 108 175 125 108 175 125 105 177 129 114 171 118 108 175 125 108 175 125 108 175 125 108 175 125 114 171 118 105 177 129 114 171 118 117 169 115 114 171 118 108 175 125 114 171 118 108 175 125 114 171 118 117 169 115 117 169 115 114 171 118 114 171 118 117 169 115 114 171 118 114 171 118 114 171 118 114 171 118 35 229 213 8 248 244 8 248 244 17 242 234 55 214 188 55 214 188 55 214 188 55 214 188 58 212 185 58 212 185 58 212 185 58 212 185 58 212 185 58 212 185 58 212 185 58 212 185 58 212 185 55 214 188 55 214 188 55 214 188 55 214 188 55 214 188 55 214 188 55 214 188 55 214 188 55 214 188 55 214 188 55 214 188 55 214 188 55 214 188 55 214 188 55 214 188 55 214 188 55 214 188 55 214 188 55 214 188 52 216 192 55 214 188 55 214 188 52 216 192 55 214 188 55 214 188 58 212 185 55 214 188 55 214 188 55 214 188 55 214 188 55 214 188 55 214 188 55 214 188 55 214 188 55 214 188 55 214 188 58 212 185 55 214 188 58 212 185 55 214 188 58 212 185 55 214 188 52 216 192 55 214 188 55 214 188 55 214 188 55 214 188 58 212 185 58 212 185 55 214 188 58 212 185 58 212 185 55 214 188 55 214 188 58 212 185 55 214 188 55 214 188 55 214 188 55 214 188 55 214 188 55 214 188 58 212 185 58 212 185 55 214 188 58 212 185 58 212 185 58 212 185 58 212 185 58 212 185 58 212 185 55 214 188 55 214 188 55 214 188 55 214 188 38 227 209 11 246 241 8 248 244 8 248 244 5 250 248 8 248 244 8 248 244 8 248 244 5 250 248 8 248 244 8 248 244 8 248 244 8 248 244 8 248 244 8 248 244 5 250 248 8 248 244 5 250 248 8 248 244 5 250 248 5 250 248 
5 250 248 5 250 248 5 250 248 5 250 248 5 250 248 8 248 244 5 250 248 5 250 248 8 248 244 8 248 244 5 250 248 5 250 248 5 250 248 5 250 248 5 250 248 8 248 244 8 248 244 5 250 248 8 248 244 44 222 202 102 179 132 105 177 129 105 177 129 105 177 129 102 179 132 102 179 132 105 177 129 105 177 129 105 177 129 108 175 125 108 175 125 102 179 132 105 177 129 105 177 129 108 175 125 105 177 129 102 179 132 108 175 125 108 175 125 108 175 125 108 175 125 114 171 118 105 177 129 108 175 125 105 177 129 108 175 125 108 175 125 114 171 118 105 177 129 108 175 125 114 171 118 114 171 118 108 175 125 108 175 125 108 175 125 108 175 125 105 177 129 108 175 125 114 171 118 114 171 118 108 175 125 108 175 125 114 171 118 105 177 129 108 175 125 105 177 129 108 175 125 105 177 129 105 177 129 108 175 125 105 177 129 105 177 129 105 177 129 108 175 125 105 177 129 108 175 125 108 175 125 108 175 125 108 175 125 105 177 129 105 177 129 108 175 125 108 175 125 105 177 129 108 175 125 114 171 118 114 171 118 108 175 125 108 175 125 108 175 125 114 171 118 108 175 125 114 171 118 108 175 125 114 171 118 114 171 118 114 171 118 120 166 111 117 169 115 114 171 118 117 169 115 117 169 115 114 171 118 114 171 118 114 171 118 108 175 125 114 171 118 114 171 118 38 227 209 8 248 244 8 248 244 20 239 230 55 214 188 55 214 188 55 214 188 55 214 188 55 214 188 55 214 188 55 214 188 55 214 188 55 214 188 58 212 185 55 214 188 58 212 185 55 214 188 55 214 188 55 214 188 55 214 188 55 214 188 55 214 188 58 212 185 58 212 185 55 214 188 55 214 188 55 214 188 55 214 188 55 214 188 58 212 185 55 214 188 55 214 188 55 214 188 55 214 188 55 214 188 55 214 188 58 212 185 55 214 188 55 214 188 55 214 188 58 212 185 55 214 188 58 212 185 55 214 188 55 214 188 58 212 185 58 212 185 58 212 185 55 214 188 55 214 188 52 216 192 55 214 188 55 214 188 55 214 188 55 214 188 55 214 188 55 214 188 55 214 188 55 214 188 55 214 188 55 214 188 55 214 188 55 214 188 58 212 185 55 214 188 55 214 188 55 214 188 55 214 188 55 214 188 55 214 188 52 216 192 55 214 188 55 214 188 58 212 185 55 214 188 55 214 188 58 212 185 58 212 185 58 212 185 55 214 188 55 214 188 55 214 188 58 212 185 55 214 188 55 214 188 55 214 188 55 214 188 55 214 188 58 212 185 55 214 188 55 214 188 58 212 185 23 237 227 8 248 244 8 248 244 5 250 248 8 248 244 8 248 244 5 250 248 5 250 248 8 248 244 5 250 248 5 250 248 8 248 244 8 248 244 5 250 248 5 250 248 5 250 248 5 250 248 8 248 244 8 248 244 5 250 248 
5 250 248 5 250 248 5 250 248 5 250 248 5 250 248 8 248 244 5 250 248 5 250 248 8 248 244 8 248 244 5 250 248 5 250 248 5 250 248 5 250 248 5 250 248 8 248 244 8 248 244 5 250 248 8 248 244 44 222 202 102 179 132 105 177 129 105 177 129 105 177 129 102 179 132 102 179 132 105 177 129 105 177 129 105 177 129 108 175 125 108 175 125 102 179 132 105 177 129 105 177 129 108 175 125 105 177 129 102 179 132 108 175 125 108 175 125 108 175 125 108 175 125 114 171 118 105 177 129 108 175 125 105 177 129 108 175 125 108 175 125 114 171 118 105 177 129 108 175 125 114 171 118 114 171 118 108 175 125 108 175 125 108 175 125 108 175 125 105 177 129 108 175 125 114 171 118 114 171 118 108 175 125 108 175 125 114 171 118 105 177 129 108 175 125 105 177 129 108 175 125 105 177 129 105 177 129 108 175 125 105 177 129 105 177 129 105 177 129 108 175 125 105 177 129 108 175 125 108 175 125 108 175 125 108 175 125 105 177 129 105 177 129 108 175 125 108 175 125 105 177 129 108 175 125 114 171 118 114 171 118 108 175 125 108 175 125 108 175 125 114 171 118 108 175 125 114 171 118 108 175 125 114 171 118 114 171 118 114 171 118 120 166 111 117 169 115 114 171 118 117 169 115 117 169 115 114 171 118 114 171 118 114 171 118 108 175 125 114 171 118 114 171 118 38 227 209 8 248 244 8 248 244 20 239 230 55 214 188 55 214 188 55 214 188 55 214 188 55 214 188 55 214 188 55 214 188 55 214 188 55 214 188 58 212 185 55 214 188 58 212 185 55 214 188 55 214 188 55 214 188 55 214 188 55 214 188 55 214 188 58 212 185 58 212 185 55 214 188 55 214 188 55 214 188 55 214 188 55 214 188 58 212 185 55 214 188 55 214 188 55 214 188 55 214 188 55 214 188 55 214 188 58 212 185 55 214 188 55 214 188 55 214 188 58 212 185 55 214 188 58 212 185 55 214 188 55 214 188 58 212 185 58 212 185 58 212 185 55 214 188 55 214 188 52 216 192 55 214 188 55 214 188 55 214 188 55 214 188 55 214 188 55 214 188 55 214 188 55 214 188 55 214 188 55 214 188 55 214 188 55 214 188 58 212 185 55 214 188 55 214 188 55 214 188 55 214 188 55 214 188 55 214 188 52 216 192 55 214 188 55 214 188 58 212 185 55 214 188 55 214 188 58 212 185 58 212 185 58 212 185 55 214 188 55 214 188 55 214 188 58 212 185 55 214 188 55 214 188 55 214 188 55 214 188 55 214 188 58 212 185 55 214 188 55 214 188 58 212 185 23 237 227 8 248 244 8 248 244 5 250 248 8 248 244 8 248 244 5 250 248 5 250 248 8 248 244 5 250 248 5 250 248 8 248 244 8 248 244 5 250 248 5 250 248 5 250 248 5 250 248 8 248 244 8 248 244 5 250 248 
5 250 248 5 250 248 5 250 248 5 250 248 5 250 248 5 250 248 5 250 248 5 250 248 5 250 248 5 250 248 5 250 248 5 250 248 5 250 248 5 250 248 8 248 244 5 250 248 5 250 248 5 250 248 14 244 237 105 177 129 102 179 132 105 177 129 105 177 129 105 177 129 102 179 132 105 177 129 102 179 132 105 177 129 108 175 125 105 177 129 108 175 125 108 175 125 108 175 125 105 177 129 108 175 125 114 171 118 108 175 125 108 175 125 114 171 118 114 171 118 114 171 118 108 175 125 117 169 115 108 175 125 108 175 125 108 175 125 108 175 125 114 171 118 117 169 115 108 175 125 108 175 125 108 175 125 105 177 129 105 177 129 114 171 118 114 171 118 114 171 118 114 171 118 114 171 118 108 175 125 108 175 125 108 175 125 108 175 125 105 177 129 108 175 125 108 175 125 105 177 129 108 175 125 108 175 125 108 175 125 105 177 129 108 175 125 105 177 129 114 171 118 108 175 125 108 175 125 108 175 125 108 175 125 105 177 129 108 175 125 105 177 129 105 177 129 114 171 118 114 171 118 108 175 125 114 171 118 108 175 125 114 171 118 108 175 125 108 175 125 114 171 118 108 175 125 117 169 115 117 169 115 114 171 118 114 171 118 114 171 118 117 169 115 114 171 118 114 171 118 114 171 118 114 171 118 114 171 118 114 171 118 114 171 118 117 169 115 114 171 118 117 169 115 35 229 213 8 248 244 8 248 244 17 242 234 55 214 188 55 214 188 55 214 188 55 214 188 55 214 188 55 214 188 55 214 188 55 214 188 55 214 188 55 214 188 55 214 188 58 212 185 55 214 188 55 214 188 55 214 188 55 214 188 55 214 188 55 214 188 58 212 185 58 212 185 55 214 188 55 214 188 58 212 185 58 212 185 55 214 188 55 214 188 55 214 188 55 214 188 55 214 188 55 214 188 55 214 188 55 214 188 55 214 188 55 214 188 55 214 188 58 212 185 55 214 188 58 212 185 55 214 188 58 212 185 58 212 185 58 212 185 55 214 188 55 214 188 58 212 185 55 214 188 58 212 185 55 214 188 55 214 188 55 214 188 55 214 188 55 214 188 55 214 188 55 214 188 58 212 185 58 212 185 55 214 188 55 214 188 55 214 188 55 214 188 58 212 185 58 212 185 55 214 188 55 214 188 55 214 188 55 214 188 55 214 188 55 214 188 55 214 188 55 214 188 58 212 185 58 212 185 58 212 185 58 212 185 55 214 188 55 214 188 55 214 188 58 212 185 58 212 185 58 212 185 58 212 185 55 214 188 58 212 185 55 214 188 55 214 188 55 214 188 55 214 188 58 212 185 58 212 185 11 246 241 5 250 248 8 248 244 8 248 244 8 248 244 8 248 244 5 250 248 5 250 248 8 248 244 8 248 244 8 248 244 8 248 244 5 250 248 8 248 244 8 248 244 8 248 244 8 248 244 5 250 248 5 250 248 
5 250 248 5 250 248 5 250 248 5 250 248 5 250 248 5 250 248 5 250 248 5 250 248 5 250 248 5 250 248 5 250 248 5 250 248 5 250 248 5 250 248 8 248 244 5 250 248 5 250 248 5 250 248 14 244 237 105 177 129 102 179 132 105 177 129 105 177 129 105 177 129 102 179 132 105 177 129 102 179 132 105 177 129 108 175 125 105 177 129 108 175 125 108 175 125 108 175 125 105 177 129 108 175 125 114 171 118 108 175 125 108 175 125 114 171 118 114 171 118 114 171 118 108 175 125 117 169 115 108 175 125 108 175 125 108 175 125 108 175 125 114 171 118 117 169 115 108 175 125 108 175 125 108 175 125 105 177 129 105 177 129 114 171 118 114 171 118 114 171 118 114 171 118 114 171 118 108 175 125 108 175 125 108 175 125 108 175 125 105 177 129 108 175 125 108 175 125 105 177 129 108 175 125 108 175 125 108 175 125 105 177 129 108 175 125 105 177 129 114 171 118 108 175 125 108 175 125 108 175 125 108 175 125 105 177 129 108 175 125 105 177 129 105 177 129 114 171 118 114 171 118 108 175 125 114 171 118 108 175 125 114 171 118 108 175 125 108 175 125 114 171 118 108 175 125 117 169 115 117 169 115 114 171 118 114 171 118 114 171 118 117 169 115 114 171 118 114 171 118 114 171 118 114 171 118 114 171 118 114 171 118 114 171 118 117 169 115 114 171 118 117 169 115 35 229 213 8 248 244 8 248 244 17 242 234 55 214 188 55 214 188 55 214 188 55 214 188 55 214 188 55 214 188 55 214 188 55 214 188 55 214 188 55 214 188 55 214 188 58 212 185 55 214 188 55 214 188 55 214 188 55 214 188 55 214 188 55 214 188 58 212 185 58 212 185 55 214 188 55 214 188 58 212 185 58 212 185 55 214 188 55 214 188 55 214 188 55 214 188 55 214 188 55 214 188 55 214 188 55 214 188 55 214 188 55 214 188 55 214 188 58 212 185 55 214 188 58 212 185 55 214 188 58 212 185 58 212 185 58 212 185 55 214 188 55 214 188 58 212 185 55 214 188 58 212 185 55 214 188 55 214 188 55 214 188 55 214 188 55 214 188 55 214 188 55 214 188 58 212 185 58 212 185 55 214 188 55 214 188 55 214 188 55 214 188 58 212 185 58 212 185 55 214 188 55 214 188 55 214 188 55 214 188 55 214 188 55 214 188 55 214 188 55 214 188 58 212 185 58 212 185 58 212 185 58 212 185 55 214 188 55 214 188 55 214 188 58 212 185 58 212 185 58 212 185 58 212 185 55 214 188 58 212 185 55 214 188 55 214 188 55 214 188 55 214 188 58 212 185 58 212 185 11 246 241 5 250 248 8 248 244 8 248 244 8 248 244 8 248 244 5 250 248 5 250 248 8 248 244 8 248 244 8 248 244 8 248 244 5 250 248 8 248 244 8 248 244 8 248 244 8 248 244 5 250 248 5 250 248 
5 250 248 5 250 248 5 250 248 5 250 248 5 250 248 5 250 248 8 248 244 5 250 248 5 250 248 5 250 248 5 250 248 5 250 248 5 250 248 5 250 248 8 248 244 8 248 244 8 248 244 11 246 241 105 177 129 105 177 129 105 177 129 105 177 129 105 177 129 105 177 129 102 179 132 105 177 129 102 179 132 105 177 129 105 177 129 105 177 129 108 175 125 108 175 125 105 177 129 105 177 129 108 175 125 108 175 125 108 175 125 108 175 125 114 171 118 108 175 125 114 171 118 114 171 118 114 171 118 108 175 125 114 171 118 108 175 125 114 171 118 108 175 125 105 177 129 108 175 125 108 175 125 114 171 118 114 171 118 108 175 125 108 175 125 108 175 125 108 175 125 114 171 118 108 175 125 108 175 125 114 171 118 114 171 118 114 171 118 114 171 118 114 171 118 114 171 118 108 175 125 114 171 118 108 175 125 108 175 125 108 175 125 108 175 125 114 171 118 114 171 118 114 171 118 114 171 118 108 175 125 108 175 125 114 171 118 114 171 118 105 177 129 108 175 125 114 171 118 108 175 125 108 175 125 114 171 118 108 175 125 108 175 125 108 175 125 114 171 118 114 171 118 114 171 118 114 171 118 117 169 115 117 169 115 114 171 118 114 171 118 114 171 118 117 169 115 117 169 115 114 171 118 114 171 118 114 171 118 117 169 115 117 169 115 117 169 115 114 171 118 114 171 118 35 229 213 8 248 244 8 248 244 20 239 230 55 214 188 55 214 188 55 214 188 55 214 188 55 214 188 55 214 188 55 214 188 55 214 188 55 214 188 55 214 188 55 214 188 55 214 188 58 212 185 55 214 188 55 214 188 58 212 185 55 214 188 55 214 188 58 212 185 55 214 188 55 214 188 55 214 188 55 214 188 55 214 188 55 214 188 52 216 192 55 214 188 55 214 188 58 212 185 55 214 188 55 214 188 55 214 188 58 212 185 55 214 188 55 214 188 58 212 185 55 214 188 55 214 188 58 212 185 58 212 185 55 214 188 55 214 188 58 212 185 55 214 188 55 214 188 58 212 185 58 212 185 55 214 188 55 214 188 55 214 188 55 214 188 55 214 188 55 214 188 58 212 185 55 214 188 55 214 188 58 212 185 55 214 188 58 212 185 58 212 185 55 214 188 55 214 188 55 214 188 55 214 188 55 214 188 52 216 192 55 214 188 55 214 188 55 214 188 55 214 188 55 214 188 52 216 192 55 214 188 55 214 188 58 212 185 58 212 185 55 214 188 58 212 185 55 214 188 55 214 188 55 214 188 55 214 188 55 214 188 58 212 185 55 214 188 55 214 188 55 214 188 55 214 188 55 214 188 58 212 185 8 248 244 8 248 244 5 250 248 5 250 248 5 250 248 8 248 244 8 248 244 8 248 244 8 248 244 8 248 244 8 248 244 8 248 244 8 248 244 5 250 248 5 250 248 5 250 248 8 248 244 5 250 248 
5 250 248 5 250 248 5 250 248 5 250 248 5 250 248 5 250 248 8 248 244 5 250 248 5 250 248 5 250 248 5 250 248 5 250 248 5 250 248 5 250 248 8 248 244 8 248 244 8 248 244 11 246 241 105 177 129 105 177 129 105 177 129 105 177 129 105 177 129 105 177 129 102 179 132 105 177 129 102 179 132 105 177 129 105 177 129 105 177 129 108 175 125 108 175 125 105 177 129 105 177 129 108 175 125 108 175 125 108 175 125 108 175 125 114 171 118 108 175 125 114 171 118 114 171 118 114 171 118 108 175 125 114 171 118 108 175 125 114 171 118 108 175 125 105 177 129 108 175 125 108 175 125 114 171 118 114 171 118 108 175 125 108 175 125 108 175 125 108 175 125 114 171 118 108 175 125 108 175 125 114 171 118 114 171 118 114 171 118 114 171 118 114 171 118 114 171 118 108 175 125 114 171 118 108 175 125 108 175 125 108 175 125 108 175 125 114 171 118 114 171 118 114 171 118 114 171 118 108 175 125 108 175 125 114 171 118 114 171 118 105 177 129 108 175 125 114 171 118 108 175 125 108 175 125 114 171 118 108 175 125 108 175 125 108 175 125 114 171 118 114 171 118 114 171 118 114 171 118 117 169 115 117 169 115 114 171 118 114 171 118 114 171 118 117 169 115 117 169 115 114 171 118 114 171 118 114 171 118 117 169 115 117 169 115 117 169 115 114 171 118 114 171 118 35 229 213 8 248 244 8 248 244 20 239 230 55 214 188 55 214 188 55 214 188 55 214 188 55 214 188 55 214 188 55 214 188 55 214 188 55 214 188 55 214 188 55 214 188 55 214 188 58 212 185 55 214 188 55 214 188 58 212 185 55 214 188 55 214 188 58 212 185 55 214 188 55 214 188 55 214 188 55 214 188 55 214 188 55 214 188 52 216 192 55 214 188 55 214 188 58 212 185 55 214 188 55 214 188 55 214 188 58 212 185 55 214 188 55 214 188 58 212 185 55 214 188 55 214 188 58 212 185 58 212 185 55 214 188 55 214 188 58 212 185 55 214 188 55 214 188 58 212 185 58 212 185 55 214 188 55 214 188 55 214 188 55 214 188 55 214 188 55 214 188 58 212 185 55 214 188 55 214 188 58 212 185 55 214 188 58 212 185 58 212 185 55 214 188 55 214 188 55 214 188 55 214 188 55 214 188 52 216 192 55 214 188 55 214 188 55 214 188 55 214 188 55 214 188 52 216 192 55 214 188 55 214 188 58 212 185 58 212 185 55 214 188 58 212 185 55 214 188 55 214 188 55 214 188 55 214 188 55 214 188 58 212 185 55 214 188 55 214 188 55 214 188 55 214 188 55 214 188 58 212 185 8 248 244 8 248 244 5 250 248 5 250 248 5 250 248 8 248 244 8 248 244 8 248 244 8 248 244 8 248 244 8 248 244 8 248 244 8 248 244 5 250 248 5 250 248 5 250 248 8 248 244 5 250 248 
5 250 248 5 250 248 5 250 248 5 250 248 5 250 248 5 250 248 8 248 244 5 250 248 5 250 248 5 250 248 5 250 248 5 250 248 5 250 248 8 248 244 5 250 248 8 248 244 8 248 244 88 190 150 105 177 129 102 179 132 105 177 129 108 175 125 108 175 125 102 179 132 105 177 129 102 179 132 105 177 129 108 175 125 105 177 129 105 177 129 108 175 125 105 177 129 108 175 125 114 171 118 108 175 125 108 175 125 108 175 125 108 175 125 108 175 125 114 171 118 114 171 118 114 171 118 114 171 118 108 175 125 114 171 118 114 171 118 108 175 125 108 175 125 108 175 125 108 175 125 108 175 125 114 171 118 114 171 118 108 175 125 108 175 125 105 177 129 108 175 125 114 171 118 114 171 118 114 171 118 114 171 118 114 171 118 114 171 118 108 175 125 108 175 125 108 175 125 108 175 125 108 175 125 108 175 125 114 171 118 108 175 125 108 175 125 108 175 125 114 171 118 114 171 118 108 175 125 108 175 125 108 175 125 108 175 125 114 171 118 108 175 125 108 175 125 114 171 118 114 171 118 114 171 118 114 171 118 114 171 118 114 171 118 114 171 118 108 175 125 108 175 125 114 171 118 114 171 118 117 169 115 117 169 115 114 171 118 114 171 118 117 169 115 114 171 118 117 169 115 114 171 118 114 171 118 114 171 118 114 171 118 114 171 118 117 169 115 117 169 115 114 171 118 35 229 213 8 248 244 8 248 244 20 239 230 55 214 188 55 214 188 55 214 188 55 214 188 55 214 188 55 214 188 55 214 188 58 212 185 55 214 188 55 214 188 55 214 188 55 214 188 55 214 188 55 214 188 55 214 188 55 214 188 55 214 188 55 214 188 55 214 188 55 214 188 55 214 188 55 214 188 55 214 188 52 216 192 55 214 188 55 214 188 55 214 188 55 214 188 58 212 185 58 212 185 58 212 185 58 212 185 55 214 188 55 214 188 58 212 185 55 214 188 55 214 188 55 214 188 55 214 188 55 214 188 55 214 188 55 214 188 55 214 188 55 214 188 55 214 188 55 214 188 58 212 185 58 212 185 58 212 185 55 214 188 55 214 188 55 214 188 55 214 188 58 212 185 58 212 185 55 214 188 58 212 185 58 212 185 58 212 185 55 214 188 55 214 188 55 214 188 55 214 188 55 214 188 55 214 188 55 214 188 58 212 185 58 212 185 55 214 188 55 214 188 55 214 188 55 214 188 55 214 188 55 214 188 58 212 185 55 214 188 55 214 188 58 212 185 58 212 185 55 214 188 55 214 188 55 214 188 58 212 185 55 214 188 58 212 185 55 214 188 58 212 185 55 214 188 58 212 185 55 214 188 46 220 199 5 250 248 5 250 248 5 250 248 5 250 248 8 248 244 11 246 241 5 250 248 5 250 248 8 248 244 5 250 248 8 248 244 5 250 248 8 248 244 5 250 248 5 250 248 8 248 244 8 248 244 
5 250 248 5 250 248 5 250 248 5 250 248 5 250 248 5 250 248 8 248 244 5 250 248 5 250 248 5 250 248 5 250 248 5 250 248 5 250 248 8 248 244 5 250 248 8 248 244 8 248 244 88 190 150 105 177 129 102 179 132 105 177 129 108 175 125 108 175 125 102 179 132 105 177 129 102 179 132 105 177 129 108 175 125 105 177 129 105 177 129 108 175 125 105 177 129 108 175 125 114 171 118 108 175 125 108 175 125 108 175 125 108 175 125 108 175 125 114 171 118 114 171 118 114 171 118 114 171 118 108 175 125 114 171 118 114 171 118 108 175 125 108 175 125 108 175 125 108 175 125 108 175 125 114 171 118 114 171 118 108 175 125 108 175 125 105 177 129 108 175 125 114 171 118 114 171 118 114 171 118 114 171 118 114 171 118 114 171 118 108 175 125 108 175 125 108 175 125 108 175 125 108 175 125 108 175 125 114 171 118 108 175 125 108 175 125 108 175 125 114 171 118 114 171 118 108 175 125 108 175 125 108 175 125 108 175 125 114 171 118 108 175 125 108 175 125 114 171 118 114 171 118 114 171 118 114 171 118 114 171 118 114 171 118 114 171 118 108 175 125 108 175 125 114 171 118 114 171 118 117 169 115 117 169 115 114 171 118 114 171 118 117 169 115 114 171 118 117 169 115 114 171 118 114 171 118 114 171 118 114 171 118 114 171 118 117 169 115 117 169 115 114 171 118 35 229 213 8 248 244 8 248 244 20 239 230 55 214 188 55 214 188 55 214 188 55 214 188 55 214 188 55 214 188 55 214 188 58 212 185 55 214 188 55 214 188 55 214 188 55 214 188 55 214 188 55 214 188 55 214 188 55 214 188 55 214 188 55 214 188 55 214 188 55 214 188 55 214 188 55 214 188 55 214 188 52 216 192 55 214 188 55 214 188 55 214 188 55 214 188 58 212 185 58 212 185 58 212 185 58 212 185 55 214 188 55 214 188 58 212 185 55 214 188 55 214 188 55 214 188 55 214 188 55 214 188 55 214 188 55 214 188 55 214 188 55 214 188 55 214 188 55 214 188 58 212 185 58 212 185 58 212 185 55 214 188 55 214 188 55 214 188 55 214 188 58 212 185 58 212 185 55 214 188 58 212 185 58 212 185 58 212 185 55 214 188 55 214 188 55 214 188 55 214 188 55 214 188 55 214 188 55 214 188 58 212 185 58 212 185 55 214 188 55 214 188 55 214 188 55 214 188 55 214 188 55 214 188 58 212 185 55 214 188 55 214 188 58 212 185 58 212 185 55 214 188 55 214 188 55 214 188 58 212 185 55 214 188 58 212 185 55 214 188 58 212 185 55 214 188 58 212 185 55 214 188 46 220 199 5 250 248 5 250 248 5 250 248 5 250 248 8 248 244 11 246 241 5 250 248 5 250 248 8 248 244 5 250 248 8 248 244 5 250 248 8 248 244 5 250 248 5 250 248 8 248 244 8 248 244 
8 248 244 8 248 244 8 248 244 5 250 248 5 250 248 8 248 244 5 250 248 5 250 248 5 250 248 5 250 248 5 250 248 5 250 248 5 250 248 5 250 248 8 248 244 8 248 244 44 222 202 99 181 136 102 179 132 105 177 129 108 175 125 108 175 125 108 175 125 108 175 125 102 179 132 105 177 129 102 179 132 105 177 129 105 177 129 108 175 125 105 177 129 105 177 129 108 175 125 105 177 129 108 175 125 105 177 129 108 175 125 114 171 118 114 171 118 114 171 118 114 171 118 114 171 118 114 171 118 108 175 125 114 171 118 114 171 118 114 171 118 114 171 118 114 171 118 114 171 118 114 171 118 114 171 118 108 175 125 108 175 125 108 175 125 114 171 118 108 175 125 114 171 118 114 171 118 114 171 118 114 171 118 114 171 118 114 171 118 108 175 125 114 171 118 108 175 125 114 171 118 114 171 118 114 171 118 108 175 125 105 177 129 108 175 125 114 171 118 114 171 118 108 175 125 114 171 118 114 171 118 114 171 118 114 171 118 114 171 118 114 171 118 114 171 118 114 171 118 114 171 118 114 171 118 117 169 115 114 171 118 114 171 118 114 171 118 117 169 115 114 171 118 114 171 118 114 171 118 117 169 115 114 171 118 114 171 118 114 171 118 117 169 115 114 171 118 117 169 115 114 171 118 108 175 125 114 171 118 117 169 115 114 171 118 114 171 118 114 171 118 114 171 118 35 229 213 8 248 244 8 248 244 17 242 234 55 214 188 52 216 192 55 214 188 55 214 188 55 214 188 55 214 188 55 214 188 55 214 188 55 214 188 55 214 188 55 214 188 55 214 188 55 214 188 55 214 188 55 214 188 55 214 188 55 214 188 55 214 188 55 214 188 55 214 188 55 214 188 55 214 188 55 214 188 55 214 188 55 214 188 55 214 188 55 214 188 55 214 188 58 212 185 58 212 185 55 214 188 55 214 188 55 214 188 55 214 188 55 214 188 58 212 185 55 214 188 55 214 188 55 214 188 55 214 188 55 214 188 55 214 188 55 214 188 55 214 188 58 212 185 55 214 188 58 212 185 55 214 188 55 214 188 58 212 185 58 212 185 58 212 185 55 214 188 58 212 185 55 214 188 55 214 188 58 212 185 55 214 188 55 214 188 55 214 188 55 214 188 55 214 188 55 214 188 55 214 188 55 214 188 58 212 185 55 214 188 55 214 188 55 214 188 55 214 188 58 212 185 58 212 185 58 212 185 55 214 188 55 214 188 55 214 188 58 212 185 55 214 188 58 212 185 55 214 188 58 212 185 55 214 188 55 214 188 55 214 188 55 214 188 55 214 188 55 214 188 55 214 188 55 214 188 55 214 188 52 216 192 20 239 230 5 250 248 8 248 244 5 250 248 5 250 248 5 250 248 8 248 244 8 248 244 8 248 244 5 250 248 5 250 248 5 250 248 8 248 244 8 248 244 5 250 248 8 248 244 8 248 244 
8 248 244 8 248 244 8 248 244 5 250 248 5 250 248 8 248 244 5 250 248 5 250 248 5 250 248 5 250 248 5 250 248 5 250 248 5 250 248 5 250 248 8 248 244 8 248 244 44 222 202 99 181 136 102 179 132 105 177 129 108 175 125 108 175 125 108 175 125 108 175 125 102 179 132 105 177 129 102 179 132 105 177 129 105 177 129 108 175 125 105 177 129 105 177 129 108 175 125 105 177 129 108 175 125 105 177 129 108 175 125 114 171 118 114 171 118 114 171 118 114 171 118 114 171 118 114 171 118 108 175 125 114 171 118 114 171 118 114 171 118 114 171 118 114 171 118 114 171 118 114 171 118 114 171 118 108 175 125 108 175 125 108 175 125 114 171 118 108 175 125 114 171 118 114 171 118 114 171 118 114 171 118 114 171 118 114 171 118 108 175 125 114 171 118 108 175 125 114 171 118 114 171 118 114 171 118 108 175 125 105 177 129 108 175 125 114 171 118 114 171 118 108 175 125 114 171 118 114 171 118 114 171 118 114 171 118 114 171 118 114 171 118 114 171 118 114 171 118 114 171 118 114 171 118 117 169 115 114 171 118 114 171 118 114 171 118 117 169 115 114 171 118 114 171 118 114 171 118 117 169 115 114 171 118 114 171 118 114 171 118 117 169 115 114 171 118 117 169 115 114 171 118 108 175 125 114 171 118 117 169 115 114 171 118 114 171 118 114 171 118 114 171 118 35 229 213 8 248 244 8 248 244 17 242 234 55 214 188 52 216 192 55 214 188 55 214 188 55 214 188 55 214 188 55 214 188 55 214 188 55 214 188 55 214 188 55 214 188 55 214 188 55 214 188 55 214 188 55 214 188 55 214 188 55 214 188 55 214 188 55 214 188 55 214 188 55 214 188 55 214 188 55 214 188 55 214 188 55 214 188 55 214 188 55 214 188 55 214 188 58 212 185 58 212 185 55 214 188 55 214 188 55 214 188 55 214 188 55 214 188 58 212 185 55 214 188 55 214 188 55 214 188 55 214 188 55 214 188 55 214 188 55 214 188 55 214 188 58 212 185 55 214 188 58 212 185 55 214 188 55 214 188 58 212 185 58 212 185 58 212 185 55 214 188 58 212 185 55 214 188 55 214 188 58 212 185 55 214 188 55 214 188 55 214 188 55 214 188 55 214 188 55 214 188 55 214 188 55 214 188 58 212 185 55 214 188 55 214 188 55 214 188 55 214 188 58 212 185 58 212 185 58 212 185 55 214 188 55 214 188 55 214 188 58 212 185 55 214 188 58 212 185 55 214 188 58 212 185 55 214 188 55 214 188 55 214 188 55 214 188 55 214 188 55 214 188 55 214 188 55 214 188 55 214 188 52 216 192 20 239 230 5 250 248 8 248 244 5 250 248 5 250 248 5 250 248 8 248 244 8 248 244 8 248 244 5 250 248 5 250 248 5 250 248 8 248 244 8 248 244 5 250 248 8 248 244 8 248 244 
5 250 248 5 250 248 5 250 248 5 250 248 8 248 244 5 250 248 5 250 248 5 250 248 5 250 248 5 250 248 5 250 248 5 250 248 8 248 244 5 250 248 8 248 244 11 246 241 85 192 153 108 175 125 105 177 129 105 177 129 108 175 125 108 175 125 108 175 125 108 175 125 105 177 129 102 179 132 105 177 129 108 175 125 108 175 125 108 175 125 105 177 129 108 175 125 108 175 125 108 175 125 108 175 125 108 175 125 108 175 125 108 175 125 108 175 125 108 175 125 114 171 118 108 175 125 114 171 118 114 171 118 114 171 118 108 175 125 114 171 118 114 171 118 114 171 118 114 171 118 108 175 125 108 175 125 114 171 118 108 175 125 114 171 118 114 171 118 114 171 118 114 171 118 114 171 118 117 169 115 114 171 118 114 171 118 114 171 118 108 175 125 114 171 118 114 171 118 114 171 118 114 171 118 108 175 125 114 171 118 108 175 125 114 171 118 114 171 118 117 169 115 114 171 118 114 171 118 114 171 118 108 175 125 114 171 118 114 171 118 114 171 118 117 169 115 117 169 115 114 171 118 114 171 118 114 171 118 114 171 118 117 169 115 114 171 118 117 169 115 114 171 118 117 169 115 117 169 115 114 171 118 114 171 118 117 169 115 114 171 118 117 169 115 114 171 118 117 169 115 117 169 115 114 171 118 114 171 118 114 171 118 117 169 115 114 171 118 114 171 118 117 169 115 35 229 213 8 248 244 8 248 244 17 242 234 55 214 188 55 214 188 55 214 188 52 216 192 55 214 188 55 214 188 55 214 188 55 214 188 55 214 188 55 214 188 55 214 188 55 214 188 55 214 188 55 214 188 55 214 188 55 214 188 55 214 188 55 214 188 55 214 188 55 214 188 55 214 188 55 214 188 55 214 188 55 214 188 55 214 188 58 212 185 55 214 188 58 212 185 55 214 188 55 214 188 58 212 185 55 214 188 58 212 185 58 212 185 58 212 185 55 214 188 55 214 188 55 214 188 55 214 188 55 214 188 55 214 188 55 214 188 55 214 188 55 214 188 55 214 188 58 212 185 55 214 188 58 212 185 58 212 185 58 212 185 55 214 188 55 214 188 58 212 185 55 214 188 58 212 185 55 214 188 58 212 185 58 212 185 55 214 188 55 214 188 55 214 188 52 216 192 55 214 188 55 214 188 52 216 192 55 214 188 58 212 185 55 214 188 55 214 188 58 212 185 58 212 185 58 212 185 55 214 188 55 214 188 58 212 185 55 214 188 55 214 188 55 214 188 58 212 185 58 212 185 58 212 185 58 212 185 58 212 185 58 212 185 58 212 185 55 214 188 55 214 188 58 212 185 58 212 185 55 214 188 55 214 188 44 222 202 8 248 244 5 250 248 8 248 244 5 250 248 8 248 244 8 248 244 8 248 244 8 248 244 5 250 248 8 248 244 5 250 248 8 248 244 8 248 244 5 250 248 8 248 244 8 248 244 
5 250 248 5 250 248 5 250 248 5 250 248 8 248 244 5 250 248 5 250 248 5 250 248 5 250 248 5 250 248 5 250 248 5 250 248 8 248 244 5 250 248 8 248 244 11 246 241 85 192 153 108 175 125 105 177 129 105 177 129 108 175 125 108 175 125 108 175 125 108 175 125 105 177 129 102 179 132 105 177 129 108 175 125 108 175 125 108 175 125 105 177 129 108 175 125 108 175 125 108 175 125 108 175 125 108 175 125 108 175 125 108 175 125 108 175 125 108 175 125 114 171 118 108 175 125 114 171 118 114 171 118 114 171 118 108 175 125 114 171 118 114 171 118 114 171 118 114 171 118 108 175 125 108 175 125 114 171 118 108 175 125 114 171 118 114 171 118 114 171 118 114 171 118 114 171 118 117 169 115 114 171 118 114 171 118 114 171 118 108 175 125 114 171 118 114 171 118 114 171 118 114 171 118 108 175 125 114 171 118 108 175 125 114 171 118 114 171 118 117 169 115 114 171 118 114 171 118 114 171 118 108 175 125 114 171 118 114 171 118 114 171 118 117 169 115 117 169 115 114 171 118 114 171 118 114 171 118 114 171 118 117 169 115 114 171 118 117 169 115 114 171 118 117 169 115 117 169 115 114 171 118 114 171 118 117 169 115 114 171 118 117 169 115 114 171 118 117 169 115 117 169 115 114 171 118 114 171 118 114 171 118 117 169 115 114 171 118 114 171 118 117 169 115 35 229 213 8 248 244 8 248 244 17 242 234 55 214 188 55 214 188 55 214 188 52 216 192 55 214 188 55 214 188 55 214 188 55 214 188 55 214 188 55 214 188 55 214 188 55 214 188 55 214 188 55 214 188 55 214 188 55 214 188 55 214 188 55 214 188 55 214 188 55 214 188 55 214 188 55 214 188 55 214 188 55 214 188 55 214 188 58 212 185 55 214 188 58 212 185 55 214 188 55 214 188 58 212 185 55 214 188 58 212 185 58 212 185 58 212 185 55 214 188 55 214 188 55 214 188 55 214 188 55 214 188 55 214 188 55 214 188 55 214 188 55 214 188 55 214 188 58 212 185 55 214 188 58 212 185 58 212 185 58 212 185 55 214 188 55 214 188 58 212 185 55 214 188 58 212 185 55 214 188 58 212 185 58 212 185 55 214 188 55 214 188 55 214 188 52 216 192 55 214 188 55 214 188 52 216 192 55 214 188 58 212 185 55 214 188 55 214 188 58 212 185 58 212 185 58 212 185 55 214 188 55 214 188 58 212 185 55 214 188 55 214 188 55 214 188 58 212 185 58 212 185 58 212 185 58 212 185 58 212 185 58 212 185 58 212 185 55 214 188 55 214 188 58 212 185 58 212 185 55 214 188 55 214 188 44 222 202 8 248 244 5 250 248 8 248 244 5 250 248 8 248 244 8 248 244 8 248 244 8 248 244 5 250 248 8 248 244 5 250 248 8 248 244 8 248 244 5 250 248 8 248 244 8 248 244 
5 250 248 5 250 248 5 250 248 5 250 248 8 248 244 5 250 248 5 250 248 5 250 248 5 250 248 5 250 248 5 250 248 8 248 244 5 250 248 5 250 248 8 248 244 58 212 185 108 175 125 114 171 118 114 171 118 108 175 125 108 175 125 108 175 125 108 175 125 108 175 125 102 179 132 105 177 129 108 175 125 108 175 125 108 175 125 105 177 129 108 175 125 108 175 125 114 171 118 114 171 118 114 171 118 114 171 118 108 175 125 108 175 125 108 175 125 108 175 125 114 171 118 114 171 118 114 171 118 108 175 125 114 171 118 117 169 115 114 171 118 114 171 118 114 171 118 114 171 118 114 171 118 114 171 118 114 171 118 114 171 118 114 171 118 114 171 118 117 169 115 117 169 115 117 169 115 114 171 118 117 169 115 114 171 118 114 171 118 108 175 125 114 171 118 114 171 118 114 171 118 117 169 115 114 171 118 114 171 118 108 175 125 114 171 118 114 171 118 114 171 118 114 171 118 114 171 118 108 175 125 108 175 125 117 169 115 117 169 115 117 169 115 117 169 115 117 169 115 117 169 115 117 169 115 114 171 118 117 169 115 117 169 115 114 171 118 114 171 118 117 169 115 117 169 115 117 169 115 117 169 115 114 171 118 117 169 115 114 171 118 114 171 118 117 169 115 117 169 115 117 169 115 114 171 118 117 169 115 117 169 115 114 171 118 114 171 118 117 169 115 117 169 115 35 229 213 8 248 244 8 248 244 17 242 234 52 216 192 55 214 188 55 214 188 55 214 188 55 214 188 55 214 188 55 214 188 55 214 188 55 214 188 55 214 188 52 216 192 55 214 188 55 214 188 55 214 188 55 214 188 55 214 188 58 212 185 58 212 185 58 212 185 58 212 185 55 214 188 55 214 188 55 214 188 55 214 188 55 214 188 55 214 188 55 214 188 55 214 188 58 212 185 58 212 185 55 214 188 55 214 188 55 214 188 55 214 188 52 216 192 55 214 188 55 214 188 55 214 188 55 214 188 58 212 185 55 214 188 55 214 188 55 214 188 55 214 188 55 214 188 55 214 188 55 214 188 58 212 185 55 214 188 55 214 188 55 214 188 58 212 185 55 214 188 55 214 188 55 214 188 55 214 188 55 214 188 58 212 185 58 212 185 58 212 185 55 214 188 55 214 188 55 214 188 55 214 188 55 214 188 55 214 188 55 214 188 58 212 185 58 212 185 58 212 185 61 209 181 58 212 185 58 212 185 58 212 185 55 214 188 55 214 188 55 214 188 55 214 188 58 212 185 58 212 185 58 212 185 58 212 185 58 212 185 58 212 185 55 214 188 58 212 185 55 214 188 55 214 188 55 214 188 52 216 192 55 214 188 55 214 188 32 231 216 5 250 248 5 250 248 8 248 244 5 250 248 5 250 248 5 250 248 8 248 244 5 250 248 5 250 248 5 250 248 5 250 248 8 248 244 8 248 244 8 248 244 8 248 244 
5 250 248 5 250 248 5 250 248 5 250 248 8 248 244 5 250 248 5 250 248 5 250 248 5 250 248 5 250 248 5 250 248 8 248 244 5 250 248 5 250 248 8 248 244 58 212 185 108 175 125 114 171 118 114 171 118 108 175 125 108 175 125 108 175 125 108 175 125 108 175 125 102 179 132 105 177 129 108 175 125 108 175 125 108 175 125 105 177 129 108 175 125 108 175 125 114 171 118 114 171 118 114 171 118 114 171 118 108 175 125 108 175 125 108 175 125 108 175 125 114 171 118 114 171 118 114 171 118 108 175 125 114 171 118 117 169 115 114 171 118 114 171 118 114 171 118 114 171 118 114 171 118 114 171 118 114 171 118 114 171 118 114 171 118 114 171 118 117 169 115 117 169 115 117 169 115 114 171 118 117 169 115 114 171 118 114 171 118 108 175 125 114 171 118 114 171 118 114 171 118 117 169 115 114 171 118 114 171 118 108 175 125 114 171 118 114 171 118 114 171 118 114 171 118 114 171 118 108 175 125 108 175 125 117 169 115 117 169 115 117 169 115 117 169 115 117 169 115 117 169 115 117 169 115 114 171 118 117 169 115 117 169 115 114 171 118 114 171 118 117 169 115 117 169 115 117 169 115 117 169 115 114 171 118 117 169 115 114 171 118 114 171 118 117 169 115 117 169 115 117 169 115 114 171 118 117 169 115 117 169 115 114 171 118 114 171 118 117 169 115 117 169 115 35 229 213 8 248 244 8 248 244 17 242 234 52 216 192 55 214 188 55 214 188 55 214 188 55 214 188 55 214 188 55 214 188 55 214 188 55 214 188 55 214 188 52 216 192 55 214 188 55 214 188 55 214 188 55 214 188 55 214 188 58 212 185 58 212 185 58 212 185 58 212 185 55 214 188 55 214 188 55 214 188 55 214 188 55 214 188 55 214 188 55 214 188 55 214 188 58 212 185 58 212 185 55 214 188 55 214 188 55 214 188 55 214 188 52 216 192 55 214 188 55 214 188 55 214 188 55 214 188 58 212 185 55 214 188 55 214 188 55 214 188 55 214 188 55 214 188 55 214 188 55 214 188 58 212 185 55 214 188 55 214 188 55 214 188 58 212 185 55 214 188 55 214 188 55 214 188 55 214 188 55 214 188 58 212 185 58 212 185 58 212 185 55 214 188 55 214 188 55 214 188 55 214 188 55 214 188 55 214 188 55 214 188 58 212 185 58 212 185 58 212 185 61 209 181 58 212 185 58 212 185 58 212 185 55 214 188 55 214 188 55 214 188 55 214 188 58 212 185 58 212 185 58 212 185 58 212 185 58 212 185 58 212 185 55 214 188 58 212 185 55 214 188 55 214 188 55 214 188 52 216 192 55 214 188 55 214 188 32 231 216 5 250 248 5 250 248 8 248 244 5 250 248 5 250 248 5 250 248 8 248 244 5 250 248 5 250 248 5 250 248 5 250 248 8 248 244 8 248 244 8 248 244 8 248 244 
5 250 248 5 250 248 5 250 248 5 250 248 5 250 248 5 250 248 5 250 248 5 250 248 5 250 248 5 250 248 5 250 248 5 250 248 5 250 248 5 250 248 14 244 237 73 201 167 108 175 125 114 171 118 108 175 125 108 175 125 108 175 125 108 175 125 108 175 125 114 171 118 108 175 125 108 175 125 108 175 125 108 175 125 108 175 125 108 175 125 114 171 118 114 171 118 108 175 125 114 171 118 114 171 118 114 171 118 108 175 125 108 175 125 108 175 125 108 175 125 117 169 115 114 171 118 108 175 125 114 171 118 114 171 118 117 169 115 114 171 118 114 171 118 114 171 118 114 171 118 114 171 118 117 169 115 117 169 115 114 171 118 117 169 115 117 169 115 114 171 118 117 169 115 117 169 115 117 169 115 117 169 115 117 169 115 117 169 115 117 169 115 117 169 115 114 171 118 117 169 115 108 175 125 114 171 118 114 171 118 114 171 118 108 175 125 114 171 118 108 175 125 117 169 115 114 171 118 117 169 115 117 169 115 114 171 118 114 171 118 114 171 118 114 171 118 114 171 118 114 171 118 117 169 115 117 169 115 117 169 115 114 171 118 117 169 115 117 169 115 117 169 115 117 169 115 117 169 115 117 169 115 117 169 115 117 169 115 117 169 115 120 166 111 117 169 115 117 169 115 114 171 118 117 169 115 117 169 115 117 169 115 117 169 115 114 171 118 114 171 118 117 169 115 35 229 213 8 248 244 8 248 244 17 242 234 55 214 188 55 214 188 55 214 188 55 214 188 55 214 188 58 212 185 55 214 188 55 214 188 55 214 188 58 212 185 55 214 188 55 214 188 55 214 188 55 214 188 55 214 188 55 214 188 58 212 185 58 212 185 58 212 185 55 214 188 55 214 188 55 214 188 55 214 188 55 214 188 55 214 188 55 214 188 55 214 188 55 214 188 52 216 192 55 214 188 55 214 188 55 214 188 55 214 188 55 214 188 55 214 188 55 214 188 55 214 188 55 214 188 55 214 188 55 214 188 55 214 188 55 214 188 55 214 188 55 214 188 55 214 188 55 214 188 55 214 188 55 214 188 55 214 188 55 214 188 55 214 188 55 214 188 55 214 188 52 216 192 58 212 185 55 214 188 58 212 185 58 212 185 55 214 188 58 212 185 58 212 185 55 214 188 55 214 188 55 214 188 55 214 188 55 214 188 58 212 185 58 212 185 55 214 188 55 214 188 58 212 185 58 212 185 58 212 185 55 214 188 55 214 188 55 214 188 58 212 185 58 212 185 58 212 185 58 212 185 58 212 185 55 214 188 58 212 185 58 212 185 55 214 188 58 212 185 58 212 185 58 212 185 58 212 185 58 212 185 55 214 188 58 212 185 41 224 206 8 248 244 8 248 244 5 250 248 5 250 248 5 250 248 5 250 248 8 248 244 8 248 244 8 248 244 8 248 244 8 248 244 8 248 244 8 248 244 8 248 244 8 248 244 
5 250 248 5 250 248 5 250 248 5 250 248 5 250 248 5 250 248 5 250 248 5 250 248 5 250 248 5 250 248 5 250 248 5 250 248 5 250 248 5 250 248 14 244 237 73 201 167 108 175 125 114 171 118 108 175 125 108 175 125 108 175 125 108 175 125 108 175 125 114 171 118 108 175 125 108 175 125 108 175 125 108 175 125 108 175 125 108 175 125 114 171 118 114 171 118 108 175 125 114 171 118 114 171 118 114 171 118 108 175 125 108 175 125 108 175 125 108 175 125 117 169 115 114 171 118 108 175 125 114 171 118 114 171 118 117 169 115 114 171 118 114 171 118 114 171 118 114 171 118 114 171 118 117 169 115 117 169 115 114 171 118 117 169 115 117 169 115 114 171 118 117 169 115 117 169 115 117 169 115 117 169 115 117 169 115 117 169 115 117 169 115 117 169 115 114 171 118 117 169 115 108 175 125 114 171 118 114 171 118 114 171 118 108 175 125 114 171 118 108 175 125 117 169 115 114 171 118 117 169 115 117 169 115 114 171 118 114 171 118 114 171 118 114 171 118 114 171 118 114 171 118 117 169 115 117 169 115 117 169 115 114 171 118 117 169 115 117 169 115 117 169 115 117 169 115 117 169 115 117 169 115 117 169 115 117 169 115 117 169 115 120 166 111 117 169 115 117 169 115 114 171 118 117 169 115 117 169 115 117 169 115 117 169 115 114 171 118 114 171 118 117 169 115 35 229 213 8 248 244 8 248 244 17 242 234 55 214 188 55 214 188 55 214 188 55 214 188 55 214 188 58 212 185 55 214 188 55 214 188 55 214 188 58 212 185 55 214 188 55 214 188 55 214 188 55 214 188 55 214 188 55 214 188 58 212 185 58 212 185 58 212 185 55 214 188 55 214 188 55 214 188 55 214 188 55 214 188 55 214 188 55 214 188 55 214 188 55 214 188 52 216 192 55 214 188 55 214 188 55 214 188 55 214 188 55 214 188 55 214 188 55 214 188 55 214 188 55 214 188 55 214 188 55 214 188 55 214 188 55 214 188 55 214 188 55 214 188 55 214 188 55 214 188 55 214 188 55 214 188 55 214 188 55 214 188 55 214 188 55 214 188 55 214 188 52 216 192 58 212 185 55 214 188 58 212 185 58 212 185 55 214 188 58 212 185 58 212 185 55 214 188 55 214 188 55 214 188 55 214 188 55 214 188 58 212 185 58 212 185 55 214 188 55 214 188 58 212 185 58 212 185 58 212 185 55 214 188 55 214 188 55 214 188 58 212 185 58 212 185 58 212 185 58 212 185 58 212 185 55 214 188 58 212 185 58 212 185 55 214 188 58 212 185 58 212 185 58 212 185 58 212 185 58 212 185 55 214 188 58 212 185 41 224 206 8 248 244 8 248 244 5 250 248 5 250 248 5 250 248 5 250 248 8 248 244 8 248 244 8 248 244 8 248 244 8 248 244 8 248 244 8 248 244 8 248 244 8 248 244 
5 250 248 5 250 248 5 250 248 5 250 248 8 248 244 8 248 244 8 248 244 8 248 244 5 250 248 5 250 248 5 250 248 5 250 248 5 250 248 8 248 244 46 220 199 108 175 125 108 175 125 108 175 125 114 171 118 108 175 125 114 171 118 108 175 125 114 171 118 114 171 118 108 175 125 114 171 118 114 171 118 114 171 118 114 171 118 114 171 118 108 175 125 117 169 115 114 171 118 114 171 118 117 169 115 114 171 118 114 171 118 114 171 118 114 171 118 114 171 118 114 171 118 114 171 118 114 171 118 108 175 125 114 171 118 114 171 118 117 169 115 117 169 115 117 169 115 108 175 125 117 169 115 117 169 115 120 166 111 117 169 115 117 169 115 114 171 118 114 171 118 117 169 115 114 171 118 114 171 118 114 171 118 114 171 118 114 171 118 114 171 118 114 171 118 114 171 118 114 171 118 108 175 125 117 169 115 117 169 115 114 171 118 114 171 118 108 175 125 117 169 115 114 171 118 117 169 115 117 169 115 117 169 115 114 171 118 120 166 111 117 169 115 117 169 115 117 169 115 117 169 115 117 169 115 120 166 111 117 169 115 117 169 115 120 166 111 120 166 111 120 166 111 120 166 111 120 166 111 117 169 115 117 169 115 123 164 108 120 166 111 120 166 111 120 166 111 117 169 115 117 169 115 117 169 115 120 166 111 120 166 111 117 169 115 114 171 118 114 171 118 117 169 115 38 227 209 8 248 244 8 248 244 17 242 234 52 216 192 55 214 188 55 214 188 55 214 188 55 214 188 58 212 185 55 214 188 55 214 188 58 212 185 55 214 188 55 214 188 55 214 188 58 212 185 55 214 188 55 214 188 58 212 185 55 214 188 58 212 185 58 212 185 58 212 185 55 214 188 55 214 188 55 214 188 55 214 188 55 214 188 55 214 188 55 214 188 52 216 192 55 214 188 55 214 188 55 214 188 55 214 188 55 214 188 58 212 185 55 214 188 55 214 188 55 214 188 55 214 188 55 214 188 55 214 188 55 214 188 55 214 188 55 214 188 58 212 185 58 212 185 58 212 185 61 209 181 58 212 185 58 212 185 58 212 185 55 214 188 55 214 188 55 214 188 55 214 188 58 212 185 55 214 188 58 212 185 55 214 188 55 214 188 55 214 188 58 212 185 55 214 188 55 214 188 58 212 185 58 212 185 55 214 188 58 212 185 58 212 185 55 214 188 58 212 185 58 212 185 58 212 185 58 212 185 55 214 188 55 214 188 58 212 185 55 214 188 58 212 185 58 212 185 58 212 185 58 212 185 58 212 185 58 212 185 58 212 185 58 212 185 58 212 185 58 212 185 61 209 181 58 212 185 58 212 185 58 212 185 58 212 185 58 212 185 23 237 227 5 250 248 8 248 244 8 248 244 5 250 248 5 250 248 5 250 248 8 248 244 5 250 248 8 248 244 5 250 248 5 250 248 5 250 248 5 250 248 8 248 244 
5 250 248 5 250 248 5 250 248 5 250 248 8 248 244 8 248 244 8 248 244 8 248 244 5 250 248 5 250 248 5 250 248 5 250 248 5 250 248 8 248 244 46 220 199 108 175 125 108 175 125 108 175 125 114 171 118 108 175 125 114 171 118 108 175 125 114 171 118 114 171 118 108 175 125 114 171 118 114 171 118 114 171 118 114 171 118 114 171 118 108 175 125 117 169 115 114 171 118 114 171 118 117 169 115 114 171 118 114 171 118 114 171 118 114 171 118 114 171 118 114 171 118 114 171 118 114 171 118 108 175 125 114 171 118 114 171 118 117 169 115 117 169 115 117 169 115 108 175 125 117 169 115 117 169 115 120 166 111 117 169 115 117 169 115 114 171 118 114 171 118 117 169 115 114 171 118 114 171 118 114 171 118 114 171 118 114 171 118 114 171 118 114 171 118 114 171 118 114 171 118 108 175 125 117 169 115 117 169 115 114 171 118 114 171 118 108 175 125 117 169 115 114 171 118 117 169 115 117 169 115 117 169 115 114 171 118 120 166 111 117 169 115 117 169 115 117 169 115 117 169 115 117 169 115 120 166 111 117 169 115 117 169 115 120 166 111 120 166 111 120 166 111 120 166 111 120 166 111 117 169 115 117 169 115 123 164 108 120 166 111 120 166 111 120 166 111 117 169 115 117 169 115 117 169 115 120 166 111 120 166 111 117 169 115 114 171 118 114 171 118 117 169 115 38 227 209 8 248 244 8 248 244 17 242 234 52 216 192 55 214 188 55 214 188 55 214 188 55 214 188 58 212 185 55 214 188 55 214 188 58 212 185 55 214 188 55 214 188 55 214 188 58 212 185 55 214 188 55 214 188 58 212 185 55 214 188 58 212 185 58 212 185 58 212 185 55 214 188 55 214 188 55 214 188 55 214 188 55 214 188 55 214 188 55 214 188 52 216 192 55 214 188 55 214 188 55 214 188 55 214 188 55 214 188 58 212 185 55 214 188 55 214 188 55 214 188 55 214 188 55 214 188 55 214 188 55 214 188 55 214 188 55 214 188 58 212 185 58 212 185 58 212 185 61 209 181 58 212 185 58 212 185 58 212 185 55 214 188 55 214 188 55 214 188 55 214 188 58 212 185 55 214 188 58 212 185 55 214 188 55 214 188 55 214 188 58 212 185 55 214 188 55 214 188 58 212 185 58 212 185 55 214 188 58 212 185 58 212 185 55 214 188 58 212 185 58 212 185 58 212 185 58 212 185 55 214 188 55 214 188 58 212 185 55 214 188 58 212 185 58 212 185 58 212 185 58 212 185 58 212 185 58 212 185 58 212 185 58 212 185 58 212 185 58 212 185 61 209 181 58 212 185 58 212 185 58 212 185 58 212 185 58 212 185 23 237 227 5 250 248 8 248 244 8 248 244 5 250 248 5 250 248 5 250 248 8 248 244 5 250 248 8 248 244 5 250 248 5 250 248 5 250 248 5 250 248 8 248 244 
8 248 244 5 250 248 5 250 248 8 248 244 5 250 248 8 248 244 5 250 248 5 250 248 5 250 248 5 250 248 5 250 248 8 248 244 8 248 244 11 246 241 61 209 181 114 171 118 114 171 118 114 171 118 117 169 115 114 171 118 108 175 125 114 171 118 108 175 125 114 171 118 114 171 118 117 169 115 117 169 115 117 169 115 117 169 115 117 169 115 114 171 118 114 171 118 114 171 118 114 171 118 117 169 115 117 169 115 114 171 118 114 171 118 117 169 115 114 171 118 114 171 118 114 171 118 108 175 125 114 171 118 117 169 115 117 169 115 117 169 115 117 169 115 117 169 115 117 169 115 120 166 111 117 169 115 114 171 118 114 171 118 117 169 115 114 171 118 114 171 118 120 166 111 117 169 115 114 171 118 117 169 115 114 171 118 117 169 115 108 175 125 108 175 125 108 175 125 114 171 118 117 169 115 120 166 111 114 171 118 108 175 125 114 171 118 114 171 118 114 171 118 117 169 115 117 169 115 117 169 115 117 169 115 117 169 115 114 171 118 117 169 115 114 171 118 117 169 115 114 171 118 117 169 115 117 169 115 117 169 115 120 166 111 120 166 111 120 166 111 120 166 111 117 169 115 123 164 108 123 164 108 117 169 115 114 171 118 117 169 115 117 169 115 120 166 111 120 166 111 117 169 115 117 169 115 123 164 108 120 166 111 114 171 118 117 169 115 120 166 111 117 169 115 35 229 213 8 248 244 8 248 244 20 239 230 55 214 188 55 214 188 52 216 192 55 214 188 58 212 185 55 214 188 58 212 185 55 214 188 55 214 188 55 214 188 58 212 185 58 212 185 58 212 185 58 212 185 58 212 185 58 212 185 58 212 185 58 212 185 58 212 185 55 214 188 55 214 188 55 214 188 55 214 188 52 216 192 55 214 188 55 214 188 52 216 192 52 216 192 58 212 185 55 214 188 55 214 188 55 214 188 55 214 188 55 214 188 55 214 188 55 214 188 55 214 188 55 214 188 55 214 188 55 214 188 52 216 192 55 214 188 55 214 188 55 214 188 55 214 188 55 214 188 55 214 188 58 212 185 55 214 188 55 214 188 55 214 188 55 214 188 55 214 188 55 214 188 55 214 188 55 214 188 58 212 185 58 212 185 58 212 185 58 212 185 55 214 188 55 214 188 58 212 185 58 212 185 58 212 185 55 214 188 58 212 185 58 212 185 58 212 185 58 212 185 55 214 188 58 212 185 58 212 185 58 212 185 55 214 188 58 212 185 58 212 185 55 214 188 55 214 188 55 214 188 58 212 185 58 212 185 61 209 181 58 212 185 58 212 185 58 212 185 58 212 185 58 212 185 58 212 185 58 212 185 55 214 188 58 212 185 58 212 185 26 235 223 5 250 248 5 250 248 5 250 248 5 250 248 8 248 244 5 250 248 5 250 248 5 250 248 5 250 248 5 250 248 8 248 244 8 248 244 5 250 248 5 250 248 
8 248 244 5 250 248 5 250 248 8 248 244 5 250 248 8 248 244 5 250 248 5 250 248 5 250 248 5 250 248 5 250 248 8 248 244 8 248 244 11 246 241 61 209 181 114 171 118 114 171 118 114 171 118 117 169 115 114 171 118 108 175 125 114 171 118 108 175 125 114 171 118 114 171 118 117 169 115 117 169 115 117 169 115 117 169 115 117 169 115 114 171 118 114 171 118 114 171 118 114 171 118 117 169 115 117 169 115 114 171 118 114 171 118 117 169 115 114 171 118 114 171 118 114 171 118 108 175 125 114 171 118 117 169 115 117 169 115 117 169 115 117 169 115 117 169 115 117 169 115 120 166 111 117 169 115 114 171 118 114 171 118 117 169 115 114 171 118 114 171 118 120 166 111 117 169 115 114 171 118 117 169 115 114 171 118 117 169 115 108 175 125 108 175 125 108 175 125 114 171 118 117 169 115 120 166 111 114 171 118 108 175 125 114 171 118 114 171 118 114 171 118 117 169 115 117 169 115 117 169 115 117 169 115 117 169 115 114 171 118 117 169 115 114 171 118 117 169 115 114 171 118 117 169 115 117 169 115 117 169 115 120 166 111 120 166 111 120 166 111 120 166 111 117 169 115 123 164 108 123 164 108 117 169 115 114 171 118 117 169 115 117 169 115 120 166 111 120 166 111 117 169 115 117 169 115 123 164 108 120 166 111 114 171 118 117 169 115 120 166 111 117 169 115 35 229 213 8 248 244 8 248 244 20 239 230 55 214 188 55 214 188 52 216 192 55 214 188 58 212 185 55 214 188 58 212 185 55 214 188 55 214 188 55 214 188 58 212 185 58 212 185 58 212 185 58 212 185 58 212 185 58 212 185 58 212 185 58 212 185 58 212 185 55 214 188 55 214 188 55 214 188 55 214 188 52 216 192 55 214 188 55 214 188 52 216 192 52 216 192 58 212 185 55 214 188 55 214 188 55 214 188 55 214 188 55 214 188 55 214 188 55 214 188 55 214 188 55 214 188 55 214 188 55 214 188 52 216 192 55 214 188 55 214 188 55 214 188 55 214 188 55 214 188 55 214 188 58 212 185 55 214 188 55 214 188 55 214 188 55 214 188 55 214 188 55 214 188 55 214 188 55 214 188 58 212 185 58 212 185 58 212 185 58 212 185 55 214 188 55 214 188 58 212 185 58 212 185 58 212 185 55 214 188 58 212 185 58 212 185 58 212 185 58 212 185 55 214 188 58 212 185 58 212 185 58 212 185 55 214 188 58 212 185 58 212 185 55 214 188 55 214 188 55 214 188 58 212 185 58 212 185 61 209 181 58 212 185 58 212 185 58 212 185 58 212 185 58 212 185 58 212 185 58 212 185 55 214 188 58 212 185 58 212 185 26 235 223 5 250 248 5 250 248 5 250 248 5 250 248 8 248 244 5 250 248 5 250 248 5 250 248 5 250 248 5 250 248 8 248 244 8 248 244 5 250 248 5 250 248 
5 250 248 5 250 248 5 250 248 5 250 248 5 250 248 5 250 248 8 248 244 8 248 244 5 250 248 8 248 244 8 248 244 8 248 244 8 248 244 32 231 216 108 175 125 108 175 125 114 171 118 114 171 118 108 175 125 114 171 118 114 171 118 114 171 118 117 169 115 117 169 115 114 171 118 117 169 115 117 169 115 114 171 118 114 171 118 114 171 118 114 171 118 114 171 118 114 171 118 114 171 118 114 171 118 114 171 118 114 171 118 108 175 125 114 171 118 114 171 118 114 171 118 114 171 118 117 169 115 114 171 118 108 175 125 114 171 118 117 169 115 117 169 115 117 169 115 117 169 115 117 169 115 117 169 115 114 171 118 117 169 115 117 169 115 117 169 115 117 169 115 117 169 115 117 169 115 117 169 115 114 171 118 120 166 111 108 175 125 114 171 118 114 171 118 114 171 118 117 169 115 117 169 115 114 171 118 114 171 118 114 171 118 114 171 118 108 175 125 117 169 115 114 171 118 117 169 115 117 169 115 117 169 115 117 169 115 117 169 115 117 169 115 117 169 115 117 169 115 117 169 115 117 169 115 117 169 115 120 166 111 120 166 111 120 166 111 120 166 111 120 166 111 123 164 108 120 166 111 123 164 108 123 164 108 123 164 108 120 166 111 117 169 115 120 166 111 120 166 111 117 169 115 120 166 111 120 166 111 120 166 111 120 166 111 120 166 111 114 171 118 120 166 111 38 227 209 5 250 248 8 248 244 17 242 234 52 216 192 55 214 188 55 214 188 55 214 188 55 214 188 55 214 188 55 214 188 58 212 185 58 212 185 55 214 188 55 214 188 58 212 185 58 212 185 58 212 185 58 212 185 55 214 188 58 212 185 58 212 185 58 212 185 58 212 185 55 214 188 55 214 188 58 212 185 55 214 188 55 214 188 55 214 188 55 214 188 52 216 192 55 214 188 52 216 192 55 214 188 55 214 188 55 214 188 55 214 188 55 214 188 55 214 188 58 212 185 55 214 188 55 214 188 55 214 188 55 214 188 55 214 188 58 212 185 55 214 188 55 214 188 55 214 188 55 214 188 58 212 185 55 214 188 58 212 185 55 214 188 55 214 188 55 214 188 55 214 188 55 214 188 55 214 188 55 214 188 55 214 188 55 214 188 58 212 185 58 212 185 58 212 185 55 214 188 58 212 185 55 214 188 58 212 185 55 214 188 55 214 188 58 212 185 58 212 185 58 212 185 58 212 185 58 212 185 58 212 185 58 212 185 58 212 185 58 212 185 58 212 185 55 214 188 58 212 185 58 212 185 58 212 185 58 212 185 61 209 181 58 212 185 61 209 181 58 212 185 58 212 185 58 212 185 58 212 185 58 212 185 58 212 185 58 212 185 55 214 188 14 244 237 5 250 248 5 250 248 8 248 244 8 248 244 8 248 244 8 248 244 5 250 248 5 250 248 5 250 248 8 248 244 5 250 248 5 250 248 5 250 248 
5 250 248 5 250 248 5 250 248 5 250 248 5 250 248 5 250 248 8 248 244 8 248 244 5 250 248 8 248 244 8 248 244 8 248 244 8 248 244 32 231 216 108 175 125 108 175 125 114 171 118 114 171 118 108 175 125 114 171 118 114 171 118 114 171 118 117 169 115 117 169 115 114 171 118 117 169 115 117 169 115 114 171 118 114 171 118 114 171 118 114 171 118 114 171 118 114 171 118 114 171 118 114 171 118 114 171 118 114 171 118 108 175 125 114 171 118 114 171 118 114 171 118 114 171 118 117 169 115 114 171 118 108 175 125 114 171 118 117 169 115 117 169 115 117 169 115 117 169 115 117 169 115 117 169 115 114 171 118 117 169 115 117 169 115 117 169 115 117 169 115 117 169 115 117 169 115 117 169 115 114 171 118 120 166 111 108 175 125 114 171 118 114 171 118 114 171 118 117 169 115 117 169 115 114 171 118 114 171 118 114 171 118 114 171 118 108 175 125 117 169 115 114 171 118 117 169 115 117 169 115 117 169 115 117 169 115 117 169 115 117 169 115 117 169 115 117 169 115 117 169 115 117 169 115 117 169 115 120 166 111 120 166 111 120 166 111 120 166 111 120 166 111 123 164 108 120 166 111 123 164 108 123 164 108 123 164 108 120 166 111 117 169 115 120 166 111 120 166 111 117 169 115 120 166 111 120 166 111 120 166 111 120 166 111 120 166 111 114 171 118 120 166 111 38 227 209 5 250 248 8 248 244 17 242 234 52 216 192 55 214 188 55 214 188 55 214 188 55 214 188 55 214 188 55 214 188 58 212 185 58 212 185 55 214 188 55 214 188 58 212 185 58 212 185 58 212 185 58 212 185 55 214 188 58 212 185 58 212 185 58 212 185 58 212 185 55 214 188 55 214 188 58 212 185 55 214 188 55 214 188 55 214 188 55 214 188 52 216 192 55 214 188 52 216 192 55 214 188 55 214 188 55 214 188 55 214 188 55 214 188 55 214 188 58 212 185 55 214 188 55 214 188 55 214 188 55 214 188 55 214 188 58 212 185 55 214 188 55 214 188 55 214 188 55 214 188 58 212 185 55 214 188 58 212 185 55 214 188 55 214 188 55 214 188 55 214 188 55 214 188 55 214 188 55 214 188 55 214 188 55 214 188 58 212 185 58 212 185 58 212 185 55 214 188 58 212 185 55 214 188 58 212 185 55 214 188 55 214 188 58 212 185 58 212 185 58 212 185 58 212 185 58 212 185 58 212 185 58 212 185 58 212 185 58 212 185 58 212 185 55 214 188 58 212 185 58 212 185 58 212 185 58 212 185 61 209 181 58 212 185 61 209 181 58 212 185 58 212 185 58 212 185 58 212 185 58 212 185 58 212 185 58 212 185 55 214 188 14 244 237 5 250 248 5 250 248 8 248 244 8 248 244 8 248 244 8 248 244 5 250 248 5 250 248 5 250 248 8 248 244 5 250 248 5 250 248 5 250 248 
5 250 248 5 250 248 5 250 248 8 248 244 8 248 244 5 250 248 8 248 244 8 248 244 8 248 244 8 248 244 8 248 244 8 248 244 8 248 244 35 229 213 114 171 118 114 171 118 114 171 118 114 171 118 114 171 118 114 171 118 117 169 115 114 171 118 114 171 118 117 169 115 114 171 118 114 171 118 114 171 118 114 171 118 114 171 118 114 171 118 117 169 115 114 171 118 114 171 118 114 171 118 117 169 115 114 171 118 114 171 118 117 169 115 114 171 118 114 171 118 114 171 118 117 169 115 114 171 118 108 175 125 108 175 125 114 171 118 117 169 115 114 171 118 114 171 118 114 171 118 114 171 118 114 171 118 114 171 118 114 171 118 117 169 115 117 169 115 114 171 118 117 169 115 117 169 115 117 169 115 114 171 118 114 171 118 114 171 118 114 171 118 117 169 115 117 169 115 120 166 111 114 171 118 117 169 115 114 171 118 114 171 118 114 171 118 114 171 118 117 169 115 117 169 115 117 169 115 117 169 115 120 166 111 117 169 115 117 169 115 117 169 115 117 169 115 117 169 115 117 169 115 120 166 111 117 169 115 117 169 115 117 169 115 120 166 111 120 166 111 117 169 115 114 171 118 120 166 111 120 166 111 123 164 108 123 164 108 120 166 111 120 166 111 120 166 111 123 164 108 120 166 111 120 166 111 120 166 111 123 164 108 120 166 111 120 166 111 120 166 111 120 166 111 38 227 209 8 248 244 8 248 244 20 239 230 55 214 188 55 214 188 55 214 188 55 214 188 58 212 185 55 214 188 58 212 185 58 212 185 55 214 188 55 214 188 58 212 185 55 214 188 58 212 185 58 212 185 58 212 185 58 212 185 58 212 185 58 212 185 58 212 185 58 212 185 58 212 185 58 212 185 58 212 185 55 214 188 55 214 188 55 214 188 55 214 188 52 216 192 55 214 188 55 214 188 52 216 192 55 214 188 55 214 188 55 214 188 52 216 192 55 214 188 55 214 188 55 214 188 55 214 188 58 212 185 58 212 185 55 214 188 55 214 188 55 214 188 55 214 188 55 214 188 55 214 188 58 212 185 58 212 185 58 212 185 55 214 188 55 214 188 58 212 185 55 214 188 55 214 188 58 212 185 55 214 188 55 214 188 58 212 185 55 214 188 58 212 185 58 212 185 58 212 185 58 212 185 58 212 185 58 212 185 58 212 185 58 212 185 58 212 185 58 212 185 58 212 185 58 212 185 58 212 185 58 212 185 58 212 185 58 212 185 58 212 185 58 212 185 55 214 188 58 212 185 58 212 185 58 212 185 61 209 181 61 209 181 58 212 185 61 209 181 58 212 185 61 209 181 58 212 185 58 212 185 58 212 185 58 212 185 55 214 188 58 212 185 17 242 234 8 248 244 5 250 248 8 248 244 8 248 244 8 248 244 8 248 244 5 250 248 5 250 248 5 250 248 5 250 248 5 250 248 8 248 244 5 250 248 
5 250 248 5 250 248 5 250 248 8 248 244 8 248 244 5 250 248 8 248 244 8 248 244 8 248 244 8 248 244 8 248 244 8 248 244 8 248 244 35 229 213 114 171 118 114 171 118 114 171 118 114 171 118 114 171 118 114 171 118 117 169 115 114 171 118 114 171 118 117 169 115 114 171 118 114 171 118 114 171 118 114 171 118 114 171 118 114 171 118 117 169 115 114 171 118 114 171 118 114 171 118 117 169 115 114 171 118 114 171 118 117 169 115 114 171 118 114 171 118 114 171 118 117 169 115 114 171 118 108 175 125 108 175 125 114 171 118 117 169 115 114 171 118 114 171 118 114 171 118 114 171 118 114 171 118 114 171 118 114 171 118 117 169 115 117 169 115 114 171 118 117 169 115 117 169 115 117 169 115 114 171 118 114 171 118 114 171 118 114 171 118 117 169 115 117 169 115 120 166 111 114 171 118 117 169 115 114 171 118 114 171 118 114 171 118 114 171 118 117 169 115 117 169 115 117 169 115 117 169 115 120 166 111 117 169 115 117 169 115 117 169 115 117 169 115 117 169 115 117 169 115 120 166 111 117 169 115 117 169 115 117 169 115 120 166 111 120 166 111 117 169 115 114 171 118 120 166 111 120 166 111 123 164 108 123 164 108 120 166 111 120 166 111 120 166 111 123 164 108 120 166 111 120 166 111 120 166 111 123 164 108 120 166 111 120 166 111 120 166 111 120 166 111 38 227 209 8 248 244 8 248 244 20 239 230 55 214 188 55 214 188 55 214 188 55 214 188 58 212 185 55 214 188 58 212 185 58 212 185 55 214 188 55 214 188 58 212 185 55 214 188 58 212 185 58 212 185 58 212 185 58 212 185 58 212 185 58 212 185 58 212 185 58 212 185 58 212 185 58 212 185 58 212 185 55 214 188 55 214 188 55 214 188 55 214 188 52 216 192 55 214 188 55 214 188 52 216 192 55 214 188 55 214 188 55 214 188 52 216 192 55 214 188 55 214 188 55 214 188 55 214 188 58 212 185 58 212 185 55 214 188 55 214 188 55 214 188 55 214 188 55 214 188 55 214 188 58 212 185 58 212 185 58 212 185 55 214 188 55 214 188 58 212 185 55 214 188 55 214 188 58 212 185 55 214 188 55 214 188 58 212 185 55 214 188 58 212 185 58 212 185 58 212 185 58 212 185 58 212 185 58 212 185 58 212 185 58 212 185 58 212 185 58 212 185 58 212 185 58 212 185 58 212 185 58 212 185 58 212 185 58 212 185 58 212 185 58 212 185 55 214 188 58 212 185 58 212 185 58 212 185 61 209 181 61 209 181 58 212 185 61 209 181 58 212 185 61 209 181 58 212 185 58 212 185 58 212 185 58 212 185 55 214 188 58 212 185 17 242 234 8 248 244 5 250 248 8 248 244 8 248 244 8 248 244 8 248 244 5 250 248 5 250 248 5 250 248 5 250 248 5 250 248 8 248 244 5 250 248 
5 250 248 5 250 248 5 250 248 5 250 248 5 250 248 5 250 248 8 248 244 8 248 244 5 250 248 8 248 244 8 248 244 8 248 244 8 248 244 82 194 157 108 175 125 114 171 118 114 171 118 108 175 125 117 169 115 114 171 118 117 169 115 117 169 115 114 171 118 114 171 118 114 171 118 117 169 115 117 169 115 117 169 115 117 169 115 114 171 118 117 169 115 117 169 115 114 171 118 114 171 118 117 169 115 117 169 115 117 169 115 114 171 118 114 171 118 114 171 118 114 171 118 114 171 118 108 175 125 114 171 118 114 171 118 114 171 118 114 171 118 114 171 118 114 171 118 114 171 118 114 171 118 114 171 118 117 169 115 117 169 115 117 169 115 117 169 115 117 169 115 117 169 115 117 169 115 114 171 118 114 171 118 114 171 118 114 171 118 114 171 118 117 169 115 114 171 118 117 169 115 117 169 115 114 171 118 114 171 118 114 171 118 114 171 118 117 169 115 117 169 115 117 169 115 117 169 115 117 169 115 117 169 115 117 169 115 117 169 115 114 171 118 117 169 115 120 166 111 117 169 115 117 169 115 120 166 111 117 169 115 117 169 115 120 166 111 120 166 111 120 166 111 117 169 115 120 166 111 117 169 115 120 166 111 123 164 108 123 164 108 123 164 108 123 164 108 123 164 108 123 164 108 120 166 111 123 164 108 120 166 111 120 166 111 120 166 111 120 166 111 123 164 108 38 227 209 8 248 244 8 248 244 17 242 234 55 214 188 55 214 188 55 214 188 55 214 188 55 214 188 55 214 188 55 214 188 58 212 185 61 209 181 58 212 185 55 214 188 58 212 185 55 214 188 55 214 188 58 212 185 58 212 185 58 212 185 58 212 185 58 212 185 58 212 185 58 212 185 55 214 188 58 212 185 55 214 188 55 214 188 55 214 188 55 214 188 52 216 192 55 214 188 55 214 188 55 214 188 52 216 192 52 216 192 52 216 192 52 216 192 55 214 188 52 216 192 55 214 188 55 214 188 55 214 188 55 214 188 55 214 188 55 214 188 55 214 188 55 214 188 55 214 188 55 214 188 55 214 188 55 214 188 55 214 188 55 214 188 55 214 188 55 214 188 55 214 188 55 214 188 55 214 188 58 212 185 55 214 188 55 214 188 58 212 185 55 214 188 58 212 185 58 212 185 55 214 188 58 212 185 58 212 185 58 212 185 61 209 181 58 212 185 58 212 185 58 212 185 58 212 185 58 212 185 58 212 185 58 212 185 58 212 185 55 214 188 55 214 188 55 214 188 55 214 188 58 212 185 58 212 185 61 209 181 61 209 181 61 209 181 61 209 181 61 209 181 61 209 181 58 212 185 58 212 185 58 212 185 58 212 185 58 212 185 58 212 185 35 229 213 8 248 244 8 248 244 8 248 244 8 248 244 8 248 244 8 248 244 5 250 248 5 250 248 5 250 248 8 248 244 5 250 248 5 250 248 8 248 244 
5 250 248 5 250 248 5 250 248 5 250 248 5 250 248 5 250 248 8 248 244 8 248 244 5 250 248 8 248 244 8 248 244 8 248 244 8 248 244 82 194 157 108 175 125 114 171 118 114 171 118 108 175 125 117 169 115 114 171 118 117 169 115 117 169 115 114 171 118 114 171 118 114 171 118 117 169 115 117 169 115 117 169 115 117 169 115 114 171 118 117 169 115 117 169 115 114 171 118 114 171 118 117 169 115 117 169 115 117 169 115 114 171 118 114 171 118 114 171 118 114 171 118 114 171 118 108 175 125 114 171 118 114 171 118 114 171 118 114 171 118 114 171 118 114 171 118 114 171 118 114 171 118 114 171 118 117 169 115 117 169 115 117 169 115 117 169 115 117 169 115 117 169 115 117 169 115 114 171 118 114 171 118 114 171 118 114 171 118 114 171 118 117 169 115 114 171 118 117 169 115 117 169 115 114 171 118 114 171 118 114 171 118 114 171 118 117 169 115 117 169 115 117 169 115 117 169 115 117 169 115 117 169 115 117 169 115 117 169 115 114 171 118 117 169 115 120 166 111 117 169 115 117 169 115 120 166 111 117 169 115 117 169 115 120 166 111 120 166 111 120 166 111 117 169 115 120 166 111 117 169 115 120 166 111 123 164 108 123 164 108 123 164 108 123 164 108 123 164 108 123 164 108 120 166 111 123 164 108 120 166 111 120 166 111 120 166 111 120 166 111 123 164 108 38 227 209 8 248 244 8 248 244 17 242 234 55 214 188 55 214 188 55 214 188 55 214 188 55 214 188 55 214 188 55 214 188 58 212 185 61 209 181 58 212 185 55 214 188 58 212 185 55 214 188 55 214 188 58 212 185 58 212 185 58 212 185 58 212 185 58 212 185 58 212 185 58 212 185 55 214 188 58 212 185 55 214 188 55 214 188 55 214 188 55 214 188 52 216 192 55 214 188 55 214 188 55 214 188 52 216 192 52 216 192 52 216 192 52 216 192 55 214 188 52 216 192 55 214 188 55 214 188 55 214 188 55 214 188 55 214 188 55 214 188 55 214 188 55 214 188 55 214 188 55 214 188 55 214 188 55 214 188 55 214 188 55 214 188 55 214 188 55 214 188 55 214 188 55 214 188 55 214 188 58 212 185 55 214 188 55 214 188 58 212 185 55 214 188 58 212 185 58 212 185 55 214 188 58 212 185 58 212 185 58 212 185 61 209 181 58 212 185 58 212 185 58 212 185 58 212 185 58 212 185 58 212 185 58 212 185 58 212 185 55 214 188 55 214 188 55 214 188 55 214 188 58 212 185 58 212 185 61 209 181 61 209 181 61 209 181 61 209 181 61 209 181 61 209 181 58 212 185 58 212 185 58 212 185 58 212 185 58 212 185 58 212 185 35 229 213 8 248 244 8 248 244 8 248 244 8 248 244 8 248 244 8 248 244 5 250 248 5 250 248 5 250 248 8 248 244 5 250 248 5 250 248 8 248 244 
5 250 248 5 250 248 5 250 248 5 250 248 5 250 248 5 250 248 5 250 248 5 250 248 8 248 244 5 250 248 8 248 244 5 250 248 11 246 241 117 169 115 114 171 118 108 175 125 108 175 125 114 171 118 117 169 115 114 171 118 117 169 115 117 169 115 117 169 115 117 169 115 117 169 115 117 169 115 117 169 115 117 169 115 114 171 118 117 169 115 117 169 115 114 171 118 117 169 115 114 171 118 114 171 118 114 171 118 114 171 118 114 171 118 114 171 118 117 169 115 117 169 115 114 171 118 114 171 118 114 171 118 114 171 118 114 171 118 114 171 118 117 169 115 114 171 118 117 169 115 117 169 115 117 169 115 117 169 115 117 169 115 117 169 115 117 169 115 117 169 115 117 169 115 117 169 115 114 171 118 117 169 115 117 169 115 117 169 115 114 171 118 114 171 118 114 171 118 114 171 118 117 169 115 117 169 115 117 169 115 114 171 118 114 171 118 117 169 115 114 171 118 114 171 118 117 169 115 114 171 118 114 171 118 117 169 115 117 169 115 120 166 111 117 169 115 117 169 115 117 169 115 117 169 115 117 169 115 114 171 118 117 169 115 120 166 111 120 166 111 120 166 111 120 166 111 120 166 111 120 166 111 120 166 111 120 166 111 120 166 111 120 166 111 120 166 111 123 164 108 120 166 111 120 166 111 120 166 111 120 166 111 120 166 111 120 166 111 120 166 111 123 164 108 38 227 209 8 248 244 8 248 244 20 239 230 55 214 188 55 214 188 55 214 188 55 214 188 58 212 185 58 212 185 58 212 185 58 212 185 58 212 185 58 212 185 58 212 185 58 212 185 58 212 185 58 212 185 58 212 185 58 212 185 58 212 185 58 212 185 58 212 185 58 212 185 58 212 185 58 212 185 58 212 185 55 214 188 55 214 188 55 214 188 55 214 188 55 214 188 55 214 188 55 214 188 52 216 192 55 214 188 55 214 188 55 214 188 55 214 188 55 214 188 55 214 188 55 214 188 55 214 188 55 214 188 55 214 188 55 214 188 55 214 188 55 214 188 55 214 188 55 214 188 55 214 188 58 212 185 55 214 188 55 214 188 55 214 188 55 214 188 55 214 188 55 214 188 55 214 188 58 212 185 58 212 185 58 212 185 55 214 188 55 214 188 58 212 185 58 212 185 58 212 185 55 214 188 58 212 185 58 212 185 58 212 185 58 212 185 58 212 185 58 212 185 58 212 185 61 209 181 58 212 185 58 212 185 58 212 185 58 212 185 58 212 185 58 212 185 58 212 185 55 214 188 58 212 185 58 212 185 58 212 185 58 212 185 58 212 185 61 209 181 61 209 181 58 212 185 58 212 185 58 212 185 61 209 181 58 212 185 58 212 185 58 212 185 58 212 185 8 248 244 8 248 244 5 250 248 5 250 248 5 250 248 5 250 248 5 250 248 5 250 248 8 248 244 5 250 248 5 250 248 5 250 248 5 250 248 
5 250 248 5 250 248 5 250 248 5 250 248 5 250 248 5 250 248 5 250 248 5 250 248 8 248 244 5 250 248 8 248 244 5 250 248 11 246 241 117 169 115 114 171 118 108 175 125 108 175 125 114 171 118 117 169 115 114 171 118 117 169 115 117 169 115 117 169 115 117 169 115 117 169 115 117 169 115 117 169 115 117 169 115 114 171 118 117 169 115 117 169 115 114 171 118 117 169 115 114 171 118 114 171 118 114 171 118 114 171 118 114 171 118 114 171 118 117 169 115 117 169 115 114 171 118 114 171 118 114 171 118 114 171 118 114 171 118 114 171 118 117 169 115 114 171 118 117 169 115 117 169 115 117 169 115 117 169 115 117 169 115 117 169 115 117 169 115 117 169 115 117 169 115 117 169 115 114 171 118 117 169 115 117 169 115 117 169 115 114 171 118 114 171 118 114 171 118 114 171 118 117 169 115 117 169 115 117 169 115 114 171 118 114 171 118 117 169 115 114 171 118 114 171 118 117 169 115 114 171 118 114 171 118 117 169 115 117 169 115 120 166 111 117 169 115 117 169 115 117 169 115 117 169 115 117 169 115 114 171 118 117 169 115 120 166 111 120 166 111 120 166 111 120 166 111 120 166 111 120 166 111 120 166 111 120 166 111 120 166 111 120 166 111 120 166 111 123 164 108 120 166 111 120 166 111 120 166 111 120 166 111 120 166 111 120 166 111 120 166 111 123 164 108 38 227 209 8 248 244 8 248 244 20 239 230 55 214 188 55 214 188 55 214 188 55 214 188 58 212 185 58 212 185 58 212 185 58 212 185 58 212 185 58 212 185 58 212 185 58 212 185 58 212 185 58 212 185 58 212 185 58 212 185 58 212 185 58 212 185 58 212 185 58 212 185 58 212 185 58 212 185 58 212 185 55 214 188 55 214 188 55 214 188 55 214 188 55 214 188 55 214 188 55 214 188 52 216 192 55 214 188 55 214 188 55 214 188 55 214 188 55 214 188 55 214 188 55 214 188 55 214 188 55 214 188 55 214 188 55 214 188 55 214 188 55 214 188 55 214 188 55 214 188 55 214 188 58 212 185 55 214 188 55 214 188 55 214 188 55 214 188 55 214 188 55 214 188 55 214 188 58 212 185 58 212 185 58 212 185 55 214 188 55 214 188 58 212 185 58 212 185 58 212 185 55 214 188 58 212 185 58 212 185 58 212 185 58 212 185 58 212 185 58 212 185 58 212 185 61 209 181 58 212 185 58 212 185 58 212 185 58 212 185 58 212 185 58 212 185 58 212 185 55 214 188 58 212 185 58 212 185 58 212 185 58 212 185 58 212 185 61 209 181 61 209 181 58 212 185 58 212 185 58 212 185 61 209 181 58 212 185 58 212 185 58 212 185 58 212 185 8 248 244 8 248 244 5 250 248 5 250 248 5 250 248 5 250 248 5 250 248 5 250 248 8 248 244 5 250 248 5 250 248 5 250 248 5 250 248 
5 250 248 5 250 248 5 250 248 5 250 248 5 250 248 5 250 248 5 250 248 8 248 244 5 250 248 8 248 244 8 248 244 8 248 244 11 246 241 108 175 125 114 171 118 114 171 118 114 171 118 114 171 118 114 171 118 117 169 115 117 169 115 114 171 118 114 171 118 117 169 115 117 169 115 117 169 115 117 169 115 117 169 115 114 171 118 114 171 118 114 171 118 114 171 118 117 169 115 114 171 118 117 169 115 114 171 118 114 171 118 117 169 115 117 169 115 117 169 115 114 171 118 114 171 118 108 175 125 114 171 118 114 171 118 114 171 118 114 171 118 117 169 115 117 169 115 114 171 118 117 169 115 114 171 118 117 169 115 117 169 115 120 166 111 117 169 115 114 171 118 114 171 118 117 169 115 117 169 115 114 171 118 114 171 118 114 171 118 114 171 118 114 171 118 117 169 115 117 169 115 117 169 115 117 169 115 117 169 115 117 169 115 117 169 115 117 169 115 117 169 115 108 175 125 117 169 115 117 169 115 117 169 115 114 171 118 117 169 115 120 166 111 117 169 115 117 169 115 117 169 115 117 169 115 117 169 115 117 169 115 120 166 111 120 166 111 117 169 115 117 169 115 120 166 111 123 164 108 129 160 101 123 164 108 120 166 111 123 164 108 120 166 111 120 166 111 120 166 111 120 166 111 120 166 111 120 166 111 123 164 108 123 164 108 120 166 111 120 166 111 123 164 108 38 227 209 5 250 248 8 248 244 17 242 234 55 214 188 55 214 188 55 214 188 55 214 188 58 212 185 58 212 185 58 212 185 58 212 185 58 212 185 58 212 185 58 212 185 58 212 185 58 212 185 58 212 185 58 212 185 58 212 185 58 212 185 58 212 185 58 212 185 58 212 185 58 212 185 58 212 185 58 212 185 58 212 185 55 214 188 55 214 188 55 214 188 55 214 188 55 214 188 55 214 188 55 214 188 55 214 188 52 216 192 55 214 188 55 214 188 55 214 188 55 214 188 55 214 188 55 214 188 58 212 185 55 214 188 52 216 192 55 214 188 55 214 188 55 214 188 55 214 188 58 212 185 52 216 192 55 214 188 55 214 188 55 214 188 55 214 188 58 212 185 55 214 188 55 214 188 55 214 188 55 214 188 58 212 185 55 214 188 58 212 185 55 214 188 55 214 188 58 212 185 58 212 185 55 214 188 55 214 188 55 214 188 58 212 185 58 212 185 55 214 188 58 212 185 58 212 185 58 212 185 58 212 185 55 214 188 58 212 185 55 214 188 58 212 185 58 212 185 58 212 185 58 212 185 58 212 185 58 212 185 61 209 181 61 209 181 58 212 185 58 212 185 55 214 188 55 214 188 58 212 185 58 212 185 58 212 185 58 212 185 58 212 185 61 209 181 8 248 244 5 250 248 5 250 248 5 250 248 5 250 248 5 250 248 5 250 248 5 250 248 5 250 248 5 250 248 5 250 248 5 250 248 5 250 248 
5 250 248 5 250 248 5 250 248 5 250 248 5 250 248 5 250 248 5 250 248 8 248 244 5 250 248 8 248 244 8 248 244 8 248 244 11 246 241 108 175 125 114 171 118 114 171 118 114 171 118 114 171 118 114 171 118 117 169 115 117 169 115 114 171 118 114 171 118 117 169 115 117 169 115 117 169 115 117 169 115 117 169 115 114 171 118 114 171 118 114 171 118 114 171 118 117 169 115 114 171 118 117 169 115 114 171 118 114 171 118 117 169 115 117 169 115 117 169 115 114 171 118 114 171 118 108 175 125 114 171 118 114 171 118 114 171 118 114 171 118 117 169 115 117 169 115 114 171 118 117 169 115 114 171 118 117 169 115 117 169 115 120 166 111 117 169 115 114 171 118 114 171 118 117 169 115 117 169 115 114 171 118 114 171 118 114 171 118 114 171 118 114 171 118 117 169 115 117 169 115 117 169 115 117 169 115 117 169 115 117 169 115 117 169 115 117 169 115 117 169 115 108 175 125 117 169 115 117 169 115 117 169 115 114 171 118 117 169 115 120 166 111 117 169 115 117 169 115 117 169 115 117 169 115 117 169 115 117 169 115 120 166 111 120 166 111 117 169 115 117 169 115 120 166 111 123 164 108 129 160 101 123 164 108 120 166 111 123 164 108 120 166 111 120 166 111 120 166 111 120 166 111 120 166 111 120 166 111 123 164 108 123 164 108 120 166 111 120 166 111 123 164 108 38 227 209 5 250 248 8 248 244 17 242 234 55 214 188 55 214 188 55 214 188 55 214 188 58 212 185 58 212 185 58 212 185 58 212 185 58 212 185 58 212 185 58 212 185 58 212 185 58 212 185 58 212 185 58 212 185 58 212 185 58 212 185 58 212 185 58 212 185 58 212 185 58 212 185 58 212 185 58 212 185 58 212 185 55 214 188 55 214 188 55 214 188 55 214 188 55 214 188 55 214 188 55 214 188 55 214 188 52 216 192 55 214 188 55 214 188 55 214 188 55 214 188 55 214 188 55 214 188 58 212 185 55 214 188 52 216 192 55 214 188 55 214 188 55 214 188 55 214 188 58 212 185 52 216 192 55 214 188 55 214 188 55 214 188 55 214 188 58 212 185 55 214 188 55 214 188 55 214 188 55 214 188 58 212 185 55 214 188 58 212 185 55 214 188 55 214 188 58 212 185 58 212 185 55 214 188 55 214 188 55 214 188 58 212 185 58 212 185 55 214 188 58 212 185 58 212 185 58 212 185 58 212 185 55 214 188 58 212 185 55 214 188 58 212 185 58 212 185 58 212 185 58 212 185 58 212 185 58 212 185 61 209 181 61 209 181 58 212 185 58 212 185 55 214 188 55 214 188 58 212 185 58 212 185 58 212 185 58 212 185 58 212 185 61 209 181 8 248 244 5 250 248 5 250 248 5 250 248 5 250 248 5 250 248 5 250 248 5 250 248 5 250 248 5 250 248 5 250 248 5 250 248 5 250 248 
5 250 248 5 250 248 5 250 248 5 250 248 5 250 248 8 248 244 5 250 248 5 250 248 8 248 244 8 248 244 8 248 244 8 248 244 32 231 216 108 175 125 108 175 125 108 175 125 114 171 118 117 169 115 114 171 118 117 169 115 120 166 111 117 169 115 117 169 115 120 166 111 114 171 118 114 171 118 117 169 115 114 171 118 117 169 115 117 169 115 117 169 115 117 169 115 117 169 115 117 169 115 117 169 115 117 169 115 114 171 118 114 171 118 114 171 118 114 171 118 117 169 115 114 171 118 114 171 118 117 169 115 114 171 118 114 171 118 114 171 118 114 171 118 117 169 115 114 171 118 117 169 115 114 171 118 117 169 115 117 169 115 114 171 118 117 169 115 117 169 115 117 169 115 114 171 118 114 171 118 117 169 115 114 171 118 120 166 111 117 169 115 117 169 115 117 169 115 117 169 115 120 166 111 114 171 118 117 169 115 114 171 118 114 171 118 117 169 115 114 171 118 117 169 115 117 169 115 117 169 115 117 169 115 117 169 115 114 171 118 117 169 115 114 171 118 117 169 115 117 169 115 117 169 115 120 166 111 123 164 108 120 166 111 123 164 108 123 164 108 120 166 111 120 166 111 129 160 101 120 166 111 120 166 111 120 166 111 120 166 111 120 166 111 120 166 111 123 164 108 120 166 111 120 166 111 123 164 108 120 166 111 123 164 108 123 164 108 123 164 108 123 164 108 38 227 209 8 248 244 8 248 244 17 242 234 55 214 188 55 214 188 55 214 188 55 214 188 58 212 185 55 214 188 55 214 188 55 214 188 58 212 185 55 214 188 58 212 185 55 214 188 55 214 188 55 214 188 55 214 188 58 212 185 58 212 185 58 212 185 58 212 185 58 212 185 58 212 185 55 214 188 58 212 185 55 214 188 58 212 185 58 212 185 55 214 188 55 214 188 58 212 185 55 214 188 55 214 188 55 214 188 55 214 188 55 214 188 55 214 188 55 214 188 55 214 188 55 214 188 55 214 188 55 214 188 55 214 188 55 214 188 52 216 192 55 214 188 55 214 188 55 214 188 55 214 188 55 214 188 55 214 188 55 214 188 55 214 188 58 212 185 55 214 188 55 214 188 55 214 188 55 214 188 55 214 188 55 214 188 58 212 185 55 214 188 58 212 185 58 212 185 55 214 188 55 214 188 55 214 188 55 214 188 58 212 185 58 212 185 58 212 185 58 212 185 58 212 185 55 214 188 58 212 185 58 212 185 58 212 185 58 212 185 58 212 185 58 212 185 58 212 185 58 212 185 58 212 185 58 212 185 61 209 181 61 209 181 58 212 185 61 209 181 58 212 185 58 212 185 58 212 185 58 212 185 58 212 185 55 214 188 58 212 185 58 212 185 58 212 185 11 246 241 5 250 248 5 250 248 5 250 248 5 250 248 5 250 248 5 250 248 5 250 248 8 248 244 5 250 248 5 250 248 8 248 244 8 248 244 
5 250 248 5 250 248 5 250 248 5 250 248 5 250 248 8 248 244 5 250 248 5 250 248 8 248 244 8 248 244 8 248 244 8 248 244 32 231 216 108 175 125 108 175 125 108 175 125 114 171 118 117 169 115 114 171 118 117 169 115 120 166 111 117 169 115 117 169 115 120 166 111 114 171 118 114 171 118 117 169 115 114 171 118 117 169 115 117 169 115 117 169 115 117 169 115 117 169 115 117 169 115 117 169 115 117 169 115 114 171 118 114 171 118 114 171 118 114 171 118 117 169 115 114 171 118 114 171 118 117 169 115 114 171 118 114 171 118 114 171 118 114 171 118 117 169 115 114 171 118 117 169 115 114 171 118 117 169 115 117 169 115 114 171 118 117 169 115 117 169 115 117 169 115 114 171 118 114 171 118 117 169 115 114 171 118 120 166 111 117 169 115 117 169 115 117 169 115 117 169 115 120 166 111 114 171 118 117 169 115 114 171 118 114 171 118 117 169 115 114 171 118 117 169 115 117 169 115 117 169 115 117 169 115 117 169 115 114 171 118 117 169 115 114 171 118 117 169 115 117 169 115 117 169 115 120 166 111 123 164 108 120 166 111 123 164 108 123 164 108 120 166 111 120 166 111 129 160 101 120 166 111 120 166 111 120 166 111 120 166 111 120 166 111 120 166 111 123 164 108 120 166 111 120 166 111 123 164 108 120 166 111 123 164 108 123 164 108 123 164 108 123 164 108 38 227 209 8 248 244 8 248 244 17 242 234 55 214 188 55 214 188 55 214 188 55 214 188 58 212 185 55 214 188 55 214 188 55 214 188 58 212 185 55 214 188 58 212 185 55 214 188 55 214 188 55 214 188 55 214 188 58 212 185 58 212 185 58 212 185 58 212 185 58 212 185 58 212 185 55 214 188 58 212 185 55 214 188 58 212 185 58 212 185 55 214 188 55 214 188 58 212 185 55 214 188 55 214 188 55 214 188 55 214 188 55 214 188 55 214 188 55 214 188 55 214 188 55 214 188 55 214 188 55 214 188 55 214 188 55 214 188 52 216 192 55 214 188 55 214 188 55 214 188 55 214 188 55 214 188 55 214 188 55 214 188 55 214 188 58 212 185 55 214 188 55 214 188 55 214 188 55 214 188 55 214 188 55 214 188 58 212 185 55 214 188 58 212 185 58 212 185 55 214 188 55 214 188 55 214 188 55 214 188 58 212 185 58 212 185 58 212 185 58 212 185 58 212 185 55 214 188 58 212 185 58 212 185 58 212 185 58 212 185 58 212 185 58 212 185 58 212 185 58 212 185 58 212 185 58 212 185 61 209 181 61 209 181 58 212 185 61 209 181 58 212 185 58 212 185 58 212 185 58 212 185 58 212 185 55 214 188 58 212 185 58 212 185 58 212 185 11 246 241 5 250 248 5 250 248 5 250 248 5 250 248 5 250 248 5 250 248 5 250 248 8 248 244 5 250 248 5 250 248 8 248 244 8 248 244 
5 250 248 5 250 248 5 250 248 5 250 248 5 250 248 5 250 248 5 250 248 8 248 244 8 248 244 5 250 248 5 250 248 8 248 244 67 205 174 108 175 125 114 171 118 114 171 118 114 171 118 114 171 118 117 169 115 117 169 115 120 166 111 117 169 115 117 169 115 114 171 118 120 166 111 117 169 115 114 171 118 114 171 118 117 169 115 117 169 115 120 166 111 120 166 111 120 166 111 117 169 115 117 169 115 117 169 115 117 169 115 114 171 118 117 169 115 120 166 111 117 169 115 120 166 111 117 169 115 117 169 115 117 169 115 117 169 115 117 169 115 114 171 118 117 169 115 117 169 115 117 169 115 117 169 115 117 169 115 114 171 118 114 171 118 117 169 115 114 171 118 114 171 118 117 169 115 117 169 115 117 169 115 117 169 115 117 169 115 117 169 115 117 169 115 117 169 115 117 169 115 120 166 111 117 169 115 117 169 115 117 169 115 117 169 115 117 169 115 120 166 111 117 169 115 117 169 115 117 169 115 114 171 118 114 171 118 114 171 118 117 169 115 117 169 115 117 169 115 117 169 115 120 166 111 120 166 111 120 166 111 123 164 108 120 166 111 120 166 111 120 166 111 120 166 111 120 166 111 123 164 108 120 166 111 120 166 111 120 166 111 123 164 108 120 166 111 123 164 108 120 166 111 120 166 111 120 166 111 120 166 111 129 160 101 123 164 108 120 166 111 123 164 108 38 227 209 8 248 244 8 248 244 20 239 230 55 214 188 55 214 188 55 214 188 58 212 185 55 214 188 55 214 188 55 214 188 55 214 188 55 214 188 55 214 188 55 214 188 55 214 188 55 214 188 58 212 185 55 214 188 58 212 185 55 214 188 58 212 185 55 214 188 55 214 188 55 214 188 55 214 188 58 212 185 58 212 185 55 214 188 55 214 188 55 214 188 55 214 188 55 214 188 55 214 188 58 212 185 58 212 185 55 214 188 55 214 188 55 214 188 55 214 188 55 214 188 55 214 188 55 214 188 55 214 188 55 214 188 55 214 188 55 214 188 55 214 188 52 216 192 55 214 188 55 214 188 55 214 188 55 214 188 55 214 188 58 212 185 58 212 185 58 212 185 58 212 185 55 214 188 55 214 188 58 212 185 58 212 185 58 212 185 55 214 188 58 212 185 58 212 185 55 214 188 55 214 188 58 212 185 55 214 188 55 214 188 58 212 185 58 212 185 58 212 185 58 212 185 58 212 185 58 212 185 58 212 185 58 212 185 55 214 188 58 212 185 58 212 185 58 212 185 58 212 185 58 212 185 58 212 185 58 212 185 61 209 181 61 209 181 61 209 181 58 212 185 58 212 185 58 212 185 58 212 185 58 212 185 58 212 185 58 212 185 58 212 185 61 209 181 32 231 216 5 250 248 5 250 248 5 250 248 5 250 248 5 250 248 5 250 248 5 250 248 5 250 248 5 250 248 5 250 248 5 250 248 8 248 244 
5 250 248 5 250 248 5 250 248 5 250 248 5 250 248 5 250 248 5 250 248 8 248 244 8 248 244 5 250 248 5 250 248 8 248 244 67 205 174 108 175 125 114 171 118 114 171 118 114 171 118 114 171 118 117 169 115 117 169 115 120 166 111 117 169 115 117 169 115 114 171 118 120 166 111 117 169 115 114 171 118 114 171 118 117 169 115 117 169 115 120 166 111 120 166 111 120 166 111 117 169 115 117 169 115 117 169 115 117 169 115 114 171 118 117 169 115 120 166 111 117 169 115 120 166 111 117 169 115 117 169 115 117 169 115 117 169 115 117 169 115 114 171 118 117 169 115 117 169 115 117 169 115 117 169 115 117 169 115 114 171 118 114 171 118 117 169 115 114 171 118 114 171 118 117 169 115 117 169 115 117 169 115 117 169 115 117 169 115 117 169 115 117 169 115 117 169 115 117 169 115 120 166 111 117 169 115 117 169 115 117 169 115 117 169 115 117 169 115 120 166 111 117 169 115 117 169 115 117 169 115 114 171 118 114 171 118 114 171 118 117 169 115 117 169 115 117 169 115 117 169 115 120 166 111 120 166 111 120 166 111 123 164 108 120 166 111 120 166 111 120 166 111 120 166 111 120 166 111 123 164 108 120 166 111 120 166 111 120 166 111 123 164 108 120 166 111 123 164 108 120 166 111 120 166 111 120 166 111 120 166 111 129 160 101 123 164 108 120 166 111 123 164 108 38 227 209 8 248 244 8 248 244 20 239 230 55 214 188 55 214 188 55 214 188 58 212 185 55 214 188 55 214 188 55 214 188 55 214 188 55 214 188 55 214 188 55 214 188 55 214 188 55 214 188 58 212 185 55 214 188 58 212 185 55 214 188 58 212 185 55 214 188 55 214 188 55 214 188 55 214 188 58 212 185 58 212 185 55 214 188 55 214 188 55 214 188 55 214 188 55 214 188 55 214 188 58 212 185 58 212 185 55 214 188 55 214 188 55 214 188 55 214 188 55 214 188 55 214 188 55 214 188 55 214 188 55 214 188 55 214 188 55 214 188 55 214 188 52 216 192 55 214 188 55 214 188 55 214 188 55 214 188 55 214 188 58 212 185 58 212 185 58 212 185 58 212 185 55 214 188 55 214 188 58 212 185 58 212 185 58 212 185 55 214 188 58 212 185 58 212 185 55 214 188 55 214 188 58 212 185 55 214 188 55 214 188 58 212 185 58 212 185 58 212 185 58 212 185 58 212 185 58 212 185 58 212 185 58 212 185 55 214 188 58 212 185 58 212 185 58 212 185 58 212 185 58 212 185 58 212 185 58 212 185 61 209 181 61 209 181 61 209 181 58 212 185 58 212 185 58 212 185 58 212 185 58 212 185 58 212 185 58 212 185 58 212 185 61 209 181 32 231 216 5 250 248 5 250 248 5 250 248 5 250 248 5 250 248 5 250 248 5 250 248 5 250 248 5 250 248 5 250 248 5 250 248 8 248 244 
5 250 248 5 250 248 5 250 248 5 250 248 5 250 248 5 250 248 5 250 248 5 250 248 5 250 248 5 250 248 8 248 244 8 248 244 96 184 139 114 171 118 117 169 115 117 169 115 114 171 118 117 169 115 117 169 115 120 166 111 120 166 111 120 166 111 120 166 111 117 169 115 117 169 115 114 171 118 114 171 118 117 169 115 117 169 115 117 169 115 117 169 115 117 169 115 120 166 111 117 169 115 114 171 118 114 171 118 114 171 118 120 166 111 120 166 111 117 169 115 117 169 115 117 169 115 120 166 111 117 169 115 117 169 115 114 171 118 117 169 115 117 169 115 117 169 115 114 171 118 117 169 115 117 169 115 117 169 115 120 166 111 120 166 111 114 171 118 114 171 118 117 169 115 117 169 115 117 169 115 117 169 115 114 171 118 114 171 118 114 171 118 114 171 118 117 169 115 117 169 115 117 169 115 120 166 111 114 171 118 117 169 115 117 169 115 117 169 115 117 169 115 117 169 115 117 169 115 117 169 115 117 169 115 114 171 118 123 164 108 120 166 111 120 166 111 117 169 115 117 169 115 120 166 111 120 166 111 120 166 111 120 166 111 123 164 108 120 166 111 120 166 111 123 164 108 120 166 111 120 166 111 120 166 111 120 166 111 120 166 111 120 166 111 123 164 108 123 164 108 123 164 108 123 164 108 123 164 108 120 166 111 120 166 111 123 164 108 123 164 108 123 164 108 38 227 209 8 248 244 8 248 244 20 239 230 52 216 192 55 214 188 55 214 188 58 212 185 55 214 188 52 216 192 55 214 188 55 214 188 55 214 188 55 214 188 58 212 185 55 214 188 55 214 188 55 214 188 58 212 185 58 212 185 58 212 185 58 212 185 55 214 188 55 214 188 55 214 188 58 212 185 58 212 185 55 214 188 58 212 185 58 212 185 58 212 185 58 212 185 55 214 188 58 212 185 58 212 185 58 212 185 55 214 188 55 214 188 55 214 188 55 214 188 55 214 188 55 214 188 55 214 188 52 216 192 52 216 192 52 216 192 52 216 192 52 216 192 55 214 188 55 214 188 55 214 188 55 214 188 55 214 188 58 212 185 58 212 185 55 214 188 55 214 188 55 214 188 58 212 185 58 212 185 58 212 185 55 214 188 58 212 185 58 212 185 55 214 188 58 212 185 58 212 185 58 212 185 55 214 188 55 214 188 55 214 188 55 214 188 55 214 188 55 214 188 58 212 185 58 212 185 55 214 188 58 212 185 55 214 188 55 214 188 58 212 185 58 212 185 58 212 185 58 212 185 58 212 185 58 212 185 61 209 181 58 212 185 58 212 185 61 209 181 61 209 181 58 212 185 58 212 185 58 212 185 58 212 185 58 212 185 58 212 185 58 212 185 58 212 185 44 222 202 8 248 244 5 250 248 5 250 248 5 250 248 5 250 248 5 250 248 5 250 248 5 250 248 5 250 248 5 250 248 5 250 248 5 250 248 
5 250 248 5 250 248 5 250 248 5 250 248 5 250 248 5 250 248 5 250 248 5 250 248 5 250 248 5 250 248 8 248 244 8 248 244 96 184 139 114 171 118 117 169 115 117 169 115 114 171 118 117 169 115 117 169 115 120 166 111 120 166 111 120 166 111 120 166 111 117 169 115 117 169 115 114 171 118 114 171 118 117 169 115 117 169 115 117 169 115 117 169 115 117 169 115 120 166 111 117 169 115 114 171 118 114 171 118 114 171 118 120 166 111 120 166 111 117 169 115 117 169 115 117 169 115 120 166 111 117 169 115 117 169 115 114 171 118 117 169 115 117 169 115 117 169 115 114 171 118 117 169 115 117 169 115 117 169 115 120 166 111 120 166 111 114 171 118 114 171 118 117 169 115 117 169 115 117 169 115 117 169 115 114 171 118 114 171 118 114 171 118 114 171 118 117 169 115 117 169 115 117 169 115 120 166 111 114 171 118 117 169 115 117 169 115 117 169 115 117 169 115 117 169 115 117 169 115 117 169 115 117 169 115 114 171 118 123 164 108 120 166 111 120 166 111 117 169 115 117 169 115 120 166 111 120 166 111 120 166 111 120 166 111 123 164 108 120 166 111 120 166 111 123 164 108 120 166 111 120 166 111 120 166 111 120 166 111 120 166 111 120 166 111 123 164 108 123 164 108 123 164 108 123 164 108 123 164 108 120 166 111 120 166 111 123 164 108 123 164 108 123 164 108 38 227 209 8 248 244 8 248 244 20 239 230 52 216 192 55 214 188 55 214 188 58 212 185 55 214 188 52 216 192 55 214 188 55 214 188 55 214 188 55 214 188 58 212 185 55 214 188 55 214 188 55 214 188 58 212 185 58 212 185 58 212 185 58 212 185 55 214 188 55 214 188 55 214 188 58 212 185 58 212 185 55 214 188 58 212 185 58 212 185 58 212 185 58 212 185 55 214 188 58 212 185 58 212 185 58 212 185 55 214 188 55 214 188 55 214 188 55 214 188 55 214 188 55 214 188 55 214 188 52 216 192 52 216 192 52 216 192 52 216 192 52 216 192 55 214 188 55 214 188 55 214 188 55 214 188 55 214 188 58 212 185 58 212 185 55 214 188 55 214 188 55 214 188 58 212 185 58 212 185 58 212 185 55 214 188 58 212 185 58 212 185 55 214 188 58 212 185 58 212 185 58 212 185 55 214 188 55 214 188 55 214 188 55 214 188 55 214 188 55 214 188 58 212 185 58 212 185 55 214 188 58 212 185 55 214 188 55 214 188 58 212 185 58 212 185 58 212 185 58 212 185 58 212 185 58 212 185 61 209 181 58 212 185 58 212 185 61 209 181 61 209 181 58 212 185 58 212 185 58 212 185 58 212 185 58 212 185 58 212 185 58 212 185 58 212 185 44 222 202 8 248 244 5 250 248 5 250 248 5 250 248 5 250 248 5 250 248 5 250 248 5 250 248 5 250 248 5 250 248 5 250 248 5 250 248 
5 250 248 5 250 248 8 248 244 5 250 248 5 250 248 5 250 248 5 250 248 8 248 244 5 250 248 8 248 244 8 248 244 8 248 244 114 171 118 117 169 115 117 169 115 117 169 115 117 169 115 117 169 115 114 171 118 117 169 115 117 169 115 120 166 111 117 169 115 120 166 111 117 169 115 117 169 115 120 166 111 120 166 111 120 166 111 120 166 111 117 169 115 117 169 115 117 169 115 117 169 115 117 169 115 117 169 115 114 171 118 117 169 115 120 166 111 120 166 111 120 166 111 120 166 111 117 169 115 117 169 115 117 169 115 117 169 115 120 166 111 120 166 111 120 166 111 117 169 115 114 171 118 120 166 111 120 166 111 120 166 111 117 169 115 117 169 115 114 171 118 117 169 115 117 169 115 117 169 115 120 166 111 117 169 115 120 166 111 117 169 115 117 169 115 120 166 111 117 169 115 117 169 115 117 169 115 117 169 115 117 169 115 117 169 115 120 166 111 117 169 115 117 169 115 120 166 111 117 169 115 117 169 115 117 169 115 117 169 115 120 166 111 117 169 115 120 166 111 120 166 111 120 166 111 117 169 115 123 164 108 120 166 111 120 166 111 120 166 111 123 164 108 117 169 115 123 164 108 123 164 108 123 164 108 120 166 111 129 160 101 123 164 108 123 164 108 123 164 108 123 164 108 123 164 108 123 164 108 129 160 101 129 160 101 129 160 101 129 160 101 129 160 101 38 227 209 8 248 244 8 248 244 17 242 234 55 214 188 55 214 188 55 214 188 55 214 188 58 212 185 55 214 188 55 214 188 55 214 188 55 214 188 55 214 188 55 214 188 55 214 188 58 212 185 58 212 185 58 212 185 58 212 185 55 214 188 55 214 188 55 214 188 55 214 188 55 214 188 55 214 188 58 212 185 58 212 185 55 214 188 58 212 185 58 212 185 58 212 185 55 214 188 58 212 185 55 214 188 58 212 185 55 214 188 55 214 188 55 214 188 55 214 188 55 214 188 58 212 185 55 214 188 58 212 185 58 212 185 55 214 188 55 214 188 55 214 188 58 212 185 55 214 188 55 214 188 52 216 192 55 214 188 58 212 185 58 212 185 55 214 188 58 212 185 55 214 188 58 212 185 58 212 185 58 212 185 58 212 185 58 212 185 58 212 185 58 212 185 58 212 185 58 212 185 58 212 185 58 212 185 58 212 185 58 212 185 58 212 185 58 212 185 58 212 185 58 212 185 61 209 181 58 212 185 58 212 185 58 212 185 58 212 185 58 212 185 58 212 185 58 212 185 58 212 185 58 212 185 58 212 185 58 212 185 58 212 185 61 209 181 58 212 185 58 212 185 61 209 181 58 212 185 61 209 181 58 212 185 61 209 181 61 209 181 61 209 181 58 212 185 49 218 195 8 248 244 8 248 244 5 250 248 5 250 248 8 248 244 8 248 244 8 248 244 5 250 248 5 250 248 5 250 248 8 248 244 5 250 248 
5 250 248 5 250 248 8 248 244 5 250 248 5 250 248 5 250 248 5 250 248 8 248 244 5 250 248 8 248 244 8 248 244 8 248 244 114 171 118 117 169 115 117 169 115 117 169 115 117 169 115 117 169 115 114 171 118 117 169 115 117 169 115 120 166 111 117 169 115 120 166 111 117 169 115 117 169 115 120 166 111 120 166 111 120 166 111 120 166 111 117 169 115 117 169 115 117 169 115 117 169 115 117 169 115 117 169 115 114 171 118 117 169 115 120 166 111 120 166 111 120 166 111 120 166 111 117 169 115 117 169 115 117 169 115 117 169 115 120 166 111 120 166 111 120 166 111 117 169 115 114 171 118 120 166 111 120 166 111 120 166 111 117 169 115 117 169 115 114 171 118 117 169 115 117 169 115 117 169 115 120 166 111 117 169 115 120 166 111 117 169 115 117 169 115 120 166 111 117 169 115 117 169 115 117 169 115 117 169 115 117 169 115 117 169 115 120 166 111 117 169 115 117 169 115 120 166 111 117 169 115 117 169 115 117 169 115 117 169 115 120 166 111 117 169 115 120 166 111 120 166 111 120 166 111 117 169 115 123 164 108 120 166 111 120 166 111 120 166 111 123 164 108 117 169 115 123 164 108 123 164 108 123 164 108 120 166 111 129 160 101 123 164 108 123 164 108 123 164 108 123 164 108 123 164 108 123 164 108 129 160 101 129 160 101 129 160 101 129 160 101 129 160 101 38 227 209 8 248 244 8 248 244 17 242 234 55 214 188 55 214 188 55 214 188 55 214 188 58 212 185 55 214 188 55 214 188 55 214 188 55 214 188 55 214 188 55 214 188 55 214 188 58 212 185 58 212 185 58 212 185 58 212 185 55 214 188 55 214 188 55 214 188 55 214 188 55 214 188 55 214 188 58 212 185 58 212 185 55 214 188 58 212 185 58 212 185 58 212 185 55 214 188 58 212 185 55 214 188 58 212 185 55 214 188 55 214 188 55 214 188 55 214 188 55 214 188 58 212 185 55 214 188 58 212 185 58 212 185 55 214 188 55 214 188 55 214 188 58 212 185 55 214 188 55 214 188 52 216 192 55 214 188 58 212 185 58 212 185 55 214 188 58 212 185 55 214 188 58 212 185 58 212 185 58 212 185 58 212 185 58 212 185 58 212 185 58 212 185 58 212 185 58 212 185 58 212 185 58 212 185 58 212 185 58 212 185 58 212 185 58 212 185 58 212 185 58 212 185 61 209 181 58 212 185 58 212 185 58 212 185 58 212 185 58 212 185 58 212 185 58 212 185 58 212 185 58 212 185 58 212 185 58 212 185 58 212 185 61 209 181 58 212 185 58 212 185 61 209 181 58 212 185 61 209 181 58 212 185 61 209 181 61 209 181 61 209 181 58 212 185 49 218 195 8 248 244 8 248 244 5 250 248 5 250 248 8 248 244 8 248 244 8 248 244 5 250 248 5 250 248 5 250 248 8 248 244 5 250 248 
5 250 248 5 250 248 5 250 248 5 250 248 5 250 248 5 250 248 5 250 248 5 250 248 5 250 248 5 250 248 8 248 244 8 248 244 117 169 115 120 166 111 120 166 111 120 166 111 120 166 111 117 169 115 117 169 115 117 169 115 120 166 111 120 166 111 117 169 115 120 166 111 120 166 111 120 166 111 120 166 111 120 166 111 120 166 111 120 166 111 120 166 111 120 166 111 120 166 111 120 166 111 120 166 111 120 166 111 120 166 111 120 166 111 120 166 111 117 169 115 117 169 115 120 166 111 120 166 111 120 166 111 120 166 111 120 166 111 120 166 111 120 166 111 120 166 111 120 166 111 120 166 111 120 166 111 120 166 111 120 166 111 123 164 108 120 166 111 117 169 115 120 166 111 120 166 111 120 166 111 117 169 115 120 166 111 120 166 111 120 166 111 120 166 111 120 166 111 120 166 111 117 169 115 120 166 111 120 166 111 117 169 115 120 166 111 120 166 111 117 169 115 123 164 108 123 164 108 120 166 111 120 166 111 120 166 111 120 166 111 123 164 108 123 164 108 123 164 108 123 164 108 120 166 111 129 160 101 123 164 108 120 166 111 120 166 111 123 164 108 123 164 108 120 166 111 129 160 101 129 160 101 123 164 108 129 160 101 129 160 101 123 164 108 123 164 108 129 160 101 129 160 101 123 164 108 129 160 101 129 160 101 135 156 94 129 160 101 135 156 94 129 160 101 41 224 206 8 248 244 8 248 244 20 239 230 55 214 188 55 214 188 55 214 188 55 214 188 58 212 185 55 214 188 55 214 188 55 214 188 55 214 188 55 214 188 55 214 188 58 212 185 58 212 185 58 212 185 58 212 185 58 212 185 55 214 188 58 212 185 58 212 185 58 212 185 55 214 188 58 212 185 58 212 185 55 214 188 58 212 185 58 212 185 58 212 185 58 212 185 58 212 185 55 214 188 55 214 188 55 214 188 55 214 188 58 212 185 58 212 185 55 214 188 55 214 188 55 214 188 58 212 185 55 214 188 58 212 185 55 214 188 55 214 188 55 214 188 55 214 188 58 212 185 58 212 185 55 214 188 58 212 185 58 212 185 58 212 185 58 212 185 58 212 185 58 212 185 58 212 185 58 212 185 58 212 185 58 212 185 58 212 185 58 212 185 58 212 185 58 212 185 58 212 185 58 212 185 58 212 185 58 212 185 61 209 181 58 212 185 61 209 181 61 209 181 58 212 185 58 212 185 58 212 185 61 209 181 61 209 181 61 209 181 61 209 181 58 212 185 58 212 185 58 212 185 58 212 185 61 209 181 61 209 181 61 209 181 58 212 185 58 212 185 61 209 181 61 209 181 61 209 181 58 212 185 61 209 181 61 209 181 61 209 181 61 209 181 61 209 181 55 214 188 8 248 244 8 248 244 5 250 248 5 250 248 8 248 244 8 248 244 8 248 244 8 248 244 5 250 248 5 250 248 5 250 248 5 250 248 
5 250 248 5 250 248 5 250 248 5 250 248 5 250 248 5 250 248 5 250 248 5 250 248 5 250 248 5 250 248 8 248 244 8 248 244 117 169 115 120 166 111 120 166 111 120 166 111 120 166 111 117 169 115 117 169 115 117 169 115 120 166 111 120 166 111 117 169 115 120 166 111 120 166 111 120 166 111 120 166 111 120 166 111 120 166 111 120 166 111 120 166 111 120 166 111 120 166 111 120 166 111 120 166 111 120 166 111 120 166 111 120 166 111 120 166 111 117 169 115 117 169 115 120 166 111 120 166 111 120 166 111 120 166 111 120 166 111 120 166 111 120 166 111 120 166 111 120 166 111 120 166 111 120 166 111 120 166 111 120 166 111 123 164 108 120 166 111 117 169 115 120 166 111 120 166 111 120 166 111 117 169 115 120 166 111 120 166 111 120 166 111 120 166 111 120 166 111 120 166 111 117 169 115 120 166 111 120 166 111 117 169 115 120 166 111 120 166 111 117 169 115 123 164 108 123 164 108 120 166 111 120 166 111 120 166 111 120 166 111 123 164 108 123 164 108 123 164 108 123 164 108 120 166 111 129 160 101 123 164 108 120 166 111 120 166 111 123 164 108 123 164 108 120 166 111 129 160 101 129 160 101 123 164 108 129 160 101 129 160 101 123 164 108 123 164 108 129 160 101 129 160 101 123 164 108 129 160 101 129 160 101 135 156 94 129 160 101 135 156 94 129 160 101 41 224 206 8 248 244 8 248 244 20 239 230 55 214 188 55 214 188 55 214 188 55 214 188 58 212 185 55 214 188 55 214 188 55 214 188 55 214 188 55 214 188 55 214 188 58 212 185 58 212 185 58 212 185 58 212 185 58 212 185 55 214 188 58 212 185 58 212 185 58 212 185 55 214 188 58 212 185 58 212 185 55 214 188 58 212 185 58 212 185 58 212 185 58 212 185 58 212 185 55 214 188 55 214 188 55 214 188 55 214 188 58 212 185 58 212 185 55 214 188 55 214 188 55 214 188 58 212 185 55 214 188 58 212 185 55 214 188 55 214 188 55 214 188 55 214 188 58 212 185 58 212 185 55 214 188 58 212 185 58 212 185 58 212 185 58 212 185 58 212 185 58 212 185 58 212 185 58 212 185 58 212 185 58 212 185 58 212 185 58 212 185 58 212 185 58 212 185 58 212 185 58 212 185 58 212 185 58 212 185 61 209 181 58 212 185 61 209 181 61 209 181 58 212 185 58 212 185 58 212 185 61 209 181 61 209 181 61 209 181 61 209 181 58 212 185 58 212 185 58 212 185 58 212 185 61 209 181 61 209 181 61 209 181 58 212 185 58 212 185 61 209 181 61 209 181 61 209 181 58 212 185 61 209 181 61 209 181 61 209 181 61 209 181 61 209 181 55 214 188 8 248 244 8 248 244 5 250 248 5 250 248 8 248 244 8 248 244 8 248 244 8 248 244 5 250 248 5 250 248 5 250 248 5 250 248 
8 248 244 8 248 244 5 250 248 5 250 248 5 250 248 5 250 248 8 248 244 5 250 248 8 248 244 8 248 244 8 248 244 8 248 244 5 250 248 5 250 248 5 250 248 5 250 248 5 250 248 5 250 248 5 250 248 5 250 248 5 250 248 5 250 248 5 250 248 5 250 248 5 250 248 5 250 248 5 250 248 5 250 248 5 250 248 5 250 248 5 250 248 8 248 244 8 248 244 8 248 244 8 248 244 8 248 244 8 248 244 8 248 244 5 250 248 5 250 248 5 250 248 5 250 248 5 250 248 5 250 248 5 250 248 5 250 248 8 248 244 8 248 244 5 250 248 8 248 244 5 250 248 5 250 248 5 250 248 5 250 248 5 250 248 8 248 244 8 248 244 5 250 248 8 248 244 8 248 244 8 248 244 8 248 244 5 250 248 5 250 248 5 250 248 5 250 248 8 248 244 8 248 244 8 248 244 8 248 244 8 248 244 8 248 244 5 250 248 5 250 248 5 250 248 5 250 248 5 250 248 5 250 248 8 248 244 8 248 244 5 250 248 5 250 248 5 250 248 5 250 248 8 248 244 8 248 244 8 248 244 5 250 248 8 248 244 5 250 248 8 248 244 5 250 248 5 250 248 5 250 248 5 250 248 5 250 248 5 250 248 5 250 248 5 250 248 5 250 248 5 250 248 5 250 248 5 250 248 5 250 248 5 250 248 8 248 244 8 248 244 8 248 244 8 248 244 8 248 244 8 248 244 8 248 244 5 250 248 5 250 248 5 250 248 8 248 244 5 250 248 5 250 248 5 250 248 5 250 248 5 250 248 8 248 244 8 248 244 8 248 244 8 248 244 8 248 244 8 248 244 5 250 248 8 248 244 5 250 248 5 250 248 8 248 244 8 248 244 8 248 244 8 248 244 8 248 244 8 248 244 8 248 244 8 248 244 8 248 244 8 248 244 8 248 244 8 248 244 5 250 248 5 250 248 5 250 248 5 250 248 8 248 244 5 250 248 5 250 248 5 250 248 5 250 248 5 250 248 8 248 244 5 250 248 5 250 248 5 250 248 5 250 248 5 250 248 5 250 248 5 250 248 5 250 248 5 250 248 8 248 244 8 248 244 5 250 248 8 248 244 8 248 244 8 248 244 8 248 244 5 250 248 8 248 244 5 250 248 5 250 248 5 250 248 5 250 248 5 250 248 8 248 244 8 248 244 5 250 248 5 250 248 5 250 248 5 250 248 8 248 244 5 250 248 5 250 248 8 248 244 5 250 248 5 250 248 5 250 248 5 250 248 5 250 248 8 248 244 8 248 244 8 248 244 5 250 248 8 248 244 8 248 244 8 248 244 8 248 244 5 250 248 5 250 248 5 250 248 5 250 248 5 250 248 5 250 248 5 250 248 8 248 244 8 248 244 8 248 244 5 250 248 5 250 248 5 250 248 5 250 248 5 250 248 5 250 248 8 248 244 8 248 244 5 250 248 5 250 248 
8 248 244 8 248 244 5 250 248 5 250 248 5 250 248 5 250 248 8 248 244 5 250 248 8 248 244 8 248 244 8 248 244 8 248 244 5 250 248 5 250 248 5 250 248 5 250 248 5 250 248 5 250 248 5 250 248 5 250 248 5 250 248 5 250 248 5 250 248 5 250 248 5 250 248 5 250 248 5 250 248 5 250 248 5 250 248 5 250 248 5 250 248 8 248 244 8 248 244 8 248 244 8 248 244 8 248 244 8 248 244 8 248 244 5 250 248 5 250 248 5 250 248 5 250 248 5 250 248 5 250 248 5 250 248 5 250 248 8 248 244 8 248 244 5 250 248 8 248 244 5 250 248 5 250 248 5 250 248 5 250 248 5 250 248 8 248 244 8 248 244 5 250 248 8 248 244 8 248 244 8 248 244 8 248 244 5 250 248 5 250 248 5 250 248 5 250 248 8 248 244 8 248 244 8 248 244 8 248 244 8 248 244 8 248 244 5 250 248 5 250 248 5 250 248 5 250 248 5 250 248 5 250 248 8 248 244 8 248 244 5 250 248 5 250 248 5 250 248 5 250 248 8 248 244 8 248 244 8 248 244 5 250 248 8 248 244 5 250 248 8 248 244 5 250 248 5 250 248 5 250 248 5 250 248 5 250 248 5 250 248 5 250 248 5 250 248 5 250 248 5 250 248 5 250 248 5 250 248 5 250 248 5 250 248 8 248 244 8 248 244 8 248 244 8 248 244 8 248 244 8 248 244 8 248 244 5 250 248 5 250 248 5 250 248 8 248 244 5 250 248 5 250 248 5 250 248 5 250 248 5 250 248 8 248 244 8 248 244 8 248 244 8 248 244 8 248 244 8 248 244 5 250 248 8 248 244 5 250 248 5 250 248 8 248 244 8 248 244 8 248 244 8 248 244 8 248 244 8 248 244 8 248 244 8 248 244 8 248 244 8 248 244 8 248 244 8 248 244 5 250 248 5 250 248 5 250 248 5 250 248 8 248 244 5 250 248 5 250 248 5 250 248 5 250 248 5 250 248 8 248 244 5 250 248 5 250 248 5 250 248 5 250 248 5 250 248 5 250 248 5 250 248 5 250 248 5 250 248 8 248 244 8 248 244 5 250 248 8 248 244 8 248 244 8 248 244 8 248 244 5 250 248 8 248 244 5 250 248 5 250 248 5 250 248 5 250 248 5 250 248 8 248 244 8 248 244 5 250 248 5 250 248 5 250 248 5 250 248 8 248 244 5 250 248 5 250 248 8 248 244 5 250 248 5 250 248 5 250 248 5 250 248 5 250 248 8 248 244 8 248 244 8 248 244 5 250 248 8 248 244 8 248 244 8 248 244 8 248 244 5 250 248 5 250 248 5 250 248 5 250 248 5 250 248 5 250 248 5 250 248 8 248 244 8 248 244 8 248 244 5 250 248 5 250 248 5 250 248 5 250 248 5 250 248 5 250 248 8 248 244 8 248 244 5 250 248 5 250 248 
8 248 244 8 248 244 5 250 248 8 248 244 8 248 244 8 248 244 5 250 248 8 248 244 5 250 248 5 250 248 8 248 244 5 250 248 8 248 244 8 248 244 5 250 248 8 248 244 8 248 244 8 248 244 8 248 244 8 248 244 8 248 244 8 248 244 8 248 244 8 248 244 8 248 244 8 248 244 8 248 244 8 248 244 8 248 244 8 248 244 8 248 244 8 248 244 8 248 244 8 248 244 8 248 244 8 248 244 8 248 244 8 248 244 8 248 244 8 248 244 8 248 244 8 248 244 8 248 244 8 248 244 8 248 244 8 248 244 8 248 244 8 248 244 8 248 244 5 250 248 8 248 244 8 248 244 8 248 244 8 248 244 8 248 244 8 248 244 8 248 244 8 248 244 8 248 244 8 248 244 8 248 244 8 248 244 8 248 244 8 248 244 8 248 244 8 248 244 8 248 244 8 248 244 8 248 244 8 248 244 8 248 244 8 248 244 5 250 248 8 248 244 8 248 244 8 248 244 8 248 244 8 248 244 8 248 244 8 248 244 8 248 244 8 248 244 8 248 244 8 248 244 8 248 244 8 248 244 8 248 244 8 248 244 8 248 244 8 248 244 8 248 244 8 248 244 8 248 244 8 248 244 5 250 248 8 248 244 8 248 244 8 248 244 8 248 244 8 248 244 8 248 244 8 248 244 8 248 244 8 248 244 8 248 244 8 248 244 8 248 244 8 248 244 8 248 244 8 248 244 8 248 244 8 248 244 8 248 244 8 248 244 8 248 244 8 248 244 8 248 244 8 248 244 8 248 244 8 248 244 8 248 244 8 248 244 8 248 244 8 248 244 8 248 244 8 248 244 8 248 244 8 248 244 8 248 244 8 248 244 8 248 244 8 248 244 8 248 244 8 248 244 11 246 241 8 248 244 8 248 244 8 248 244 8 248 244 8 248 244 8 248 244 8 248 244 11 246 241 8 248 244 8 248 244 8 248 244 8 248 244 8 248 244 8 248 244 8 248 244 8 248 244 8 248 244 8 248 244 8 248 244 8 248 244 8 248 244 8 248 244 8 248 244 8 248 244 8 248 244 8 248 244 8 248 244 8 248 244 8 248 244 8 248 244 8 248 244 8 248 244 8 248 244 8 248 244 8 248 244 8 248 244 8 248 244 8 248 244 8 248 244 8 248 244 8 248 244 8 248 244 8 248 244 8 248 244 8 248 244 8 248 244 8 248 244 8 248 244 8 248 244 8 248 244 8 248 244 8 248 244 8 248 244 8 248 244 8 248 244 8 248 244 8 248 244 8 248 244 8 248 244 8 248 244 8 248 244 8 248 244 8 248 244 8 248 244 8 248 244 8 248 244 8 248 244 8 248 244 8 248 244 8 248 244 8 248 244 8 248 244 8 248 244 8 248 244 8 248 244 8 248 244 5 250 248 5 250 248 5 250 248 8 248 244 8 248 244 8 248 244 8 248 244 5 250 248 5 250 248 
8 248 244 8 248 244 5 250 248 8 248 244 8 248 244 8 248 244 5 250 248 8 248 244 5 250 248 5 250 248 8 248 244 5 250 248 8 248 244 8 248 244 5 250 248 8 248 244 8 248 244 8 248 244 8 248 244 8 248 244 8 248 244 8 248 244 8 248 244 8 248 244 8 248 244 8 248 244 8 248 244 8 248 244 8 248 244 8 248 244 8 248 244 8 248 244 8 248 244 8 248 244 8 248 244 8 248 244 8 248 244 8 248 244 8 248 244 8 248 244 8 248 244 8 248 244 8 248 244 8 248 244 8 248 244 8 248 244 8 248 244 8 248 244 8 248 244 5 250 248 8 248 244 8 248 244 8 248 244 8 248 244 8 248 244 8 248 244 8 248 244 8 248 244 8 248 244 8 248 244 8 248 244 8 248 244 8 248 244 8 248 244 8 248 244 8 248 244 8 248 244 8 248 244 8 248 244 8 248 244 8 248 244 8 248 244 5 250 248 8 248 244 8 248 244 8 248 244 8 248 244 8 248 244 8 248 244 8 248 244 8 248 244 8 248 244 8 248 244 8 248 244 8 248 244 8 248 244 8 248 244 8 248 244 8 248 244 8 248 244 8 248 244 8 248 244 8 248 244 8 248 244 5 250 248 8 248 244 8 248 244 8 248 244 8 248 244 8 248 244 8 248 244 8 248 244 8 248 244 8 248 244 8 248 244 8 248 244 8 248 244 8 248 244 8 248 244 8 248 244 8 248 244 8 248 244 8 248 244 8 248 244 8 248 244 8 248 244 8 248 244 8 248 244 8 248 244 8 248 244 8 248 244 8 248 244 8 248 244 8 248 244 8 248 244 8 248 244 8 248 244 8 248 244 8 248 244 8 248 244 8 248 244 8 248 244 8 248 244 8 248 244 11 246 241 8 248 244 8 248 244 8 248 244 8 248 244 8 248 244 8 248 244 8 248 244 11 246 241 8 248 244 8 248 244 8 248 244 8 248 244 8 248 244 8 248 244 8 248 244 8 248 244 8 248 244 8 248 244 8 248 244 8 248 244 8 248 244 8 248 244 8 248 244 8 248 244 8 248 244 8 248 244 8 248 244 8 248 244 8 248 244 8 248 244 8 248 244 8 248 244 8 248 244 8 248 244 8 248 244 8 248 244 8 248 244 8 248 244 8 248 244 8 248 244 8 248 244 8 248 244 8 248 244 8 248 244 8 248 244 8 248 244 8 248 244 8 248 244 8 248 244 8 248 244 8 248 244 8 248 244 8 248 244 8 248 244 8 248 244 8 248 244 8 248 244 8 248 244 8 248 244 8 248 244 8 248 244 8 248 244 8 248 244 8 248 244 8 248 244 8 248 244 8 248 244 8 248 244 8 248 244 8 248 244 8 248 244 8 248 244 8 248 244 8 248 244 8 248 244 8 248 244 5 250 248 5 250 248 5 250 248 8 248 244 8 248 244 8 248 244 8 248 244 5 250 248 5 250 248 
5 250 248 5 250 248 5 250 248 8 248 244 8 248 244 5 250 248 8 248 244 5 250 248 5 250 248 5 250 248 5 250 248 5 250 248 73 201 167 76 199 164 76 199 164 76 199 164 76 199 164 76 199 164 76 199 164 76 199 164 82 194 157 82 194 157 82 194 157 82 194 157 76 199 164 82 194 157 82 194 157 76 199 164 73 201 167 82 194 157 82 194 157 73 201 167 73 201 167 76 199 164 82 194 157 82 194 157 85 192 153 82 194 157 82 194 157 76 199 164 82 194 157 76 199 164 76 199 164 76 199 164 82 194 157 82 194 157 82 194 157 82 194 157 82 194 157 76 199 164 82 194 157 82 194 157 82 194 157 82 194 157 82 194 157 82 194 157 76 199 164 82 194 157 76 199 164 73 201 167 82 194 157 76 199 164 73 201 167 76 199 164 76 199 164 76 199 164 76 199 164 82 194 157 85 192 153 82 194 157 82 194 157 82 194 157 76 199 164 76 199 164 76 199 164 76 199 164 76 199 164 76 199 164 82 194 157 82 194 157 76 199 164 82 194 157 82 194 157 76 199 164 82 194 157 76 199 164 76 199 164 73 201 167 76 199 164 76 199 164 73 201 167 82 194 157 82 194 157 82 194 157 82 194 157 85 192 153 76 199 164 82 194 157 82 194 157 76 199 164 76 199 164 82 194 157 85 192 153 82 194 157 85 192 153 85 192 153 85 192 153 88 190 150 26 235 223 8 248 244 8 248 244 44 222 202 160 151 73 157 151 75 157 151 75 157 151 75 160 151 73 162 151 71 160 151 73 160 151 73 160 151 73 157 151 75 160 151 73 160 151 73 160 151 73 160 151 73 160 151 73 162 151 71 162 151 71 162 151 71 162 151 71 162 151 71 162 151 71 162 151 71 160 151 73 165 150 69 170 150 65 165 150 69 170 150 65 165 150 69 165 150 69 162 151 71 170 150 65 170 150 65 165 150 69 162 151 71 165 150 69 165 150 69 170 150 65 170 150 65 172 149 63 170 150 65 170 150 65 170 150 65 170 150 65 170 150 65 170 150 65 170 150 65 165 150 69 162 151 71 170 150 65 165 150 69 165 150 69 170 150 65 162 151 71 165 150 69 165 150 69 170 150 65 165 150 69 165 150 69 170 150 65 170 150 65 162 151 71 165 150 69 165 150 69 165 150 69 165 150 69 170 150 65 170 150 65 170 150 65 170 150 65 165 150 69 162 151 71 165 150 69 165 150 69 170 150 65 170 150 65 170 150 65 170 150 65 165 150 69 170 150 65 170 150 65 172 149 63 172 149 63 172 149 63 172 149 63 170 150 65 170 150 65 172 149 63 172 149 63 172 149 63 170 150 65 172 149 63 170 150 65 172 149 63 182 148 56 172 149 63 157 151 75 8 248 244 8 248 244 5 250 248 5 250 248 8 248 244 5 250 248 8 248 244 5 250 248 5 250 248 5 250 248 5 250 248 5 250 248 
5 250 248 5 250 248 5 250 248 8 248 244 8 248 244 5 250 248 8 248 244 5 250 248 5 250 248 5 250 248 5 250 248 5 250 248 73 201 167 76 199 164 76 199 164 76 199 164 76 199 164 76 199 164 76 199 164 76 199 164 82 194 157 82 194 157 82 194 157 82 194 157 76 199 164 82 194 157 82 194 157 76 199 164 73 201 167 82 194 157 82 194 157 73 201 167 73 201 167 76 199 164 82 194 157 82 194 157 85 192 153 82 194 157 82 194 157 76 199 164 82 194 157 76 199 164 76 199 164 76 199 164 82 194 157 82 194 157 82 194 157 82 194 157 82 194 157 76 199 164 82 194 157 82 194 157 82 194 157 82 194 157 82 194 157 82 194 157 76 199 164 82 194 157 76 199 164 73 201 167 82 194 157 76 199 164 73 201 167 76 199 164 76 199 164 76 199 164 76 199 164 82 194 157 85 192 153 82 194 157 82 194 157 82 194 157 76 199 164 76 199 164 76 199 164 76 199 164 76 199 164 76 199 164 82 194 157 82 194 157 76 199 164 82 194 157 82 194 157 76 199 164 82 194 157 76 199 164 76 199 164 73 201 167 76 199 164 76 199 164 73 201 167 82 194 157 82 194 157 82 194 157 82 194 157 85 192 153 76 199 164 82 194 157 82 194 157 76 199 164 76 199 164 82 194 157 85 192 153 82 194 157 85 192 153 85 192 153 85 192 153 88 190 150 26 235 223 8 248 244 8 248 244 44 222 202 160 151 73 157 151 75 157 151 75 157 151 75 160 151 73 162 151 71 160 151 73 160 151 73 160 151 73 157 151 75 160 151 73 160 151 73 160 151 73 160 151 73 160 151 73 162 151 71 162 151 71 162 151 71 162 151 71 162 151 71 162 151 71 162 151 71 160 151 73 165 150 69 170 150 65 165 150 69 170 150 65 165 150 69 165 150 69 162 151 71 170 150 65 170 150 65 165 150 69 162 151 71 165 150 69 165 150 69 170 150 65 170 150 65 172 149 63 170 150 65 170 150 65 170 150 65 170 150 65 170 150 65 170 150 65 170 150 65 165 150 69 162 151 71 170 150 65 165 150 69 165 150 69 170 150 65 162 151 71 165 150 69 165 150 69 170 150 65 165 150 69 165 150 69 170 150 65 170 150 65 162 151 71 165 150 69 165 150 69 165 150 69 165 150 69 170 150 65 170 150 65 170 150 65 170 150 65 165 150 69 162 151 71 165 150 69 165 150 69 170 150 65 170 150 65 170 150 65 170 150 65 165 150 69 170 150 65 170 150 65 172 149 63 172 149 63 172 149 63 172 149 63 170 150 65 170 150 65 172 149 63 172 149 63 172 149 63 170 150 65 172 149 63 170 150 65 172 149 63 182 148 56 172 149 63 157 151 75 8 248 244 8 248 244 5 250 248 5 250 248 8 248 244 5 250 248 8 248 244 5 250 248 5 250 248 5 250 248 5 250 248 5 250 248 
8 248 244 5 250 248 5 250 248 5 250 248 5 250 248 8 248 244 5 250 248 5 250 248 5 250 248 5 250 248 5 250 248 5 250 248 73 201 167 82 194 157 85 192 153 85 192 153 85 192 153 85 192 153 85 192 153 88 190 150 88 190 150 88 190 150 88 190 150 91 188 146 85 192 153 85 192 153 88 190 150 88 190 150 85 192 153 88 190 150 88 190 150 85 192 153 85 192 153 85 192 153 85 192 153 85 192 153 88 190 150 85 192 153 88 190 150 85 192 153 85 192 153 85 192 153 88 190 150 85 192 153 88 190 150 85 192 153 85 192 153 88 190 150 85 192 153 85 192 153 85 192 153 85 192 153 85 192 153 85 192 153 91 188 146 88 190 150 88 190 150 85 192 153 85 192 153 82 194 157 85 192 153 88 190 150 85 192 153 85 192 153 85 192 153 88 190 150 85 192 153 85 192 153 88 190 150 85 192 153 88 190 150 88 190 150 85 192 153 85 192 153 82 194 157 85 192 153 85 192 153 82 194 157 88 190 150 88 190 150 85 192 153 85 192 153 85 192 153 88 190 150 85 192 153 85 192 153 85 192 153 82 194 157 82 194 157 85 192 153 85 192 153 82 194 157 88 190 150 85 192 153 85 192 153 85 192 153 85 192 153 88 190 150 85 192 153 88 190 150 85 192 153 88 190 150 88 190 150 85 192 153 88 190 150 91 188 146 91 188 146 91 188 146 32 231 216 8 248 244 8 248 244 46 220 199 165 150 69 172 149 63 172 149 63 182 148 56 187 148 52 172 149 63 172 149 63 182 148 56 172 149 63 182 148 56 187 148 52 182 148 56 182 148 56 187 148 52 187 148 52 182 148 56 187 148 52 187 148 52 192 147 48 192 147 48 192 147 48 192 147 48 182 148 56 182 148 56 187 148 52 192 147 48 187 148 52 187 148 52 192 147 48 195 147 46 192 147 48 192 147 48 192 147 48 192 147 48 192 147 48 195 147 46 195 147 46 195 147 46 195 147 46 195 147 46 192 147 48 195 147 46 192 147 48 192 147 48 192 147 48 195 147 46 192 147 48 187 148 52 187 148 52 192 147 48 192 147 48 192 147 48 187 148 52 182 148 56 182 148 56 192 147 48 192 147 48 187 148 52 187 148 52 187 148 52 182 148 56 182 148 56 187 148 52 195 147 46 192 147 48 192 147 48 192 147 48 192 147 48 192 147 48 195 147 46 192 147 48 192 147 48 212 145 32 212 145 32 212 145 32 212 145 32 212 145 32 215 144 30 212 145 32 212 145 32 212 145 32 212 145 32 212 145 32 195 147 46 212 145 32 195 147 46 212 145 32 212 145 32 212 145 32 212 145 32 215 144 30 215 144 30 212 145 32 215 144 30 212 145 32 150 152 81 8 248 244 8 248 244 5 250 248 8 248 244 8 248 244 5 250 248 5 250 248 5 250 248 5 250 248 8 248 244 5 250 248 8 248 244 
8 248 244 5 250 248 5 250 248 5 250 248 5 250 248 8 248 244 5 250 248 5 250 248 5 250 248 5 250 248 5 250 248 5 250 248 73 201 167 82 194 157 85 192 153 85 192 153 85 192 153 85 192 153 85 192 153 88 190 150 88 190 150 88 190 150 88 190 150 91 188 146 85 192 153 85 192 153 88 190 150 88 190 150 85 192 153 88 190 150 88 190 150 85 192 153 85 192 153 85 192 153 85 192 153 85 192 153 88 190 150 85 192 153 88 190 150 85 192 153 85 192 153 85 192 153 88 190 150 85 192 153 88 190 150 85 192 153 85 192 153 88 190 150 85 192 153 85 192 153 85 192 153 85 192 153 85 192 153 85 192 153 91 188 146 88 190 150 88 190 150 85 192 153 85 192 153 82 194 157 85 192 153 88 190 150 85 192 153 85 192 153 85 192 153 88 190 150 85 192 153 85 192 153 88 190 150 85 192 153 88 190 150 88 190 150 85 192 153 85 192 153 82 194 157 85 192 153 85 192 153 82 194 157 88 190 150 88 190 150 85 192 153 85 192 153 85 192 153 88 190 150 85 192 153 85 192 153 85 192 153 82 194 157 82 194 157 85 192 153 85 192 153 82 194 157 88 190 150 85 192 153 85 192 153 85 192 153 85 192 153 88 190 150 85 192 153 88 190 150 85 192 153 88 190 150 88 190 150 85 192 153 88 190 150 91 188 146 91 188 146 91 188 146 32 231 216 8 248 244 8 248 244 46 220 199 165 150 69 172 149 63 172 149 63 182 148 56 187 148 52 172 149 63 172 149 63 182 148 56 172 149 63 182 148 56 187 148 52 182 148 56 182 148 56 187 148 52 187 148 52 182 148 56 187 148 52 187 148 52 192 147 48 192 147 48 192 147 48 192 147 48 182 148 56 182 148 56 187 148 52 192 147 48 187 148 52 187 148 52 192 147 48 195 147 46 192 147 48 192 147 48 192 147 48 192 147 48 192 147 48 195 147 46 195 147 46 195 147 46 195 147 46 195 147 46 192 147 48 195 147 46 192 147 48 192 147 48 192 147 48 195 147 46 192 147 48 187 148 52 187 148 52 192 147 48 192 147 48 192 147 48 187 148 52 182 148 56 182 148 56 192 147 48 192 147 48 187 148 52 187 148 52 187 148 52 182 148 56 182 148 56 187 148 52 195 147 46 192 147 48 192 147 48 192 147 48 192 147 48 192 147 48 195 147 46 192 147 48 192 147 48 212 145 32 212 145 32 212 145 32 212 145 32 212 145 32 215 144 30 212 145 32 212 145 32 212 145 32 212 145 32 212 145 32 195 147 46 212 145 32 195 147 46 212 145 32 212 145 32 212 145 32 212 145 32 215 144 30 215 144 30 212 145 32 215 144 30 212 145 32 150 152 81 8 248 244 8 248 244 5 250 248 8 248 244 8 248 244 5 250 248 5 250 248 5 250 248 5 250 248 8 248 244 5 250 248 8 248 244 
5 250 248 8 248 244 5 250 248 5 250 248 5 250 248 5 250 248 5 250 248 5 250 248 5 250 248 5 250 248 5 250 248 5 250 248 58 212 185 88 190 150 82 194 157 85 192 153 85 192 153 88 190 150 91 188 146 88 190 150 85 192 153 88 190 150 88 190 150 91 188 146 88 190 150 85 192 153 88 190 150 88 190 150 85 192 153 85 192 153 85 192 153 85 192 153 85 192 153 85 192 153 85 192 153 85 192 153 85 192 153 85 192 153 85 192 153 82 194 157 85 192 153 85 192 153 82 194 157 88 190 150 85 192 153 85 192 153 85 192 153 85 192 153 85 192 153 85 192 153 85 192 153 85 192 153 85 192 153 88 190 150 88 190 150 88 190 150 85 192 153 85 192 153 88 190 150 85 192 153 88 190 150 85 192 153 85 192 153 85 192 153 85 192 153 88 190 150 88 190 150 88 190 150 85 192 153 88 190 150 85 192 153 88 190 150 88 190 150 88 190 150 88 190 150 88 190 150 85 192 153 88 190 150 85 192 153 85 192 153 85 192 153 82 194 157 85 192 153 82 194 157 82 194 157 85 192 153 82 194 157 82 194 157 85 192 153 85 192 153 85 192 153 85 192 153 85 192 153 85 192 153 85 192 153 85 192 153 85 192 153 88 190 150 88 190 150 88 190 150 88 190 150 88 190 150 88 190 150 88 190 150 88 190 150 88 190 150 91 188 146 91 188 146 26 235 223 8 248 244 8 248 244 46 220 199 170 150 65 170 150 65 182 148 56 182 148 56 172 149 63 182 148 56 182 148 56 172 149 63 172 149 63 182 148 56 187 148 52 187 148 52 172 149 63 172 149 63 187 148 52 187 148 52 182 148 56 172 149 63 192 147 48 192 147 48 187 148 52 192 147 48 192 147 48 187 148 52 182 148 56 187 148 52 187 148 52 192 147 48 195 147 46 195 147 46 187 148 52 182 148 56 192 147 48 187 148 52 192 147 48 192 147 48 195 147 46 212 145 32 195 147 46 192 147 48 187 148 52 195 147 46 195 147 46 195 147 46 195 147 46 195 147 46 212 145 32 192 147 48 192 147 48 195 147 46 195 147 46 192 147 48 195 147 46 195 147 46 192 147 48 192 147 48 192 147 48 192 147 48 192 147 48 187 148 52 192 147 48 192 147 48 192 147 48 182 148 56 192 147 48 182 148 56 187 148 52 192 147 48 192 147 48 195 147 46 195 147 46 195 147 46 187 148 52 192 147 48 195 147 46 212 145 32 195 147 46 195 147 46 212 145 32 195 147 46 212 145 32 212 145 32 195 147 46 212 145 32 212 145 32 212 145 32 215 144 30 212 145 32 212 145 32 212 145 32 215 144 30 215 144 30 215 144 30 215 144 30 215 144 30 96 184 139 5 250 248 5 250 248 5 250 248 5 250 248 5 250 248 5 250 248 5 250 248 5 250 248 8 248 244 5 250 248 5 250 248 5 250 248 
5 250 248 8 248 244 5 250 248 5 250 248 5 250 248 5 250 248 5 250 248 5 250 248 5 250 248 5 250 248 5 250 248 5 250 248 58 212 185 88 190 150 82 194 157 85 192 153 85 192 153 88 190 150 91 188 146 88 190 150 85 192 153 88 190 150 88 190 150 91 188 146 88 190 150 85 192 153 88 190 150 88 190 150 85 192 153 85 192 153 85 192 153 85 192 153 85 192 153 85 192 153 85 192 153 85 192 153 85 192 153 85 192 153 85 192 153 82 194 157 85 192 153 85 192 153 82 194 157 88 190 150 85 192 153 85 192 153 85 192 153 85 192 153 85 192 153 85 192 153 85 192 153 85 192 153 85 192 153 88 190 150 88 190 150 88 190 150 85 192 153 85 192 153 88 190 150 85 192 153 88 190 150 85 192 153 85 192 153 85 192 153 85 192 153 88 190 150 88 190 150 88 190 150 85 192 153 88 190 150 85 192 153 88 190 150 88 190 150 88 190 150 88 190 150 88 190 150 85 192 153 88 190 150 85 192 153 85 192 153 85 192 153 82 194 157 85 192 153 82 194 157 82 194 157 85 192 153 82 194 157 82 194 157 85 192 153 85 192 153 85 192 153 85 192 153 85 192 153 85 192 153 85 192 153 85 192 153 85 192 153 88 190 150 88 190 150 88 190 150 88 190 150 88 190 150 88 190 150 88 190 150 88 190 150 88 190 150 91 188 146 91 188 146 26 235 223 8 248 244 8 248 244 46 220 199 170 150 65 170 150 65 182 148 56 182 148 56 172 149 63 182 148 56 182 148 56 172 149 63 172 149 63 182 148 56 187 148 52 187 148 52 172 149 63 172 149 63 187 148 52 187 148 52 182 148 56 172 149 63 192 147 48 192 147 48 187 148 52 192 147 48 192 147 48 187 148 52 182 148 56 187 148 52 187 148 52 192 147 48 195 147 46 195 147 46 187 148 52 182 148 56 192 147 48 187 148 52 192 147 48 192 147 48 195 147 46 212 145 32 195 147 46 192 147 48 187 148 52 195 147 46 195 147 46 195 147 46 195 147 46 195 147 46 212 145 32 192 147 48 192 147 48 195 147 46 195 147 46 192 147 48 195 147 46 195 147 46 192 147 48 192 147 48 192 147 48 192 147 48 192 147 48 187 148 52 192 147 48 192 147 48 192 147 48 182 148 56 192 147 48 182 148 56 187 148 52 192 147 48 192 147 48 195 147 46 195 147 46 195 147 46 187 148 52 192 147 48 195 147 46 212 145 32 195 147 46 195 147 46 212 145 32 195 147 46 212 145 32 212 145 32 195 147 46 212 145 32 212 145 32 212 145 32 215 144 30 212 145 32 212 145 32 212 145 32 215 144 30 215 144 30 215 144 30 215 144 30 215 144 30 96 184 139 5 250 248 5 250 248 5 250 248 5 250 248 5 250 248 5 250 248 5 250 248 5 250 248 8 248 244 5 250 248 5 250 248 5 250 248 
5 250 248 5 250 248 5 250 248 5 250 248 5 250 248 8 248 244 8 248 244 8 248 244 8 248 244 5 250 248 5 250 248 8 248 244 26 235 223 85 192 153 88 190 150 88 190 150 91 188 146 88 190 150 91 188 146 91 188 146 88 190 150 88 190 150 88 190 150 88 190 150 88 190 150 88 190 150 88 190 150 88 190 150 82 194 157 82 194 157 88 190 150 88 190 150 85 192 153 88 190 150 88 190 150 88 190 150 82 194 157 85 192 153 85 192 153 88 190 150 85 192 153 85 192 153 85 192 153 85 192 153 85 192 153 88 190 150 85 192 153 85 192 153 88 190 150 85 192 153 85 192 153 88 190 150 85 192 153 82 194 157 91 188 146 88 190 150 88 190 150 85 192 153 88 190 150 85 192 153 85 192 153 88 190 150 88 190 150 85 192 153 85 192 153 88 190 150 88 190 150 85 192 153 82 194 157 88 190 150 88 190 150 88 190 150 85 192 153 85 192 153 85 192 153 88 190 150 85 192 153 85 192 153 85 192 153 85 192 153 85 192 153 85 192 153 85 192 153 82 194 157 85 192 153 82 194 157 85 192 153 85 192 153 85 192 153 85 192 153 85 192 153 76 199 164 88 190 150 85 192 153 85 192 153 85 192 153 85 192 153 91 188 146 88 190 150 88 190 150 88 190 150 88 190 150 88 190 150 91 188 146 91 188 146 85 192 153 88 190 150 88 190 150 26 235 223 8 248 244 8 248 244 46 220 199 170 150 65 165 150 69 170 150 65 172 149 63 172 149 63 172 149 63 172 149 63 170 150 65 170 150 65 172 149 63 182 148 56 172 149 63 187 148 52 172 149 63 172 149 63 172 149 63 172 149 63 187 148 52 182 148 56 187 148 52 187 148 52 192 147 48 182 148 56 187 148 52 187 148 52 182 148 56 187 148 52 192 147 48 187 148 52 182 148 56 192 147 48 187 148 52 187 148 52 182 148 56 195 147 46 192 147 48 195 147 46 192 147 48 192 147 48 195 147 46 192 147 48 192 147 48 192 147 48 192 147 48 192 147 48 187 148 52 192 147 48 192 147 48 195 147 46 195 147 46 195 147 46 192 147 48 192 147 48 192 147 48 187 148 52 187 148 52 192 147 48 192 147 48 192 147 48 195 147 46 187 148 52 187 148 52 192 147 48 187 148 52 187 148 52 187 148 52 192 147 48 192 147 48 187 148 52 192 147 48 187 148 52 187 148 52 192 147 48 195 147 46 195 147 46 195 147 46 212 145 32 192 147 48 212 145 32 195 147 46 192 147 48 195 147 46 212 145 32 212 145 32 212 145 32 195 147 46 195 147 46 195 147 46 212 145 32 195 147 46 212 145 32 215 144 30 217 144 29 212 145 32 212 145 32 44 222 202 5 250 248 5 250 248 5 250 248 5 250 248 5 250 248 8 248 244 8 248 244 8 248 244 8 248 244 8 248 244 5 250 248 5 250 248 
5 250 248 5 250 248 5 250 248 5 250 248 5 250 248 8 248 244 8 248 244 8 248 244 8 248 244 5 250 248 5 250 248 8 248 244 26 235 223 85 192 153 88 190 150 88 190 150 91 188 146 88 190 150 91 188 146 91 188 146 88 190 150 88 190 150 88 190 150 88 190 150 88 190 150 88 190 150 88 190 150 88 190 150 82 194 157 82 194 157 88 190 150 88 190 150 85 192 153 88 190 150 88 190 150 88 190 150 82 194 157 85 192 153 85 192 153 88 190 150 85 192 153 85 192 153 85 192 153 85 192 153 85 192 153 88 190 150 85 192 153 85 192 153 88 190 150 85 192 153 85 192 153 88 190 150 85 192 153 82 194 157 91 188 146 88 190 150 88 190 150 85 192 153 88 190 150 85 192 153 85 192 153 88 190 150 88 190 150 85 192 153 85 192 153 88 190 150 88 190 150 85 192 153 82 194 157 88 190 150 88 190 150 88 190 150 85 192 153 85 192 153 85 192 153 88 190 150 85 192 153 85 192 153 85 192 153 85 192 153 85 192 153 85 192 153 85 192 153 82 194 157 85 192 153 82 194 157 85 192 153 85 192 153 85 192 153 85 192 153 85 192 153 76 199 164 88 190 150 85 192 153 85 192 153 85 192 153 85 192 153 91 188 146 88 190 150 88 190 150 88 190 150 88 190 150 88 190 150 91 188 146 91 188 146 85 192 153 88 190 150 88 190 150 26 235 223 8 248 244 8 248 244 46 220 199 170 150 65 165 150 69 170 150 65 172 149 63 172 149 63 172 149 63 172 149 63 170 150 65 170 150 65 172 149 63 182 148 56 172 149 63 187 148 52 172 149 63 172 149 63 172 149 63 172 149 63 187 148 52 182 148 56 187 148 52 187 148 52 192 147 48 182 148 56 187 148 52 187 148 52 182 148 56 187 148 52 192 147 48 187 148 52 182 148 56 192 147 48 187 148 52 187 148 52 182 148 56 195 147 46 192 147 48 195 147 46 192 147 48 192 147 48 195 147 46 192 147 48 192 147 48 192 147 48 192 147 48 192 147 48 187 148 52 192 147 48 192 147 48 195 147 46 195 147 46 195 147 46 192 147 48 192 147 48 192 147 48 187 148 52 187 148 52 192 147 48 192 147 48 192 147 48 195 147 46 187 148 52 187 148 52 192 147 48 187 148 52 187 148 52 187 148 52 192 147 48 192 147 48 187 148 52 192 147 48 187 148 52 187 148 52 192 147 48 195 147 46 195 147 46 195 147 46 212 145 32 192 147 48 212 145 32 195 147 46 192 147 48 195 147 46 212 145 32 212 145 32 212 145 32 195 147 46 195 147 46 195 147 46 212 145 32 195 147 46 212 145 32 215 144 30 217 144 29 212 145 32 212 145 32 44 222 202 5 250 248 5 250 248 5 250 248 5 250 248 5 250 248 8 248 244 8 248 244 8 248 244 8 248 244 8 248 244 5 250 248 5 250 248 
5 250 248 5 250 248 5 250 248 5 250 248 5 250 248 5 250 248 8 248 244 5 250 248 5 250 248 5 250 248 5 250 248 8 248 244 11 246 241 88 190 150 85 192 153 85 192 153 88 190 150 91 188 146 88 190 150 85 192 153 88 190 150 88 190 150 85 192 153 88 190 150 88 190 150 85 192 153 88 190 150 85 192 153 88 190 150 85 192 153 85 192 153 85 192 153 88 190 150 85 192 153 85 192 153 85 192 153 91 188 146 85 192 153 88 190 150 85 192 153 85 192 153 82 194 157 88 190 150 88 190 150 88 190 150 88 190 150 88 190 150 91 188 146 88 190 150 82 194 157 85 192 153 85 192 153 85 192 153 85 192 153 88 190 150 85 192 153 85 192 153 85 192 153 88 190 150 88 190 150 85 192 153 91 188 146 88 190 150 88 190 150 88 190 150 88 190 150 85 192 153 88 190 150 88 190 150 85 192 153 88 190 150 91 188 146 88 190 150 88 190 150 88 190 150 88 190 150 82 194 157 85 192 153 91 188 146 88 190 150 82 194 157 88 190 150 85 192 153 85 192 153 85 192 153 91 188 146 85 192 153 88 190 150 85 192 153 85 192 153 88 190 150 85 192 153 85 192 153 88 190 150 85 192 153 85 192 153 82 194 157 85 192 153 88 190 150 91 188 146 88 190 150 88 190 150 88 190 150 88 190 150 88 190 150 93 186 143 93 186 143 93 186 143 32 231 216 8 248 244 8 248 244 46 220 199 170 150 65 165 150 69 172 149 63 182 148 56 172 149 63 182 148 56 182 148 56 182 148 56 172 149 63 182 148 56 182 148 56 172 149 63 172 149 63 172 149 63 170 150 65 172 149 63 165 150 69 170 150 65 172 149 63 182 148 56 182 148 56 182 148 56 182 148 56 182 148 56 182 148 56 187 148 52 187 148 52 182 148 56 195 147 46 187 148 52 182 148 56 187 148 52 192 147 48 187 148 52 192 147 48 187 148 52 195 147 46 192 147 48 195 147 46 212 145 32 212 145 32 192 147 48 195 147 46 192 147 48 187 148 52 195 147 46 195 147 46 212 145 32 195 147 46 195 147 46 192 147 48 187 148 52 182 148 56 192 147 48 187 148 52 192 147 48 192 147 48 192 147 48 187 148 52 195 147 46 192 147 48 187 148 52 187 148 52 192 147 48 192 147 48 195 147 46 187 148 52 192 147 48 192 147 48 187 148 52 187 148 52 192 147 48 195 147 46 192 147 48 187 148 52 192 147 48 195 147 46 195 147 46 195 147 46 192 147 48 195 147 46 212 145 32 195 147 46 192 147 48 195 147 46 195 147 46 212 145 32 212 145 32 212 145 32 212 145 32 212 145 32 215 144 30 215 144 30 215 144 30 212 145 32 14 244 237 8 248 244 5 250 248 5 250 248 5 250 248 5 250 248 5 250 248 5 250 248 5 250 248 5 250 248 5 250 248 5 250 248 5 250 248 
5 250 248 5 250 248 5 250 248 5 250 248 5 250 248 5 250 248 8 248 244 5 250 248 5 250 248 5 250 248 5 250 248 8 248 244 11 246 241 88 190 150 85 192 153 85 192 153 88 190 150 91 188 146 88 190 150 85 192 153 88 190 150 88 190 150 85 192 153 88 190 150 88 190 150 85 192 153 88 190 150 85 192 153 88 190 150 85 192 153 85 192 153 85 192 153 88 190 150 85 192 153 85 192 153 85 192 153 91 188 146 85 192 153 88 190 150 85 192 153 85 192 153 82 194 157 88 190 150 88 190 150 88 190 150 88 190 150 88 190 150 91 188 146 88 190 150 82 194 157 85 192 153 85 192 153 85 192 153 85 192 153 88 190 150 85 192 153 85 192 153 85 192 153 88 190 150 88 190 150 85 192 153 91 188 146 88 190 150 88 190 150 88 190 150 88 190 150 85 192 153 88 190 150 88 190 150 85 192 153 88 190 150 91 188 146 88 190 150 88 190 150 88 190 150 88 190 150 82 194 157 85 192 153 91 188 146 88 190 150 82 194 157 88 190 150 85 192 153 85 192 153 85 192 153 91 188 146 85 192 153 88 190 150 85 192 153 85 192 153 88 190 150 85 192 153 85 192 153 88 190 150 85 192 153 85 192 153 82 194 157 85 192 153 88 190 150 91 188 146 88 190 150 88 190 150 88 190 150 88 190 150 88 190 150 93 186 143 93 186 143 93 186 143 32 231 216 8 248 244 8 248 244 46 220 199 170 150 65 165 150 69 172 149 63 182 148 56 172 149 63 182 148 56 182 148 56 182 148 56 172 149 63 182 148 56 182 148 56 172 149 63 172 149 63 172 149 63 170 150 65 172 149 63 165 150 69 170 150 65 172 149 63 182 148 56 182 148 56 182 148 56 182 148 56 182 148 56 182 148 56 187 148 52 187 148 52 182 148 56 195 147 46 187 148 52 182 148 56 187 148 52 192 147 48 187 148 52 192 147 48 187 148 52 195 147 46 192 147 48 195 147 46 212 145 32 212 145 32 192 147 48 195 147 46 192 147 48 187 148 52 195 147 46 195 147 46 212 145 32 195 147 46 195 147 46 192 147 48 187 148 52 182 148 56 192 147 48 187 148 52 192 147 48 192 147 48 192 147 48 187 148 52 195 147 46 192 147 48 187 148 52 187 148 52 192 147 48 192 147 48 195 147 46 187 148 52 192 147 48 192 147 48 187 148 52 187 148 52 192 147 48 195 147 46 192 147 48 187 148 52 192 147 48 195 147 46 195 147 46 195 147 46 192 147 48 195 147 46 212 145 32 195 147 46 192 147 48 195 147 46 195 147 46 212 145 32 212 145 32 212 145 32 212 145 32 212 145 32 215 144 30 215 144 30 215 144 30 212 145 32 14 244 237 8 248 244 5 250 248 5 250 248 5 250 248 5 250 248 5 250 248 5 250 248 5 250 248 5 250 248 5 250 248 5 250 248 5 250 248 
5 250 248 5 250 248 8 248 244 5 250 248 5 250 248 5 250 248 8 248 244 8 248 244 5 250 248 8 248 244 5 250 248 5 250 248 8 248 244 91 188 146 88 190 150 85 192 153 85 192 153 91 188 146 88 190 150 88 190 150 88 190 150 88 190 150 88 190 150 88 190 150 88 190 150 88 190 150 85 192 153 82 194 157 85 192 153 85 192 153 85 192 153 85 192 153 85 192 153 88 190 150 88 190 150 85 192 153 85 192 153 88 190 150 88 190 150 85 192 153 82 194 157 85 192 153 85 192 153 88 190 150 88 190 150 88 190 150 85 192 153 85 192 153 85 192 153 91 188 146 88 190 150 88 190 150 85 192 153 82 194 157 82 194 157 88 190 150 85 192 153 88 190 150 88 190 150 91 188 146 88 190 150 88 190 150 88 190 150 88 190 150 88 190 150 88 190 150 88 190 150 91 188 146 91 188 146 88 190 150 91 188 146 88 190 150 85 192 153 91 188 146 88 190 150 85 192 153 88 190 150 85 192 153 85 192 153 88 190 150 85 192 153 85 192 153 85 192 153 85 192 153 88 190 150 91 188 146 85 192 153 88 190 150 85 192 153 85 192 153 85 192 153 88 190 150 85 192 153 88 190 150 88 190 150 85 192 153 91 188 146 85 192 153 88 190 150 88 190 150 91 188 146 91 188 146 91 188 146 88 190 150 91 188 146 93 186 143 93 186 143 96 184 139 32 231 216 8 248 244 5 250 248 46 220 199 170 150 65 172 149 63 182 148 56 172 149 63 172 149 63 170 150 65 172 149 63 170 150 65 172 149 63 172 149 63 172 149 63 170 150 65 182 148 56 182 148 56 182 148 56 182 148 56 170 150 65 170 150 65 170 150 65 172 149 63 187 148 52 182 148 56 172 149 63 182 148 56 182 148 56 182 148 56 187 148 52 187 148 52 192 147 48 192 147 48 187 148 52 187 148 52 187 148 52 192 147 48 192 147 48 187 148 52 192 147 48 192 147 48 195 147 46 187 148 52 212 145 32 192 147 48 195 147 46 192 147 48 192 147 48 192 147 48 192 147 48 192 147 48 212 145 32 212 145 32 195 147 46 195 147 46 192 147 48 187 148 52 187 148 52 192 147 48 192 147 48 187 148 52 192 147 48 195 147 46 192 147 48 192 147 48 192 147 48 195 147 46 192 147 48 192 147 48 195 147 46 195 147 46 192 147 48 187 148 52 187 148 52 187 148 52 192 147 48 187 148 52 187 148 52 192 147 48 192 147 48 187 148 52 192 147 48 187 148 52 195 147 46 195 147 46 195 147 46 212 145 32 212 145 32 195 147 46 212 145 32 215 144 30 212 145 32 215 144 30 212 145 32 212 145 32 215 144 30 215 144 30 215 144 30 17 242 234 5 250 248 5 250 248 5 250 248 5 250 248 5 250 248 5 250 248 5 250 248 8 248 244 8 248 244 5 250 248 5 250 248 5 250 248 
5 250 248 5 250 248 8 248 244 5 250 248 5 250 248 5 250 248 8 248 244 8 248 244 5 250 248 8 248 244 5 250 248 5 250 248 8 248 244 91 188 146 88 190 150 85 192 153 85 192 153 91 188 146 88 190 150 88 190 150 88 190 150 88 190 150 88 190 150 88 190 150 88 190 150 88 190 150 85 192 153 82 194 157 85 192 153 85 192 153 85 192 153 85 192 153 85 192 153 88 190 150 88 190 150 85 192 153 85 192 153 88 190 150 88 190 150 85 192 153 82 194 157 85 192 153 85 192 153 88 190 150 88 190 150 88 190 150 85 192 153 85 192 153 85 192 153 91 188 146 88 190 150 88 190 150 85 192 153 82 194 157 82 194 157 88 190 150 85 192 153 88 190 150 88 190 150 91 188 146 88 190 150 88 190 150 88 190 150 88 190 150 88 190 150 88 190 150 88 190 150 91 188 146 91 188 146 88 190 150 91 188 146 88 190 150 85 192 153 91 188 146 88 190 150 85 192 153 88 190 150 85 192 153 85 192 153 88 190 150 85 192 153 85 192 153 85 192 153 85 192 153 88 190 150 91 188 146 85 192 153 88 190 150 85 192 153 85 192 153 85 192 153 88 190 150 85 192 153 88 190 150 88 190 150 85 192 153 91 188 146 85 192 153 88 190 150 88 190 150 91 188 146 91 188 146 91 188 146 88 190 150 91 188 146 93 186 143 93 186 143 96 184 139 32 231 216 8 248 244 5 250 248 46 220 199 170 150 65 172 149 63 182 148 56 172 149 63 172 149 63 170 150 65 172 149 63 170 150 65 172 149 63 172 149 63 172 149 63 170 150 65 182 148 56 182 148 56 182 148 56 182 148 56 170 150 65 170 150 65 170 150 65 172 149 63 187 148 52 182 148 56 172 149 63 182 148 56 182 148 56 182 148 56 187 148 52 187 148 52 192 147 48 192 147 48 187 148 52 187 148 52 187 148 52 192 147 48 192 147 48 187 148 52 192 147 48 192 147 48 195 147 46 187 148 52 212 145 32 192 147 48 195 147 46 192 147 48 192 147 48 192 147 48 192 147 48 192 147 48 212 145 32 212 145 32 195 147 46 195 147 46 192 147 48 187 148 52 187 148 52 192 147 48 192 147 48 187 148 52 192 147 48 195 147 46 192 147 48 192 147 48 192 147 48 195 147 46 192 147 48 192 147 48 195 147 46 195 147 46 192 147 48 187 148 52 187 148 52 187 148 52 192 147 48 187 148 52 187 148 52 192 147 48 192 147 48 187 148 52 192 147 48 187 148 52 195 147 46 195 147 46 195 147 46 212 145 32 212 145 32 195 147 46 212 145 32 215 144 30 212 145 32 215 144 30 212 145 32 212 145 32 215 144 30 215 144 30 215 144 30 17 242 234 5 250 248 5 250 248 5 250 248 5 250 248 5 250 248 5 250 248 5 250 248 8 248 244 8 248 244 5 250 248 5 250 248 5 250 248 
8 248 244 8 248 244 8 248 244 5 250 248 8 248 244 5 250 248 5 250 248 5 250 248 5 250 248 5 250 248 5 250 248 5 250 248 11 246 241 73 201 167 85 192 153 82 194 157 85 192 153 91 188 146 88 190 150 88 190 150 88 190 150 85 192 153 82 194 157 85 192 153 85 192 153 85 192 153 88 190 150 85 192 153 85 192 153 85 192 153 85 192 153 85 192 153 88 190 150 85 192 153 85 192 153 88 190 150 88 190 150 85 192 153 88 190 150 88 190 150 88 190 150 85 192 153 85 192 153 85 192 153 88 190 150 88 190 150 88 190 150 88 190 150 88 190 150 85 192 153 88 190 150 85 192 153 85 192 153 85 192 153 88 190 150 88 190 150 91 188 146 88 190 150 88 190 150 88 190 150 88 190 150 88 190 150 91 188 146 88 190 150 88 190 150 88 190 150 91 188 146 91 188 146 85 192 153 88 190 150 88 190 150 85 192 153 88 190 150 85 192 153 85 192 153 85 192 153 82 194 157 85 192 153 85 192 153 85 192 153 88 190 150 85 192 153 85 192 153 85 192 153 85 192 153 85 192 153 85 192 153 88 190 150 88 190 150 85 192 153 88 190 150 82 194 157 88 190 150 88 190 150 88 190 150 88 190 150 88 190 150 88 190 150 88 190 150 88 190 150 91 188 146 93 186 143 93 186 143 93 186 143 91 188 146 93 186 143 91 188 146 93 186 143 32 231 216 8 248 244 8 248 244 46 220 199 170 150 65 170 150 65 182 148 56 170 150 65 172 149 63 182 148 56 182 148 56 182 148 56 182 148 56 182 148 56 170 150 65 182 148 56 187 148 52 182 148 56 172 149 63 182 148 56 187 148 52 172 149 63 170 150 65 172 149 63 172 149 63 187 148 52 172 149 63 182 148 56 172 149 63 187 148 52 172 149 63 182 148 56 182 148 56 182 148 56 192 147 48 192 147 48 192 147 48 192 147 48 192 147 48 187 148 52 187 148 52 187 148 52 192 147 48 187 148 52 192 147 48 187 148 52 192 147 48 192 147 48 195 147 46 195 147 46 195 147 46 195 147 46 212 145 32 212 145 32 195 147 46 212 145 32 192 147 48 212 145 32 195 147 46 195 147 46 195 147 46 192 147 48 192 147 48 192 147 48 195 147 46 195 147 46 195 147 46 195 147 46 192 147 48 195 147 46 192 147 48 195 147 46 187 148 52 192 147 48 187 148 52 187 148 52 172 149 63 182 148 56 187 148 52 187 148 52 187 148 52 187 148 52 187 148 52 192 147 48 192 147 48 192 147 48 195 147 46 195 147 46 195 147 46 212 145 32 212 145 32 212 145 32 212 145 32 215 144 30 212 145 32 212 145 32 212 145 32 212 145 32 135 156 94 11 246 241 5 250 248 8 248 244 5 250 248 5 250 248 5 250 248 5 250 248 5 250 248 5 250 248 8 248 244 8 248 244 8 248 244 5 250 248 
8 248 244 8 248 244 8 248 244 5 250 248 8 248 244 5 250 248 5 250 248 5 250 248 5 250 248 5 250 248 5 250 248 5 250 248 11 246 241 73 201 167 85 192 153 82 194 157 85 192 153 91 188 146 88 190 150 88 190 150 88 190 150 85 192 153 82 194 157 85 192 153 85 192 153 85 192 153 88 190 150 85 192 153 85 192 153 85 192 153 85 192 153 85 192 153 88 190 150 85 192 153 85 192 153 88 190 150 88 190 150 85 192 153 88 190 150 88 190 150 88 190 150 85 192 153 85 192 153 85 192 153 88 190 150 88 190 150 88 190 150 88 190 150 88 190 150 85 192 153 88 190 150 85 192 153 85 192 153 85 192 153 88 190 150 88 190 150 91 188 146 88 190 150 88 190 150 88 190 150 88 190 150 88 190 150 91 188 146 88 190 150 88 190 150 88 190 150 91 188 146 91 188 146 85 192 153 88 190 150 88 190 150 85 192 153 88 190 150 85 192 153 85 192 153 85 192 153 82 194 157 85 192 153 85 192 153 85 192 153 88 190 150 85 192 153 85 192 153 85 192 153 85 192 153 85 192 153 85 192 153 88 190 150 88 190 150 85 192 153 88 190 150 82 194 157 88 190 150 88 190 150 88 190 150 88 190 150 88 190 150 88 190 150 88 190 150 88 190 150 91 188 146 93 186 143 93 186 143 93 186 143 91 188 146 93 186 143 91 188 146 93 186 143 32 231 216 8 248 244 8 248 244 46 220 199 170 150 65 170 150 65 182 148 56 170 150 65 172 149 63 182 148 56 182 148 56 182 148 56 182 148 56 182 148 56 170 150 65 182 148 56 187 148 52 182 148 56 172 149 63 182 148 56 187 148 52 172 149 63 170 150 65 172 149 63 172 149 63 187 148 52 172 149 63 182 148 56 172 149 63 187 148 52 172 149 63 182 148 56 182 148 56 182 148 56 192 147 48 192 147 48 192 147 48 192 147 48 192 147 48 187 148 52 187 148 52 187 148 52 192 147 48 187 148 52 192 147 48 187 148 52 192 147 48 192 147 48 195 147 46 195 147 46 195 147 46 195 147 46 212 145 32 212 145 32 195 147 46 212 145 32 192 147 48 212 145 32 195 147 46 195 147 46 195 147 46 192 147 48 192 147 48 192 147 48 195 147 46 195 147 46 195 147 46 195 147 46 192 147 48 195 147 46 192 147 48 195 147 46 187 148 52 192 147 48 187 148 52 187 148 52 172 149 63 182 148 56 187 148 52 187 148 52 187 148 52 187 148 52 187 148 52 192 147 48 192 147 48 192 147 48 195 147 46 195 147 46 195 147 46 212 145 32 212 145 32 212 145 32 212 145 32 215 144 30 212 145 32 212 145 32 212 145 32 212 145 32 135 156 94 11 246 241 5 250 248 8 248 244 5 250 248 5 250 248 5 250 248 5 250 248 5 250 248 5 250 248 8 248 244 8 248 244 8 248 244 5 250 248 
5 250 248 8 248 244 5 250 248 8 248 244 8 248 244 5 250 248 5 250 248 8 248 244 8 248 244 8 248 244 5 250 248 8 248 244 5 250 248 32 231 216 88 190 150 85 192 153 85 192 153 82 194 157 91 188 146 85 192 153 85 192 153 88 190 150 85 192 153 82 194 157 85 192 153 85 192 153 85 192 153 88 190 150 88 190 150 85 192 153 88 190 150 85 192 153 85 192 153 88 190 150 85 192 153 88 190 150 88 190 150 88 190 150 88 190 150 88 190 150 88 190 150 91 188 146 85 192 153 85 192 153 85 192 153 88 190 150 85 192 153 82 194 157 82 194 157 85 192 153 88 190 150 85 192 153 85 192 153 85 192 153 85 192 153 88 190 150 88 190 150 91 188 146 88 190 150 85 192 153 85 192 153 85 192 153 85 192 153 85 192 153 91 188 146 91 188 146 91 188 146 88 190 150 88 190 150 85 192 153 85 192 153 85 192 153 85 192 153 85 192 153 85 192 153 85 192 153 82 194 157 88 190 150 82 194 157 82 194 157 82 194 157 88 190 150 85 192 153 85 192 153 85 192 153 82 194 157 85 192 153 85 192 153 85 192 153 85 192 153 88 190 150 88 190 150 85 192 153 85 192 153 88 190 150 85 192 153 91 188 146 91 188 146 91 188 146 88 190 150 91 188 146 88 190 150 88 190 150 91 188 146 88 190 150 91 188 146 93 186 143 93 186 143 32 231 216 8 248 244 8 248 244 46 220 199 165 150 69 165 150 69 172 149 63 182 148 56 182 148 56 187 148 52 172 149 63 172 149 63 170 150 65 170 150 65 182 148 56 182 148 56 187 148 52 187 148 52 182 148 56 187 148 52 182 148 56 182 148 56 192 147 48 182 148 56 172 149 63 172 149 63 182 148 56 182 148 56 172 149 63 172 149 63 187 148 52 182 148 56 187 148 52 182 148 56 192 147 48 187 148 52 192 147 48 187 148 52 192 147 48 192 147 48 187 148 52 192 147 48 192 147 48 195 147 46 192 147 48 192 147 48 187 148 52 192 147 48 192 147 48 192 147 48 192 147 48 195 147 46 195 147 46 195 147 46 195 147 46 192 147 48 212 145 32 195 147 46 212 145 32 195 147 46 192 147 48 192 147 48 195 147 46 195 147 46 192 147 48 195 147 46 195 147 46 195 147 46 192 147 48 192 147 48 187 148 52 192 147 48 195 147 46 192 147 48 192 147 48 187 148 52 187 148 52 187 148 52 187 148 52 192 147 48 192 147 48 192 147 48 195 147 46 192 147 48 195 147 46 195 147 46 195 147 46 192 147 48 212 145 32 195 147 46 195 147 46 212 145 32 212 145 32 212 145 32 195 147 46 212 145 32 212 145 32 212 145 32 49 218 195 8 248 244 8 248 244 5 250 248 8 248 244 5 250 248 5 250 248 8 248 244 5 250 248 5 250 248 8 248 244 8 248 244 5 250 248 8 248 244 
5 250 248 8 248 244 5 250 248 8 248 244 8 248 244 5 250 248 5 250 248 8 248 244 8 248 244 8 248 244 5 250 248 8 248 244 5 250 248 32 231 216 88 190 150 85 192 153 85 192 153 82 194 157 91 188 146 85 192 153 85 192 153 88 190 150 85 192 153 82 194 157 85 192 153 85 192 153 85 192 153 88 190 150 88 190 150 85 192 153 88 190 150 85 192 153 85 192 153 88 190 150 85 192 153 88 190 150 88 190 150 88 190 150 88 190 150 88 190 150 88 190 150 91 188 146 85 192 153 85 192 153 85 192 153 88 190 150 85 192 153 82 194 157 82 194 157 85 192 153 88 190 150 85 192 153 85 192 153 85 192 153 85 192 153 88 190 150 88 190 150 91 188 146 88 190 150 85 192 153 85 192 153 85 192 153 85 192 153 85 192 153 91 188 146 91 188 146 91 188 146 88 190 150 88 190 150 85 192 153 85 192 153 85 192 153 85 192 153 85 192 153 85 192 153 85 192 153 82 194 157 88 190 150 82 194 157 82 194 157 82 194 157 88 190 150 85 192 153 85 192 153 85 192 153 82 194 157 85 192 153 85 192 153 85 192 153 85 192 153 88 190 150 88 190 150 85 192 153 85 192 153 88 190 150 85 192 153 91 188 146 91 188 146 91 188 146 88 190 150 91 188 146 88 190 150 88 190 150 91 188 146 88 190 150 91 188 146 93 186 143 93 186 143 32 231 216 8 248 244 8 248 244 46 220 199 165 150 69 165 150 69 172 149 63 182 148 56 182 148 56 187 148 52 172 149 63 172 149 63 170 150 65 170 150 65 182 148 56 182 148 56 187 148 52 187 148 52 182 148 56 187 148 52 182 148 56 182 148 56 192 147 48 182 148 56 172 149 63 172 149 63 182 148 56 182 148 56 172 149 63 172 149 63 187 148 52 182 148 56 187 148 52 182 148 56 192 147 48 187 148 52 192 147 48 187 148 52 192 147 48 192 147 48 187 148 52 192 147 48 192 147 48 195 147 46 192 147 48 192 147 48 187 148 52 192 147 48 192 147 48 192 147 48 192 147 48 195 147 46 195 147 46 195 147 46 195 147 46 192 147 48 212 145 32 195 147 46 212 145 32 195 147 46 192 147 48 192 147 48 195 147 46 195 147 46 192 147 48 195 147 46 195 147 46 195 147 46 192 147 48 192 147 48 187 148 52 192 147 48 195 147 46 192 147 48 192 147 48 187 148 52 187 148 52 187 148 52 187 148 52 192 147 48 192 147 48 192 147 48 195 147 46 192 147 48 195 147 46 195 147 46 195 147 46 192 147 48 212 145 32 195 147 46 195 147 46 212 145 32 212 145 32 212 145 32 195 147 46 212 145 32 212 145 32 212 145 32 49 218 195 8 248 244 8 248 244 5 250 248 8 248 244 5 250 248 5 250 248 8 248 244 5 250 248 5 250 248 8 248 244 8 248 244 5 250 248 8 248 244 
8 248 244 8 248 244 5 250 248 8 248 244 5 250 248 5 250 248 5 250 248 5 250 248 8 248 244 5 250 248 5 250 248 5 250 248 5 250 248 20 239 230 85 192 153 85 192 153 88 190 150 85 192 153 85 192 153 85 192 153 88 190 150 85 192 153 82 194 157 88 190 150 88 190 150 88 190 150 85 192 153 88 190 150 88 190 150 85 192 153 88 190 150 88 190 150 88 190 150 91 188 146 88 190 150 91 188 146 88 190 150 91 188 146 88 190 150 88 190 150 88 190 150 88 190 150 88 190 150 85 192 153 82 194 157 85 192 153 88 190 150 88 190 150 88 190 150 82 194 157 85 192 153 88 190 150 85 192 153 88 190 150 88 190 150 88 190 150 85 192 153 85 192 153 88 190 150 88 190 150 88 190 150 88 190 150 91 188 146 88 190 150 88 190 150 91 188 146 91 188 146 88 190 150 85 192 153 85 192 153 88 190 150 85 192 153 85 192 153 88 190 150 85 192 153 85 192 153 82 194 157 85 192 153 85 192 153 88 190 150 88 190 150 88 190 150 88 190 150 88 190 150 88 190 150 82 194 157 85 192 153 85 192 153 85 192 153 85 192 153 91 188 146 85 192 153 88 190 150 88 190 150 88 190 150 88 190 150 91 188 146 88 190 150 91 188 146 91 188 146 88 190 150 88 190 150 88 190 150 91 188 146 93 186 143 93 186 143 93 186 143 96 184 139 32 231 216 8 248 244 5 250 248 46 220 199 170 150 65 170 150 65 170 150 65 170 150 65 172 149 63 182 148 56 182 148 56 182 148 56 172 149 63 172 149 63 182 148 56 187 148 52 182 148 56 187 148 52 187 148 52 182 148 56 182 148 56 172 149 63 182 148 56 172 149 63 172 149 63 182 148 56 182 148 56 182 148 56 182 148 56 172 149 63 172 149 63 182 148 56 187 148 52 182 148 56 187 148 52 187 148 52 187 148 52 182 148 56 192 147 48 192 147 48 192 147 48 192 147 48 192 147 48 195 147 46 192 147 48 187 148 52 192 147 48 195 147 46 195 147 46 195 147 46 195 147 46 195 147 46 195 147 46 212 145 32 212 145 32 195 147 46 212 145 32 192 147 48 195 147 46 192 147 48 192 147 48 192 147 48 187 148 52 195 147 46 192 147 48 195 147 46 195 147 46 195 147 46 212 145 32 192 147 48 195 147 46 195 147 46 192 147 48 192 147 48 192 147 48 187 148 52 195 147 46 192 147 48 195 147 46 192 147 48 192 147 48 192 147 48 192 147 48 195 147 46 192 147 48 192 147 48 187 148 52 195 147 46 187 148 52 195 147 46 195 147 46 195 147 46 195 147 46 215 144 30 215 144 30 212 145 32 212 145 32 195 147 46 44 222 202 5 250 248 5 250 248 5 250 248 5 250 248 5 250 248 8 248 244 8 248 244 5 250 248 5 250 248 5 250 248 5 250 248 5 250 248 8 248 244 
8 248 244 8 248 244 5 250 248 8 248 244 5 250 248 5 250 248 5 250 248 5 250 248 8 248 244 5 250 248 5 250 248 5 250 248 5 250 248 20 239 230 85 192 153 85 192 153 88 190 150 85 192 153 85 192 153 85 192 153 88 190 150 85 192 153 82 194 157 88 190 150 88 190 150 88 190 150 85 192 153 88 190 150 88 190 150 85 192 153 88 190 150 88 190 150 88 190 150 91 188 146 88 190 150 91 188 146 88 190 150 91 188 146 88 190 150 88 190 150 88 190 150 88 190 150 88 190 150 85 192 153 82 194 157 85 192 153 88 190 150 88 190 150 88 190 150 82 194 157 85 192 153 88 190 150 85 192 153 88 190 150 88 190 150 88 190 150 85 192 153 85 192 153 88 190 150 88 190 150 88 190 150 88 190 150 91 188 146 88 190 150 88 190 150 91 188 146 91 188 146 88 190 150 85 192 153 85 192 153 88 190 150 85 192 153 85 192 153 88 190 150 85 192 153 85 192 153 82 194 157 85 192 153 85 192 153 88 190 150 88 190 150 88 190 150 88 190 150 88 190 150 88 190 150 82 194 157 85 192 153 85 192 153 85 192 153 85 192 153 91 188 146 85 192 153 88 190 150 88 190 150 88 190 150 88 190 150 91 188 146 88 190 150 91 188 146 91 188 146 88 190 150 88 190 150 88 190 150 91 188 146 93 186 143 93 186 143 93 186 143 96 184 139 32 231 216 8 248 244 5 250 248 46 220 199 170 150 65 170 150 65 170 150 65 170 150 65 172 149 63 182 148 56 182 148 56 182 148 56 172 149 63 172 149 63 182 148 56 187 148 52 182 148 56 187 148 52 187 148 52 182 148 56 182 148 56 172 149 63 182 148 56 172 149 63 172 149 63 182 148 56 182 148 56 182 148 56 182 148 56 172 149 63 172 149 63 182 148 56 187 148 52 182 148 56 187 148 52 187 148 52 187 148 52 182 148 56 192 147 48 192 147 48 192 147 48 192 147 48 192 147 48 195 147 46 192 147 48 187 148 52 192 147 48 195 147 46 195 147 46 195 147 46 195 147 46 195 147 46 195 147 46 212 145 32 212 145 32 195 147 46 212 145 32 192 147 48 195 147 46 192 147 48 192 147 48 192 147 48 187 148 52 195 147 46 192 147 48 195 147 46 195 147 46 195 147 46 212 145 32 192 147 48 195 147 46 195 147 46 192 147 48 192 147 48 192 147 48 187 148 52 195 147 46 192 147 48 195 147 46 192 147 48 192 147 48 192 147 48 192 147 48 195 147 46 192 147 48 192 147 48 187 148 52 195 147 46 187 148 52 195 147 46 195 147 46 195 147 46 195 147 46 215 144 30 215 144 30 212 145 32 212 145 32 195 147 46 44 222 202 5 250 248 5 250 248 5 250 248 5 250 248 5 250 248 8 248 244 8 248 244 5 250 248 5 250 248 5 250 248 5 250 248 5 250 248 8 248 244 
5 250 248 8 248 244 5 250 248 8 248 244 8 248 244 5 250 248 5 250 248 8 248 244 5 250 248 5 250 248 5 250 248 5 250 248 5 250 248 14 244 237 58 212 185 88 190 150 88 190 150 85 192 153 88 190 150 85 192 153 88 190 150 88 190 150 85 192 153 85 192 153 88 190 150 91 188 146 88 190 150 91 188 146 88 190 150 88 190 150 88 190 150 91 188 146 91 188 146 91 188 146 91 188 146 91 188 146 88 190 150 91 188 146 88 190 150 88 190 150 88 190 150 88 190 150 85 192 153 85 192 153 88 190 150 88 190 150 88 190 150 88 190 150 85 192 153 85 192 153 85 192 153 85 192 153 85 192 153 88 190 150 88 190 150 88 190 150 88 190 150 88 190 150 88 190 150 85 192 153 88 190 150 88 190 150 88 190 150 88 190 150 91 188 146 88 190 150 88 190 150 85 192 153 85 192 153 85 192 153 82 194 157 85 192 153 85 192 153 85 192 153 88 190 150 85 192 153 88 190 150 88 190 150 91 188 146 85 192 153 88 190 150 85 192 153 88 190 150 91 188 146 88 190 150 88 190 150 88 190 150 88 190 150 88 190 150 88 190 150 88 190 150 88 190 150 85 192 153 88 190 150 88 190 150 91 188 146 91 188 146 88 190 150 88 190 150 91 188 146 91 188 146 91 188 146 93 186 143 96 184 139 91 188 146 93 186 143 93 186 143 93 186 143 32 231 216 8 248 244 8 248 244 46 220 199 170 150 65 165 150 69 170 150 65 172 149 63 170 150 65 172 149 63 172 149 63 172 149 63 172 149 63 182 148 56 170 150 65 172 149 63 182 148 56 187 148 52 187 148 52 182 148 56 187 148 52 182 148 56 182 148 56 172 149 63 182 148 56 182 148 56 182 148 56 172 149 63 182 148 56 182 148 56 182 148 56 182 148 56 172 149 63 187 148 52 182 148 56 187 148 52 187 148 52 182 148 56 187 148 52 182 148 56 187 148 52 187 148 52 192 147 48 192 147 48 192 147 48 192 147 48 195 147 46 195 147 46 195 147 46 195 147 46 195 147 46 195 147 46 195 147 46 195 147 46 195 147 46 192 147 48 195 147 46 192 147 48 192 147 48 195 147 46 192 147 48 192 147 48 195 147 46 212 145 32 195 147 46 195 147 46 195 147 46 195 147 46 192 147 48 195 147 46 195 147 46 192 147 48 195 147 46 195 147 46 195 147 46 192 147 48 195 147 46 192 147 48 192 147 48 192 147 48 195 147 46 195 147 46 195 147 46 195 147 46 192 147 48 192 147 48 192 147 48 195 147 46 195 147 46 212 145 32 212 145 32 212 145 32 195 147 46 195 147 46 215 144 30 212 145 32 215 144 30 102 179 132 14 244 237 5 250 248 5 250 248 5 250 248 8 248 244 8 248 244 8 248 244 5 250 248 5 250 248 5 250 248 5 250 248 5 250 248 5 250 248 8 248 244 
5 250 248 8 248 244 5 250 248 8 248 244 8 248 244 5 250 248 5 250 248 8 248 244 5 250 248 5 250 248 5 250 248 5 250 248 5 250 248 14 244 237 58 212 185 88 190 150 88 190 150 85 192 153 88 190 150 85 192 153 88 190 150 88 190 150 85 192 153 85 192 153 88 190 150 91 188 146 88 190 150 91 188 146 88 190 150 88 190 150 88 190 150 91 188 146 91 188 146 91 188 146 91 188 146 91 188 146 88 190 150 91 188 146 88 190 150 88 190 150 88 190 150 88 190 150 85 192 153 85 192 153 88 190 150 88 190 150 88 190 150 88 190 150 85 192 153 85 192 153 85 192 153 85 192 153 85 192 153 88 190 150 88 190 150 88 190 150 88 190 150 88 190 150 88 190 150 85 192 153 88 190 150 88 190 150 88 190 150 88 190 150 91 188 146 88 190 150 88 190 150 85 192 153 85 192 153 85 192 153 82 194 157 85 192 153 85 192 153 85 192 153 88 190 150 85 192 153 88 190 150 88 190 150 91 188 146 85 192 153 88 190 150 85 192 153 88 190 150 91 188 146 88 190 150 88 190 150 88 190 150 88 190 150 88 190 150 88 190 150 88 190 150 88 190 150 85 192 153 88 190 150 88 190 150 91 188 146 91 188 146 88 190 150 88 190 150 91 188 146 91 188 146 91 188 146 93 186 143 96 184 139 91 188 146 93 186 143 93 186 143 93 186 143 32 231 216 8 248 244 8 248 244 46 220 199 170 150 65 165 150 69 170 150 65 172 149 63 170 150 65 172 149 63 172 149 63 172 149 63 172 149 63 182 148 56 170 150 65 172 149 63 182 148 56 187 148 52 187 148 52 182 148 56 187 148 52 182 148 56 182 148 56 172 149 63 182 148 56 182 148 56 182 148 56 172 149 63 182 148 56 182 148 56 182 148 56 182 148 56 172 149 63 187 148 52 182 148 56 187 148 52 187 148 52 182 148 56 187 148 52 182 148 56 187 148 52 187 148 52 192 147 48 192 147 48 192 147 48 192 147 48 195 147 46 195 147 46 195 147 46 195 147 46 195 147 46 195 147 46 195 147 46 195 147 46 195 147 46 192 147 48 195 147 46 192 147 48 192 147 48 195 147 46 192 147 48 192 147 48 195 147 46 212 145 32 195 147 46 195 147 46 195 147 46 195 147 46 192 147 48 195 147 46 195 147 46 192 147 48 195 147 46 195 147 46 195 147 46 192 147 48 195 147 46 192 147 48 192 147 48 192 147 48 195 147 46 195 147 46 195 147 46 195 147 46 192 147 48 192 147 48 192 147 48 195 147 46 195 147 46 212 145 32 212 145 32 212 145 32 195 147 46 195 147 46 215 144 30 212 145 32 215 144 30 102 179 132 14 244 237 5 250 248 5 250 248 5 250 248 8 248 244 8 248 244 8 248 244 5 250 248 5 250 248 5 250 248 5 250 248 5 250 248 5 250 248 8 248 244 
5 250 248 5 250 248 5 250 248 8 248 244 8 248 244 5 250 248 5 250 248 8 248 244 5 250 248 5 250 248 8 248 244 5 250 248 5 250 248 5 250 248 38 227 209 88 190 150 85 192 153 85 192 153 88 190 150 85 192 153 85 192 153 85 192 153 88 190 150 85 192 153 91 188 146 88 190 150 88 190 150 88 190 150 88 190 150 88 190 150 85 192 153 88 190 150 91 188 146 91 188 146 91 188 146 88 190 150 91 188 146 88 190 150 88 190 150 91 188 146 88 190 150 88 190 150 88 190 150 91 188 146 85 192 153 88 190 150 88 190 150 88 190 150 85 192 153 85 192 153 85 192 153 88 190 150 85 192 153 88 190 150 85 192 153 91 188 146 88 190 150 85 192 153 85 192 153 88 190 150 88 190 150 88 190 150 88 190 150 88 190 150 88 190 150 88 190 150 85 192 153 88 190 150 85 192 153 85 192 153 85 192 153 85 192 153 85 192 153 82 194 157 85 192 153 88 190 150 85 192 153 88 190 150 88 190 150 82 194 157 85 192 153 88 190 150 88 190 150 91 188 146 88 190 150 88 190 150 88 190 150 88 190 150 88 190 150 85 192 153 91 188 146 88 190 150 91 188 146 91 188 146 91 188 146 91 188 146 88 190 150 88 190 150 85 192 153 88 190 150 91 188 146 91 188 146 91 188 146 91 188 146 93 186 143 91 188 146 93 186 143 93 186 143 32 231 216 8 248 244 8 248 244 46 220 199 170 150 65 170 150 65 170 150 65 165 150 69 170 150 65 170 150 65 172 149 63 172 149 63 182 148 56 182 148 56 187 148 52 182 148 56 182 148 56 182 148 56 187 148 52 172 149 63 172 149 63 187 148 52 187 148 52 187 148 52 182 148 56 187 148 52 182 148 56 187 148 52 182 148 56 182 148 56 182 148 56 172 149 63 187 148 52 182 148 56 182 148 56 172 149 63 172 149 63 172 149 63 182 148 56 182 148 56 182 148 56 182 148 56 187 148 52 187 148 52 182 148 56 187 148 52 192 147 48 187 148 52 192 147 48 192 147 48 192 147 48 195 147 46 195 147 46 195 147 46 195 147 46 212 145 32 192 147 48 195 147 46 212 145 32 192 147 48 192 147 48 192 147 48 192 147 48 195 147 46 195 147 46 212 145 32 212 145 32 212 145 32 212 145 32 195 147 46 195 147 46 212 145 32 195 147 46 195 147 46 195 147 46 195 147 46 195 147 46 192 147 48 195 147 46 195 147 46 195 147 46 212 145 32 195 147 46 212 145 32 195 147 46 192 147 48 195 147 46 195 147 46 195 147 46 192 147 48 195 147 46 195 147 46 195 147 46 195 147 46 212 145 32 212 145 32 212 145 32 70 203 171 8 248 244 5 250 248 5 250 248 5 250 248 8 248 244 5 250 248 8 248 244 5 250 248 5 250 248 5 250 248 5 250 248 5 250 248 8 248 244 8 248 244 
5 250 248 5 250 248 5 250 248 8 248 244 8 248 244 5 250 248 5 250 248 8 248 244 5 250 248 5 250 248 8 248 244 5 250 248 5 250 248 5 250 248 38 227 209 88 190 150 85 192 153 85 192 153 88 190 150 85 192 153 85 192 153 85 192 153 88 190 150 85 192 153 91 188 146 88 190 150 88 190 150 88 190 150 88 190 150 88 190 150 85 192 153 88 190 150 91 188 146 91 188 146 91 188 146 88 190 150 91 188 146 88 190 150 88 190 150 91 188 146 88 190 150 88 190 150 88 190 150 91 188 146 85 192 153 88 190 150 88 190 150 88 190 150 85 192 153 85 192 153 85 192 153 88 190 150 85 192 153 88 190 150 85 192 153 91 188 146 88 190 150 85 192 153 85 192 153 88 190 150 88 190 150 88 190 150 88 190 150 88 190 150 88 190 150 88 190 150 85 192 153 88 190 150 85 192 153 85 192 153 85 192 153 85 192 153 85 192 153 82 194 157 85 192 153 88 190 150 85 192 153 88 190 150 88 190 150 82 194 157 85 192 153 88 190 150 88 190 150 91 188 146 88 190 150 88 190 150 88 190 150 88 190 150 88 190 150 85 192 153 91 188 146 88 190 150 91 188 146 91 188 146 91 188 146 91 188 146 88 190 150 88 190 150 85 192 153 88 190 150 91 188 146 91 188 146 91 188 146 91 188 146 93 186 143 91 188 146 93 186 143 93 186 143 32 231 216 8 248 244 8 248 244 46 220 199 170 150 65 170 150 65 170 150 65 165 150 69 170 150 65 170 150 65 172 149 63 172 149 63 182 148 56 182 148 56 187 148 52 182 148 56 182 148 56 182 148 56 187 148 52 172 149 63 172 149 63 187 148 52 187 148 52 187 148 52 182 148 56 187 148 52 182 148 56 187 148 52 182 148 56 182 148 56 182 148 56 172 149 63 187 148 52 182 148 56 182 148 56 172 149 63 172 149 63 172 149 63 182 148 56 182 148 56 182 148 56 182 148 56 187 148 52 187 148 52 182 148 56 187 148 52 192 147 48 187 148 52 192 147 48 192 147 48 192 147 48 195 147 46 195 147 46 195 147 46 195 147 46 212 145 32 192 147 48 195 147 46 212 145 32 192 147 48 192 147 48 192 147 48 192 147 48 195 147 46 195 147 46 212 145 32 212 145 32 212 145 32 212 145 32 195 147 46 195 147 46 212 145 32 195 147 46 195 147 46 195 147 46 195 147 46 195 147 46 192 147 48 195 147 46 195 147 46 195 147 46 212 145 32 195 147 46 212 145 32 195 147 46 192 147 48 195 147 46 195 147 46 195 147 46 192 147 48 195 147 46 195 147 46 195 147 46 195 147 46 212 145 32 212 145 32 212 145 32 70 203 171 8 248 244 5 250 248 5 250 248 5 250 248 8 248 244 5 250 248 8 248 244 5 250 248 5 250 248 5 250 248 5 250 248 5 250 248 8 248 244 8 248 244 
5 250 248 5 250 248 5 250 248 8 248 244 8 248 244 8 248 244 8 248 244 5 250 248 5 250 248 5 250 248 5 250 248 5 250 248 5 250 248 5 250 248 17 242 234 61 209 181 85 192 153 85 192 153 88 190 150 85 192 153 85 192 153 85 192 153 88 190 150 88 190 150 88 190 150 88 190 150 85 192 153 88 190 150 88 190 150 85 192 153 85 192 153 85 192 153 91 188 146 91 188 146 88 190 150 88 190 150 85 192 153 88 190 150 88 190 150 88 190 150 88 190 150 85 192 153 88 190 150 88 190 150 88 190 150 85 192 153 88 190 150 88 190 150 91 188 146 85 192 153 91 188 146 88 190 150 88 190 150 88 190 150 85 192 153 85 192 153 88 190 150 88 190 150 88 190 150 88 190 150 88 190 150 88 190 150 88 190 150 88 190 150 88 190 150 85 192 153 88 190 150 88 190 150 85 192 153 85 192 153 85 192 153 85 192 153 85 192 153 85 192 153 88 190 150 85 192 153 85 192 153 85 192 153 88 190 150 88 190 150 91 188 146 88 190 150 88 190 150 88 190 150 88 190 150 91 188 146 88 190 150 88 190 150 88 190 150 91 188 146 88 190 150 91 188 146 88 190 150 91 188 146 88 190 150 88 190 150 85 192 153 88 190 150 88 190 150 91 188 146 91 188 146 93 186 143 96 184 139 91 188 146 93 186 143 96 184 139 99 181 136 96 184 139 26 235 223 8 248 244 5 250 248 46 220 199 172 149 63 170 150 65 170 150 65 170 150 65 165 150 69 172 149 63 172 149 63 182 148 56 182 148 56 182 148 56 172 149 63 172 149 63 182 148 56 187 148 52 187 148 52 187 148 52 182 148 56 182 148 56 187 148 52 187 148 52 187 148 52 187 148 52 192 147 48 182 148 56 182 148 56 172 149 63 182 148 56 182 148 56 172 149 63 172 149 63 170 150 65 172 149 63 182 148 56 170 150 65 172 149 63 172 149 63 192 147 48 172 149 63 172 149 63 187 148 52 192 147 48 187 148 52 187 148 52 192 147 48 192 147 48 187 148 52 192 147 48 195 147 46 212 145 32 195 147 46 187 148 52 192 147 48 192 147 48 192 147 48 195 147 46 192 147 48 195 147 46 192 147 48 195 147 46 192 147 48 212 145 32 212 145 32 212 145 32 212 145 32 195 147 46 195 147 46 195 147 46 195 147 46 195 147 46 195 147 46 212 145 32 192 147 48 195 147 46 195 147 46 195 147 46 212 145 32 195 147 46 212 145 32 212 145 32 212 145 32 212 145 32 195 147 46 212 145 32 195 147 46 195 147 46 212 145 32 195 147 46 212 145 32 212 145 32 195 147 46 195 147 46 195 147 46 129 160 101 26 235 223 5 250 248 8 248 244 8 248 244 8 248 244 8 248 244 5 250 248 5 250 248 5 250 248 5 250 248 5 250 248 5 250 248 5 250 248 8 248 244 5 250 248 
5 250 248 5 250 248 5 250 248 8 248 244 8 248 244 8 248 244 8 248 244 5 250 248 5 250 248 5 250 248 5 250 248 5 250 248 5 250 248 5 250 248 17 242 234 61 209 181 85 192 153 85 192 153 88 190 150 85 192 153 85 192 153 85 192 153 88 190 150 88 190 150 88 190 150 88 190 150 85 192 153 88 190 150 88 190 150 85 192 153 85 192 153 85 192 153 91 188 146 91 188 146 88 190 150 88 190 150 85 192 153 88 190 150 88 190 150 88 190 150 88 190 150 85 192 153 88 190 150 88 190 150 88 190 150 85 192 153 88 190 150 88 190 150 91 188 146 85 192 153 91 188 146 88 190 150 88 190 150 88 190 150 85 192 153 85 192 153 88 190 150 88 190 150 88 190 150 88 190 150 88 190 150 88 190 150 88 190 150 88 190 150 88 190 150 85 192 153 88 190 150 88 190 150 85 192 153 85 192 153 85 192 153 85 192 153 85 192 153 85 192 153 88 190 150 85 192 153 85 192 153 85 192 153 88 190 150 88 190 150 91 188 146 88 190 150 88 190 150 88 190 150 88 190 150 91 188 146 88 190 150 88 190 150 88 190 150 91 188 146 88 190 150 91 188 146 88 190 150 91 188 146 88 190 150 88 190 150 85 192 153 88 190 150 88 190 150 91 188 146 91 188 146 93 186 143 96 184 139 91 188 146 93 186 143 96 184 139 99 181 136 96 184 139 26 235 223 8 248 244 5 250 248 46 220 199 172 149 63 170 150 65 170 150 65 170 150 65 165 150 69 172 149 63 172 149 63 182 148 56 182 148 56 182 148 56 172 149 63 172 149 63 182 148 56 187 148 52 187 148 52 187 148 52 182 148 56 182 148 56 187 148 52 187 148 52 187 148 52 187 148 52 192 147 48 182 148 56 182 148 56 172 149 63 182 148 56 182 148 56 172 149 63 172 149 63 170 150 65 172 149 63 182 148 56 170 150 65 172 149 63 172 149 63 192 147 48 172 149 63 172 149 63 187 148 52 192 147 48 187 148 52 187 148 52 192 147 48 192 147 48 187 148 52 192 147 48 195 147 46 212 145 32 195 147 46 187 148 52 192 147 48 192 147 48 192 147 48 195 147 46 192 147 48 195 147 46 192 147 48 195 147 46 192 147 48 212 145 32 212 145 32 212 145 32 212 145 32 195 147 46 195 147 46 195 147 46 195 147 46 195 147 46 195 147 46 212 145 32 192 147 48 195 147 46 195 147 46 195 147 46 212 145 32 195 147 46 212 145 32 212 145 32 212 145 32 212 145 32 195 147 46 212 145 32 195 147 46 195 147 46 212 145 32 195 147 46 212 145 32 212 145 32 195 147 46 195 147 46 195 147 46 129 160 101 26 235 223 5 250 248 8 248 244 8 248 244 8 248 244 8 248 244 5 250 248 5 250 248 5 250 248 5 250 248 5 250 248 5 250 248 5 250 248 8 248 244 5 250 248 
5 250 248 5 250 248 8 248 244 8 248 244 5 250 248 5 250 248 5 250 248 5 250 248 5 250 248 5 250 248 5 250 248 5 250 248 5 250 248 5 250 248 5 250 248 46 220 199 85 192 153 85 192 153 91 188 146 91 188 146 88 190 150 85 192 153 88 190 150 88 190 150 88 190 150 88 190 150 88 190 150 85 192 153 88 190 150 85 192 153 88 190 150 91 188 146 85 192 153 88 190 150 88 190 150 91 188 146 91 188 146 88 190 150 88 190 150 91 188 146 91 188 146 91 188 146 88 190 150 85 192 153 85 192 153 85 192 153 85 192 153 88 190 150 88 190 150 85 192 153 88 190 150 88 190 150 88 190 150 85 192 153 85 192 153 85 192 153 85 192 153 82 194 157 85 192 153 85 192 153 85 192 153 85 192 153 85 192 153 88 190 150 85 192 153 85 192 153 91 188 146 85 192 153 88 190 150 85 192 153 85 192 153 88 190 150 88 190 150 85 192 153 88 190 150 85 192 153 85 192 153 85 192 153 85 192 153 85 192 153 91 188 146 88 190 150 91 188 146 88 190 150 88 190 150 88 190 150 88 190 150 85 192 153 85 192 153 88 190 150 91 188 146 85 192 153 91 188 146 91 188 146 91 188 146 91 188 146 91 188 146 91 188 146 91 188 146 88 190 150 91 188 146 91 188 146 91 188 146 91 188 146 88 190 150 93 186 143 96 184 139 96 184 139 32 231 216 5 250 248 5 250 248 46 220 199 182 148 56 170 150 65 165 150 69 172 149 63 172 149 63 172 149 63 170 150 65 182 148 56 182 148 56 182 148 56 182 148 56 172 149 63 170 150 65 187 148 52 172 149 63 182 148 56 182 148 56 187 148 52 182 148 56 182 148 56 187 148 52 187 148 52 187 148 52 170 150 65 187 148 52 182 148 56 182 148 56 172 149 63 182 148 56 172 149 63 182 148 56 182 148 56 187 148 52 182 148 56 182 148 56 192 147 48 187 148 52 187 148 52 192 147 48 187 148 52 182 148 56 192 147 48 187 148 52 192 147 48 192 147 48 192 147 48 195 147 46 192 147 48 192 147 48 192 147 48 187 148 52 187 148 52 192 147 48 192 147 48 195 147 46 212 145 32 195 147 46 215 144 30 212 145 32 215 144 30 195 147 46 212 145 32 195 147 46 195 147 46 212 145 32 195 147 46 192 147 48 212 145 32 212 145 32 195 147 46 195 147 46 195 147 46 212 145 32 212 145 32 212 145 32 195 147 46 195 147 46 215 144 30 212 145 32 215 144 30 212 145 32 195 147 46 195 147 46 195 147 46 195 147 46 195 147 46 195 147 46 195 147 46 212 145 32 195 147 46 212 145 32 212 145 32 99 181 136 8 248 244 5 250 248 8 248 244 5 250 248 8 248 244 8 248 244 8 248 244 5 250 248 8 248 244 5 250 248 8 248 244 5 250 248 5 250 248 5 250 248 5 250 248 
5 250 248 5 250 248 8 248 244 8 248 244 5 250 248 5 250 248 5 250 248 5 250 248 5 250 248 5 250 248 5 250 248 5 250 248 5 250 248 5 250 248 5 250 248 46 220 199 85 192 153 85 192 153 91 188 146 91 188 146 88 190 150 85 192 153 88 190 150 88 190 150 88 190 150 88 190 150 88 190 150 85 192 153 88 190 150 85 192 153 88 190 150 91 188 146 85 192 153 88 190 150 88 190 150 91 188 146 91 188 146 88 190 150 88 190 150 91 188 146 91 188 146 91 188 146 88 190 150 85 192 153 85 192 153 85 192 153 85 192 153 88 190 150 88 190 150 85 192 153 88 190 150 88 190 150 88 190 150 85 192 153 85 192 153 85 192 153 85 192 153 82 194 157 85 192 153 85 192 153 85 192 153 85 192 153 85 192 153 88 190 150 85 192 153 85 192 153 91 188 146 85 192 153 88 190 150 85 192 153 85 192 153 88 190 150 88 190 150 85 192 153 88 190 150 85 192 153 85 192 153 85 192 153 85 192 153 85 192 153 91 188 146 88 190 150 91 188 146 88 190 150 88 190 150 88 190 150 88 190 150 85 192 153 85 192 153 88 190 150 91 188 146 85 192 153 91 188 146 91 188 146 91 188 146 91 188 146 91 188 146 91 188 146 91 188 146 88 190 150 91 188 146 91 188 146 91 188 146 91 188 146 88 190 150 93 186 143 96 184 139 96 184 139 32 231 216 5 250 248 5 250 248 46 220 199 182 148 56 170 150 65 165 150 69 172 149 63 172 149 63 172 149 63 170 150 65 182 148 56 182 148 56 182 148 56 182 148 56 172 149 63 170 150 65 187 148 52 172 149 63 182 148 56 182 148 56 187 148 52 182 148 56 182 148 56 187 148 52 187 148 52 187 148 52 170 150 65 187 148 52 182 148 56 182 148 56 172 149 63 182 148 56 172 149 63 182 148 56 182 148 56 187 148 52 182 148 56 182 148 56 192 147 48 187 148 52 187 148 52 192 147 48 187 148 52 182 148 56 192 147 48 187 148 52 192 147 48 192 147 48 192 147 48 195 147 46 192 147 48 192 147 48 192 147 48 187 148 52 187 148 52 192 147 48 192 147 48 195 147 46 212 145 32 195 147 46 215 144 30 212 145 32 215 144 30 195 147 46 212 145 32 195 147 46 195 147 46 212 145 32 195 147 46 192 147 48 212 145 32 212 145 32 195 147 46 195 147 46 195 147 46 212 145 32 212 145 32 212 145 32 195 147 46 195 147 46 215 144 30 212 145 32 215 144 30 212 145 32 195 147 46 195 147 46 195 147 46 195 147 46 195 147 46 195 147 46 195 147 46 212 145 32 195 147 46 212 145 32 212 145 32 99 181 136 8 248 244 5 250 248 8 248 244 5 250 248 8 248 244 8 248 244 8 248 244 5 250 248 8 248 244 5 250 248 8 248 244 5 250 248 5 250 248 5 250 248 5 250 248 
5 250 248 5 250 248 5 250 248 5 250 248 5 250 248 5 250 248 5 250 248 5 250 248 5 250 248 5 250 248 5 250 248 5 250 248 8 248 244 5 250 248 5 250 248 8 248 244 61 209 181 88 190 150 91 188 146 91 188 146 91 188 146 88 190 150 85 192 153 88 190 150 91 188 146 85 192 153 85 192 153 88 190 150 88 190 150 85 192 153 85 192 153 91 188 146 85 192 153 88 190 150 88 190 150 91 188 146 88 190 150 88 190 150 88 190 150 88 190 150 88 190 150 88 190 150 88 190 150 88 190 150 88 190 150 88 190 150 88 190 150 91 188 146 82 194 157 85 192 153 85 192 153 88 190 150 85 192 153 88 190 150 82 194 157 88 190 150 82 194 157 82 194 157 82 194 157 82 194 157 82 194 157 85 192 153 85 192 153 85 192 153 85 192 153 82 194 157 85 192 153 82 194 157 88 190 150 88 190 150 85 192 153 85 192 153 88 190 150 85 192 153 85 192 153 85 192 153 85 192 153 85 192 153 88 190 150 88 190 150 88 190 150 88 190 150 88 190 150 88 190 150 85 192 153 85 192 153 85 192 153 88 190 150 88 190 150 88 190 150 85 192 153 85 192 153 85 192 153 88 190 150 88 190 150 91 188 146 88 190 150 93 186 143 91 188 146 93 186 143 91 188 146 91 188 146 91 188 146 93 186 143 93 186 143 93 186 143 91 188 146 93 186 143 26 235 223 8 248 244 8 248 244 46 220 199 165 150 69 165 150 69 172 149 63 170 150 65 172 149 63 170 150 65 182 148 56 172 149 63 170 150 65 170 150 65 182 148 56 172 149 63 187 148 52 182 148 56 182 148 56 172 149 63 182 148 56 192 147 48 182 148 56 182 148 56 182 148 56 182 148 56 170 150 65 187 148 52 187 148 52 187 148 52 182 148 56 182 148 56 172 149 63 172 149 63 182 148 56 182 148 56 182 148 56 182 148 56 187 148 52 182 148 56 182 148 56 187 148 52 192 147 48 192 147 48 187 148 52 192 147 48 187 148 52 182 148 56 187 148 52 192 147 48 195 147 46 195 147 46 187 148 52 192 147 48 195 147 46 187 148 52 195 147 46 212 145 32 212 145 32 195 147 46 195 147 46 195 147 46 195 147 46 195 147 46 212 145 32 192 147 48 192 147 48 212 145 32 195 147 46 195 147 46 192 147 48 212 145 32 192 147 48 187 148 52 195 147 46 195 147 46 212 145 32 195 147 46 195 147 46 195 147 46 195 147 46 195 147 46 212 145 32 215 144 30 212 145 32 195 147 46 212 145 32 212 145 32 212 145 32 192 147 48 195 147 46 215 144 30 212 145 32 212 145 32 215 144 30 135 156 94 8 248 244 5 250 248 5 250 248 8 248 244 8 248 244 8 248 244 5 250 248 5 250 248 8 248 244 5 250 248 8 248 244 5 250 248 5 250 248 5 250 248 5 250 248 8 248 244 
5 250 248 5 250 248 5 250 248 5 250 248 5 250 248 5 250 248 5 250 248 5 250 248 5 250 248 5 250 248 5 250 248 5 250 248 8 248 244 5 250 248 5 250 248 8 248 244 61 209 181 88 190 150 91 188 146 91 188 146 91 188 146 88 190 150 85 192 153 88 190 150 91 188 146 85 192 153 85 192 153 88 190 150 88 190 150 85 192 153 85 192 153 91 188 146 85 192 153 88 190 150 88 190 150 91 188 146 88 190 150 88 190 150 88 190 150 88 190 150 88 190 150 88 190 150 88 190 150 88 190 150 88 190 150 88 190 150 88 190 150 91 188 146 82 194 157 85 192 153 85 192 153 88 190 150 85 192 153 88 190 150 82 194 157 88 190 150 82 194 157 82 194 157 82 194 157 82 194 157 82 194 157 85 192 153 85 192 153 85 192 153 85 192 153 82 194 157 85 192 153 82 194 157 88 190 150 88 190 150 85 192 153 85 192 153 88 190 150 85 192 153 85 192 153 85 192 153 85 192 153 85 192 153 88 190 150 88 190 150 88 190 150 88 190 150 88 190 150 88 190 150 85 192 153 85 192 153 85 192 153 88 190 150 88 190 150 88 190 150 85 192 153 85 192 153 85 192 153 88 190 150 88 190 150 91 188 146 88 190 150 93 186 143 91 188 146 93 186 143 91 188 146 91 188 146 91 188 146 93 186 143 93 186 143 93 186 143 91 188 146 93 186 143 26 235 223 8 248 244 8 248 244 46 220 199 165 150 69 165 150 69 172 149 63 170 150 65 172 149 63 170 150 65 182 148 56 172 149 63 170 150 65 170 150 65 182 148 56 172 149 63 187 148 52 182 148 56 182 148 56 172 149 63 182 148 56 192 147 48 182 148 56 182 148 56 182 148 56 182 148 56 170 150 65 187 148 52 187 148 52 187 148 52 182 148 56 182 148 56 172 149 63 172 149 63 182 148 56 182 148 56 182 148 56 182 148 56 187 148 52 182 148 56 182 148 56 187 148 52 192 147 48 192 147 48 187 148 52 192 147 48 187 148 52 182 148 56 187 148 52 192 147 48 195 147 46 195 147 46 187 148 52 192 147 48 195 147 46 187 148 52 195 147 46 212 145 32 212 145 32 195 147 46 195 147 46 195 147 46 195 147 46 195 147 46 212 145 32 192 147 48 192 147 48 212 145 32 195 147 46 195 147 46 192 147 48 212 145 32 192 147 48 187 148 52 195 147 46 195 147 46 212 145 32 195 147 46 195 147 46 195 147 46 195 147 46 195 147 46 212 145 32 215 144 30 212 145 32 195 147 46 212 145 32 212 145 32 212 145 32 192 147 48 195 147 46 215 144 30 212 145 32 212 145 32 215 144 30 135 156 94 8 248 244 5 250 248 5 250 248 8 248 244 8 248 244 8 248 244 5 250 248 5 250 248 8 248 244 5 250 248 8 248 244 5 250 248 5 250 248 5 250 248 5 250 248 8 248 244 
5 250 248 5 250 248 5 250 248 5 250 248 5 250 248 5 250 248 5 250 248 5 250 248 5 250 248 5 250 248 5 250 248 5 250 248 5 250 248 5 250 248 5 250 248 5 250 248 41 224 206 85 192 153 85 192 153 85 192 153 88 190 150 88 190 150 88 190 150 91 188 146 88 190 150 85 192 153 85 192 153 85 192 153 88 190 150 82 194 157 85 192 153 85 192 153 82 194 157 85 192 153 91 188 146 88 190 150 88 190 150 85 192 153 88 190 150 85 192 153 88 190 150 85 192 153 88 190 150 82 194 157 85 192 153 85 192 153 88 190 150 85 192 153 85 192 153 85 192 153 85 192 153 85 192 153 85 192 153 85 192 153 85 192 153 88 190 150 82 194 157 85 192 153 82 194 157 85 192 153 85 192 153 82 194 157 85 192 153 85 192 153 85 192 153 88 190 150 85 192 153 88 190 150 85 192 153 85 192 153 85 192 153 82 194 157 85 192 153 82 194 157 85 192 153 88 190 150 88 190 150 88 190 150 85 192 153 91 188 146 88 190 150 85 192 153 88 190 150 88 190 150 88 190 150 91 188 146 82 194 157 88 190 150 88 190 150 88 190 150 88 190 150 88 190 150 88 190 150 91 188 146 91 188 146 91 188 146 91 188 146 93 186 143 88 190 150 91 188 146 88 190 150 91 188 146 91 188 146 91 188 146 93 186 143 93 186 143 93 186 143 93 186 143 26 235 223 5 250 248 5 250 248 46 220 199 170 150 65 165 150 69 170 150 65 165 150 69 172 149 63 182 148 56 165 150 69 172 149 63 170 150 65 172 149 63 170 150 65 182 148 56 182 148 56 172 149 63 170 150 65 170 150 65 172 149 63 172 149 63 182 148 56 182 148 56 172 149 63 187 148 52 170 150 65 182 148 56 172 149 63 172 149 63 182 148 56 182 148 56 170 150 65 172 149 63 172 149 63 172 149 63 172 149 63 187 148 52 192 147 48 192 147 48 187 148 52 187 148 52 187 148 52 192 147 48 182 148 56 182 148 56 182 148 56 182 148 56 192 147 48 187 148 52 192 147 48 182 148 56 192 147 48 192 147 48 192 147 48 192 147 48 195 147 46 212 145 32 212 145 32 195 147 46 195 147 46 195 147 46 192 147 48 212 145 32 212 145 32 195 147 46 195 147 46 195 147 46 192 147 48 195 147 46 212 145 32 212 145 32 195 147 46 195 147 46 192 147 48 212 145 32 195 147 46 195 147 46 212 145 32 195 147 46 212 145 32 212 145 32 195 147 46 212 145 32 212 145 32 212 145 32 195 147 46 212 145 32 212 145 32 212 145 32 212 145 32 212 145 32 212 145 32 212 145 32 192 147 48 91 188 146 5 250 248 5 250 248 8 248 244 5 250 248 5 250 248 5 250 248 5 250 248 5 250 248 5 250 248 8 248 244 8 248 244 5 250 248 5 250 248 5 250 248 5 250 248 5 250 248 
5 250 248 5 250 248 5 250 248 5 250 248 5 250 248 5 250 248 5 250 248 5 250 248 5 250 248 5 250 248 5 250 248 5 250 248 5 250 248 5 250 248 5 250 248 5 250 248 41 224 206 85 192 153 85 192 153 85 192 153 88 190 150 88 190 150 88 190 150 91 188 146 88 190 150 85 192 153 85 192 153 85 192 153 88 190 150 82 194 157 85 192 153 85 192 153 82 194 157 85 192 153 91 188 146 88 190 150 88 190 150 85 192 153 88 190 150 85 192 153 88 190 150 85 192 153 88 190 150 82 194 157 85 192 153 85 192 153 88 190 150 85 192 153 85 192 153 85 192 153 85 192 153 85 192 153 85 192 153 85 192 153 85 192 153 88 190 150 82 194 157 85 192 153 82 194 157 85 192 153 85 192 153 82 194 157 85 192 153 85 192 153 85 192 153 88 190 150 85 192 153 88 190 150 85 192 153 85 192 153 85 192 153 82 194 157 85 192 153 82 194 157 85 192 153 88 190 150 88 190 150 88 190 150 85 192 153 91 188 146 88 190 150 85 192 153 88 190 150 88 190 150 88 190 150 91 188 146 82 194 157 88 190 150 88 190 150 88 190 150 88 190 150 88 190 150 88 190 150 91 188 146 91 188 146 91 188 146 91 188 146 93 186 143 88 190 150 91 188 146 88 190 150 91 188 146 91 188 146 91 188 146 93 186 143 93 186 143 93 186 143 93 186 143 26 235 223 5 250 248 5 250 248 46 220 199 170 150 65 165 150 69 170 150 65 165 150 69 172 149 63 182 148 56 165 150 69 172 149 63 170 150 65 172 149 63 170 150 65 182 148 56 182 148 56 172 149 63 170 150 65 170 150 65 172 149 63 172 149 63 182 148 56 182 148 56 172 149 63 187 148 52 170 150 65 182 148 56 172 149 63 172 149 63 182 148 56 182 148 56 170 150 65 172 149 63 172 149 63 172 149 63 172 149 63 187 148 52 192 147 48 192 147 48 187 148 52 187 148 52 187 148 52 192 147 48 182 148 56 182 148 56 182 148 56 182 148 56 192 147 48 187 148 52 192 147 48 182 148 56 192 147 48 192 147 48 192 147 48 192 147 48 195 147 46 212 145 32 212 145 32 195 147 46 195 147 46 195 147 46 192 147 48 212 145 32 212 145 32 195 147 46 195 147 46 195 147 46 192 147 48 195 147 46 212 145 32 212 145 32 195 147 46 195 147 46 192 147 48 212 145 32 195 147 46 195 147 46 212 145 32 195 147 46 212 145 32 212 145 32 195 147 46 212 145 32 212 145 32 212 145 32 195 147 46 212 145 32 212 145 32 212 145 32 212 145 32 212 145 32 212 145 32 212 145 32 192 147 48 91 188 146 5 250 248 5 250 248 8 248 244 5 250 248 5 250 248 5 250 248 5 250 248 5 250 248 5 250 248 8 248 244 8 248 244 5 250 248 5 250 248 5 250 248 5 250 248 5 250 248 
5 250 248 5 250 248 5 250 248 5 250 248 5 250 248 5 250 248 5 250 248 5 250 248 5 250 248 5 250 248 5 250 248 5 250 248 5 250 248 8 248 244 5 250 248 5 250 248 5 250 248 67 205 174 85 192 153 88 190 150 88 190 150 88 190 150 88 190 150 85 192 153 82 194 157 88 190 150 85 192 153 85 192 153 88 190 150 82 194 157 85 192 153 85 192 153 85 192 153 82 194 157 85 192 153 88 190 150 91 188 146 88 190 150 88 190 150 88 190 150 88 190 150 85 192 153 85 192 153 82 194 157 88 190 150 88 190 150 88 190 150 85 192 153 85 192 153 85 192 153 85 192 153 88 190 150 85 192 153 82 194 157 85 192 153 85 192 153 85 192 153 85 192 153 82 194 157 76 199 164 85 192 153 82 194 157 82 194 157 85 192 153 82 194 157 82 194 157 85 192 153 85 192 153 88 190 150 85 192 153 88 190 150 85 192 153 88 190 150 85 192 153 88 190 150 88 190 150 85 192 153 82 194 157 85 192 153 85 192 153 91 188 146 91 188 146 88 190 150 88 190 150 91 188 146 88 190 150 91 188 146 88 190 150 88 190 150 88 190 150 88 190 150 91 188 146 88 190 150 91 188 146 88 190 150 88 190 150 91 188 146 91 188 146 96 184 139 93 186 143 96 184 139 93 186 143 93 186 143 96 184 139 96 184 139 96 184 139 93 186 143 96 184 139 32 231 216 8 248 244 8 248 244 46 220 199 165 150 69 162 151 71 165 150 69 182 148 56 172 149 63 172 149 63 182 148 56 172 149 63 172 149 63 172 149 63 182 148 56 172 149 63 172 149 63 172 149 63 172 149 63 172 149 63 182 148 56 182 148 56 182 148 56 182 148 56 187 148 52 182 148 56 182 148 56 172 149 63 182 148 56 182 148 56 182 148 56 182 148 56 170 150 65 182 148 56 182 148 56 187 148 52 172 149 63 182 148 56 192 147 48 187 148 52 182 148 56 182 148 56 182 148 56 187 148 52 172 149 63 187 148 52 187 148 52 187 148 52 187 148 52 182 148 56 187 148 52 192 147 48 182 148 56 192 147 48 195 147 46 192 147 48 195 147 46 195 147 46 215 144 30 195 147 46 212 145 32 212 145 32 192 147 48 195 147 46 212 145 32 212 145 32 195 147 46 192 147 48 195 147 46 195 147 46 195 147 46 195 147 46 195 147 46 195 147 46 195 147 46 212 145 32 195 147 46 195 147 46 195 147 46 195 147 46 215 144 30 215 144 30 212 145 32 212 145 32 212 145 32 212 145 32 212 145 32 212 145 32 215 144 30 212 145 32 212 145 32 212 145 32 215 144 30 212 145 32 160 151 73 5 250 248 5 250 248 5 250 248 5 250 248 5 250 248 5 250 248 5 250 248 5 250 248 5 250 248 8 248 244 5 250 248 5 250 248 5 250 248 5 250 248 5 250 248 5 250 248 5 250 248 
5 250 248 5 250 248 5 250 248 5 250 248 5 250 248 5 250 248 5 250 248 5 250 248 5 250 248 5 250 248 5 250 248 5 250 248 5 250 248 8 248 244 5 250 248 5 250 248 5 250 248 67 205 174 85 192 153 88 190 150 88 190 150 88 190 150 88 190 150 85 192 153 82 194 157 88 190 150 85 192 153 85 192 153 88 190 150 82 194 157 85 192 153 85 192 153 85 192 153 82 194 157 85 192 153 88 190 150 91 188 146 88 190 150 88 190 150 88 190 150 88 190 150 85 192 153 85 192 153 82 194 157 88 190 150 88 190 150 88 190 150 85 192 153 85 192 153 85 192 153 85 192 153 88 190 150 85 192 153 82 194 157 85 192 153 85 192 153 85 192 153 85 192 153 82 194 157 76 199 164 85 192 153 82 194 157 82 194 157 85 192 153 82 194 157 82 194 157 85 192 153 85 192 153 88 190 150 85 192 153 88 190 150 85 192 153 88 190 150 85 192 153 88 190 150 88 190 150 85 192 153 82 194 157 85 192 153 85 192 153 91 188 146 91 188 146 88 190 150 88 190 150 91 188 146 88 190 150 91 188 146 88 190 150 88 190 150 88 190 150 88 190 150 91 188 146 88 190 150 91 188 146 88 190 150 88 190 150 91 188 146 91 188 146 96 184 139 93 186 143 96 184 139 93 186 143 93 186 143 96 184 139 96 184 139 96 184 139 93 186 143 96 184 139 32 231 216 8 248 244 8 248 244 46 220 199 165 150 69 162 151 71 165 150 69 182 148 56 172 149 63 172 149 63 182 148 56 172 149 63 172 149 63 172 149 63 182 148 56 172 149 63 172 149 63 172 149 63 172 149 63 172 149 63 182 148 56 182 148 56 182 148 56 182 148 56 187 148 52 182 148 56 182 148 56 172 149 63 182 148 56 182 148 56 182 148 56 182 148 56 170 150 65 182 148 56 182 148 56 187 148 52 172 149 63 182 148 56 192 147 48 187 148 52 182 148 56 182 148 56 182 148 56 187 148 52 172 149 63 187 148 52 187 148 52 187 148 52 187 148 52 182 148 56 187 148 52 192 147 48 182 148 56 192 147 48 195 147 46 192 147 48 195 147 46 195 147 46 215 144 30 195 147 46 212 145 32 212 145 32 192 147 48 195 147 46 212 145 32 212 145 32 195 147 46 192 147 48 195 147 46 195 147 46 195 147 46 195 147 46 195 147 46 195 147 46 195 147 46 212 145 32 195 147 46 195 147 46 195 147 46 195 147 46 215 144 30 215 144 30 212 145 32 212 145 32 212 145 32 212 145 32 212 145 32 212 145 32 215 144 30 212 145 32 212 145 32 212 145 32 215 144 30 212 145 32 160 151 73 5 250 248 5 250 248 5 250 248 5 250 248 5 250 248 5 250 248 5 250 248 5 250 248 5 250 248 8 248 244 5 250 248 5 250 248 5 250 248 5 250 248 5 250 248 5 250 248 5 250 248 
5 250 248 5 250 248 5 250 248 5 250 248 5 250 248 5 250 248 5 250 248 5 250 248 5 250 248 5 250 248 5 250 248 5 250 248 5 250 248 8 248 244 5 250 248 5 250 248 5 250 248 5 250 248 85 192 153 82 194 157 85 192 153 85 192 153 85 192 153 88 190 150 85 192 153 85 192 153 85 192 153 88 190 150 88 190 150 88 190 150 82 194 157 88 190 150 91 188 146 91 188 146 91 188 146 91 188 146 88 190 150 88 190 150 85 192 153 88 190 150 88 190 150 88 190 150 85 192 153 82 194 157 85 192 153 82 194 157 85 192 153 85 192 153 85 192 153 85 192 153 85 192 153 85 192 153 85 192 153 85 192 153 88 190 150 82 194 157 85 192 153 82 194 157 85 192 153 85 192 153 85 192 153 85 192 153 85 192 153 82 194 157 82 194 157 82 194 157 85 192 153 82 194 157 88 190 150 88 190 150 85 192 153 88 190 150 88 190 150 85 192 153 88 190 150 88 190 150 85 192 153 85 192 153 82 194 157 88 190 150 88 190 150 85 192 153 85 192 153 85 192 153 85 192 153 88 190 150 88 190 150 91 188 146 88 190 150 88 190 150 88 190 150 93 186 143 93 186 143 93 186 143 91 188 146 93 186 143 93 186 143 96 184 139 96 184 139 93 186 143 93 186 143 93 186 143 93 186 143 91 188 146 93 186 143 93 186 143 93 186 143 93 186 143 32 231 216 8 248 244 8 248 244 46 220 199 170 150 65 172 149 63 165 150 69 170 150 65 170 150 65 172 149 63 172 149 63 172 149 63 172 149 63 170 150 65 172 149 63 170 150 65 172 149 63 172 149 63 172 149 63 182 148 56 170 150 65 182 148 56 182 148 56 187 148 52 187 148 52 187 148 52 187 148 52 187 148 52 182 148 56 182 148 56 182 148 56 182 148 56 182 148 56 182 148 56 170 150 65 182 148 56 172 149 63 182 148 56 172 149 63 182 148 56 170 150 65 182 148 56 182 148 56 182 148 56 182 148 56 182 148 56 187 148 52 187 148 52 192 147 48 187 148 52 187 148 52 187 148 52 192 147 48 192 147 48 192 147 48 187 148 52 195 147 46 195 147 46 192 147 48 195 147 46 195 147 46 195 147 46 195 147 46 195 147 46 212 145 32 195 147 46 192 147 48 195 147 46 195 147 46 195 147 46 212 145 32 195 147 46 192 147 48 195 147 46 195 147 46 212 145 32 195 147 46 212 145 32 212 145 32 215 144 30 212 145 32 212 145 32 195 147 46 215 144 30 215 144 30 215 144 30 212 145 32 217 144 29 215 144 30 212 145 32 212 145 32 212 145 32 212 145 32 215 144 30 14 244 237 5 250 248 5 250 248 5 250 248 5 250 248 8 248 244 5 250 248 8 248 244 8 248 244 8 248 244 8 248 244 5 250 248 8 248 244 5 250 248 5 250 248 5 250 248 5 250 248 5 250 248 
5 250 248 5 250 248 5 250 248 5 250 248 5 250 248 5 250 248 5 250 248 5 250 248 5 250 248 5 250 248 5 250 248 5 250 248 5 250 248 8 248 244 5 250 248 5 250 248 5 250 248 5 250 248 85 192 153 82 194 157 85 192 153 85 192 153 85 192 153 88 190 150 85 192 153 85 192 153 85 192 153 88 190 150 88 190 150 88 190 150 82 194 157 88 190 150 91 188 146 91 188 146 91 188 146 91 188 146 88 190 150 88 190 150 85 192 153 88 190 150 88 190 150 88 190 150 85 192 153 82 194 157 85 192 153 82 194 157 85 192 153 85 192 153 85 192 153 85 192 153 85 192 153 85 192 153 85 192 153 85 192 153 88 190 150 82 194 157 85 192 153 82 194 157 85 192 153 85 192 153 85 192 153 85 192 153 85 192 153 82 194 157 82 194 157 82 194 157 85 192 153 82 194 157 88 190 150 88 190 150 85 192 153 88 190 150 88 190 150 85 192 153 88 190 150 88 190 150 85 192 153 85 192 153 82 194 157 88 190 150 88 190 150 85 192 153 85 192 153 85 192 153 85 192 153 88 190 150 88 190 150 91 188 146 88 190 150 88 190 150 88 190 150 93 186 143 93 186 143 93 186 143 91 188 146 93 186 143 93 186 143 96 184 139 96 184 139 93 186 143 93 186 143 93 186 143 93 186 143 91 188 146 93 186 143 93 186 143 93 186 143 93 186 143 32 231 216 8 248 244 8 248 244 46 220 199 170 150 65 172 149 63 165 150 69 170 150 65 170 150 65 172 149 63 172 149 63 172 149 63 172 149 63 170 150 65 172 149 63 170 150 65 172 149 63 172 149 63 172 149 63 182 148 56 170 150 65 182 148 56 182 148 56 187 148 52 187 148 52 187 148 52 187 148 52 187 148 52 182 148 56 182 148 56 182 148 56 182 148 56 182 148 56 182 148 56 170 150 65 182 148 56 172 149 63 182 148 56 172 149 63 182 148 56 170 150 65 182 148 56 182 148 56 182 148 56 182 148 56 182 148 56 187 148 52 187 148 52 192 147 48 187 148 52 187 148 52 187 148 52 192 147 48 192 147 48 192 147 48 187 148 52 195 147 46 195 147 46 192 147 48 195 147 46 195 147 46 195 147 46 195 147 46 195 147 46 212 145 32 195 147 46 192 147 48 195 147 46 195 147 46 195 147 46 212 145 32 195 147 46 192 147 48 195 147 46 195 147 46 212 145 32 195 147 46 212 145 32 212 145 32 215 144 30 212 145 32 212 145 32 195 147 46 215 144 30 215 144 30 215 144 30 212 145 32 217 144 29 215 144 30 212 145 32 212 145 32 212 145 32 212 145 32 215 144 30 14 244 237 5 250 248 5 250 248 5 250 248 5 250 248 8 248 244 5 250 248 8 248 244 8 248 244 8 248 244 8 248 244 5 250 248 8 248 244 5 250 248 5 250 248 5 250 248 5 250 248 5 250 248 
5 250 248 5 250 248 5 250 248 5 250 248 5 250 248 5 250 248 5 250 248 5 250 248 5 250 248 5 250 248 5 250 248 5 250 248 5 250 248 5 250 248 8 248 244 5 250 248 5 250 248 5 250 248 23 237 227 85 192 153 82 194 157 85 192 153 85 192 153 85 192 153 85 192 153 85 192 153 85 192 153 85 192 153 88 190 150 88 190 150 88 190 150 88 190 150 85 192 153 85 192 153 91 188 146 91 188 146 91 188 146 91 188 146 88 190 150 88 190 150 88 190 150 85 192 153 82 194 157 85 192 153 85 192 153 82 194 157 85 192 153 82 194 157 85 192 153 85 192 153 85 192 153 85 192 153 88 190 150 85 192 153 85 192 153 85 192 153 85 192 153 82 194 157 82 194 157 85 192 153 82 194 157 85 192 153 85 192 153 82 194 157 82 194 157 82 194 157 82 194 157 85 192 153 85 192 153 85 192 153 85 192 153 85 192 153 85 192 153 88 190 150 85 192 153 88 190 150 85 192 153 85 192 153 85 192 153 85 192 153 88 190 150 88 190 150 88 190 150 88 190 150 88 190 150 85 192 153 88 190 150 91 188 146 91 188 146 91 188 146 91 188 146 88 190 150 93 186 143 93 186 143 93 186 143 93 186 143 96 184 139 96 184 139 93 186 143 93 186 143 93 186 143 96 184 139 96 184 139 96 184 139 96 184 139 96 184 139 96 184 139 96 184 139 32 231 216 8 248 244 8 248 244 46 220 199 170 150 65 170 150 65 170 150 65 170 150 65 165 150 69 172 149 63 170 150 65 170 150 65 172 149 63 172 149 63 170 150 65 170 150 65 170 150 65 172 149 63 170 150 65 172 149 63 182 148 56 182 148 56 182 148 56 182 148 56 182 148 56 187 148 52 182 148 56 187 148 52 187 148 52 187 148 52 187 148 52 182 148 56 182 148 56 172 149 63 182 148 56 172 149 63 172 149 63 172 149 63 172 149 63 172 149 63 182 148 56 182 148 56 182 148 56 182 148 56 170 150 65 182 148 56 182 148 56 182 148 56 187 148 52 187 148 52 187 148 52 182 148 56 187 148 52 192 147 48 192 147 48 192 147 48 192 147 48 195 147 46 192 147 48 192 147 48 192 147 48 195 147 46 195 147 46 195 147 46 192 147 48 192 147 48 192 147 48 192 147 48 192 147 48 195 147 46 212 145 32 212 145 32 195 147 46 212 145 32 212 145 32 212 145 32 212 145 32 212 145 32 212 145 32 212 145 32 195 147 46 215 144 30 215 144 30 215 144 30 215 144 30 215 144 30 215 144 30 215 144 30 212 145 32 212 145 32 215 144 30 212 145 32 212 145 32 61 209 181 5 250 248 5 250 248 5 250 248 5 250 248 5 250 248 8 248 244 8 248 244 8 248 244 8 248 244 8 248 244 5 250 248 5 250 248 8 248 244 5 250 248 5 250 248 5 250 248 5 250 248 8 248 244 
5 250 248 5 250 248 5 250 248 5 250 248 5 250 248 5 250 248 5 250 248 5 250 248 5 250 248 5 250 248 5 250 248 5 250 248 5 250 248 5 250 248 8 248 244 5 250 248 5 250 248 5 250 248 23 237 227 85 192 153 82 194 157 85 192 153 85 192 153 85 192 153 85 192 153 85 192 153 85 192 153 85 192 153 88 190 150 88 190 150 88 190 150 88 190 150 85 192 153 85 192 153 91 188 146 91 188 146 91 188 146 91 188 146 88 190 150 88 190 150 88 190 150 85 192 153 82 194 157 85 192 153 85 192 153 82 194 157 85 192 153 82 194 157 85 192 153 85 192 153 85 192 153 85 192 153 88 190 150 85 192 153 85 192 153 85 192 153 85 192 153 82 194 157 82 194 157 85 192 153 82 194 157 85 192 153 85 192 153 82 194 157 82 194 157 82 194 157 82 194 157 85 192 153 85 192 153 85 192 153 85 192 153 85 192 153 85 192 153 88 190 150 85 192 153 88 190 150 85 192 153 85 192 153 85 192 153 85 192 153 88 190 150 88 190 150 88 190 150 88 190 150 88 190 150 85 192 153 88 190 150 91 188 146 91 188 146 91 188 146 91 188 146 88 190 150 93 186 143 93 186 143 93 186 143 93 186 143 96 184 139 96 184 139 93 186 143 93 186 143 93 186 143 96 184 139 96 184 139 96 184 139 96 184 139 96 184 139 96 184 139 96 184 139 32 231 216 8 248 244 8 248 244 46 220 199 170 150 65 170 150 65 170 150 65 170 150 65 165 150 69 172 149 63 170 150 65 170 150 65 172 149 63 172 149 63 170 150 65 170 150 65 170 150 65 172 149 63 170 150 65 172 149 63 182 148 56 182 148 56 182 148 56 182 148 56 182 148 56 187 148 52 182 148 56 187 148 52 187 148 52 187 148 52 187 148 52 182 148 56 182 148 56 172 149 63 182 148 56 172 149 63 172 149 63 172 149 63 172 149 63 172 149 63 182 148 56 182 148 56 182 148 56 182 148 56 170 150 65 182 148 56 182 148 56 182 148 56 187 148 52 187 148 52 187 148 52 182 148 56 187 148 52 192 147 48 192 147 48 192 147 48 192 147 48 195 147 46 192 147 48 192 147 48 192 147 48 195 147 46 195 147 46 195 147 46 192 147 48 192 147 48 192 147 48 192 147 48 192 147 48 195 147 46 212 145 32 212 145 32 195 147 46 212 145 32 212 145 32 212 145 32 212 145 32 212 145 32 212 145 32 212 145 32 195 147 46 215 144 30 215 144 30 215 144 30 215 144 30 215 144 30 215 144 30 215 144 30 212 145 32 212 145 32 215 144 30 212 145 32 212 145 32 61 209 181 5 250 248 5 250 248 5 250 248 5 250 248 5 250 248 8 248 244 8 248 244 8 248 244 8 248 244 8 248 244 5 250 248 5 250 248 8 248 244 5 250 248 5 250 248 5 250 248 5 250 248 8 248 244 
5 250 248 5 250 248 5 250 248 5 250 248 5 250 248 5 250 248 5 250 248 5 250 248 5 250 248 5 250 248 5 250 248 5 250 248 5 250 248 5 250 248 5 250 248 5 250 248 5 250 248 5 250 248 8 248 244 46 220 199 85 192 153 85 192 153 85 192 153 88 190 150 85 192 153 88 190 150 85 192 153 88 190 150 88 190 150 85 192 153 88 190 150 88 190 150 88 190 150 85 192 153 91 188 146 91 188 146 88 190 150 91 188 146 91 188 146 88 190 150 88 190 150 88 190 150 85 192 153 85 192 153 82 194 157 85 192 153 85 192 153 85 192 153 85 192 153 82 194 157 85 192 153 85 192 153 85 192 153 85 192 153 82 194 157 82 194 157 85 192 153 85 192 153 85 192 153 85 192 153 85 192 153 85 192 153 85 192 153 85 192 153 82 194 157 85 192 153 85 192 153 85 192 153 82 194 157 85 192 153 85 192 153 85 192 153 82 194 157 85 192 153 88 190 150 88 190 150 88 190 150 88 190 150 88 190 150 88 190 150 88 190 150 88 190 150 88 190 150 88 190 150 88 190 150 88 190 150 91 188 146 88 190 150 88 190 150 91 188 146 91 188 146 91 188 146 88 190 150 91 188 146 91 188 146 93 186 143 93 186 143 93 186 143 96 184 139 93 186 143 96 184 139 96 184 139 93 186 143 96 184 139 96 184 139 93 186 143 96 184 139 96 184 139 32 231 216 8 248 244 8 248 244 46 220 199 170 150 65 170 150 65 170 150 65 162 151 71 170 150 65 170 150 65 172 149 63 172 149 63 165 150 69 172 149 63 172 149 63 170 150 65 182 148 56 170 150 65 170 150 65 182 148 56 170 150 65 182 148 56 182 148 56 182 148 56 172 149 63 187 148 52 182 148 56 187 148 52 187 148 52 187 148 52 182 148 56 182 148 56 182 148 56 182 148 56 172 149 63 172 149 63 187 148 52 187 148 52 182 148 56 182 148 56 182 148 56 182 148 56 182 148 56 182 148 56 182 148 56 172 149 63 182 148 56 172 149 63 182 148 56 172 149 63 187 148 52 187 148 52 187 148 52 187 148 52 187 148 52 192 147 48 192 147 48 192 147 48 192 147 48 195 147 46 192 147 48 192 147 48 192 147 48 192 147 48 192 147 48 195 147 46 195 147 46 192 147 48 212 145 32 212 145 32 212 145 32 195 147 46 195 147 46 195 147 46 212 145 32 212 145 32 212 145 32 195 147 46 195 147 46 195 147 46 212 145 32 215 144 30 212 145 32 212 145 32 215 144 30 215 144 30 215 144 30 215 144 30 212 145 32 212 145 32 215 144 30 215 144 30 108 175 125 8 248 244 5 250 248 5 250 248 5 250 248 5 250 248 8 248 244 5 250 248 8 248 244 8 248 244 8 248 244 5 250 248 5 250 248 8 248 244 5 250 248 5 250 248 5 250 248 5 250 248 5 250 248 5 250 248 
5 250 248 5 250 248 5 250 248 5 250 248 5 250 248 5 250 248 5 250 248 5 250 248 5 250 248 5 250 248 5 250 248 5 250 248 5 250 248 5 250 248 5 250 248 5 250 248 5 250 248 5 250 248 8 248 244 46 220 199 85 192 153 85 192 153 85 192 153 88 190 150 85 192 153 88 190 150 85 192 153 88 190 150 88 190 150 85 192 153 88 190 150 88 190 150 88 190 150 85 192 153 91 188 146 91 188 146 88 190 150 91 188 146 91 188 146 88 190 150 88 190 150 88 190 150 85 192 153 85 192 153 82 194 157 85 192 153 85 192 153 85 192 153 85 192 153 82 194 157 85 192 153 85 192 153 85 192 153 85 192 153 82 194 157 82 194 157 85 192 153 85 192 153 85 192 153 85 192 153 85 192 153 85 192 153 85 192 153 85 192 153 82 194 157 85 192 153 85 192 153 85 192 153 82 194 157 85 192 153 85 192 153 85 192 153 82 194 157 85 192 153 88 190 150 88 190 150 88 190 150 88 190 150 88 190 150 88 190 150 88 190 150 88 190 150 88 190 150 88 190 150 88 190 150 88 190 150 91 188 146 88 190 150 88 190 150 91 188 146 91 188 146 91 188 146 88 190 150 91 188 146 91 188 146 93 186 143 93 186 143 93 186 143 96 184 139 93 186 143 96 184 139 96 184 139 93 186 143 96 184 139 96 184 139 93 186 143 96 184 139 96 184 139 32 231 216 8 248 244 8 248 244 46 220 199 170 150 65 170 150 65 170 150 65 162 151 71 170 150 65 170 150 65 172 149 63 172 149 63 165 150 69 172 149 63 172 149 63 170 150 65 182 148 56 170 150 65 170 150 65 182 148 56 170 150 65 182 148 56 182 148 56 182 148 56 172 149 63 187 148 52 182 148 56 187 148 52 187 148 52 187 148 52 182 148 56 182 148 56 182 148 56 182 148 56 172 149 63 172 149 63 187 148 52 187 148 52 182 148 56 182 148 56 182 148 56 182 148 56 182 148 56 182 148 56 182 148 56 172 149 63 182 148 56 172 149 63 182 148 56 172 149 63 187 148 52 187 148 52 187 148 52 187 148 52 187 148 52 192 147 48 192 147 48 192 147 48 192 147 48 195 147 46 192 147 48 192 147 48 192 147 48 192 147 48 192 147 48 195 147 46 195 147 46 192 147 48 212 145 32 212 145 32 212 145 32 195 147 46 195 147 46 195 147 46 212 145 32 212 145 32 212 145 32 195 147 46 195 147 46 195 147 46 212 145 32 215 144 30 212 145 32 212 145 32 215 144 30 215 144 30 215 144 30 215 144 30 212 145 32 212 145 32 215 144 30 215 144 30 108 175 125 8 248 244 5 250 248 5 250 248 5 250 248 5 250 248 8 248 244 5 250 248 8 248 244 8 248 244 8 248 244 5 250 248 5 250 248 8 248 244 5 250 248 5 250 248 5 250 248 5 250 248 5 250 248 5 250 248 
5 250 248 5 250 248 5 250 248 5 250 248 5 250 248 5 250 248 8 248 244 5 250 248 8 248 244 8 248 244 5 250 248 8 248 244 5 250 248 5 250 248 5 250 248 5 250 248 5 250 248 8 248 244 5 250 248 14 244 237 61 209 181 82 194 157 85 192 153 85 192 153 88 190 150 88 190 150 85 192 153 88 190 150 88 190 150 88 190 150 91 188 146 88 190 150 88 190 150 88 190 150 88 190 150 91 188 146 91 188 146 91 188 146 93 186 143 91 188 146 91 188 146 91 188 146 88 190 150 88 190 150 88 190 150 88 190 150 85 192 153 85 192 153 88 190 150 82 194 157 85 192 153 85 192 153 82 194 157 82 194 157 85 192 153 85 192 153 85 192 153 85 192 153 85 192 153 85 192 153 82 194 157 85 192 153 85 192 153 82 194 157 85 192 153 88 190 150 88 190 150 85 192 153 88 190 150 85 192 153 88 190 150 85 192 153 85 192 153 88 190 150 91 188 146 88 190 150 88 190 150 88 190 150 85 192 153 91 188 146 88 190 150 85 192 153 88 190 150 88 190 150 88 190 150 88 190 150 88 190 150 88 190 150 91 188 146 91 188 146 91 188 146 88 190 150 91 188 146 91 188 146 91 188 146 91 188 146 93 186 143 93 186 143 93 186 143 93 186 143 93 186 143 93 186 143 96 184 139 96 184 139 96 184 139 99 181 136 96 184 139 93 186 143 26 235 223 8 248 244 8 248 244 46 220 199 165 150 69 165 150 69 170 150 65 170 150 65 170 150 65 170 150 65 170 150 65 170 150 65 170 150 65 172 149 63 182 148 56 172 149 63 182 148 56 172 149 63 182 148 56 182 148 56 170 150 65 172 149 63 172 149 63 182 148 56 172 149 63 182 148 56 172 149 63 182 148 56 172 149 63 187 148 52 182 148 56 172 149 63 187 148 52 172 149 63 172 149 63 182 148 56 182 148 56 182 148 56 187 148 52 172 149 63 182 148 56 172 149 63 170 150 65 172 149 63 170 150 65 172 149 63 182 148 56 182 148 56 182 148 56 182 148 56 187 148 52 182 148 56 187 148 52 187 148 52 182 148 56 192 147 48 192 147 48 187 148 52 195 147 46 192 147 48 192 147 48 192 147 48 187 148 52 192 147 48 195 147 46 195 147 46 212 145 32 195 147 46 195 147 46 212 145 32 195 147 46 195 147 46 195 147 46 215 144 30 215 144 30 192 147 48 195 147 46 212 145 32 212 145 32 195 147 46 212 145 32 212 145 32 212 145 32 212 145 32 212 145 32 215 144 30 212 145 32 215 144 30 215 144 30 212 145 32 215 144 30 150 152 81 26 235 223 5 250 248 5 250 248 5 250 248 5 250 248 8 248 244 8 248 244 8 248 244 5 250 248 8 248 244 5 250 248 8 248 244 5 250 248 8 248 244 8 248 244 5 250 248 8 248 244 5 250 248 5 250 248 5 250 248 
5 250 248 5 250 248 5 250 248 5 250 248 5 250 248 5 250 248 8 248 244 5 250 248 8 248 244 8 248 244 5 250 248 8 248 244 5 250 248 5 250 248 5 250 248 5 250 248 5 250 248 8 248 244 5 250 248 14 244 237 61 209 181 82 194 157 85 192 153 85 192 153 88 190 150 88 190 150 85 192 153 88 190 150 88 190 150 88 190 150 91 188 146 88 190 150 88 190 150 88 190 150 88 190 150 91 188 146 91 188 146 91 188 146 93 186 143 91 188 146 91 188 146 91 188 146 88 190 150 88 190 150 88 190 150 88 190 150 85 192 153 85 192 153 88 190 150 82 194 157 85 192 153 85 192 153 82 194 157 82 194 157 85 192 153 85 192 153 85 192 153 85 192 153 85 192 153 85 192 153 82 194 157 85 192 153 85 192 153 82 194 157 85 192 153 88 190 150 88 190 150 85 192 153 88 190 150 85 192 153 88 190 150 85 192 153 85 192 153 88 190 150 91 188 146 88 190 150 88 190 150 88 190 150 85 192 153 91 188 146 88 190 150 85 192 153 88 190 150 88 190 150 88 190 150 88 190 150 88 190 150 88 190 150 91 188 146 91 188 146 91 188 146 88 190 150 91 188 146 91 188 146 91 188 146 91 188 146 93 186 143 93 186 143 93 186 143 93 186 143 93 186 143 93 186 143 96 184 139 96 184 139 96 184 139 99 181 136 96 184 139 93 186 143 26 235 223 8 248 244 8 248 244 46 220 199 165 150 69 165 150 69 170 150 65 170 150 65 170 150 65 170 150 65 170 150 65 170 150 65 170 150 65 172 149 63 182 148 56 172 149 63 182 148 56 172 149 63 182 148 56 182 148 56 170 150 65 172 149 63 172 149 63 182 148 56 172 149 63 182 148 56 172 149 63 182 148 56 172 149 63 187 148 52 182 148 56 172 149 63 187 148 52 172 149 63 172 149 63 182 148 56 182 148 56 182 148 56 187 148 52 172 149 63 182 148 56 172 149 63 170 150 65 172 149 63 170 150 65 172 149 63 182 148 56 182 148 56 182 148 56 182 148 56 187 148 52 182 148 56 187 148 52 187 148 52 182 148 56 192 147 48 192 147 48 187 148 52 195 147 46 192 147 48 192 147 48 192 147 48 187 148 52 192 147 48 195 147 46 195 147 46 212 145 32 195 147 46 195 147 46 212 145 32 195 147 46 195 147 46 195 147 46 215 144 30 215 144 30 192 147 48 195 147 46 212 145 32 212 145 32 195 147 46 212 145 32 212 145 32 212 145 32 212 145 32 212 145 32 215 144 30 212 145 32 215 144 30 215 144 30 212 145 32 215 144 30 150 152 81 26 235 223 5 250 248 5 250 248 5 250 248 5 250 248 8 248 244 8 248 244 8 248 244 5 250 248 8 248 244 5 250 248 8 248 244 5 250 248 8 248 244 8 248 244 5 250 248 8 248 244 5 250 248 5 250 248 5 250 248 
5 250 248 8 248 244 5 250 248 5 250 248 5 250 248 5 250 248 5 250 248 8 248 244 8 248 244 5 250 248 5 250 248 5 250 248 8 248 244 8 248 244 5 250 248 5 250 248 5 250 248 5 250 248 5 250 248 5 250 248 23 237 227 73 201 167 88 190 150 88 190 150 88 190 150 85 192 153 85 192 153 88 190 150 88 190 150 88 190 150 88 190 150 88 190 150 91 188 146 91 188 146 88 190 150 88 190 150 93 186 143 88 190 150 93 186 143 91 188 146 91 188 146 91 188 146 88 190 150 88 190 150 88 190 150 88 190 150 85 192 153 85 192 153 88 190 150 88 190 150 88 190 150 85 192 153 85 192 153 85 192 153 82 194 157 88 190 150 85 192 153 85 192 153 85 192 153 85 192 153 88 190 150 85 192 153 85 192 153 85 192 153 88 190 150 88 190 150 85 192 153 85 192 153 85 192 153 88 190 150 88 190 150 88 190 150 85 192 153 85 192 153 88 190 150 88 190 150 85 192 153 85 192 153 85 192 153 88 190 150 88 190 150 85 192 153 82 194 157 85 192 153 91 188 146 85 192 153 88 190 150 85 192 153 88 190 150 91 188 146 91 188 146 88 190 150 91 188 146 91 188 146 91 188 146 91 188 146 93 186 143 93 186 143 93 186 143 96 184 139 93 186 143 93 186 143 96 184 139 96 184 139 93 186 143 96 184 139 93 186 143 93 186 143 32 231 216 8 248 244 8 248 244 46 220 199 170 150 65 170 150 65 170 150 65 165 150 69 172 149 63 172 149 63 170 150 65 170 150 65 170 150 65 172 149 63 172 149 63 172 149 63 172 149 63 172 149 63 172 149 63 170 150 65 187 148 52 187 148 52 182 148 56 182 148 56 172 149 63 172 149 63 182 148 56 182 148 56 187 148 52 182 148 56 172 149 63 172 149 63 187 148 52 182 148 56 187 148 52 182 148 56 172 149 63 187 148 52 187 148 52 182 148 56 182 148 56 172 149 63 172 149 63 170 150 65 170 150 65 172 149 63 187 148 52 182 148 56 182 148 56 172 149 63 172 149 63 182 148 56 182 148 56 187 148 52 187 148 52 182 148 56 187 148 52 182 148 56 187 148 52 187 148 52 187 148 52 187 148 52 192 147 48 195 147 46 192 147 48 195 147 46 195 147 46 195 147 46 212 145 32 192 147 48 195 147 46 195 147 46 212 145 32 212 145 32 212 145 32 195 147 46 195 147 46 192 147 48 212 145 32 195 147 46 195 147 46 215 144 30 215 144 30 215 144 30 215 144 30 212 145 32 212 145 32 212 145 32 212 145 32 212 145 32 162 151 71 49 218 195 5 250 248 5 250 248 5 250 248 5 250 248 5 250 248 5 250 248 5 250 248 8 248 244 5 250 248 5 250 248 8 248 244 8 248 244 5 250 248 5 250 248 8 248 244 8 248 244 8 248 244 5 250 248 5 250 248 5 250 248 
5 250 248 8 248 244 5 250 248 5 250 248 5 250 248 5 250 248 5 250 248 8 248 244 8 248 244 5 250 248 5 250 248 5 250 248 8 248 244 8 248 244 5 250 248 5 250 248 5 250 248 5 250 248 5 250 248 5 250 248 23 237 227 73 201 167 88 190 150 88 190 150 88 190 150 85 192 153 85 192 153 88 190 150 88 190 150 88 190 150 88 190 150 88 190 150 91 188 146 91 188 146 88 190 150 88 190 150 93 186 143 88 190 150 93 186 143 91 188 146 91 188 146 91 188 146 88 190 150 88 190 150 88 190 150 88 190 150 85 192 153 85 192 153 88 190 150 88 190 150 88 190 150 85 192 153 85 192 153 85 192 153 82 194 157 88 190 150 85 192 153 85 192 153 85 192 153 85 192 153 88 190 150 85 192 153 85 192 153 85 192 153 88 190 150 88 190 150 85 192 153 85 192 153 85 192 153 88 190 150 88 190 150 88 190 150 85 192 153 85 192 153 88 190 150 88 190 150 85 192 153 85 192 153 85 192 153 88 190 150 88 190 150 85 192 153 82 194 157 85 192 153 91 188 146 85 192 153 88 190 150 85 192 153 88 190 150 91 188 146 91 188 146 88 190 150 91 188 146 91 188 146 91 188 146 91 188 146 93 186 143 93 186 143 93 186 143 96 184 139 93 186 143 93 186 143 96 184 139 96 184 139 93 186 143 96 184 139 93 186 143 93 186 143 32 231 216 8 248 244 8 248 244 46 220 199 170 150 65 170 150 65 170 150 65 165 150 69 172 149 63 172 149 63 170 150 65 170 150 65 170 150 65 172 149 63 172 149 63 172 149 63 172 149 63 172 149 63 172 149 63 170 150 65 187 148 52 187 148 52 182 148 56 182 148 56 172 149 63 172 149 63 182 148 56 182 148 56 187 148 52 182 148 56 172 149 63 172 149 63 187 148 52 182 148 56 187 148 52 182 148 56 172 149 63 187 148 52 187 148 52 182 148 56 182 148 56 172 149 63 172 149 63 170 150 65 170 150 65 172 149 63 187 148 52 182 148 56 182 148 56 172 149 63 172 149 63 182 148 56 182 148 56 187 148 52 187 148 52 182 148 56 187 148 52 182 148 56 187 148 52 187 148 52 187 148 52 187 148 52 192 147 48 195 147 46 192 147 48 195 147 46 195 147 46 195 147 46 212 145 32 192 147 48 195 147 46 195 147 46 212 145 32 212 145 32 212 145 32 195 147 46 195 147 46 192 147 48 212 145 32 195 147 46 195 147 46 215 144 30 215 144 30 215 144 30 215 144 30 212 145 32 212 145 32 212 145 32 212 145 32 212 145 32 162 151 71 49 218 195 5 250 248 5 250 248 5 250 248 5 250 248 5 250 248 5 250 248 5 250 248 8 248 244 5 250 248 5 250 248 8 248 244 8 248 244 5 250 248 5 250 248 8 248 244 8 248 244 8 248 244 5 250 248 5 250 248 5 250 248 
5 250 248 5 250 248 5 250 248 5 250 248 5 250 248 5 250 248 5 250 248 5 250 248 5 250 248 5 250 248 5 250 248 8 248 244 5 250 248 5 250 248 8 248 244 8 248 244 5 250 248 5 250 248 5 250 248 5 250 248 5 250 248 35 229 213 82 194 157 85 192 153 88 190 150 85 192 153 88 190 150 88 190 150 88 190 150 91 188 146 91 188 146 88 190 150 88 190 150 88 190 150 91 188 146 91 188 146 91 188 146 91 188 146 91 188 146 91 188 146 88 190 150 88 190 150 88 190 150 88 190 150 85 192 153 88 190 150 88 190 150 88 190 150 88 190 150 82 194 157 88 190 150 88 190 150 85 192 153 85 192 153 88 190 150 82 194 157 88 190 150 85 192 153 85 192 153 85 192 153 85 192 153 88 190 150 82 194 157 82 194 157 82 194 157 88 190 150 88 190 150 88 190 150 93 186 143 88 190 150 91 188 146 91 188 146 91 188 146 85 192 153 88 190 150 88 190 150 88 190 150 88 190 150 85 192 153 85 192 153 82 194 157 91 188 146 91 188 146 85 192 153 88 190 150 91 188 146 91 188 146 88 190 150 88 190 150 91 188 146 91 188 146 91 188 146 91 188 146 91 188 146 91 188 146 93 186 143 91 188 146 93 186 143 93 186 143 93 186 143 93 186 143 93 186 143 93 186 143 93 186 143 96 184 139 96 184 139 99 181 136 99 181 136 32 231 216 8 248 244 8 248 244 46 220 199 172 149 63 172 149 63 172 149 63 172 149 63 172 149 63 182 148 56 170 150 65 170 150 65 170 150 65 165 150 69 182 148 56 172 149 63 172 149 63 172 149 63 187 148 52 187 148 52 182 148 56 182 148 56 187 148 52 187 148 52 182 148 56 187 148 52 182 148 56 182 148 56 182 148 56 172 149 63 172 149 63 187 148 52 187 148 52 182 148 56 182 148 56 187 148 52 187 148 52 172 149 63 182 148 56 192 147 48 187 148 52 182 148 56 182 148 56 182 148 56 165 150 69 172 149 63 182 148 56 187 148 52 187 148 52 192 147 48 182 148 56 192 147 48 192 147 48 187 148 52 182 148 56 182 148 56 187 148 52 192 147 48 187 148 52 192 147 48 187 148 52 192 147 48 195 147 46 212 145 32 192 147 48 195 147 46 212 145 32 195 147 46 195 147 46 195 147 46 195 147 46 192 147 48 192 147 48 195 147 46 195 147 46 215 144 30 195 147 46 212 145 32 195 147 46 195 147 46 212 145 32 195 147 46 215 144 30 215 144 30 212 145 32 195 147 46 215 144 30 212 145 32 195 147 46 182 148 56 73 201 167 5 250 248 8 248 244 5 250 248 5 250 248 5 250 248 5 250 248 5 250 248 5 250 248 5 250 248 5 250 248 8 248 244 5 250 248 8 248 244 8 248 244 8 248 244 8 248 244 8 248 244 5 250 248 5 250 248 5 250 248 5 250 248 
5 250 248 5 250 248 5 250 248 5 250 248 5 250 248 5 250 248 5 250 248 5 250 248 5 250 248 5 250 248 5 250 248 8 248 244 5 250 248 5 250 248 8 248 244 8 248 244 5 250 248 5 250 248 5 250 248 5 250 248 5 250 248 35 229 213 82 194 157 85 192 153 88 190 150 85 192 153 88 190 150 88 190 150 88 190 150 91 188 146 91 188 146 88 190 150 88 190 150 88 190 150 91 188 146 91 188 146 91 188 146 91 188 146 91 188 146 91 188 146 88 190 150 88 190 150 88 190 150 88 190 150 85 192 153 88 190 150 88 190 150 88 190 150 88 190 150 82 194 157 88 190 150 88 190 150 85 192 153 85 192 153 88 190 150 82 194 157 88 190 150 85 192 153 85 192 153 85 192 153 85 192 153 88 190 150 82 194 157 82 194 157 82 194 157 88 190 150 88 190 150 88 190 150 93 186 143 88 190 150 91 188 146 91 188 146 91 188 146 85 192 153 88 190 150 88 190 150 88 190 150 88 190 150 85 192 153 85 192 153 82 194 157 91 188 146 91 188 146 85 192 153 88 190 150 91 188 146 91 188 146 88 190 150 88 190 150 91 188 146 91 188 146 91 188 146 91 188 146 91 188 146 91 188 146 93 186 143 91 188 146 93 186 143 93 186 143 93 186 143 93 186 143 93 186 143 93 186 143 93 186 143 96 184 139 96 184 139 99 181 136 99 181 136 32 231 216 8 248 244 8 248 244 46 220 199 172 149 63 172 149 63 172 149 63 172 149 63 172 149 63 182 148 56 170 150 65 170 150 65 170 150 65 165 150 69 182 148 56 172 149 63 172 149 63 172 149 63 187 148 52 187 148 52 182 148 56 182 148 56 187 148 52 187 148 52 182 148 56 187 148 52 182 148 56 182 148 56 182 148 56 172 149 63 172 149 63 187 148 52 187 148 52 182 148 56 182 148 56 187 148 52 187 148 52 172 149 63 182 148 56 192 147 48 187 148 52 182 148 56 182 148 56 182 148 56 165 150 69 172 149 63 182 148 56 187 148 52 187 148 52 192 147 48 182 148 56 192 147 48 192 147 48 187 148 52 182 148 56 182 148 56 187 148 52 192 147 48 187 148 52 192 147 48 187 148 52 192 147 48 195 147 46 212 145 32 192 147 48 195 147 46 212 145 32 195 147 46 195 147 46 195 147 46 195 147 46 192 147 48 192 147 48 195 147 46 195 147 46 215 144 30 195 147 46 212 145 32 195 147 46 195 147 46 212 145 32 195 147 46 215 144 30 215 144 30 212 145 32 195 147 46 215 144 30 212 145 32 195 147 46 182 148 56 73 201 167 5 250 248 8 248 244 5 250 248 5 250 248 5 250 248 5 250 248 5 250 248 5 250 248 5 250 248 5 250 248 8 248 244 5 250 248 8 248 244 8 248 244 8 248 244 8 248 244 8 248 244 5 250 248 5 250 248 5 250 248 5 250 248 
5 250 248 5 250 248 5 250 248 5 250 248 5 250 248 5 250 248 8 248 244 5 250 248 5 250 248 5 250 248 5 250 248 5 250 248 8 248 244 8 248 244 5 250 248 5 250 248 8 248 244 5 250 248 8 248 244 5 250 248 5 250 248 5 250 248 44 222 202 85 192 153 88 190 150 88 190 150 85 192 153 82 194 157 88 190 150 85 192 153 85 192 153 88 190 150 88 190 150 88 190 150 91 188 146 91 188 146 88 190 150 93 186 143 88 190 150 91 188 146 91 188 146 88 190 150 88 190 150 91 188 146 88 190 150 91 188 146 85 192 153 88 190 150 88 190 150 85 192 153 88 190 150 85 192 153 82 194 157 85 192 153 85 192 153 88 190 150 88 190 150 88 190 150 88 190 150 85 192 153 82 194 157 85 192 153 88 190 150 88 190 150 88 190 150 85 192 153 91 188 146 91 188 146 91 188 146 88 190 150 88 190 150 88 190 150 91 188 146 88 190 150 88 190 150 88 190 150 85 192 153 88 190 150 85 192 153 85 192 153 85 192 153 88 190 150 85 192 153 91 188 146 88 190 150 91 188 146 88 190 150 91 188 146 93 186 143 91 188 146 91 188 146 91 188 146 85 192 153 91 188 146 91 188 146 91 188 146 93 186 143 96 184 139 88 190 150 93 186 143 93 186 143 93 186 143 93 186 143 93 186 143 96 184 139 96 184 139 96 184 139 99 181 136 32 231 216 8 248 244 8 248 244 46 220 199 162 151 71 165 150 69 170 150 65 172 149 63 172 149 63 170 150 65 182 148 56 172 149 63 172 149 63 170 150 65 170 150 65 170 150 65 170 150 65 172 149 63 172 149 63 170 150 65 182 148 56 182 148 56 182 148 56 187 148 52 182 148 56 172 149 63 172 149 63 172 149 63 187 148 52 182 148 56 172 149 63 170 150 65 182 148 56 187 148 52 182 148 56 172 149 63 172 149 63 172 149 63 187 148 52 192 147 48 182 148 56 187 148 52 192 147 48 182 148 56 187 148 52 182 148 56 187 148 52 187 148 52 182 148 56 182 148 56 187 148 52 182 148 56 182 148 56 182 148 56 182 148 56 187 148 52 192 147 48 192 147 48 187 148 52 192 147 48 192 147 48 192 147 48 192 147 48 187 148 52 192 147 48 195 147 46 212 145 32 212 145 32 192 147 48 195 147 46 212 145 32 195 147 46 192 147 48 192 147 48 195 147 46 192 147 48 215 144 30 195 147 46 195 147 46 212 145 32 212 145 32 212 145 32 212 145 32 215 144 30 195 147 46 195 147 46 212 145 32 215 144 30 192 147 48 91 188 146 5 250 248 5 250 248 5 250 248 5 250 248 5 250 248 5 250 248 5 250 248 5 250 248 5 250 248 5 250 248 5 250 248 5 250 248 5 250 248 5 250 248 5 250 248 5 250 248 8 248 244 5 250 248 5 250 248 8 248 244 5 250 248 8 248 244 
5 250 248 5 250 248 5 250 248 5 250 248 5 250 248 5 250 248 8 248 244 5 250 248 5 250 248 5 250 248 5 250 248 5 250 248 8 248 244 8 248 244 5 250 248 5 250 248 8 248 244 5 250 248 8 248 244 5 250 248 5 250 248 5 250 248 44 222 202 85 192 153 88 190 150 88 190 150 85 192 153 82 194 157 88 190 150 85 192 153 85 192 153 88 190 150 88 190 150 88 190 150 91 188 146 91 188 146 88 190 150 93 186 143 88 190 150 91 188 146 91 188 146 88 190 150 88 190 150 91 188 146 88 190 150 91 188 146 85 192 153 88 190 150 88 190 150 85 192 153 88 190 150 85 192 153 82 194 157 85 192 153 85 192 153 88 190 150 88 190 150 88 190 150 88 190 150 85 192 153 82 194 157 85 192 153 88 190 150 88 190 150 88 190 150 85 192 153 91 188 146 91 188 146 91 188 146 88 190 150 88 190 150 88 190 150 91 188 146 88 190 150 88 190 150 88 190 150 85 192 153 88 190 150 85 192 153 85 192 153 85 192 153 88 190 150 85 192 153 91 188 146 88 190 150 91 188 146 88 190 150 91 188 146 93 186 143 91 188 146 91 188 146 91 188 146 85 192 153 91 188 146 91 188 146 91 188 146 93 186 143 96 184 139 88 190 150 93 186 143 93 186 143 93 186 143 93 186 143 93 186 143 96 184 139 96 184 139 96 184 139 99 181 136 32 231 216 8 248 244 8 248 244 46 220 199 162 151 71 165 150 69 170 150 65 172 149 63 172 149 63 170 150 65 182 148 56 172 149 63 172 149 63 170 150 65 170 150 65 170 150 65 170 150 65 172 149 63 172 149 63 170 150 65 182 148 56 182 148 56 182 148 56 187 148 52 182 148 56 172 149 63 172 149 63 172 149 63 187 148 52 182 148 56 172 149 63 170 150 65 182 148 56 187 148 52 182 148 56 172 149 63 172 149 63 172 149 63 187 148 52 192 147 48 182 148 56 187 148 52 192 147 48 182 148 56 187 148 52 182 148 56 187 148 52 187 148 52 182 148 56 182 148 56 187 148 52 182 148 56 182 148 56 182 148 56 182 148 56 187 148 52 192 147 48 192 147 48 187 148 52 192 147 48 192 147 48 192 147 48 192 147 48 187 148 52 192 147 48 195 147 46 212 145 32 212 145 32 192 147 48 195 147 46 212 145 32 195 147 46 192 147 48 192 147 48 195 147 46 192 147 48 215 144 30 195 147 46 195 147 46 212 145 32 212 145 32 212 145 32 212 145 32 215 144 30 195 147 46 195 147 46 212 145 32 215 144 30 192 147 48 91 188 146 5 250 248 5 250 248 5 250 248 5 250 248 5 250 248 5 250 248 5 250 248 5 250 248 5 250 248 5 250 248 5 250 248 5 250 248 5 250 248 5 250 248 5 250 248 5 250 248 8 248 244 5 250 248 5 250 248 8 248 244 5 250 248 8 248 244 
5 250 248 5 250 248 5 250 248 8 248 244 5 250 248 5 250 248 5 250 248 8 248 244 5 250 248 5 250 248 5 250 248 5 250 248 5 250 248 5 250 248 8 248 244 8 248 244 8 248 244 5 250 248 5 250 248 8 248 244 8 248 244 5 250 248 5 250 248 41 224 206 88 190 150 88 190 150 85 192 153 85 192 153 85 192 153 85 192 153 91 188 146 91 188 146 88 190 150 88 190 150 88 190 150 91 188 146 91 188 146 88 190 150 85 192 153 88 190 150 91 188 146 85 192 153 88 190 150 88 190 150 85 192 153 85 192 153 88 190 150 91 188 146 88 190 150 88 190 150 88 190 150 88 190 150 85 192 153 82 194 157 88 190 150 91 188 146 88 190 150 88 190 150 88 190 150 91 188 146 85 192 153 85 192 153 88 190 150 85 192 153 88 190 150 91 188 146 93 186 143 88 190 150 88 190 150 88 190 150 88 190 150 88 190 150 88 190 150 88 190 150 91 188 146 88 190 150 88 190 150 85 192 153 88 190 150 88 190 150 85 192 153 88 190 150 88 190 150 91 188 146 88 190 150 93 186 143 88 190 150 93 186 143 93 186 143 93 186 143 88 190 150 91 188 146 93 186 143 91 188 146 91 188 146 91 188 146 93 186 143 93 186 143 93 186 143 96 184 139 96 184 139 93 186 143 93 186 143 93 186 143 96 184 139 93 186 143 96 184 139 99 181 136 35 229 213 8 248 244 8 248 244 46 220 199 172 149 63 170 150 65 170 150 65 172 149 63 182 148 56 182 148 56 170 150 65 182 148 56 172 149 63 172 149 63 182 148 56 165 150 69 170 150 65 170 150 65 172 149 63 182 148 56 182 148 56 172 149 63 170 150 65 182 148 56 187 148 52 172 149 63 182 148 56 172 149 63 172 149 63 182 148 56 182 148 56 182 148 56 172 149 63 187 148 52 182 148 56 182 148 56 182 148 56 182 148 56 192 147 48 182 148 56 192 147 48 187 148 52 187 148 52 187 148 52 187 148 52 187 148 52 187 148 52 182 148 56 182 148 56 192 147 48 192 147 48 182 148 56 182 148 56 187 148 52 182 148 56 187 148 52 187 148 52 192 147 48 192 147 48 187 148 52 192 147 48 195 147 46 187 148 52 187 148 52 187 148 52 192 147 48 212 145 32 212 145 32 195 147 46 192 147 48 195 147 46 192 147 48 192 147 48 195 147 46 195 147 46 187 148 52 192 147 48 195 147 46 195 147 46 195 147 46 195 147 46 195 147 46 212 145 32 195 147 46 195 147 46 195 147 46 212 145 32 215 144 30 91 188 146 5 250 248 5 250 248 5 250 248 5 250 248 5 250 248 5 250 248 8 248 244 5 250 248 5 250 248 5 250 248 5 250 248 5 250 248 5 250 248 5 250 248 5 250 248 5 250 248 5 250 248 5 250 248 5 250 248 5 250 248 5 250 248 5 250 248 5 250 248 
5 250 248 5 250 248 5 250 248 8 248 244 5 250 248 5 250 248 5 250 248 8 248 244 5 250 248 5 250 248 5 250 248 5 250 248 5 250 248 5 250 248 8 248 244 8 248 244 8 248 244 5 250 248 5 250 248 8 248 244 8 248 244 5 250 248 5 250 248 41 224 206 88 190 150 88 190 150 85 192 153 85 192 153 85 192 153 85 192 153 91 188 146 91 188 146 88 190 150 88 190 150 88 190 150 91 188 146 91 188 146 88 190 150 85 192 153 88 190 150 91 188 146 85 192 153 88 190 150 88 190 150 85 192 153 85 192 153 88 190 150 91 188 146 88 190 150 88 190 150 88 190 150 88 190 150 85 192 153 82 194 157 88 190 150 91 188 146 88 190 150 88 190 150 88 190 150 91 188 146 85 192 153 85 192 153 88 190 150 85 192 153 88 190 150 91 188 146 93 186 143 88 190 150 88 190 150 88 190 150 88 190 150 88 190 150 88 190 150 88 190 150 91 188 146 88 190 150 88 190 150 85 192 153 88 190 150 88 190 150 85 192 153 88 190 150 88 190 150 91 188 146 88 190 150 93 186 143 88 190 150 93 186 143 93 186 143 93 186 143 88 190 150 91 188 146 93 186 143 91 188 146 91 188 146 91 188 146 93 186 143 93 186 143 93 186 143 96 184 139 96 184 139 93 186 143 93 186 143 93 186 143 96 184 139 93 186 143 96 184 139 99 181 136 35 229 213 8 248 244 8 248 244 46 220 199 172 149 63 170 150 65 170 150 65 172 149 63 182 148 56 182 148 56 170 150 65 182 148 56 172 149 63 172 149 63 182 148 56 165 150 69 170 150 65 170 150 65 172 149 63 182 148 56 182 148 56 172 149 63 170 150 65 182 148 56 187 148 52 172 149 63 182 148 56 172 149 63 172 149 63 182 148 56 182 148 56 182 148 56 172 149 63 187 148 52 182 148 56 182 148 56 182 148 56 182 148 56 192 147 48 182 148 56 192 147 48 187 148 52 187 148 52 187 148 52 187 148 52 187 148 52 187 148 52 182 148 56 182 148 56 192 147 48 192 147 48 182 148 56 182 148 56 187 148 52 182 148 56 187 148 52 187 148 52 192 147 48 192 147 48 187 148 52 192 147 48 195 147 46 187 148 52 187 148 52 187 148 52 192 147 48 212 145 32 212 145 32 195 147 46 192 147 48 195 147 46 192 147 48 192 147 48 195 147 46 195 147 46 187 148 52 192 147 48 195 147 46 195 147 46 195 147 46 195 147 46 195 147 46 212 145 32 195 147 46 195 147 46 195 147 46 212 145 32 215 144 30 91 188 146 5 250 248 5 250 248 5 250 248 5 250 248 5 250 248 5 250 248 8 248 244 5 250 248 5 250 248 5 250 248 5 250 248 5 250 248 5 250 248 5 250 248 5 250 248 5 250 248 5 250 248 5 250 248 5 250 248 5 250 248 5 250 248 5 250 248 5 250 248 
5 250 248 5 250 248 5 250 248 5 250 248 5 250 248 5 250 248 5 250 248 8 248 244 5 250 248 5 250 248 8 248 244 8 248 244 8 248 244 8 248 244 8 248 244 8 248 244 8 248 244 8 248 244 5 250 248 8 248 244 8 248 244 8 248 244 8 248 244 5 250 248 26 235 223 91 188 146 88 190 150 88 190 150 91 188 146 88 190 150 88 190 150 88 190 150 88 190 150 85 192 153 91 188 146 91 188 146 88 190 150 91 188 146 88 190 150 88 190 150 88 190 150 88 190 150 88 190 150 85 192 153 85 192 153 85 192 153 88 190 150 88 190 150 88 190 150 91 188 146 85 192 153 85 192 153 88 190 150 88 190 150 85 192 153 91 188 146 91 188 146 91 188 146 88 190 150 88 190 150 88 190 150 88 190 150 91 188 146 91 188 146 91 188 146 88 190 150 93 186 143 88 190 150 91 188 146 88 190 150 88 190 150 91 188 146 85 192 153 88 190 150 85 192 153 91 188 146 93 186 143 93 186 143 91 188 146 88 190 150 91 188 146 91 188 146 91 188 146 93 186 143 88 190 150 88 190 150 91 188 146 88 190 150 88 190 150 91 188 146 91 188 146 91 188 146 93 186 143 91 188 146 91 188 146 91 188 146 93 186 143 93 186 143 96 184 139 93 186 143 93 186 143 96 184 139 96 184 139 96 184 139 93 186 143 93 186 143 96 184 139 96 184 139 32 231 216 8 248 244 8 248 244 46 220 199 170 150 65 170 150 65 170 150 65 172 149 63 172 149 63 172 149 63 172 149 63 170 150 65 172 149 63 172 149 63 182 148 56 172 149 63 172 149 63 172 149 63 172 149 63 187 148 52 182 148 56 182 148 56 170 150 65 172 149 63 182 148 56 172 149 63 187 148 52 172 149 63 182 148 56 172 149 63 172 149 63 172 149 63 170 150 65 172 149 63 182 148 56 172 149 63 182 148 56 182 148 56 187 148 52 187 148 52 182 148 56 182 148 56 187 148 52 187 148 52 187 148 52 187 148 52 182 148 56 182 148 56 182 148 56 192 147 48 187 148 52 192 147 48 192 147 48 187 148 52 192 147 48 192 147 48 192 147 48 195 147 46 192 147 48 187 148 52 192 147 48 195 147 46 192 147 48 192 147 48 192 147 48 195 147 46 195 147 46 192 147 48 192 147 48 195 147 46 195 147 46 195 147 46 192 147 48 192 147 48 192 147 48 195 147 46 195 147 46 192 147 48 195 147 46 195 147 46 195 147 46 195 147 46 195 147 46 195 147 46 215 144 30 212 145 32 215 144 30 64 207 178 5 250 248 5 250 248 8 248 244 5 250 248 5 250 248 5 250 248 8 248 244 8 248 244 8 248 244 8 248 244 8 248 244 8 248 244 8 248 244 5 250 248 5 250 248 5 250 248 5 250 248 5 250 248 5 250 248 5 250 248 5 250 248 5 250 248 5 250 248 5 250 248 
5 250 248 5 250 248 5 250 248 5 250 248 5 250 248 5 250 248 5 250 248 8 248 244 5 250 248 5 250 248 8 248 244 8 248 244 8 248 244 8 248 244 8 248 244 8 248 244 8 248 244 8 248 244 5 250 248 8 248 244 8 248 244 8 248 244 8 248 244 5 250 248 26 235 223 91 188 146 88 190 150 88 190 150 91 188 146 88 190 150 88 190 150 88 190 150 88 190 150 85 192 153 91 188 146 91 188 146 88 190 150 91 188 146 88 190 150 88 190 150 88 190 150 88 190 150 88 190 150 85 192 153 85 192 153 85 192 153 88 190 150 88 190 150 88 190 150 91 188 146 85 192 153 85 192 153 88 190 150 88 190 150 85 192 153 91 188 146 91 188 146 91 188 146 88 190 150 88 190 150 88 190 150 88 190 150 91 188 146 91 188 146 91 188 146 88 190 150 93 186 143 88 190 150 91 188 146 88 190 150 88 190 150 91 188 146 85 192 153 88 190 150 85 192 153 91 188 146 93 186 143 93 186 143 91 188 146 88 190 150 91 188 146 91 188 146 91 188 146 93 186 143 88 190 150 88 190 150 91 188 146 88 190 150 88 190 150 91 188 146 91 188 146 91 188 146 93 186 143 91 188 146 91 188 146 91 188 146 93 186 143 93 186 143 96 184 139 93 186 143 93 186 143 96 184 139 96 184 139 96 184 139 93 186 143 93 186 143 96 184 139 96 184 139 32 231 216 8 248 244 8 248 244 46 220 199 170 150 65 170 150 65 170 150 65 172 149 63 172 149 63 172 149 63 172 149 63 170 150 65 172 149 63 172 149 63 182 148 56 172 149 63 172 149 63 172 149 63 172 149 63 187 148 52 182 148 56 182 148 56 170 150 65 172 149 63 182 148 56 172 149 63 187 148 52 172 149 63 182 148 56 172 149 63 172 149 63 172 149 63 170 150 65 172 149 63 182 148 56 172 149 63 182 148 56 182 148 56 187 148 52 187 148 52 182 148 56 182 148 56 187 148 52 187 148 52 187 148 52 187 148 52 182 148 56 182 148 56 182 148 56 192 147 48 187 148 52 192 147 48 192 147 48 187 148 52 192 147 48 192 147 48 192 147 48 195 147 46 192 147 48 187 148 52 192 147 48 195 147 46 192 147 48 192 147 48 192 147 48 195 147 46 195 147 46 192 147 48 192 147 48 195 147 46 195 147 46 195 147 46 192 147 48 192 147 48 192 147 48 195 147 46 195 147 46 192 147 48 195 147 46 195 147 46 195 147 46 195 147 46 195 147 46 195 147 46 215 144 30 212 145 32 215 144 30 64 207 178 5 250 248 5 250 248 8 248 244 5 250 248 5 250 248 5 250 248 8 248 244 8 248 244 8 248 244 8 248 244 8 248 244 8 248 244 8 248 244 5 250 248 5 250 248 5 250 248 5 250 248 5 250 248 5 250 248 5 250 248 5 250 248 5 250 248 5 250 248 5 250 248 
5 250 248 5 250 248 5 250 248 5 250 248 5 250 248 8 248 244 8 248 244 8 248 244 8 248 244 8 248 244 5 250 248 8 248 244 5 250 248 5 250 248 8 248 244 8 248 244 8 248 244 8 248 244 8 248 244 8 248 244 8 248 244 8 248 244 8 248 244 8 248 244 5 250 248 23 237 227 85 192 153 91 188 146 91 188 146 88 190 150 88 190 150 88 190 150 88 190 150 88 190 150 88 190 150 88 190 150 88 190 150 91 188 146 88 190 150 88 190 150 88 190 150 85 192 153 88 190 150 88 190 150 88 190 150 88 190 150 91 188 146 88 190 150 88 190 150 88 190 150 91 188 146 91 188 146 88 190 150 91 188 146 85 192 153 88 190 150 85 192 153 88 190 150 88 190 150 88 190 150 88 190 150 88 190 150 91 188 146 88 190 150 88 190 150 88 190 150 91 188 146 88 190 150 88 190 150 91 188 146 91 188 146 91 188 146 88 190 150 91 188 146 88 190 150 88 190 150 91 188 146 91 188 146 91 188 146 91 188 146 93 186 143 93 186 143 93 186 143 91 188 146 88 190 150 88 190 150 93 186 143 91 188 146 91 188 146 91 188 146 93 186 143 96 184 139 91 188 146 91 188 146 93 186 143 93 186 143 93 186 143 88 190 150 96 184 139 93 186 143 93 186 143 96 184 139 93 186 143 93 186 143 96 184 139 91 188 146 93 186 143 93 186 143 26 235 223 8 248 244 8 248 244 46 220 199 182 148 56 182 148 56 170 150 65 172 149 63 170 150 65 182 148 56 182 148 56 172 149 63 170 150 65 172 149 63 172 149 63 182 148 56 172 149 63 172 149 63 182 148 56 182 148 56 172 149 63 182 148 56 172 149 63 182 148 56 182 148 56 182 148 56 187 148 52 182 148 56 187 148 52 187 148 52 182 148 56 172 149 63 187 148 52 172 149 63 172 149 63 172 149 63 182 148 56 182 148 56 172 149 63 182 148 56 172 149 63 187 148 52 187 148 52 187 148 52 192 147 48 187 148 52 187 148 52 192 147 48 187 148 52 187 148 52 187 148 52 187 148 52 187 148 52 192 147 48 192 147 48 187 148 52 192 147 48 192 147 48 187 148 52 187 148 52 187 148 52 187 148 52 195 147 46 192 147 48 192 147 48 195 147 46 195 147 46 195 147 46 195 147 46 192 147 48 212 145 32 192 147 48 195 147 46 192 147 48 192 147 48 195 147 46 195 147 46 195 147 46 195 147 46 192 147 48 195 147 46 212 145 32 192 147 48 195 147 46 195 147 46 187 148 52 46 220 199 8 248 244 5 250 248 5 250 248 8 248 244 8 248 244 5 250 248 5 250 248 5 250 248 8 248 244 8 248 244 8 248 244 8 248 244 5 250 248 8 248 244 5 250 248 5 250 248 5 250 248 5 250 248 5 250 248 5 250 248 5 250 248 5 250 248 5 250 248 5 250 248 5 250 248 
5 250 248 5 250 248 5 250 248 5 250 248 5 250 248 8 248 244 8 248 244 8 248 244 8 248 244 8 248 244 5 250 248 8 248 244 5 250 248 5 250 248 8 248 244 8 248 244 8 248 244 8 248 244 8 248 244 8 248 244 8 248 244 8 248 244 8 248 244 8 248 244 5 250 248 23 237 227 85 192 153 91 188 146 91 188 146 88 190 150 88 190 150 88 190 150 88 190 150 88 190 150 88 190 150 88 190 150 88 190 150 91 188 146 88 190 150 88 190 150 88 190 150 85 192 153 88 190 150 88 190 150 88 190 150 88 190 150 91 188 146 88 190 150 88 190 150 88 190 150 91 188 146 91 188 146 88 190 150 91 188 146 85 192 153 88 190 150 85 192 153 88 190 150 88 190 150 88 190 150 88 190 150 88 190 150 91 188 146 88 190 150 88 190 150 88 190 150 91 188 146 88 190 150 88 190 150 91 188 146 91 188 146 91 188 146 88 190 150 91 188 146 88 190 150 88 190 150 91 188 146 91 188 146 91 188 146 91 188 146 93 186 143 93 186 143 93 186 143 91 188 146 88 190 150 88 190 150 93 186 143 91 188 146 91 188 146 91 188 146 93 186 143 96 184 139 91 188 146 91 188 146 93 186 143 93 186 143 93 186 143 88 190 150 96 184 139 93 186 143 93 186 143 96 184 139 93 186 143 93 186 143 96 184 139 91 188 146 93 186 143 93 186 143 26 235 223 8 248 244 8 248 244 46 220 199 182 148 56 182 148 56 170 150 65 172 149 63 170 150 65 182 148 56 182 148 56 172 149 63 170 150 65 172 149 63 172 149 63 182 148 56 172 149 63 172 149 63 182 148 56 182 148 56 172 149 63 182 148 56 172 149 63 182 148 56 182 148 56 182 148 56 187 148 52 182 148 56 187 148 52 187 148 52 182 148 56 172 149 63 187 148 52 172 149 63 172 149 63 172 149 63 182 148 56 182 148 56 172 149 63 182 148 56 172 149 63 187 148 52 187 148 52 187 148 52 192 147 48 187 148 52 187 148 52 192 147 48 187 148 52 187 148 52 187 148 52 187 148 52 187 148 52 192 147 48 192 147 48 187 148 52 192 147 48 192 147 48 187 148 52 187 148 52 187 148 52 187 148 52 195 147 46 192 147 48 192 147 48 195 147 46 195 147 46 195 147 46 195 147 46 192 147 48 212 145 32 192 147 48 195 147 46 192 147 48 192 147 48 195 147 46 195 147 46 195 147 46 195 147 46 192 147 48 195 147 46 212 145 32 192 147 48 195 147 46 195 147 46 187 148 52 46 220 199 8 248 244 5 250 248 5 250 248 8 248 244 8 248 244 5 250 248 5 250 248 5 250 248 8 248 244 8 248 244 8 248 244 8 248 244 5 250 248 8 248 244 5 250 248 5 250 248 5 250 248 5 250 248 5 250 248 5 250 248 5 250 248 5 250 248 5 250 248 5 250 248 5 250 248 
5 250 248 5 250 248 5 250 248 5 250 248 5 250 248 5 250 248 8 248 244 8 248 244 8 248 244 8 248 244 8 248 244 8 248 244 8 248 244 8 248 244 8 248 244 8 248 244 8 248 244 8 248 244 8 248 244 8 248 244 8 248 244 8 248 244 8 248 244 8 248 244 5 250 248 5 250 248 26 235 223 76 199 164 88 190 150 88 190 150 88 190 150 88 190 150 88 190 150 88 190 150 88 190 150 91 188 146 93 186 143 91 188 146 88 190 150 88 190 150 88 190 150 85 192 153 88 190 150 88 190 150 88 190 150 88 190 150 91 188 146 91 188 146 91 188 146 85 192 153 88 190 150 88 190 150 85 192 153 85 192 153 88 190 150 91 188 146 85 192 153 85 192 153 88 190 150 91 188 146 88 190 150 91 188 146 91 188 146 91 188 146 91 188 146 91 188 146 88 190 150 91 188 146 91 188 146 91 188 146 91 188 146 88 190 150 91 188 146 88 190 150 91 188 146 88 190 150 88 190 150 88 190 150 93 186 143 91 188 146 93 186 143 88 190 150 91 188 146 91 188 146 91 188 146 91 188 146 91 188 146 91 188 146 91 188 146 93 186 143 93 186 143 93 186 143 93 186 143 93 186 143 91 188 146 91 188 146 91 188 146 96 184 139 93 186 143 93 186 143 93 186 143 91 188 146 91 188 146 91 188 146 91 188 146 93 186 143 91 188 146 93 186 143 26 235 223 8 248 244 8 248 244 46 220 199 170 150 65 172 149 63 187 148 52 172 149 63 187 148 52 182 148 56 172 149 63 172 149 63 182 148 56 182 148 56 182 148 56 172 149 63 182 148 56 182 148 56 172 149 63 172 149 63 172 149 63 182 148 56 187 148 52 182 148 56 182 148 56 187 148 52 172 149 63 187 148 52 182 148 56 187 148 52 187 148 52 187 148 52 172 149 63 187 148 52 187 148 52 182 148 56 172 149 63 182 148 56 182 148 56 187 148 52 187 148 52 187 148 52 182 148 56 187 148 52 182 148 56 187 148 52 182 148 56 187 148 52 187 148 52 195 147 46 192 147 48 192 147 48 192 147 48 195 147 46 195 147 46 192 147 48 187 148 52 192 147 48 182 148 56 187 148 52 187 148 52 187 148 52 187 148 52 195 147 46 192 147 48 195 147 46 195 147 46 195 147 46 192 147 48 195 147 46 212 145 32 212 145 32 195 147 46 195 147 46 192 147 48 195 147 46 192 147 48 212 145 32 195 147 46 195 147 46 195 147 46 195 147 46 195 147 46 212 145 32 162 151 71 49 218 195 8 248 244 8 248 244 5 250 248 5 250 248 5 250 248 5 250 248 8 248 244 5 250 248 8 248 244 8 248 244 8 248 244 8 248 244 8 248 244 8 248 244 8 248 244 5 250 248 8 248 244 8 248 244 5 250 248 5 250 248 5 250 248 5 250 248 5 250 248 5 250 248 5 250 248 5 250 248 
5 250 248 5 250 248 5 250 248 5 250 248 5 250 248 5 250 248 8 248 244 8 248 244 8 248 244 8 248 244 8 248 244 8 248 244 8 248 244 8 248 244 8 248 244 8 248 244 8 248 244 8 248 244 8 248 244 8 248 244 8 248 244 8 248 244 8 248 244 8 248 244 5 250 248 5 250 248 26 235 223 76 199 164 88 190 150 88 190 150 88 190 150 88 190 150 88 190 150 88 190 150 88 190 150 91 188 146 93 186 143 91 188 146 88 190 150 88 190 150 88 190 150 85 192 153 88 190 150 88 190 150 88 190 150 88 190 150 91 188 146 91 188 146 91 188 146 85 192 153 88 190 150 88 190 150 85 192 153 85 192 153 88 190 150 91 188 146 85 192 153 85 192 153 88 190 150 91 188 146 88 190 150 91 188 146 91 188 146 91 188 146 91 188 146 91 188 146 88 190 150 91 188 146 91 188 146 91 188 146 91 188 146 88 190 150 91 188 146 88 190 150 91 188 146 88 190 150 88 190 150 88 190 150 93 186 143 91 188 146 93 186 143 88 190 150 91 188 146 91 188 146 91 188 146 91 188 146 91 188 146 91 188 146 91 188 146 93 186 143 93 186 143 93 186 143 93 186 143 93 186 143 91 188 146 91 188 146 91 188 146 96 184 139 93 186 143 93 186 143 93 186 143 91 188 146 91 188 146 91 188 146 91 188 146 93 186 143 91 188 146 93 186 143 26 235 223 8 248 244 8 248 244 46 220 199 170 150 65 172 149 63 187 148 52 172 149 63 187 148 52 182 148 56 172 149 63 172 149 63 182 148 56 182 148 56 182 148 56 172 149 63 182 148 56 182 148 56 172 149 63 172 149 63 172 149 63 182 148 56 187 148 52 182 148 56 182 148 56 187 148 52 172 149 63 187 148 52 182 148 56 187 148 52 187 148 52 187 148 52 172 149 63 187 148 52 187 148 52 182 148 56 172 149 63 182 148 56 182 148 56 187 148 52 187 148 52 187 148 52 182 148 56 187 148 52 182 148 56 187 148 52 182 148 56 187 148 52 187 148 52 195 147 46 192 147 48 192 147 48 192 147 48 195 147 46 195 147 46 192 147 48 187 148 52 192 147 48 182 148 56 187 148 52 187 148 52 187 148 52 187 148 52 195 147 46 192 147 48 195 147 46 195 147 46 195 147 46 192 147 48 195 147 46 212 145 32 212 145 32 195 147 46 195 147 46 192 147 48 195 147 46 192 147 48 212 145 32 195 147 46 195 147 46 195 147 46 195 147 46 195 147 46 212 145 32 162 151 71 49 218 195 8 248 244 8 248 244 5 250 248 5 250 248 5 250 248 5 250 248 8 248 244 5 250 248 8 248 244 8 248 244 8 248 244 8 248 244 8 248 244 8 248 244 8 248 244 5 250 248 8 248 244 8 248 244 5 250 248 5 250 248 5 250 248 5 250 248 5 250 248 5 250 248 5 250 248 5 250 248 
5 250 248 5 250 248 5 250 248 5 250 248 8 248 244 8 248 244 8 248 244 5 250 248 5 250 248 5 250 248 5 250 248 5 250 248 5 250 248 8 248 244 8 248 244 8 248 244 8 248 244 8 248 244 8 248 244 8 248 244 8 248 244 5 250 248 5 250 248 8 248 244 5 250 248 8 248 244 5 250 248 20 239 230 67 205 174 88 190 150 88 190 150 88 190 150 88 190 150 91 188 146 88 190 150 88 190 150 88 190 150 88 190 150 88 190 150 88 190 150 88 190 150 91 188 146 91 188 146 88 190 150 88 190 150 88 190 150 88 190 150 91 188 146 88 190 150 88 190 150 88 190 150 88 190 150 88 190 150 88 190 150 85 192 153 91 188 146 88 190 150 88 190 150 88 190 150 85 192 153 88 190 150 91 188 146 88 190 150 91 188 146 91 188 146 91 188 146 91 188 146 88 190 150 88 190 150 91 188 146 91 188 146 91 188 146 91 188 146 91 188 146 91 188 146 91 188 146 93 186 143 91 188 146 93 186 143 88 190 150 93 186 143 91 188 146 91 188 146 91 188 146 91 188 146 91 188 146 91 188 146 96 184 139 93 186 143 96 184 139 96 184 139 93 186 143 96 184 139 99 181 136 96 184 139 93 186 143 93 186 143 93 186 143 91 188 146 96 184 139 93 186 143 91 188 146 93 186 143 91 188 146 93 186 143 96 184 139 93 186 143 93 186 143 32 231 216 8 248 244 5 250 248 46 220 199 182 148 56 182 148 56 182 148 56 182 148 56 187 148 52 187 148 52 187 148 52 187 148 52 182 148 56 172 149 63 187 148 52 182 148 56 187 148 52 187 148 52 187 148 52 187 148 52 187 148 52 187 148 52 187 148 52 187 148 52 182 148 56 187 148 52 172 149 63 187 148 52 192 147 48 192 147 48 187 148 52 192 147 48 192 147 48 187 148 52 192 147 48 187 148 52 182 148 56 187 148 52 182 148 56 192 147 48 187 148 52 182 148 56 182 148 56 182 148 56 182 148 56 192 147 48 187 148 52 192 147 48 192 147 48 192 147 48 187 148 52 195 147 46 187 148 52 192 147 48 192 147 48 192 147 48 192 147 48 192 147 48 182 148 56 192 147 48 187 148 52 187 148 52 192 147 48 192 147 48 192 147 48 192 147 48 195 147 46 195 147 46 192 147 48 195 147 46 212 145 32 212 145 32 195 147 46 195 147 46 195 147 46 192 147 48 195 147 46 195 147 46 192 147 48 187 148 52 195 147 46 195 147 46 212 145 32 152 152 79 41 224 206 8 248 244 5 250 248 8 248 244 5 250 248 5 250 248 5 250 248 8 248 244 8 248 244 8 248 244 8 248 244 8 248 244 11 246 241 8 248 244 8 248 244 8 248 244 8 248 244 8 248 244 5 250 248 8 248 244 5 250 248 5 250 248 5 250 248 5 250 248 5 250 248 5 250 248 5 250 248 8 248 244 
5 250 248 5 250 248 5 250 248 5 250 248 8 248 244 8 248 244 8 248 244 5 250 248 5 250 248 5 250 248 5 250 248 5 250 248 5 250 248 8 248 244 8 248 244 8 248 244 8 248 244 8 248 244 8 248 244 8 248 244 8 248 244 5 250 248 5 250 248 8 248 244 5 250 248 8 248 244 5 250 248 20 239 230 67 205 174 88 190 150 88 190 150 88 190 150 88 190 150 91 188 146 88 190 150 88 190 150 88 190 150 88 190 150 88 190 150 88 190 150 88 190 150 91 188 146 91 188 146 88 190 150 88 190 150 88 190 150 88 190 150 91 188 146 88 190 150 88 190 150 88 190 150 88 190 150 88 190 150 88 190 150 85 192 153 91 188 146 88 190 150 88 190 150 88 190 150 85 192 153 88 190 150 91 188 146 88 190 150 91 188 146 91 188 146 91 188 146 91 188 146 88 190 150 88 190 150 91 188 146 91 188 146 91 188 146 91 188 146 91 188 146 91 188 146 91 188 146 93 186 143 91 188 146 93 186 143 88 190 150 93 186 143 91 188 146 91 188 146 91 188 146 91 188 146 91 188 146 91 188 146 96 184 139 93 186 143 96 184 139 96 184 139 93 186 143 96 184 139 99 181 136 96 184 139 93 186 143 93 186 143 93 186 143 91 188 146 96 184 139 93 186 143 91 188 146 93 186 143 91 188 146 93 186 143 96 184 139 93 186 143 93 186 143 32 231 216 8 248 244 5 250 248 46 220 199 182 148 56 182 148 56 182 148 56 182 148 56 187 148 52 187 148 52 187 148 52 187 148 52 182 148 56 172 149 63 187 148 52 182 148 56 187 148 52 187 148 52 187 148 52 187 148 52 187 148 52 187 148 52 187 148 52 187 148 52 182 148 56 187 148 52 172 149 63 187 148 52 192 147 48 192 147 48 187 148 52 192 147 48 192 147 48 187 148 52 192 147 48 187 148 52 182 148 56 187 148 52 182 148 56 192 147 48 187 148 52 182 148 56 182 148 56 182 148 56 182 148 56 192 147 48 187 148 52 192 147 48 192 147 48 192 147 48 187 148 52 195 147 46 187 148 52 192 147 48 192 147 48 192 147 48 192 147 48 192 147 48 182 148 56 192 147 48 187 148 52 187 148 52 192 147 48 192 147 48 192 147 48 192 147 48 195 147 46 195 147 46 192 147 48 195 147 46 212 145 32 212 145 32 195 147 46 195 147 46 195 147 46 192 147 48 195 147 46 195 147 46 192 147 48 187 148 52 195 147 46 195 147 46 212 145 32 152 152 79 41 224 206 8 248 244 5 250 248 8 248 244 5 250 248 5 250 248 5 250 248 8 248 244 8 248 244 8 248 244 8 248 244 8 248 244 11 246 241 8 248 244 8 248 244 8 248 244 8 248 244 8 248 244 5 250 248 8 248 244 5 250 248 5 250 248 5 250 248 5 250 248 5 250 248 5 250 248 5 250 248 8 248 244 
5 250 248 5 250 248 5 250 248 5 250 248 5 250 248 5 250 248 5 250 248 5 250 248 5 250 248 5 250 248 5 250 248 8 248 244 8 248 244 8 248 244 8 248 244 8 248 244 8 248 244 8 248 244 8 248 244 8 248 244 8 248 244 5 250 248 5 250 248 8 248 244 5 250 248 8 248 244 5 250 248 5 250 248 14 244 237 70 203 171 88 190 150 91 188 146 91 188 146 88 190 150 88 190 150 88 190 150 85 192 153 88 190 150 88 190 150 85 192 153 88 190 150 85 192 153 85 192 153 85 192 153 88 190 150 88 190 150 91 188 146 88 190 150 88 190 150 88 190 150 85 192 153 85 192 153 88 190 150 88 190 150 91 188 146 91 188 146 88 190 150 88 190 150 88 190 150 88 190 150 85 192 153 85 192 153 88 190 150 91 188 146 88 190 150 88 190 150 93 186 143 88 190 150 85 192 153 88 190 150 91 188 146 88 190 150 91 188 146 91 188 146 91 188 146 91 188 146 91 188 146 91 188 146 93 186 143 93 186 143 96 184 139 93 186 143 96 184 139 93 186 143 96 184 139 96 184 139 96 184 139 96 184 139 96 184 139 96 184 139 96 184 139 99 181 136 96 184 139 96 184 139 93 186 143 96 184 139 96 184 139 93 186 143 93 186 143 91 188 146 91 188 146 91 188 146 93 186 143 93 186 143 93 186 143 93 186 143 93 186 143 96 184 139 32 231 216 8 248 244 8 248 244 49 218 195 172 149 63 187 148 52 187 148 52 187 148 52 187 148 52 182 148 56 187 148 52 187 148 52 182 148 56 187 148 52 182 148 56 187 148 52 182 148 56 182 148 56 187 148 52 182 148 56 187 148 52 187 148 52 187 148 52 192 147 48 187 148 52 182 148 56 192 147 48 192 147 48 192 147 48 192 147 48 187 148 52 192 147 48 192 147 48 192 147 48 195 147 46 192 147 48 187 148 52 187 148 52 192 147 48 187 148 52 187 148 52 187 148 52 187 148 52 187 148 52 187 148 52 182 148 56 192 147 48 192 147 48 192 147 48 192 147 48 195 147 46 187 148 52 182 148 56 182 148 56 182 148 56 182 148 56 187 148 52 187 148 52 192 147 48 192 147 48 192 147 48 192 147 48 195 147 46 195 147 46 192 147 48 192 147 48 192 147 48 187 148 52 195 147 46 195 147 46 195 147 46 195 147 46 212 145 32 195 147 46 195 147 46 195 147 46 192 147 48 192 147 48 195 147 46 192 147 48 192 147 48 212 145 32 157 151 75 23 237 227 5 250 248 5 250 248 5 250 248 5 250 248 8 248 244 8 248 244 8 248 244 8 248 244 8 248 244 5 250 248 8 248 244 5 250 248 8 248 244 8 248 244 8 248 244 5 250 248 8 248 244 5 250 248 5 250 248 8 248 244 5 250 248 5 250 248 5 250 248 8 248 244 5 250 248 5 250 248 8 248 244 8 248 244 
5 250 248 5 250 248 5 250 248 5 250 248 5 250 248 5 250 248 5 250 248 5 250 248 5 250 248 5 250 248 5 250 248 8 248 244 8 248 244 8 248 244 8 248 244 8 248 244 8 248 244 8 248 244 8 248 244 8 248 244 8 248 244 5 250 248 5 250 248 8 248 244 5 250 248 8 248 244 5 250 248 5 250 248 14 244 237 70 203 171 88 190 150 91 188 146 91 188 146 88 190 150 88 190 150 88 190 150 85 192 153 88 190 150 88 190 150 85 192 153 88 190 150 85 192 153 85 192 153 85 192 153 88 190 150 88 190 150 91 188 146 88 190 150 88 190 150 88 190 150 85 192 153 85 192 153 88 190 150 88 190 150 91 188 146 91 188 146 88 190 150 88 190 150 88 190 150 88 190 150 85 192 153 85 192 153 88 190 150 91 188 146 88 190 150 88 190 150 93 186 143 88 190 150 85 192 153 88 190 150 91 188 146 88 190 150 91 188 146 91 188 146 91 188 146 91 188 146 91 188 146 91 188 146 93 186 143 93 186 143 96 184 139 93 186 143 96 184 139 93 186 143 96 184 139 96 184 139 96 184 139 96 184 139 96 184 139 96 184 139 96 184 139 99 181 136 96 184 139 96 184 139 93 186 143 96 184 139 96 184 139 93 186 143 93 186 143 91 188 146 91 188 146 91 188 146 93 186 143 93 186 143 93 186 143 93 186 143 93 186 143 96 184 139 32 231 216 8 248 244 8 248 244 49 218 195 172 149 63 187 148 52 187 148 52 187 148 52 187 148 52 182 148 56 187 148 52 187 148 52 182 148 56 187 148 52 182 148 56 187 148 52 182 148 56 182 148 56 187 148 52 182 148 56 187 148 52 187 148 52 187 148 52 192 147 48 187 148 52 182 148 56 192 147 48 192 147 48 192 147 48 192 147 48 187 148 52 192 147 48 192 147 48 192 147 48 195 147 46 192 147 48 187 148 52 187 148 52 192 147 48 187 148 52 187 148 52 187 148 52 187 148 52 187 148 52 187 148 52 182 148 56 192 147 48 192 147 48 192 147 48 192 147 48 195 147 46 187 148 52 182 148 56 182 148 56 182 148 56 182 148 56 187 148 52 187 148 52 192 147 48 192 147 48 192 147 48 192 147 48 195 147 46 195 147 46 192 147 48 192 147 48 192 147 48 187 148 52 195 147 46 195 147 46 195 147 46 195 147 46 212 145 32 195 147 46 195 147 46 195 147 46 192 147 48 192 147 48 195 147 46 192 147 48 192 147 48 212 145 32 157 151 75 23 237 227 5 250 248 5 250 248 5 250 248 5 250 248 8 248 244 8 248 244 8 248 244 8 248 244 8 248 244 5 250 248 8 248 244 5 250 248 8 248 244 8 248 244 8 248 244 5 250 248 8 248 244 5 250 248 5 250 248 8 248 244 5 250 248 5 250 248 5 250 248 8 248 244 5 250 248 5 250 248 8 248 244 8 248 244 
8 248 244 5 250 248 5 250 248 5 250 248 5 250 248 5 250 248 8 248 244 8 248 244 5 250 248 5 250 248 5 250 248 5 250 248 5 250 248 8 248 244 5 250 248 5 250 248 8 248 244 8 248 244 8 248 244 8 248 244 5 250 248 5 250 248 8 248 244 5 250 248 8 248 244 8 248 244 5 250 248 5 250 248 5 250 248 5 250 248 38 227 209 91 188 146 85 192 153 85 192 153 82 194 157 85 192 153 82 194 157 88 190 150 85 192 153 82 194 157 82 194 157 85 192 153 91 188 146 88 190 150 85 192 153 88 190 150 88 190 150 88 190 150 93 186 143 91 188 146 88 190 150 88 190 150 88 190 150 88 190 150 88 190 150 88 190 150 88 190 150 91 188 146 91 188 146 91 188 146 91 188 146 85 192 153 88 190 150 91 188 146 88 190 150 88 190 150 88 190 150 88 190 150 91 188 146 91 188 146 91 188 146 91 188 146 91 188 146 91 188 146 91 188 146 91 188 146 91 188 146 93 186 143 96 184 139 96 184 139 93 186 143 96 184 139 96 184 139 93 186 143 96 184 139 99 181 136 102 179 132 99 181 136 96 184 139 96 184 139 96 184 139 99 181 136 99 181 136 99 181 136 96 184 139 96 184 139 96 184 139 93 186 143 93 186 143 96 184 139 93 186 143 93 186 143 96 184 139 93 186 143 91 188 146 91 188 146 96 184 139 96 184 139 32 231 216 8 248 244 5 250 248 49 218 195 182 148 56 182 148 56 187 148 52 182 148 56 192 147 48 187 148 52 187 148 52 182 148 56 187 148 52 187 148 52 182 148 56 172 149 63 182 148 56 182 148 56 187 148 52 182 148 56 187 148 52 192 147 48 192 147 48 192 147 48 192 147 48 192 147 48 187 148 52 192 147 48 195 147 46 192 147 48 195 147 46 192 147 48 192 147 48 195 147 46 192 147 48 187 148 52 192 147 48 192 147 48 187 148 52 192 147 48 187 148 52 187 148 52 192 147 48 192 147 48 172 149 63 187 148 52 182 148 56 182 148 56 187 148 52 192 147 48 182 148 56 187 148 52 192 147 48 187 148 52 192 147 48 187 148 52 192 147 48 192 147 48 192 147 48 187 148 52 187 148 52 192 147 48 187 148 52 187 148 52 192 147 48 192 147 48 192 147 48 192 147 48 192 147 48 192 147 48 212 145 32 195 147 46 192 147 48 192 147 48 192 147 48 192 147 48 192 147 48 195 147 46 195 147 46 195 147 46 195 147 46 70 203 171 5 250 248 5 250 248 5 250 248 8 248 244 5 250 248 8 248 244 5 250 248 5 250 248 5 250 248 8 248 244 5 250 248 8 248 244 5 250 248 5 250 248 5 250 248 8 248 244 5 250 248 5 250 248 8 248 244 5 250 248 5 250 248 8 248 244 5 250 248 5 250 248 5 250 248 5 250 248 5 250 248 5 250 248 5 250 248 5 250 248 
8 248 244 5 250 248 5 250 248 5 250 248 5 250 248 5 250 248 8 248 244 8 248 244 5 250 248 5 250 248 5 250 248 5 250 248 5 250 248 8 248 244 5 250 248 5 250 248 8 248 244 8 248 244 8 248 244 8 248 244 5 250 248 5 250 248 8 248 244 5 250 248 8 248 244 8 248 244 5 250 248 5 250 248 5 250 248 5 250 248 38 227 209 91 188 146 85 192 153 85 192 153 82 194 157 85 192 153 82 194 157 88 190 150 85 192 153 82 194 157 82 194 157 85 192 153 91 188 146 88 190 150 85 192 153 88 190 150 88 190 150 88 190 150 93 186 143 91 188 146 88 190 150 88 190 150 88 190 150 88 190 150 88 190 150 88 190 150 88 190 150 91 188 146 91 188 146 91 188 146 91 188 146 85 192 153 88 190 150 91 188 146 88 190 150 88 190 150 88 190 150 88 190 150 91 188 146 91 188 146 91 188 146 91 188 146 91 188 146 91 188 146 91 188 146 91 188 146 91 188 146 93 186 143 96 184 139 96 184 139 93 186 143 96 184 139 96 184 139 93 186 143 96 184 139 99 181 136 102 179 132 99 181 136 96 184 139 96 184 139 96 184 139 99 181 136 99 181 136 99 181 136 96 184 139 96 184 139 96 184 139 93 186 143 93 186 143 96 184 139 93 186 143 93 186 143 96 184 139 93 186 143 91 188 146 91 188 146 96 184 139 96 184 139 32 231 216 8 248 244 5 250 248 49 218 195 182 148 56 182 148 56 187 148 52 182 148 56 192 147 48 187 148 52 187 148 52 182 148 56 187 148 52 187 148 52 182 148 56 172 149 63 182 148 56 182 148 56 187 148 52 182 148 56 187 148 52 192 147 48 192 147 48 192 147 48 192 147 48 192 147 48 187 148 52 192 147 48 195 147 46 192 147 48 195 147 46 192 147 48 192 147 48 195 147 46 192 147 48 187 148 52 192 147 48 192 147 48 187 148 52 192 147 48 187 148 52 187 148 52 192 147 48 192 147 48 172 149 63 187 148 52 182 148 56 182 148 56 187 148 52 192 147 48 182 148 56 187 148 52 192 147 48 187 148 52 192 147 48 187 148 52 192 147 48 192 147 48 192 147 48 187 148 52 187 148 52 192 147 48 187 148 52 187 148 52 192 147 48 192 147 48 192 147 48 192 147 48 192 147 48 192 147 48 212 145 32 195 147 46 192 147 48 192 147 48 192 147 48 192 147 48 192 147 48 195 147 46 195 147 46 195 147 46 195 147 46 70 203 171 5 250 248 5 250 248 5 250 248 8 248 244 5 250 248 8 248 244 5 250 248 5 250 248 5 250 248 8 248 244 5 250 248 8 248 244 5 250 248 5 250 248 5 250 248 8 248 244 5 250 248 5 250 248 8 248 244 5 250 248 5 250 248 8 248 244 5 250 248 5 250 248 5 250 248 5 250 248 5 250 248 5 250 248 5 250 248 5 250 248 
5 250 248 5 250 248 8 248 244 5 250 248 5 250 248 5 250 248 5 250 248 5 250 248 8 248 244 5 250 248 8 248 244 5 250 248 5 250 248 5 250 248 5 250 248 8 248 244 5 250 248 5 250 248 8 248 244 5 250 248 8 248 244 5 250 248 5 250 248 8 248 244 5 250 248 5 250 248 8 248 244 8 248 244 5 250 248 5 250 248 5 250 248 17 242 234 88 190 150 88 190 150 85 192 153 82 194 157 82 194 157 85 192 153 85 192 153 85 192 153 85 192 153 88 190 150 85 192 153 85 192 153 85 192 153 85 192 153 85 192 153 88 190 150 85 192 153 85 192 153 88 190 150 88 190 150 91 188 146 88 190 150 88 190 150 88 190 150 93 186 143 91 188 146 91 188 146 88 190 150 88 190 150 85 192 153 88 190 150 88 190 150 88 190 150 88 190 150 91 188 146 93 186 143 88 190 150 93 186 143 91 188 146 88 190 150 88 190 150 96 184 139 88 190 150 96 184 139 96 184 139 93 186 143 96 184 139 99 181 136 99 181 136 96 184 139 96 184 139 99 181 136 91 188 146 99 181 136 99 181 136 96 184 139 96 184 139 96 184 139 99 181 136 96 184 139 99 181 136 96 184 139 96 184 139 96 184 139 99 181 136 99 181 136 99 181 136 93 186 143 99 181 136 99 181 136 93 186 143 91 188 146 93 186 143 96 184 139 96 184 139 96 184 139 32 231 216 8 248 244 8 248 244 49 218 195 182 148 56 172 149 63 187 148 52 187 148 52 192 147 48 187 148 52 182 148 56 182 148 56 182 148 56 182 148 56 182 148 56 187 148 52 187 148 52 182 148 56 182 148 56 192 147 48 182 148 56 187 148 52 192 147 48 192 147 48 192 147 48 195 147 46 187 148 52 192 147 48 187 148 52 195 147 46 192 147 48 192 147 48 192 147 48 187 148 52 182 148 56 187 148 52 182 148 56 192 147 48 182 148 56 187 148 52 195 147 46 192 147 48 187 148 52 187 148 52 192 147 48 195 147 46 187 148 52 187 148 52 187 148 52 192 147 48 187 148 52 187 148 52 192 147 48 195 147 46 195 147 46 192 147 48 187 148 52 192 147 48 192 147 48 187 148 52 187 148 52 192 147 48 182 148 56 187 148 52 192 147 48 192 147 48 195 147 46 195 147 46 192 147 48 195 147 46 195 147 46 195 147 46 192 147 48 187 148 52 195 147 46 195 147 46 195 147 46 195 147 46 195 147 46 215 144 30 41 224 206 8 248 244 8 248 244 5 250 248 5 250 248 8 248 244 8 248 244 5 250 248 5 250 248 8 248 244 5 250 248 8 248 244 8 248 244 5 250 248 5 250 248 8 248 244 8 248 244 8 248 244 5 250 248 5 250 248 5 250 248 5 250 248 5 250 248 8 248 244 5 250 248 8 248 244 5 250 248 8 248 244 5 250 248 5 250 248 5 250 248 5 250 248 
5 250 248 5 250 248 8 248 244 5 250 248 5 250 248 5 250 248 5 250 248 5 250 248 8 248 244 5 250 248 8 248 244 5 250 248 5 250 248 5 250 248 5 250 248 8 248 244 5 250 248 5 250 248 8 248 244 5 250 248 8 248 244 5 250 248 5 250 248 8 248 244 5 250 248 5 250 248 8 248 244 8 248 244 5 250 248 5 250 248 5 250 248 17 242 234 88 190 150 88 190 150 85 192 153 82 194 157 82 194 157 85 192 153 85 192 153 85 192 153 85 192 153 88 190 150 85 192 153 85 192 153 85 192 153 85 192 153 85 192 153 88 190 150 85 192 153 85 192 153 88 190 150 88 190 150 91 188 146 88 190 150 88 190 150 88 190 150 93 186 143 91 188 146 91 188 146 88 190 150 88 190 150 85 192 153 88 190 150 88 190 150 88 190 150 88 190 150 91 188 146 93 186 143 88 190 150 93 186 143 91 188 146 88 190 150 88 190 150 96 184 139 88 190 150 96 184 139 96 184 139 93 186 143 96 184 139 99 181 136 99 181 136 96 184 139 96 184 139 99 181 136 91 188 146 99 181 136 99 181 136 96 184 139 96 184 139 96 184 139 99 181 136 96 184 139 99 181 136 96 184 139 96 184 139 96 184 139 99 181 136 99 181 136 99 181 136 93 186 143 99 181 136 99 181 136 93 186 143 91 188 146 93 186 143 96 184 139 96 184 139 96 184 139 32 231 216 8 248 244 8 248 244 49 218 195 182 148 56 172 149 63 187 148 52 187 148 52 192 147 48 187 148 52 182 148 56 182 148 56 182 148 56 182 148 56 182 148 56 187 148 52 187 148 52 182 148 56 182 148 56 192 147 48 182 148 56 187 148 52 192 147 48 192 147 48 192 147 48 195 147 46 187 148 52 192 147 48 187 148 52 195 147 46 192 147 48 192 147 48 192 147 48 187 148 52 182 148 56 187 148 52 182 148 56 192 147 48 182 148 56 187 148 52 195 147 46 192 147 48 187 148 52 187 148 52 192 147 48 195 147 46 187 148 52 187 148 52 187 148 52 192 147 48 187 148 52 187 148 52 192 147 48 195 147 46 195 147 46 192 147 48 187 148 52 192 147 48 192 147 48 187 148 52 187 148 52 192 147 48 182 148 56 187 148 52 192 147 48 192 147 48 195 147 46 195 147 46 192 147 48 195 147 46 195 147 46 195 147 46 192 147 48 187 148 52 195 147 46 195 147 46 195 147 46 195 147 46 195 147 46 215 144 30 41 224 206 8 248 244 8 248 244 5 250 248 5 250 248 8 248 244 8 248 244 5 250 248 5 250 248 8 248 244 5 250 248 8 248 244 8 248 244 5 250 248 5 250 248 8 248 244 8 248 244 8 248 244 5 250 248 5 250 248 5 250 248 5 250 248 5 250 248 8 248 244 5 250 248 8 248 244 5 250 248 8 248 244 5 250 248 5 250 248 5 250 248 5 250 248 
5 250 248 5 250 248 5 250 248 5 250 248 8 248 244 8 248 244 5 250 248 5 250 248 5 250 248 5 250 248 5 250 248 5 250 248 8 248 244 5 250 248 8 248 244 8 248 244 5 250 248 8 248 244 5 250 248 5 250 248 5 250 248 5 250 248 5 250 248 8 248 244 8 248 244 5 250 248 5 250 248 8 248 244 5 250 248 8 248 244 5 250 248 5 250 248 11 246 241 52 216 192 85 192 153 85 192 153 85 192 153 85 192 153 85 192 153 85 192 153 85 192 153 85 192 153 76 199 164 85 192 153 88 190 150 88 190 150 88 190 150 88 190 150 91 188 146 88 190 150 91 188 146 91 188 146 88 190 150 88 190 150 93 186 143 91 188 146 91 188 146 88 190 150 88 190 150 91 188 146 91 188 146 91 188 146 91 188 146 88 190 150 91 188 146 91 188 146 88 190 150 93 186 143 88 190 150 93 186 143 91 188 146 91 188 146 88 190 150 91 188 146 96 184 139 96 184 139 93 186 143 93 186 143 93 186 143 96 184 139 99 181 136 99 181 136 96 184 139 93 186 143 93 186 143 96 184 139 96 184 139 96 184 139 96 184 139 96 184 139 96 184 139 102 179 132 96 184 139 99 181 136 99 181 136 99 181 136 99 181 136 102 179 132 99 181 136 99 181 136 93 186 143 96 184 139 99 181 136 93 186 143 96 184 139 96 184 139 96 184 139 96 184 139 32 231 216 8 248 244 8 248 244 46 220 199 182 148 56 172 149 63 172 149 63 187 148 52 187 148 52 187 148 52 182 148 56 182 148 56 182 148 56 192 147 48 182 148 56 187 148 52 182 148 56 187 148 52 187 148 52 187 148 52 187 148 52 187 148 52 195 147 46 195 147 46 195 147 46 192 147 48 192 147 48 212 145 32 192 147 48 195 147 46 195 147 46 192 147 48 195 147 46 195 147 46 192 147 48 195 147 46 195 147 46 192 147 48 192 147 48 195 147 46 192 147 48 192 147 48 192 147 48 187 148 52 182 148 56 192 147 48 187 148 52 182 148 56 187 148 52 182 148 56 187 148 52 192 147 48 187 148 52 187 148 52 182 148 56 187 148 52 192 147 48 195 147 46 192 147 48 187 148 52 192 147 48 192 147 48 187 148 52 187 148 52 192 147 48 192 147 48 192 147 48 192 147 48 192 147 48 192 147 48 195 147 46 192 147 48 192 147 48 195 147 46 192 147 48 192 147 48 192 147 48 192 147 48 105 177 129 17 242 234 8 248 244 5 250 248 8 248 244 5 250 248 8 248 244 5 250 248 5 250 248 5 250 248 5 250 248 8 248 244 5 250 248 5 250 248 5 250 248 5 250 248 5 250 248 5 250 248 5 250 248 5 250 248 5 250 248 5 250 248 5 250 248 5 250 248 5 250 248 5 250 248 5 250 248 5 250 248 5 250 248 8 248 244 8 248 244 5 250 248 5 250 248 5 250 248 
5 250 248 5 250 248 5 250 248 5 250 248 8 248 244 8 248 244 5 250 248 5 250 248 5 250 248 5 250 248 5 250 248 5 250 248 8 248 244 5 250 248 8 248 244 8 248 244 5 250 248 8 248 244 5 250 248 5 250 248 5 250 248 5 250 248 5 250 248 8 248 244 8 248 244 5 250 248 5 250 248 8 248 244 5 250 248 8 248 244 5 250 248 5 250 248 11 246 241 52 216 192 85 192 153 85 192 153 85 192 153 85 192 153 85 192 153 85 192 153 85 192 153 85 192 153 76 199 164 85 192 153 88 190 150 88 190 150 88 190 150 88 190 150 91 188 146 88 190 150 91 188 146 91 188 146 88 190 150 88 190 150 93 186 143 91 188 146 91 188 146 88 190 150 88 190 150 91 188 146 91 188 146 91 188 146 91 188 146 88 190 150 91 188 146 91 188 146 88 190 150 93 186 143 88 190 150 93 186 143 91 188 146 91 188 146 88 190 150 91 188 146 96 184 139 96 184 139 93 186 143 93 186 143 93 186 143 96 184 139 99 181 136 99 181 136 96 184 139 93 186 143 93 186 143 96 184 139 96 184 139 96 184 139 96 184 139 96 184 139 96 184 139 102 179 132 96 184 139 99 181 136 99 181 136 99 181 136 99 181 136 102 179 132 99 181 136 99 181 136 93 186 143 96 184 139 99 181 136 93 186 143 96 184 139 96 184 139 96 184 139 96 184 139 32 231 216 8 248 244 8 248 244 46 220 199 182 148 56 172 149 63 172 149 63 187 148 52 187 148 52 187 148 52 182 148 56 182 148 56 182 148 56 192 147 48 182 148 56 187 148 52 182 148 56 187 148 52 187 148 52 187 148 52 187 148 52 187 148 52 195 147 46 195 147 46 195 147 46 192 147 48 192 147 48 212 145 32 192 147 48 195 147 46 195 147 46 192 147 48 195 147 46 195 147 46 192 147 48 195 147 46 195 147 46 192 147 48 192 147 48 195 147 46 192 147 48 192 147 48 192 147 48 187 148 52 182 148 56 192 147 48 187 148 52 182 148 56 187 148 52 182 148 56 187 148 52 192 147 48 187 148 52 187 148 52 182 148 56 187 148 52 192 147 48 195 147 46 192 147 48 187 148 52 192 147 48 192 147 48 187 148 52 187 148 52 192 147 48 192 147 48 192 147 48 192 147 48 192 147 48 192 147 48 195 147 46 192 147 48 192 147 48 195 147 46 192 147 48 192 147 48 192 147 48 192 147 48 105 177 129 17 242 234 8 248 244 5 250 248 8 248 244 5 250 248 8 248 244 5 250 248 5 250 248 5 250 248 5 250 248 8 248 244 5 250 248 5 250 248 5 250 248 5 250 248 5 250 248 5 250 248 5 250 248 5 250 248 5 250 248 5 250 248 5 250 248 5 250 248 5 250 248 5 250 248 5 250 248 5 250 248 5 250 248 8 248 244 8 248 244 5 250 248 5 250 248 5 250 248 
5 250 248 5 250 248 8 248 244 5 250 248 8 248 244 5 250 248 8 248 244 5 250 248 5 250 248 5 250 248 5 250 248 8 248 244 8 248 244 8 248 244 8 248 244 5 250 248 5 250 248 5 250 248 5 250 248 5 250 248 5 250 248 8 248 244 8 248 244 5 250 248 5 250 248 5 250 248 8 248 244 5 250 248 5 250 248 5 250 248 8 248 244 5 250 248 5 250 248 5 250 248 41 224 206 82 194 157 82 194 157 85 192 153 85 192 153 85 192 153 88 190 150 85 192 153 88 190 150 88 190 150 88 190 150 91 188 146 88 190 150 88 190 150 91 188 146 88 190 150 91 188 146 91 188 146 91 188 146 91 188 146 91 188 146 88 190 150 88 190 150 88 190 150 88 190 150 88 190 150 88 190 150 91 188 146 91 188 146 88 190 150 91 188 146 91 188 146 91 188 146 91 188 146 91 188 146 91 188 146 88 190 150 91 188 146 91 188 146 93 186 143 96 184 139 93 186 143 93 186 143 91 188 146 93 186 143 96 184 139 93 186 143 96 184 139 93 186 143 96 184 139 93 186 143 99 181 136 96 184 139 99 181 136 99 181 136 99 181 136 96 184 139 96 184 139 96 184 139 96 184 139 99 181 136 99 181 136 102 179 132 99 181 136 99 181 136 102 179 132 96 184 139 96 184 139 96 184 139 99 181 136 96 184 139 99 181 136 99 181 136 99 181 136 32 231 216 8 248 244 8 248 244 46 220 199 172 149 63 182 148 56 182 148 56 187 148 52 172 149 63 182 148 56 182 148 56 182 148 56 182 148 56 187 148 52 182 148 56 182 148 56 182 148 56 182 148 56 182 148 56 192 147 48 192 147 48 187 148 52 192 147 48 195 147 46 192 147 48 192 147 48 195 147 46 212 145 32 195 147 46 195 147 46 192 147 48 192 147 48 192 147 48 187 148 52 192 147 48 192 147 48 195 147 46 195 147 46 192 147 48 195 147 46 195 147 46 192 147 48 195 147 46 192 147 48 182 148 56 187 148 52 192 147 48 187 148 52 187 148 52 187 148 52 182 148 56 192 147 48 192 147 48 187 148 52 182 148 56 187 148 52 192 147 48 195 147 46 195 147 46 187 148 52 192 147 48 192 147 48 187 148 52 192 147 48 192 147 48 192 147 48 192 147 48 187 148 52 192 147 48 192 147 48 187 148 52 192 147 48 192 147 48 192 147 48 192 147 48 192 147 48 182 148 56 88 190 150 8 248 244 8 248 244 5 250 248 8 248 244 8 248 244 5 250 248 5 250 248 5 250 248 8 248 244 5 250 248 8 248 244 5 250 248 5 250 248 8 248 244 8 248 244 5 250 248 5 250 248 5 250 248 8 248 244 5 250 248 5 250 248 5 250 248 5 250 248 8 248 244 5 250 248 5 250 248 5 250 248 5 250 248 5 250 248 8 248 244 5 250 248 5 250 248 5 250 248 5 250 248 
5 250 248 5 250 248 8 248 244 5 250 248 8 248 244 5 250 248 8 248 244 5 250 248 5 250 248 5 250 248 5 250 248 8 248 244 8 248 244 8 248 244 8 248 244 5 250 248 5 250 248 5 250 248 5 250 248 5 250 248 5 250 248 8 248 244 8 248 244 5 250 248 5 250 248 5 250 248 8 248 244 5 250 248 5 250 248 5 250 248 8 248 244 5 250 248 5 250 248 5 250 248 41 224 206 82 194 157 82 194 157 85 192 153 85 192 153 85 192 153 88 190 150 85 192 153 88 190 150 88 190 150 88 190 150 91 188 146 88 190 150 88 190 150 91 188 146 88 190 150 91 188 146 91 188 146 91 188 146 91 188 146 91 188 146 88 190 150 88 190 150 88 190 150 88 190 150 88 190 150 88 190 150 91 188 146 91 188 146 88 190 150 91 188 146 91 188 146 91 188 146 91 188 146 91 188 146 91 188 146 88 190 150 91 188 146 91 188 146 93 186 143 96 184 139 93 186 143 93 186 143 91 188 146 93 186 143 96 184 139 93 186 143 96 184 139 93 186 143 96 184 139 93 186 143 99 181 136 96 184 139 99 181 136 99 181 136 99 181 136 96 184 139 96 184 139 96 184 139 96 184 139 99 181 136 99 181 136 102 179 132 99 181 136 99 181 136 102 179 132 96 184 139 96 184 139 96 184 139 99 181 136 96 184 139 99 181 136 99 181 136 99 181 136 32 231 216 8 248 244 8 248 244 46 220 199 172 149 63 182 148 56 182 148 56 187 148 52 172 149 63 182 148 56 182 148 56 182 148 56 182 148 56 187 148 52 182 148 56 182 148 56 182 148 56 182 148 56 182 148 56 192 147 48 192 147 48 187 148 52 192 147 48 195 147 46 192 147 48 192 147 48 195 147 46 212 145 32 195 147 46 195 147 46 192 147 48 192 147 48 192 147 48 187 148 52 192 147 48 192 147 48 195 147 46 195 147 46 192 147 48 195 147 46 195 147 46 192 147 48 195 147 46 192 147 48 182 148 56 187 148 52 192 147 48 187 148 52 187 148 52 187 148 52 182 148 56 192 147 48 192 147 48 187 148 52 182 148 56 187 148 52 192 147 48 195 147 46 195 147 46 187 148 52 192 147 48 192 147 48 187 148 52 192 147 48 192 147 48 192 147 48 192 147 48 187 148 52 192 147 48 192 147 48 187 148 52 192 147 48 192 147 48 192 147 48 192 147 48 192 147 48 182 148 56 88 190 150 8 248 244 8 248 244 5 250 248 8 248 244 8 248 244 5 250 248 5 250 248 5 250 248 8 248 244 5 250 248 8 248 244 5 250 248 5 250 248 8 248 244 8 248 244 5 250 248 5 250 248 5 250 248 8 248 244 5 250 248 5 250 248 5 250 248 5 250 248 8 248 244 5 250 248 5 250 248 5 250 248 5 250 248 5 250 248 8 248 244 5 250 248 5 250 248 5 250 248 5 250 248 
5 250 248 5 250 248 5 250 248 5 250 248 5 250 248 5 250 248 5 250 248 8 248 244 8 248 244 8 248 244 5 250 248 5 250 248 5 250 248 8 248 244 5 250 248 5 250 248 5 250 248 8 248 244 5 250 248 5 250 248 8 248 244 8 248 244 8 248 244 5 250 248 5 250 248 5 250 248 5 250 248 5 250 248 5 250 248 5 250 248 5 250 248 5 250 248 5 250 248 5 250 248 5 250 248 8 248 244 55 214 188 88 190 150 88 190 150 85 192 153 85 192 153 82 194 157 85 192 153 85 192 153 85 192 153 85 192 153 85 192 153 88 190 150 88 190 150 88 190 150 91 188 146 88 190 150 88 190 150 88 190 150 91 188 146 91 188 146 91 188 146 91 188 146 93 186 143 91 188 146 91 188 146 91 188 146 91 188 146 91 188 146 91 188 146 91 188 146 91 188 146 91 188 146 93 186 143 91 188 146 91 188 146 91 188 146 91 188 146 91 188 146 91 188 146 93 186 143 93 186 143 93 186 143 93 186 143 93 186 143 93 186 143 96 184 139 96 184 139 93 186 143 96 184 139 96 184 139 96 184 139 99 181 136 99 181 136 99 181 136 96 184 139 99 181 136 99 181 136 96 184 139 99 181 136 99 181 136 99 181 136 99 181 136 102 179 132 99 181 136 99 181 136 99 181 136 99 181 136 102 179 132 99 181 136 102 179 132 105 177 129 105 177 129 35 229 213 8 248 244 8 248 244 46 220 199 182 148 56 182 148 56 182 148 56 172 149 63 187 148 52 182 148 56 182 148 56 182 148 56 172 149 63 172 149 63 187 148 52 187 148 52 187 148 52 182 148 56 187 148 52 187 148 52 187 148 52 187 148 52 192 147 48 192 147 48 192 147 48 195 147 46 212 145 32 195 147 46 195 147 46 195 147 46 195 147 46 192 147 48 192 147 48 192 147 48 187 148 52 192 147 48 192 147 48 192 147 48 195 147 46 195 147 46 195 147 46 195 147 46 192 147 48 195 147 46 192 147 48 192 147 48 195 147 46 192 147 48 187 148 52 192 147 48 187 148 52 192 147 48 187 148 52 182 148 56 182 148 56 182 148 56 187 148 52 187 148 52 192 147 48 192 147 48 182 148 56 187 148 52 187 148 52 187 148 52 192 147 48 187 148 52 187 148 52 192 147 48 172 149 63 187 148 52 187 148 52 187 148 52 187 148 52 192 147 48 192 147 48 129 160 101 8 248 244 8 248 244 8 248 244 8 248 244 5 250 248 5 250 248 5 250 248 5 250 248 5 250 248 8 248 244 8 248 244 8 248 244 5 250 248 8 248 244 5 250 248 5 250 248 5 250 248 8 248 244 8 248 244 8 248 244 8 248 244 5 250 248 5 250 248 5 250 248 5 250 248 5 250 248 5 250 248 5 250 248 5 250 248 5 250 248 5 250 248 5 250 248 8 248 244 5 250 248 5 250 248 8 248 244 
5 250 248 5 250 248 5 250 248 5 250 248 5 250 248 5 250 248 5 250 248 8 248 244 8 248 244 8 248 244 5 250 248 5 250 248 5 250 248 8 248 244 5 250 248 5 250 248 5 250 248 8 248 244 5 250 248 5 250 248 8 248 244 8 248 244 8 248 244 5 250 248 5 250 248 5 250 248 5 250 248 5 250 248 5 250 248 5 250 248 5 250 248 5 250 248 5 250 248 5 250 248 5 250 248 8 248 244 55 214 188 88 190 150 88 190 150 85 192 153 85 192 153 82 194 157 85 192 153 85 192 153 85 192 153 85 192 153 85 192 153 88 190 150 88 190 150 88 190 150 91 188 146 88 190 150 88 190 150 88 190 150 91 188 146 91 188 146 91 188 146 91 188 146 93 186 143 91 188 146 91 188 146 91 188 146 91 188 146 91 188 146 91 188 146 91 188 146 91 188 146 91 188 146 93 186 143 91 188 146 91 188 146 91 188 146 91 188 146 91 188 146 91 188 146 93 186 143 93 186 143 93 186 143 93 186 143 93 186 143 93 186 143 96 184 139 96 184 139 93 186 143 96 184 139 96 184 139 96 184 139 99 181 136 99 181 136 99 181 136 96 184 139 99 181 136 99 181 136 96 184 139 99 181 136 99 181 136 99 181 136 99 181 136 102 179 132 99 181 136 99 181 136 99 181 136 99 181 136 102 179 132 99 181 136 102 179 132 105 177 129 105 177 129 35 229 213 8 248 244 8 248 244 46 220 199 182 148 56 182 148 56 182 148 56 172 149 63 187 148 52 182 148 56 182 148 56 182 148 56 172 149 63 172 149 63 187 148 52 187 148 52 187 148 52 182 148 56 187 148 52 187 148 52 187 148 52 187 148 52 192 147 48 192 147 48 192 147 48 195 147 46 212 145 32 195 147 46 195 147 46 195 147 46 195 147 46 192 147 48 192 147 48 192 147 48 187 148 52 192 147 48 192 147 48 192 147 48 195 147 46 195 147 46 195 147 46 195 147 46 192 147 48 195 147 46 192 147 48 192 147 48 195 147 46 192 147 48 187 148 52 192 147 48 187 148 52 192 147 48 187 148 52 182 148 56 182 148 56 182 148 56 187 148 52 187 148 52 192 147 48 192 147 48 182 148 56 187 148 52 187 148 52 187 148 52 192 147 48 187 148 52 187 148 52 192 147 48 172 149 63 187 148 52 187 148 52 187 148 52 187 148 52 192 147 48 192 147 48 129 160 101 8 248 244 8 248 244 8 248 244 8 248 244 5 250 248 5 250 248 5 250 248 5 250 248 5 250 248 8 248 244 8 248 244 8 248 244 5 250 248 8 248 244 5 250 248 5 250 248 5 250 248 8 248 244 8 248 244 8 248 244 8 248 244 5 250 248 5 250 248 5 250 248 5 250 248 5 250 248 5 250 248 5 250 248 5 250 248 5 250 248 5 250 248 5 250 248 8 248 244 5 250 248 5 250 248 8 248 244 
5 250 248 5 250 248 5 250 248 5 250 248 5 250 248 5 250 248 8 248 244 8 248 244 5 250 248 8 248 244 5 250 248 5 250 248 5 250 248 5 250 248 5 250 248 5 250 248 8 248 244 5 250 248 5 250 248 5 250 248 5 250 248 5 250 248 8 248 244 8 248 244 5 250 248 8 248 244 5 250 248 5 250 248 5 250 248 5 250 248 5 250 248 5 250 248 5 250 248 5 250 248 5 250 248 5 250 248 8 248 244 20 239 230 67 205 174 85 192 153 82 194 157 85 192 153 85 192 153 88 190 150 88 190 150 85 192 153 85 192 153 85 192 153 88 190 150 88 190 150 88 190 150 88 190 150 91 188 146 91 188 146 91 188 146 91 188 146 88 190 150 91 188 146 91 188 146 93 186 143 91 188 146 93 186 143 93 186 143 91 188 146 91 188 146 93 186 143 91 188 146 93 186 143 88 190 150 91 188 146 93 186 143 93 186 143 91 188 146 93 186 143 93 186 143 91 188 146 91 188 146 91 188 146 91 188 146 96 184 139 93 186 143 91 188 146 91 188 146 91 188 146 93 186 143 96 184 139 99 181 136 99 181 136 99 181 136 99 181 136 99 181 136 99 181 136 96 184 139 96 184 139 96 184 139 102 179 132 99 181 136 99 181 136 96 184 139 99 181 136 99 181 136 99 181 136 96 184 139 96 184 139 99 181 136 102 179 132 105 177 129 105 177 129 35 229 213 8 248 244 8 248 244 46 220 199 172 149 63 182 148 56 182 148 56 187 148 52 172 149 63 182 148 56 187 148 52 192 147 48 187 148 52 187 148 52 187 148 52 187 148 52 187 148 52 187 148 52 187 148 52 192 147 48 187 148 52 192 147 48 192 147 48 192 147 48 195 147 46 212 145 32 192 147 48 195 147 46 192 147 48 195 147 46 192 147 48 195 147 46 192 147 48 192 147 48 192 147 48 192 147 48 195 147 46 192 147 48 192 147 48 212 145 32 192 147 48 192 147 48 195 147 46 195 147 46 192 147 48 195 147 46 195 147 46 192 147 48 192 147 48 195 147 46 192 147 48 187 148 52 187 148 52 187 148 52 187 148 52 182 148 56 192 147 48 192 147 48 187 148 52 187 148 52 192 147 48 192 147 48 192 147 48 187 148 52 192 147 48 187 148 52 182 148 56 187 148 52 172 149 63 187 148 52 182 148 56 187 148 52 192 147 48 140 153 89 26 235 223 5 250 248 5 250 248 5 250 248 8 248 244 8 248 244 5 250 248 8 248 244 8 248 244 8 248 244 5 250 248 5 250 248 8 248 244 8 248 244 5 250 248 8 248 244 5 250 248 5 250 248 5 250 248 5 250 248 8 248 244 8 248 244 8 248 244 8 248 244 8 248 244 5 250 248 5 250 248 5 250 248 5 250 248 5 250 248 5 250 248 5 250 248 5 250 248 5 250 248 5 250 248 8 248 244 5 250 248 5 250 248 
5 250 248 5 250 248 5 250 248 5 250 248 5 250 248 5 250 248 8 248 244 8 248 244 5 250 248 8 248 244 5 250 248 5 250 248 5 250 248 5 250 248 5 250 248 5 250 248 8 248 244 5 250 248 5 250 248 5 250 248 5 250 248 5 250 248 8 248 244 8 248 244 5 250 248 8 248 244 5 250 248 5 250 248 5 250 248 5 250 248 5 250 248 5 250 248 5 250 248 5 250 248 5 250 248 5 250 248 8 248 244 20 239 230 67 205 174 85 192 153 82 194 157 85 192 153 85 192 153 88 190 150 88 190 150 85 192 153 85 192 153 85 192 153 88 190 150 88 190 150 88 190 150 88 190 150 91 188 146 91 188 146 91 188 146 91 188 146 88 190 150 91 188 146 91 188 146 93 186 143 91 188 146 93 186 143 93 186 143 91 188 146 91 188 146 93 186 143 91 188 146 93 186 143 88 190 150 91 188 146 93 186 143 93 186 143 91 188 146 93 186 143 93 186 143 91 188 146 91 188 146 91 188 146 91 188 146 96 184 139 93 186 143 91 188 146 91 188 146 91 188 146 93 186 143 96 184 139 99 181 136 99 181 136 99 181 136 99 181 136 99 181 136 99 181 136 96 184 139 96 184 139 96 184 139 102 179 132 99 181 136 99 181 136 96 184 139 99 181 136 99 181 136 99 181 136 96 184 139 96 184 139 99 181 136 102 179 132 105 177 129 105 177 129 35 229 213 8 248 244 8 248 244 46 220 199 172 149 63 182 148 56 182 148 56 187 148 52 172 149 63 182 148 56 187 148 52 192 147 48 187 148 52 187 148 52 187 148 52 187 148 52 187 148 52 187 148 52 187 148 52 192 147 48 187 148 52 192 147 48 192 147 48 192 147 48 195 147 46 212 145 32 192 147 48 195 147 46 192 147 48 195 147 46 192 147 48 195 147 46 192 147 48 192 147 48 192 147 48 192 147 48 195 147 46 192 147 48 192 147 48 212 145 32 192 147 48 192 147 48 195 147 46 195 147 46 192 147 48 195 147 46 195 147 46 192 147 48 192 147 48 195 147 46 192 147 48 187 148 52 187 148 52 187 148 52 187 148 52 182 148 56 192 147 48 192 147 48 187 148 52 187 148 52 192 147 48 192 147 48 192 147 48 187 148 52 192 147 48 187 148 52 182 148 56 187 148 52 172 149 63 187 148 52 182 148 56 187 148 52 192 147 48 140 153 89 26 235 223 5 250 248 5 250 248 5 250 248 8 248 244 8 248 244 5 250 248 8 248 244 8 248 244 8 248 244 5 250 248 5 250 248 8 248 244 8 248 244 5 250 248 8 248 244 5 250 248 5 250 248 5 250 248 5 250 248 8 248 244 8 248 244 8 248 244 8 248 244 8 248 244 5 250 248 5 250 248 5 250 248 5 250 248 5 250 248 5 250 248 5 250 248 5 250 248 5 250 248 5 250 248 8 248 244 5 250 248 5 250 248 
5 250 248 5 250 248 5 250 248 8 248 244 5 250 248 5 250 248 5 250 248 5 250 248 8 248 244 5 250 248 5 250 248 5 250 248 5 250 248 5 250 248 5 250 248 5 250 248 8 248 244 8 248 244 5 250 248 8 248 244 8 248 244 5 250 248 5 250 248 5 250 248 8 248 244 5 250 248 5 250 248 5 250 248 5 250 248 5 250 248 5 250 248 5 250 248 5 250 248 5 250 248 5 250 248 5 250 248 8 248 244 8 248 244 11 246 241 41 224 206 76 199 164 85 192 153 82 194 157 85 192 153 88 190 150 88 190 150 88 190 150 88 190 150 85 192 153 91 188 146 88 190 150 91 188 146 88 190 150 88 190 150 91 188 146 93 186 143 91 188 146 93 186 143 91 188 146 93 186 143 93 186 143 91 188 146 93 186 143 96 184 139 93 186 143 93 186 143 91 188 146 91 188 146 93 186 143 91 188 146 91 188 146 93 186 143 93 186 143 93 186 143 91 188 146 93 186 143 91 188 146 93 186 143 93 186 143 93 186 143 93 186 143 93 186 143 96 184 139 96 184 139 96 184 139 99 181 136 96 184 139 99 181 136 99 181 136 99 181 136 99 181 136 96 184 139 99 181 136 99 181 136 99 181 136 102 179 132 99 181 136 96 184 139 96 184 139 99 181 136 102 179 132 99 181 136 99 181 136 99 181 136 99 181 136 99 181 136 99 181 136 99 181 136 32 231 216 8 248 244 8 248 244 46 220 199 172 149 63 182 148 56 172 149 63 182 148 56 187 148 52 192 147 48 187 148 52 187 148 52 187 148 52 187 148 52 187 148 52 182 148 56 192 147 48 187 148 52 182 148 56 187 148 52 192 147 48 192 147 48 187 148 52 187 148 52 187 148 52 192 147 48 195 147 46 195 147 46 195 147 46 195 147 46 195 147 46 195 147 46 195 147 46 192 147 48 195 147 46 195 147 46 195 147 46 195 147 46 195 147 46 212 145 32 195 147 46 195 147 46 212 145 32 212 145 32 195 147 46 195 147 46 195 147 46 195 147 46 195 147 46 195 147 46 212 145 32 195 147 46 192 147 48 192 147 48 192 147 48 182 148 56 195 147 46 192 147 48 192 147 48 192 147 48 192 147 48 192 147 48 195 147 46 182 148 56 187 148 52 182 148 56 182 148 56 172 149 63 182 148 56 182 148 56 187 148 52 155 151 77 61 209 181 11 246 241 5 250 248 5 250 248 5 250 248 5 250 248 5 250 248 5 250 248 8 248 244 5 250 248 5 250 248 5 250 248 5 250 248 8 248 244 8 248 244 5 250 248 8 248 244 8 248 244 5 250 248 8 248 244 8 248 244 8 248 244 8 248 244 8 248 244 5 250 248 5 250 248 8 248 244 5 250 248 8 248 244 8 248 244 8 248 244 8 248 244 8 248 244 5 250 248 5 250 248 5 250 248 5 250 248 5 250 248 5 250 248 5 250 248 
5 250 248 5 250 248 5 250 248 8 248 244 5 250 248 5 250 248 5 250 248 5 250 248 8 248 244 5 250 248 5 250 248 5 250 248 5 250 248 5 250 248 5 250 248 5 250 248 8 248 244 8 248 244 5 250 248 8 248 244 8 248 244 5 250 248 5 250 248 5 250 248 8 248 244 5 250 248 5 250 248 5 250 248 5 250 248 5 250 248 5 250 248 5 250 248 5 250 248 5 250 248 5 250 248 5 250 248 8 248 244 8 248 244 11 246 241 41 224 206 76 199 164 85 192 153 82 194 157 85 192 153 88 190 150 88 190 150 88 190 150 88 190 150 85 192 153 91 188 146 88 190 150 91 188 146 88 190 150 88 190 150 91 188 146 93 186 143 91 188 146 93 186 143 91 188 146 93 186 143 93 186 143 91 188 146 93 186 143 96 184 139 93 186 143 93 186 143 91 188 146 91 188 146 93 186 143 91 188 146 91 188 146 93 186 143 93 186 143 93 186 143 91 188 146 93 186 143 91 188 146 93 186 143 93 186 143 93 186 143 93 186 143 93 186 143 96 184 139 96 184 139 96 184 139 99 181 136 96 184 139 99 181 136 99 181 136 99 181 136 99 181 136 96 184 139 99 181 136 99 181 136 99 181 136 102 179 132 99 181 136 96 184 139 96 184 139 99 181 136 102 179 132 99 181 136 99 181 136 99 181 136 99 181 136 99 181 136 99 181 136 99 181 136 32 231 216 8 248 244 8 248 244 46 220 199 172 149 63 182 148 56 172 149 63 182 148 56 187 148 52 192 147 48 187 148 52 187 148 52 187 148 52 187 148 52 187 148 52 182 148 56 192 147 48 187 148 52 182 148 56 187 148 52 192 147 48 192 147 48 187 148 52 187 148 52 187 148 52 192 147 48 195 147 46 195 147 46 195 147 46 195 147 46 195 147 46 195 147 46 195 147 46 192 147 48 195 147 46 195 147 46 195 147 46 195 147 46 195 147 46 212 145 32 195 147 46 195 147 46 212 145 32 212 145 32 195 147 46 195 147 46 195 147 46 195 147 46 195 147 46 195 147 46 212 145 32 195 147 46 192 147 48 192 147 48 192 147 48 182 148 56 195 147 46 192 147 48 192 147 48 192 147 48 192 147 48 192 147 48 195 147 46 182 148 56 187 148 52 182 148 56 182 148 56 172 149 63 182 148 56 182 148 56 187 148 52 155 151 77 61 209 181 11 246 241 5 250 248 5 250 248 5 250 248 5 250 248 5 250 248 5 250 248 8 248 244 5 250 248 5 250 248 5 250 248 5 250 248 8 248 244 8 248 244 5 250 248 8 248 244 8 248 244 5 250 248 8 248 244 8 248 244 8 248 244 8 248 244 8 248 244 5 250 248 5 250 248 8 248 244 5 250 248 8 248 244 8 248 244 8 248 244 8 248 244 8 248 244 5 250 248 5 250 248 5 250 248 5 250 248 5 250 248 5 250 248 5 250 248 
5 250 248 5 250 248 5 250 248 8 248 244 8 248 244 8 248 244 8 248 244 8 248 244 8 248 244 8 248 244 5 250 248 5 250 248 5 250 248 5 250 248 5 250 248 5 250 248 5 250 248 5 250 248 5 250 248 5 250 248 8 248 244 8 248 244 5 250 248 5 250 248 5 250 248 5 250 248 5 250 248 5 250 248 5 250 248 5 250 248 5 250 248 5 250 248 8 248 244 5 250 248 5 250 248 5 250 248 5 250 248 5 250 248 5 250 248 5 250 248 17 242 234 52 216 192 85 192 153 91 188 146 85 192 153 85 192 153 88 190 150 88 190 150 88 190 150 88 190 150 88 190 150 88 190 150 91 188 146 91 188 146 91 188 146 93 186 143 91 188 146 93 186 143 91 188 146 91 188 146 91 188 146 96 184 139 91 188 146 93 186 143 93 186 143 91 188 146 93 186 143 91 188 146 93 186 143 93 186 143 91 188 146 91 188 146 93 186 143 93 186 143 91 188 146 93 186 143 93 186 143 96 184 139 96 184 139 93 186 143 93 186 143 91 188 146 96 184 139 93 186 143 93 186 143 96 184 139 96 184 139 96 184 139 96 184 139 99 181 136 96 184 139 99 181 136 99 181 136 99 181 136 102 179 132 102 179 132 96 184 139 102 179 132 99 181 136 99 181 136 102 179 132 96 184 139 96 184 139 102 179 132 99 181 136 102 179 132 105 177 129 105 177 129 35 229 213 8 248 244 8 248 244 49 218 195 182 148 56 192 147 48 187 148 52 182 148 56 182 148 56 187 148 52 192 147 48 187 148 52 187 148 52 187 148 52 187 148 52 192 147 48 187 148 52 187 148 52 192 147 48 192 147 48 192 147 48 187 148 52 187 148 52 192 147 48 195 147 46 192 147 48 195 147 46 195 147 46 192 147 48 195 147 46 195 147 46 195 147 46 212 145 32 195 147 46 192 147 48 195 147 46 195 147 46 195 147 46 212 145 32 195 147 46 195 147 46 192 147 48 192 147 48 195 147 46 195 147 46 212 145 32 212 145 32 212 145 32 195 147 46 212 145 32 212 145 32 192 147 48 195 147 46 195 147 46 192 147 48 195 147 46 187 148 52 192 147 48 182 148 56 187 148 52 192 147 48 187 148 52 187 148 52 192 147 48 192 147 48 187 148 52 187 148 52 182 148 56 172 149 63 182 148 56 73 201 167 17 242 234 8 248 244 5 250 248 5 250 248 8 248 244 5 250 248 8 248 244 8 248 244 5 250 248 5 250 248 5 250 248 5 250 248 8 248 244 5 250 248 8 248 244 5 250 248 5 250 248 5 250 248 5 250 248 5 250 248 5 250 248 5 250 248 5 250 248 5 250 248 8 248 244 8 248 244 8 248 244 8 248 244 8 248 244 8 248 244 8 248 244 5 250 248 5 250 248 5 250 248 8 248 244 8 248 244 5 250 248 5 250 248 5 250 248 5 250 248 5 250 248 
5 250 248 5 250 248 5 250 248 8 248 244 8 248 244 8 248 244 8 248 244 8 248 244 8 248 244 8 248 244 5 250 248 5 250 248 5 250 248 5 250 248 5 250 248 5 250 248 5 250 248 5 250 248 5 250 248 5 250 248 8 248 244 8 248 244 5 250 248 5 250 248 5 250 248 5 250 248 5 250 248 5 250 248 5 250 248 5 250 248 5 250 248 5 250 248 8 248 244 5 250 248 5 250 248 5 250 248 5 250 248 5 250 248 5 250 248 5 250 248 17 242 234 52 216 192 85 192 153 91 188 146 85 192 153 85 192 153 88 190 150 88 190 150 88 190 150 88 190 150 88 190 150 88 190 150 91 188 146 91 188 146 91 188 146 93 186 143 91 188 146 93 186 143 91 188 146 91 188 146 91 188 146 96 184 139 91 188 146 93 186 143 93 186 143 91 188 146 93 186 143 91 188 146 93 186 143 93 186 143 91 188 146 91 188 146 93 186 143 93 186 143 91 188 146 93 186 143 93 186 143 96 184 139 96 184 139 93 186 143 93 186 143 91 188 146 96 184 139 93 186 143 93 186 143 96 184 139 96 184 139 96 184 139 96 184 139 99 181 136 96 184 139 99 181 136 99 181 136 99 181 136 102 179 132 102 179 132 96 184 139 102 179 132 99 181 136 99 181 136 102 179 132 96 184 139 96 184 139 102 179 132 99 181 136 102 179 132 105 177 129 105 177 129 35 229 213 8 248 244 8 248 244 49 218 195 182 148 56 192 147 48 187 148 52 182 148 56 182 148 56 187 148 52 192 147 48 187 148 52 187 148 52 187 148 52 187 148 52 192 147 48 187 148 52 187 148 52 192 147 48 192 147 48 192 147 48 187 148 52 187 148 52 192 147 48 195 147 46 192 147 48 195 147 46 195 147 46 192 147 48 195 147 46 195 147 46 195 147 46 212 145 32 195 147 46 192 147 48 195 147 46 195 147 46 195 147 46 212 145 32 195 147 46 195 147 46 192 147 48 192 147 48 195 147 46 195 147 46 212 145 32 212 145 32 212 145 32 195 147 46 212 145 32 212 145 32 192 147 48 195 147 46 195 147 46 192 147 48 195 147 46 187 148 52 192 147 48 182 148 56 187 148 52 192 147 48 187 148 52 187 148 52 192 147 48 192 147 48 187 148 52 187 148 52 182 148 56 172 149 63 182 148 56 73 201 167 17 242 234 8 248 244 5 250 248 5 250 248 8 248 244 5 250 248 8 248 244 8 248 244 5 250 248 5 250 248 5 250 248 5 250 248 8 248 244 5 250 248 8 248 244 5 250 248 5 250 248 5 250 248 5 250 248 5 250 248 5 250 248 5 250 248 5 250 248 5 250 248 8 248 244 8 248 244 8 248 244 8 248 244 8 248 244 8 248 244 8 248 244 5 250 248 5 250 248 5 250 248 8 248 244 8 248 244 5 250 248 5 250 248 5 250 248 5 250 248 5 250 248 
5 250 248 5 250 248 5 250 248 8 248 244 8 248 244 8 248 244 8 248 244 5 250 248 5 250 248 5 250 248 5 250 248 5 250 248 5 250 248 5 250 248 5 250 248 5 250 248 5 250 248 5 250 248 5 250 248 5 250 248 5 250 248 8 248 244 8 248 244 8 248 244 5 250 248 5 250 248 8 248 244 5 250 248 8 248 244 5 250 248 8 248 244 5 250 248 8 248 244 5 250 248 5 250 248 5 250 248 5 250 248 5 250 248 5 250 248 8 248 244 8 248 244 5 250 248 11 246 241 49 218 195 91 188 146 88 190 150 85 192 153 85 192 153 88 190 150 91 188 146 88 190 150 91 188 146 88 190 150 88 190 150 91 188 146 88 190 150 91 188 146 88 190 150 91 188 146 91 188 146 93 186 143 96 184 139 96 184 139 93 186 143 93 186 143 93 186 143 96 184 139 93 186 143 93 186 143 91 188 146 93 186 143 93 186 143 91 188 146 91 188 146 91 188 146 93 186 143 96 184 139 96 184 139 96 184 139 96 184 139 96 184 139 93 186 143 96 184 139 96 184 139 96 184 139 91 188 146 96 184 139 96 184 139 99 181 136 99 181 136 99 181 136 99 181 136 102 179 132 99 181 136 96 184 139 96 184 139 99 181 136 99 181 136 102 179 132 99 181 136 99 181 136 105 177 129 105 177 129 99 181 136 105 177 129 105 177 129 105 177 129 105 177 129 35 229 213 8 248 244 8 248 244 49 218 195 182 148 56 182 148 56 187 148 52 187 148 52 172 149 63 182 148 56 192 147 48 192 147 48 187 148 52 192 147 48 192 147 48 195 147 46 192 147 48 192 147 48 192 147 48 187 148 52 192 147 48 192 147 48 192 147 48 192 147 48 192 147 48 192 147 48 195 147 46 195 147 46 195 147 46 192 147 48 195 147 46 212 145 32 212 145 32 212 145 32 212 145 32 195 147 46 212 145 32 212 145 32 195 147 46 195 147 46 192 147 48 192 147 48 195 147 46 212 145 32 195 147 46 195 147 46 212 145 32 195 147 46 195 147 46 195 147 46 212 145 32 195 147 46 212 145 32 215 144 30 212 145 32 195 147 46 195 147 46 187 148 52 192 147 48 192 147 48 187 148 52 187 148 52 187 148 52 182 148 56 187 148 52 192 147 48 192 147 48 187 148 52 73 201 167 14 244 237 8 248 244 8 248 244 5 250 248 8 248 244 5 250 248 8 248 244 5 250 248 5 250 248 5 250 248 5 250 248 8 248 244 5 250 248 5 250 248 5 250 248 5 250 248 5 250 248 5 250 248 8 248 244 8 248 244 5 250 248 5 250 248 5 250 248 5 250 248 8 248 244 5 250 248 8 248 244 5 250 248 5 250 248 8 248 244 8 248 244 5 250 248 5 250 248 5 250 248 8 248 244 5 250 248 8 248 244 5 250 248 5 250 248 5 250 248 5 250 248 5 250 248 5 250 248 
5 250 248 5 250 248 5 250 248 8 248 244 8 248 244 8 248 244 8 248 244 5 250 248 5 250 248 5 250 248 5 250 248 5 250 248 5 250 248 5 250 248 5 250 248 5 250 248 5 250 248 5 250 248 5 250 248 5 250 248 5 250 248 8 248 244 8 248 244 8 248 244 5 250 248 5 250 248 8 248 244 5 250 248 8 248 244 5 250 248 8 248 244 5 250 248 8 248 244 5 250 248 5 250 248 5 250 248 5 250 248 5 250 248 5 250 248 8 248 244 8 248 244 5 250 248 11 246 241 49 218 195 91 188 146 88 190 150 85 192 153 85 192 153 88 190 150 91 188 146 88 190 150 91 188 146 88 190 150 88 190 150 91 188 146 88 190 150 91 188 146 88 190 150 91 188 146 91 188 146 93 186 143 96 184 139 96 184 139 93 186 143 93 186 143 93 186 143 96 184 139 93 186 143 93 186 143 91 188 146 93 186 143 93 186 143 91 188 146 91 188 146 91 188 146 93 186 143 96 184 139 96 184 139 96 184 139 96 184 139 96 184 139 93 186 143 96 184 139 96 184 139 96 184 139 91 188 146 96 184 139 96 184 139 99 181 136 99 181 136 99 181 136 99 181 136 102 179 132 99 181 136 96 184 139 96 184 139 99 181 136 99 181 136 102 179 132 99 181 136 99 181 136 105 177 129 105 177 129 99 181 136 105 177 129 105 177 129 105 177 129 105 177 129 35 229 213 8 248 244 8 248 244 49 218 195 182 148 56 182 148 56 187 148 52 187 148 52 172 149 63 182 148 56 192 147 48 192 147 48 187 148 52 192 147 48 192 147 48 195 147 46 192 147 48 192 147 48 192 147 48 187 148 52 192 147 48 192 147 48 192 147 48 192 147 48 192 147 48 192 147 48 195 147 46 195 147 46 195 147 46 192 147 48 195 147 46 212 145 32 212 145 32 212 145 32 212 145 32 195 147 46 212 145 32 212 145 32 195 147 46 195 147 46 192 147 48 192 147 48 195 147 46 212 145 32 195 147 46 195 147 46 212 145 32 195 147 46 195 147 46 195 147 46 212 145 32 195 147 46 212 145 32 215 144 30 212 145 32 195 147 46 195 147 46 187 148 52 192 147 48 192 147 48 187 148 52 187 148 52 187 148 52 182 148 56 187 148 52 192 147 48 192 147 48 187 148 52 73 201 167 14 244 237 8 248 244 8 248 244 5 250 248 8 248 244 5 250 248 8 248 244 5 250 248 5 250 248 5 250 248 5 250 248 8 248 244 5 250 248 5 250 248 5 250 248 5 250 248 5 250 248 5 250 248 8 248 244 8 248 244 5 250 248 5 250 248 5 250 248 5 250 248 8 248 244 5 250 248 8 248 244 5 250 248 5 250 248 8 248 244 8 248 244 5 250 248 5 250 248 5 250 248 8 248 244 5 250 248 8 248 244 5 250 248 5 250 248 5 250 248 5 250 248 5 250 248 5 250 248 
5 250 248 5 250 248 5 250 248 5 250 248 8 248 244 5 250 248 5 250 248 5 250 248 5 250 248 5 250 248 5 250 248 5 250 248 5 250 248 5 250 248 5 250 248 5 250 248 5 250 248 5 250 248 5 250 248 5 250 248 5 250 248 5 250 248 5 250 248 8 248 244 5 250 248 5 250 248 8 248 244 8 248 244 8 248 244 8 248 244 5 250 248 8 248 244 8 248 244 5 250 248 5 250 248 8 248 244 8 248 244 5 250 248 8 248 244 5 250 248 8 248 244 5 250 248 5 250 248 8 248 244 11 246 241 52 216 192 93 186 143 88 190 150 93 186 143 88 190 150 88 190 150 91 188 146 91 188 146 88 190 150 96 184 139 93 186 143 88 190 150 91 188 146 91 188 146 91 188 146 91 188 146 93 186 143 93 186 143 91 188 146 96 184 139 96 184 139 93 186 143 91 188 146 93 186 143 96 184 139 99 181 136 96 184 139 96 184 139 96 184 139 96 184 139 96 184 139 96 184 139 96 184 139 96 184 139 93 186 143 96 184 139 93 186 143 93 186 143 91 188 146 93 186 143 99 181 136 93 186 143 99 181 136 96 184 139 96 184 139 96 184 139 93 186 143 99 181 136 96 184 139 96 184 139 99 181 136 96 184 139 99 181 136 99 181 136 102 179 132 102 179 132 96 184 139 99 181 136 102 179 132 99 181 136 105 177 129 108 175 125 108 175 125 35 229 213 8 248 244 8 248 244 49 218 195 182 148 56 182 148 56 187 148 52 187 148 52 187 148 52 182 148 56 192 147 48 192 147 48 187 148 52 187 148 52 195 147 46 192 147 48 192 147 48 192 147 48 195 147 46 195 147 46 187 148 52 212 145 32 195 147 46 195 147 46 192 147 48 187 148 52 187 148 52 195 147 46 195 147 46 195 147 46 192 147 48 195 147 46 215 144 30 212 145 32 212 145 32 212 145 32 212 145 32 195 147 46 212 145 32 212 145 32 195 147 46 192 147 48 195 147 46 195 147 46 212 145 32 212 145 32 212 145 32 212 145 32 212 145 32 212 145 32 192 147 48 212 145 32 195 147 46 195 147 46 195 147 46 192 147 48 195 147 46 187 148 52 192 147 48 192 147 48 192 147 48 187 148 52 192 147 48 192 147 48 187 148 52 195 147 46 93 186 143 11 246 241 5 250 248 5 250 248 5 250 248 5 250 248 5 250 248 5 250 248 5 250 248 8 248 244 5 250 248 5 250 248 5 250 248 5 250 248 8 248 244 8 248 244 5 250 248 5 250 248 5 250 248 5 250 248 5 250 248 8 248 244 5 250 248 5 250 248 5 250 248 8 248 244 5 250 248 5 250 248 5 250 248 8 248 244 8 248 244 8 248 244 5 250 248 5 250 248 8 248 244 5 250 248 5 250 248 5 250 248 5 250 248 5 250 248 5 250 248 5 250 248 5 250 248 5 250 248 5 250 248 5 250 248 
5 250 248 5 250 248 5 250 248 5 250 248 8 248 244 5 250 248 5 250 248 5 250 248 5 250 248 5 250 248 5 250 248 5 250 248 5 250 248 5 250 248 5 250 248 5 250 248 5 250 248 5 250 248 5 250 248 5 250 248 5 250 248 5 250 248 5 250 248 8 248 244 5 250 248 5 250 248 8 248 244 8 248 244 8 248 244 8 248 244 5 250 248 8 248 244 8 248 244 5 250 248 5 250 248 8 248 244 8 248 244 5 250 248 8 248 244 5 250 248 8 248 244 5 250 248 5 250 248 8 248 244 11 246 241 52 216 192 93 186 143 88 190 150 93 186 143 88 190 150 88 190 150 91 188 146 91 188 146 88 190 150 96 184 139 93 186 143 88 190 150 91 188 146 91 188 146 91 188 146 91 188 146 93 186 143 93 186 143 91 188 146 96 184 139 96 184 139 93 186 143 91 188 146 93 186 143 96 184 139 99 181 136 96 184 139 96 184 139 96 184 139 96 184 139 96 184 139 96 184 139 96 184 139 96 184 139 93 186 143 96 184 139 93 186 143 93 186 143 91 188 146 93 186 143 99 181 136 93 186 143 99 181 136 96 184 139 96 184 139 96 184 139 93 186 143 99 181 136 96 184 139 96 184 139 99 181 136 96 184 139 99 181 136 99 181 136 102 179 132 102 179 132 96 184 139 99 181 136 102 179 132 99 181 136 105 177 129 108 175 125 108 175 125 35 229 213 8 248 244 8 248 244 49 218 195 182 148 56 182 148 56 187 148 52 187 148 52 187 148 52 182 148 56 192 147 48 192 147 48 187 148 52 187 148 52 195 147 46 192 147 48 192 147 48 192 147 48 195 147 46 195 147 46 187 148 52 212 145 32 195 147 46 195 147 46 192 147 48 187 148 52 187 148 52 195 147 46 195 147 46 195 147 46 192 147 48 195 147 46 215 144 30 212 145 32 212 145 32 212 145 32 212 145 32 195 147 46 212 145 32 212 145 32 195 147 46 192 147 48 195 147 46 195 147 46 212 145 32 212 145 32 212 145 32 212 145 32 212 145 32 212 145 32 192 147 48 212 145 32 195 147 46 195 147 46 195 147 46 192 147 48 195 147 46 187 148 52 192 147 48 192 147 48 192 147 48 187 148 52 192 147 48 192 147 48 187 148 52 195 147 46 93 186 143 11 246 241 5 250 248 5 250 248 5 250 248 5 250 248 5 250 248 5 250 248 5 250 248 8 248 244 5 250 248 5 250 248 5 250 248 5 250 248 8 248 244 8 248 244 5 250 248 5 250 248 5 250 248 5 250 248 5 250 248 8 248 244 5 250 248 5 250 248 5 250 248 8 248 244 5 250 248 5 250 248 5 250 248 8 248 244 8 248 244 8 248 244 5 250 248 5 250 248 8 248 244 5 250 248 5 250 248 5 250 248 5 250 248 5 250 248 5 250 248 5 250 248 5 250 248 5 250 248 5 250 248 5 250 248 
5 250 248 8 248 244 5 250 248 5 250 248 5 250 248 5 250 248 8 248 244 5 250 248 5 250 248 5 250 248 8 248 244 5 250 248 5 250 248 5 250 248 5 250 248 8 248 244 5 250 248 5 250 248 5 250 248 5 250 248 5 250 248 5 250 248 5 250 248 5 250 248 5 250 248 5 250 248 5 250 248 5 250 248 5 250 248 8 248 244 8 248 244 5 250 248 8 248 244 8 248 244 8 248 244 8 248 244 8 248 244 8 248 244 8 248 244 5 250 248 5 250 248 5 250 248 8 248 244 8 248 244 8 248 244 8 248 244 8 248 244 64 207 178 88 190 150 85 192 153 91 188 146 91 188 146 91 188 146 93 186 143 96 184 139 93 186 143 93 186 143 91 188 146 88 190 150 91 188 146 96 184 139 96 184 139 93 186 143 96 184 139 93 186 143 96 184 139 93 186 143 93 186 143 96 184 139 96 184 139 99 181 136 96 184 139 99 181 136 93 186 143 96 184 139 96 184 139 96 184 139 93 186 143 93 186 143 91 188 146 96 184 139 93 186 143 96 184 139 96 184 139 93 186 143 91 188 146 96 184 139 99 181 136 99 181 136 96 184 139 96 184 139 96 184 139 99 181 136 96 184 139 99 181 136 99 181 136 99 181 136 99 181 136 102 179 132 99 181 136 99 181 136 102 179 132 99 181 136 102 179 132 105 177 129 102 179 132 102 179 132 105 177 129 35 229 213 8 248 244 11 246 241 49 218 195 172 149 63 182 148 56 182 148 56 187 148 52 187 148 52 187 148 52 187 148 52 192 147 48 195 147 46 195 147 46 187 148 52 192 147 48 195 147 46 192 147 48 192 147 48 195 147 46 192 147 48 212 145 32 212 145 32 195 147 46 195 147 46 195 147 46 212 145 32 192 147 48 192 147 48 192 147 48 192 147 48 195 147 46 195 147 46 212 145 32 212 145 32 212 145 32 215 144 30 212 145 32 212 145 32 195 147 46 192 147 48 195 147 46 195 147 46 195 147 46 212 145 32 212 145 32 195 147 46 195 147 46 212 145 32 215 144 30 215 144 30 212 145 32 195 147 46 192 147 48 187 148 52 195 147 46 212 145 32 195 147 46 195 147 46 192 147 48 192 147 48 195 147 46 192 147 48 187 148 52 117 169 115 8 248 244 8 248 244 8 248 244 8 248 244 5 250 248 8 248 244 5 250 248 5 250 248 5 250 248 5 250 248 5 250 248 5 250 248 8 248 244 8 248 244 5 250 248 5 250 248 8 248 244 8 248 244 5 250 248 5 250 248 5 250 248 8 248 244 5 250 248 5 250 248 5 250 248 8 248 244 8 248 244 8 248 244 5 250 248 8 248 244 8 248 244 5 250 248 5 250 248 5 250 248 8 248 244 8 248 244 8 248 244 8 248 244 5 250 248 8 248 244 5 250 248 5 250 248 5 250 248 5 250 248 5 250 248 8 248 244 5 250 248 
5 250 248 8 248 244 5 250 248 5 250 248 5 250 248 5 250 248 8 248 244 5 250 248 5 250 248 5 250 248 8 248 244 5 250 248 5 250 248 5 250 248 5 250 248 8 248 244 5 250 248 5 250 248 5 250 248 5 250 248 5 250 248 5 250 248 5 250 248 5 250 248 5 250 248 5 250 248 5 250 248 5 250 248 5 250 248 8 248 244 8 248 244 5 250 248 8 248 244 8 248 244 8 248 244 8 248 244 8 248 244 8 248 244 8 248 244 5 250 248 5 250 248 5 250 248 8 248 244 8 248 244 8 248 244 8 248 244 8 248 244 64 207 178 88 190 150 85 192 153 91 188 146 91 188 146 91 188 146 93 186 143 96 184 139 93 186 143 93 186 143 91 188 146 88 190 150 91 188 146 96 184 139 96 184 139 93 186 143 96 184 139 93 186 143 96 184 139 93 186 143 93 186 143 96 184 139 96 184 139 99 181 136 96 184 139 99 181 136 93 186 143 96 184 139 96 184 139 96 184 139 93 186 143 93 186 143 91 188 146 96 184 139 93 186 143 96 184 139 96 184 139 93 186 143 91 188 146 96 184 139 99 181 136 99 181 136 96 184 139 96 184 139 96 184 139 99 181 136 96 184 139 99 181 136 99 181 136 99 181 136 99 181 136 102 179 132 99 181 136 99 181 136 102 179 132 99 181 136 102 179 132 105 177 129 102 179 132 102 179 132 105 177 129 35 229 213 8 248 244 11 246 241 49 218 195 172 149 63 182 148 56 182 148 56 187 148 52 187 148 52 187 148 52 187 148 52 192 147 48 195 147 46 195 147 46 187 148 52 192 147 48 195 147 46 192 147 48 192 147 48 195 147 46 192 147 48 212 145 32 212 145 32 195 147 46 195 147 46 195 147 46 212 145 32 192 147 48 192 147 48 192 147 48 192 147 48 195 147 46 195 147 46 212 145 32 212 145 32 212 145 32 215 144 30 212 145 32 212 145 32 195 147 46 192 147 48 195 147 46 195 147 46 195 147 46 212 145 32 212 145 32 195 147 46 195 147 46 212 145 32 215 144 30 215 144 30 212 145 32 195 147 46 192 147 48 187 148 52 195 147 46 212 145 32 195 147 46 195 147 46 192 147 48 192 147 48 195 147 46 192 147 48 187 148 52 117 169 115 8 248 244 8 248 244 8 248 244 8 248 244 5 250 248 8 248 244 5 250 248 5 250 248 5 250 248 5 250 248 5 250 248 5 250 248 8 248 244 8 248 244 5 250 248 5 250 248 8 248 244 8 248 244 5 250 248 5 250 248 5 250 248 8 248 244 5 250 248 5 250 248 5 250 248 8 248 244 8 248 244 8 248 244 5 250 248 8 248 244 8 248 244 5 250 248 5 250 248 5 250 248 8 248 244 8 248 244 8 248 244 8 248 244 5 250 248 8 248 244 5 250 248 5 250 248 5 250 248 5 250 248 5 250 248 8 248 244 5 250 248 
8 248 244 8 248 244 5 250 248 8 248 244 8 248 244 5 250 248 8 248 244 5 250 248 8 248 244 8 248 244 8 248 244 5 250 248 8 248 244 5 250 248 5 250 248 5 250 248 5 250 248 5 250 248 5 250 248 5 250 248 5 250 248 5 250 248 8 248 244 8 248 244 8 248 244 5 250 248 5 250 248 5 250 248 5 250 248 8 248 244 5 250 248 8 248 244 8 248 244 8 248 244 8 248 244 8 248 244 8 248 244 5 250 248 8 248 244 5 250 248 5 250 248 8 248 244 5 250 248 5 250 248 5 250 248 5 250 248 5 250 248 5 250 248 5 250 248 32 231 216 76 199 164 85 192 153 85 192 153 91 188 146 88 190 150 91 188 146 91 188 146 91 188 146 93 186 143 96 184 139 91 188 146 91 188 146 93 186 143 91 188 146 93 186 143 96 184 139 93 186 143 93 186 143 96 184 139 96 184 139 96 184 139 99 181 136 99 181 136 96 184 139 99 181 136 96 184 139 96 184 139 96 184 139 96 184 139 99 181 136 96 184 139 96 184 139 96 184 139 93 186 143 99 181 136 99 181 136 93 186 143 96 184 139 99 181 136 102 179 132 96 184 139 96 184 139 96 184 139 99 181 136 96 184 139 99 181 136 99 181 136 96 184 139 99 181 136 102 179 132 99 181 136 102 179 132 102 179 132 102 179 132 99 181 136 102 179 132 105 177 129 108 175 125 35 229 213 8 248 244 8 248 244 46 220 199 182 148 56 182 148 56 192 147 48 192 147 48 187 148 52 187 148 52 192 147 48 195 147 46 187 148 52 195 147 46 195 147 46 195 147 46 192 147 48 192 147 48 195 147 46 195 147 46 195 147 46 212 145 32 195 147 46 195 147 46 195 147 46 195 147 46 212 145 32 212 145 32 212 145 32 212 145 32 192 147 48 195 147 46 212 145 32 212 145 32 212 145 32 212 145 32 212 145 32 212 145 32 195 147 46 195 147 46 195 147 46 192 147 48 195 147 46 212 145 32 212 145 32 212 145 32 212 145 32 212 145 32 195 147 46 215 144 30 212 145 32 212 145 32 212 145 32 212 145 32 212 145 32 212 145 32 212 145 32 212 145 32 212 145 32 212 145 32 212 145 32 170 150 65 44 222 202 8 248 244 8 248 244 8 248 244 8 248 244 5 250 248 5 250 248 5 250 248 5 250 248 5 250 248 5 250 248 5 250 248 5 250 248 8 248 244 5 250 248 5 250 248 5 250 248 8 248 244 5 250 248 8 248 244 5 250 248 5 250 248 8 248 244 5 250 248 5 250 248 8 248 244 8 248 244 8 248 244 8 248 244 8 248 244 8 248 244 5 250 248 8 248 244 5 250 248 5 250 248 5 250 248 5 250 248 5 250 248 5 250 248 5 250 248 5 250 248 5 250 248 5 250 248 8 248 244 5 250 248 5 250 248 8 248 244 8 248 244 8 248 244 5 250 248 
8 248 244 8 248 244 5 250 248 8 248 244 8 248 244 5 250 248 8 248 244 5 250 248 8 248 244 8 248 244 8 248 244 5 250 248 8 248 244 5 250 248 5 250 248 5 250 248 5 250 248 5 250 248 5 250 248 5 250 248 5 250 248 5 250 248 8 248 244 8 248 244 8 248 244 5 250 248 5 250 248 5 250 248 5 250 248 8 248 244 5 250 248 8 248 244 8 248 244 8 248 244 8 248 244 8 248 244 8 248 244 5 250 248 8 248 244 5 250 248 5 250 248 8 248 244 5 250 248 5 250 248 5 250 248 5 250 248 5 250 248 5 250 248 5 250 248 32 231 216 76 199 164 85 192 153 85 192 153 91 188 146 88 190 150 91 188 146 91 188 146 91 188 146 93 186 143 96 184 139 91 188 146 91 188 146 93 186 143 91 188 146 93 186 143 96 184 139 93 186 143 93 186 143 96 184 139 96 184 139 96 184 139 99 181 136 99 181 136 96 184 139 99 181 136 96 184 139 96 184 139 96 184 139 96 184 139 99 181 136 96 184 139 96 184 139 96 184 139 93 186 143 99 181 136 99 181 136 93 186 143 96 184 139 99 181 136 102 179 132 96 184 139 96 184 139 96 184 139 99 181 136 96 184 139 99 181 136 99 181 136 96 184 139 99 181 136 102 179 132 99 181 136 102 179 132 102 179 132 102 179 132 99 181 136 102 179 132 105 177 129 108 175 125 35 229 213 8 248 244 8 248 244 46 220 199 182 148 56 182 148 56 192 147 48 192 147 48 187 148 52 187 148 52 192 147 48 195 147 46 187 148 52 195 147 46 195 147 46 195 147 46 192 147 48 192 147 48 195 147 46 195 147 46 195 147 46 212 145 32 195 147 46 195 147 46 195 147 46 195 147 46 212 145 32 212 145 32 212 145 32 212 145 32 192 147 48 195 147 46 212 145 32 212 145 32 212 145 32 212 145 32 212 145 32 212 145 32 195 147 46 195 147 46 195 147 46 192 147 48 195 147 46 212 145 32 212 145 32 212 145 32 212 145 32 212 145 32 195 147 46 215 144 30 212 145 32 212 145 32 212 145 32 212 145 32 212 145 32 212 145 32 212 145 32 212 145 32 212 145 32 212 145 32 212 145 32 170 150 65 44 222 202 8 248 244 8 248 244 8 248 244 8 248 244 5 250 248 5 250 248 5 250 248 5 250 248 5 250 248 5 250 248 5 250 248 5 250 248 8 248 244 5 250 248 5 250 248 5 250 248 8 248 244 5 250 248 8 248 244 5 250 248 5 250 248 8 248 244 5 250 248 5 250 248 8 248 244 8 248 244 8 248 244 8 248 244 8 248 244 8 248 244 5 250 248 8 248 244 5 250 248 5 250 248 5 250 248 5 250 248 5 250 248 5 250 248 5 250 248 5 250 248 5 250 248 5 250 248 8 248 244 5 250 248 5 250 248 8 248 244 8 248 244 8 248 244 5 250 248 
8 248 244 5 250 248 5 250 248 8 248 244 8 248 244 8 248 244 5 250 248 5 250 248 8 248 244 8 248 244 8 248 244 5 250 248 8 248 244 8 248 244 8 248 244 5 250 248 5 250 248 5 250 248 8 248 244 5 250 248 8 248 244 5 250 248 8 248 244 8 248 244 8 248 244 8 248 244 5 250 248 8 248 244 8 248 244 5 250 248 5 250 248 8 248 244 8 248 244 8 248 244 8 248 244 5 250 248 5 250 248 5 250 248 5 250 248 5 250 248 8 248 244 8 248 244 5 250 248 8 248 244 5 250 248 5 250 248 8 248 244 8 248 244 5 250 248 5 250 248 5 250 248 26 235 223 67 205 174 88 190 150 91 188 146 91 188 146 91 188 146 93 186 143 93 186 143 93 186 143 91 188 146 93 186 143 93 186 143 91 188 146 93 186 143 91 188 146 93 186 143 93 186 143 93 186 143 96 184 139 96 184 139 96 184 139 99 181 136 93 186 143 99 181 136 99 181 136 99 181 136 99 181 136 96 184 139 96 184 139 99 181 136 96 184 139 96 184 139 96 184 139 91 188 146 96 184 139 99 181 136 99 181 136 96 184 139 96 184 139 96 184 139 96 184 139 99 181 136 99 181 136 99 181 136 99 181 136 99 181 136 99 181 136 99 181 136 99 181 136 102 179 132 102 179 132 102 179 132 105 177 129 102 179 132 105 177 129 105 177 129 108 175 125 35 229 213 8 248 244 8 248 244 49 218 195 182 148 56 182 148 56 187 148 52 187 148 52 195 147 46 187 148 52 192 147 48 187 148 52 212 145 32 195 147 46 192 147 48 195 147 46 195 147 46 195 147 46 212 145 32 195 147 46 195 147 46 212 145 32 212 145 32 212 145 32 212 145 32 212 145 32 212 145 32 212 145 32 212 145 32 212 145 32 195 147 46 212 145 32 195 147 46 212 145 32 212 145 32 212 145 32 215 144 30 212 145 32 212 145 32 212 145 32 195 147 46 212 145 32 212 145 32 212 145 32 195 147 46 212 145 32 212 145 32 215 144 30 215 144 30 215 144 30 215 144 30 212 145 32 215 144 30 215 144 30 212 145 32 212 145 32 212 145 32 212 145 32 192 147 48 140 153 89 49 218 195 8 248 244 8 248 244 8 248 244 8 248 244 8 248 244 8 248 244 8 248 244 8 248 244 5 250 248 5 250 248 5 250 248 8 248 244 8 248 244 5 250 248 8 248 244 5 250 248 8 248 244 8 248 244 8 248 244 5 250 248 5 250 248 8 248 244 5 250 248 8 248 244 8 248 244 8 248 244 8 248 244 5 250 248 5 250 248 8 248 244 8 248 244 8 248 244 5 250 248 8 248 244 8 248 244 8 248 244 5 250 248 5 250 248 8 248 244 8 248 244 8 248 244 5 250 248 5 250 248 8 248 244 5 250 248 8 248 244 5 250 248 8 248 244 8 248 244 8 248 244 8 248 244 
8 248 244 5 250 248 5 250 248 8 248 244 8 248 244 8 248 244 5 250 248 5 250 248 8 248 244 8 248 244 8 248 244 5 250 248 8 248 244 8 248 244 8 248 244 5 250 248 5 250 248 5 250 248 8 248 244 5 250 248 8 248 244 5 250 248 8 248 244 8 248 244 8 248 244 8 248 244 5 250 248 8 248 244 8 248 244 5 250 248 5 250 248 8 248 244 8 248 244 8 248 244 8 248 244 5 250 248 5 250 248 5 250 248 5 250 248 5 250 248 8 248 244 8 248 244 5 250 248 8 248 244 5 250 248 5 250 248 8 248 244 8 248 244 5 250 248 5 250 248 5 250 248 26 235 223 67 205 174 88 190 150 91 188 146 91 188 146 91 188 146 93 186 143 93 186 143 93 186 143 91 188 146 93 186 143 93 186 143 91 188 146 93 186 143 91 188 146 93 186 143 93 186 143 93 186 143 96 184 139 96 184 139 96 184 139 99 181 136 93 186 143 99 181 136 99 181 136 99 181 136 99 181 136 96 184 139 96 184 139 99 181 136 96 184 139 96 184 139 96 184 139 91 188 146 96 184 139 99 181 136 99 181 136 96 184 139 96 184 139 96 184 139 96 184 139 99 181 136 99 181 136 99 181 136 99 181 136 99 181 136 99 181 136 99 181 136 99 181 136 102 179 132 102 179 132 102 179 132 105 177 129 102 179 132 105 177 129 105 177 129 108 175 125 35 229 213 8 248 244 8 248 244 49 218 195 182 148 56 182 148 56 187 148 52 187 148 52 195 147 46 187 148 52 192 147 48 187 148 52 212 145 32 195 147 46 192 147 48 195 147 46 195 147 46 195 147 46 212 145 32 195 147 46 195 147 46 212 145 32 212 145 32 212 145 32 212 145 32 212 145 32 212 145 32 212 145 32 212 145 32 212 145 32 195 147 46 212 145 32 195 147 46 212 145 32 212 145 32 212 145 32 215 144 30 212 145 32 212 145 32 212 145 32 195 147 46 212 145 32 212 145 32 212 145 32 195 147 46 212 145 32 212 145 32 215 144 30 215 144 30 215 144 30 215 144 30 212 145 32 215 144 30 215 144 30 212 145 32 212 145 32 212 145 32 212 145 32 192 147 48 140 153 89 49 218 195 8 248 244 8 248 244 8 248 244 8 248 244 8 248 244 8 248 244 8 248 244 8 248 244 5 250 248 5 250 248 5 250 248 8 248 244 8 248 244 5 250 248 8 248 244 5 250 248 8 248 244 8 248 244 8 248 244 5 250 248 5 250 248 8 248 244 5 250 248 8 248 244 8 248 244 8 248 244 8 248 244 5 250 248 5 250 248 8 248 244 8 248 244 8 248 244 5 250 248 8 248 244 8 248 244 8 248 244 5 250 248 5 250 248 8 248 244 8 248 244 8 248 244 5 250 248 5 250 248 8 248 244 5 250 248 8 248 244 5 250 248 8 248 244 8 248 244 8 248 244 8 248 244 
8 248 244 8 248 244 8 248 244 5 250 248 5 250 248 8 248 244 5 250 248 5 250 248 8 248 244 5 250 248 5 250 248 8 248 244 5 250 248 8 248 244 8 248 244 5 250 248 5 250 248 5 250 248 5 250 248 5 250 248 5 250 248 5 250 248 5 250 248 8 248 244 5 250 248 5 250 248 5 250 248 5 250 248 5 250 248 5 250 248 5 250 248 5 250 248 5 250 248 5 250 248 5 250 248 8 248 244 8 248 244 8 248 244 8 248 244 8 248 244 5 250 248 5 250 248 8 248 244 8 248 244 8 248 244 8 248 244 5 250 248 5 250 248 5 250 248 5 250 248 5 250 248 5 250 248 5 250 248 8 248 244 58 212 185 67 205 174 93 186 143 91 188 146 91 188 146 91 188 146 91 188 146 88 190 150 91 188 146 88 190 150 91 188 146 93 186 143 91 188 146 93 186 143 93 186 143 96 184 139 96 184 139 99 181 136 99 181 136 99 181 136 99 181 136 99 181 136 96 184 139 93 186 143 96 184 139 96 184 139 96 184 139 96 184 139 96 184 139 96 184 139 93 186 143 96 184 139 99 181 136 102 179 132 99 181 136 99 181 136 99 181 136 99 181 136 93 186 143 96 184 139 96 184 139 99 181 136 99 181 136 99 181 136 99 181 136 102 179 132 102 179 132 99 181 136 99 181 136 102 179 132 102 179 132 102 179 132 105 177 129 108 175 125 35 229 213 8 248 244 8 248 244 49 218 195 187 148 52 192 147 48 192 147 48 187 148 52 192 147 48 195 147 46 192 147 48 195 147 46 192 147 48 192 147 48 192 147 48 195 147 46 192 147 48 195 147 46 192 147 48 212 145 32 195 147 46 212 145 32 212 145 32 212 145 32 212 145 32 215 144 30 195 147 46 212 145 32 212 145 32 215 144 30 212 145 32 212 145 32 215 144 30 195 147 46 212 145 32 212 145 32 212 145 32 195 147 46 195 147 46 212 145 32 212 145 32 195 147 46 212 145 32 212 145 32 212 145 32 212 145 32 215 144 30 212 145 32 212 145 32 215 144 30 215 144 30 212 145 32 215 144 30 215 144 30 215 144 30 215 144 30 150 152 81 102 179 132 5 250 248 5 250 248 8 248 244 8 248 244 5 250 248 5 250 248 8 248 244 5 250 248 8 248 244 8 248 244 5 250 248 5 250 248 8 248 244 8 248 244 8 248 244 8 248 244 8 248 244 5 250 248 5 250 248 5 250 248 8 248 244 8 248 244 8 248 244 5 250 248 8 248 244 5 250 248 8 248 244 5 250 248 8 248 244 8 248 244 5 250 248 5 250 248 5 250 248 8 248 244 5 250 248 5 250 248 8 248 244 8 248 244 5 250 248 5 250 248 5 250 248 5 250 248 8 248 244 5 250 248 5 250 248 5 250 248 8 248 244 8 248 244 8 248 244 8 248 244 5 250 248 5 250 248 5 250 248 5 250 248 
8 248 244 8 248 244 8 248 244 5 250 248 5 250 248 8 248 244 5 250 248 5 250 248 8 248 244 5 250 248 5 250 248 8 248 244 5 250 248 8 248 244 8 248 244 5 250 248 5 250 248 5 250 248 5 250 248 5 250 248 5 250 248 5 250 248 5 250 248 8 248 244 5 250 248 5 250 248 5 250 248 5 250 248 5 250 248 5 250 248 5 250 248 5 250 248 5 250 248 5 250 248 5 250 248 8 248 244 8 248 244 8 248 244 8 248 244 8 248 244 5 250 248 5 250 248 8 248 244 8 248 244 8 248 244 8 248 244 5 250 248 5 250 248 5 250 248 5 250 248 5 250 248 5 250 248 5 250 248 8 248 244 58 212 185 67 205 174 93 186 143 91 188 146 91 188 146 91 188 146 91 188 146 88 190 150 91 188 146 88 190 150 91 188 146 93 186 143 91 188 146 93 186 143 93 186 143 96 184 139 96 184 139 99 181 136 99 181 136 99 181 136 99 181 136 99 181 136 96 184 139 93 186 143 96 184 139 96 184 139 96 184 139 96 184 139 96 184 139 96 184 139 93 186 143 96 184 139 99 181 136 102 179 132 99 181 136 99 181 136 99 181 136 99 181 136 93 186 143 96 184 139 96 184 139 99 181 136 99 181 136 99 181 136 99 181 136 102 179 132 102 179 132 99 181 136 99 181 136 102 179 132 102 179 132 102 179 132 105 177 129 108 175 125 35 229 213 8 248 244 8 248 244 49 218 195 187 148 52 192 147 48 192 147 48 187 148 52 192 147 48 195 147 46 192 147 48 195 147 46 192 147 48 192 147 48 192 147 48 195 147 46 192 147 48 195 147 46 192 147 48 212 145 32 195 147 46 212 145 32 212 145 32 212 145 32 212 145 32 215 144 30 195 147 46 212 145 32 212 145 32 215 144 30 212 145 32 212 145 32 215 144 30 195 147 46 212 145 32 212 145 32 212 145 32 195 147 46 195 147 46 212 145 32 212 145 32 195 147 46 212 145 32 212 145 32 212 145 32 212 145 32 215 144 30 212 145 32 212 145 32 215 144 30 215 144 30 212 145 32 215 144 30 215 144 30 215 144 30 215 144 30 150 152 81 102 179 132 5 250 248 5 250 248 8 248 244 8 248 244 5 250 248 5 250 248 8 248 244 5 250 248 8 248 244 8 248 244 5 250 248 5 250 248 8 248 244 8 248 244 8 248 244 8 248 244 8 248 244 5 250 248 5 250 248 5 250 248 8 248 244 8 248 244 8 248 244 5 250 248 8 248 244 5 250 248 8 248 244 5 250 248 8 248 244 8 248 244 5 250 248 5 250 248 5 250 248 8 248 244 5 250 248 5 250 248 8 248 244 8 248 244 5 250 248 5 250 248 5 250 248 5 250 248 8 248 244 5 250 248 5 250 248 5 250 248 8 248 244 8 248 244 8 248 244 8 248 244 5 250 248 5 250 248 5 250 248 5 250 248 
8 248 244 8 248 244 5 250 248 5 250 248 8 248 244 8 248 244 5 250 248 5 250 248 5 250 248 5 250 248 5 250 248 5 250 248 5 250 248 5 250 248 8 248 244 8 248 244 5 250 248 5 250 248 5 250 248 5 250 248 5 250 248 5 250 248 5 250 248 5 250 248 5 250 248 8 248 244 5 250 248 5 250 248 8 248 244 8 248 244 5 250 248 5 250 248 5 250 248 5 250 248 5 250 248 5 250 248 8 248 244 8 248 244 5 250 248 8 248 244 8 248 244 8 248 244 8 248 244 5 250 248 8 248 244 5 250 248 8 248 244 5 250 248 5 250 248 5 250 248 8 248 244 5 250 248 5 250 248 8 248 244 5 250 248 5 250 248 17 242 234 55 214 188 85 192 153 91 188 146 91 188 146 91 188 146 88 190 150 88 190 150 91 188 146 91 188 146 93 186 143 96 184 139 96 184 139 96 184 139 93 186 143 96 184 139 96 184 139 102 179 132 96 184 139 99 181 136 99 181 136 96 184 139 96 184 139 96 184 139 96 184 139 96 184 139 96 184 139 93 186 143 96 184 139 96 184 139 96 184 139 99 181 136 96 184 139 96 184 139 99 181 136 99 181 136 96 184 139 96 184 139 96 184 139 96 184 139 102 179 132 96 184 139 99 181 136 99 181 136 102 179 132 102 179 132 102 179 132 102 179 132 102 179 132 102 179 132 102 179 132 108 175 125 35 229 213 8 248 244 8 248 244 49 218 195 187 148 52 192 147 48 192 147 48 192 147 48 192 147 48 195 147 46 195 147 46 192 147 48 192 147 48 192 147 48 212 145 32 195 147 46 195 147 46 195 147 46 195 147 46 212 145 32 215 144 30 212 145 32 212 145 32 215 144 30 212 145 32 212 145 32 215 144 30 212 145 32 212 145 32 212 145 32 212 145 32 215 144 30 215 144 30 215 144 30 212 145 32 212 145 32 212 145 32 212 145 32 212 145 32 212 145 32 212 145 32 195 147 46 195 147 46 212 145 32 195 147 46 212 145 32 212 145 32 215 144 30 215 144 30 215 144 30 215 144 30 217 144 29 215 144 30 162 151 71 102 179 132 26 235 223 8 248 244 5 250 248 8 248 244 5 250 248 8 248 244 8 248 244 8 248 244 8 248 244 8 248 244 8 248 244 8 248 244 5 250 248 8 248 244 8 248 244 8 248 244 8 248 244 8 248 244 8 248 244 8 248 244 8 248 244 8 248 244 5 250 248 8 248 244 8 248 244 8 248 244 5 250 248 8 248 244 5 250 248 8 248 244 8 248 244 8 248 244 5 250 248 8 248 244 5 250 248 5 250 248 5 250 248 5 250 248 5 250 248 8 248 244 5 250 248 5 250 248 5 250 248 5 250 248 5 250 248 8 248 244 5 250 248 5 250 248 5 250 248 5 250 248 5 250 248 8 248 244 8 248 244 5 250 248 8 248 244 5 250 248 5 250 248 
8 248 244 8 248 244 5 250 248 5 250 248 8 248 244 8 248 244 5 250 248 5 250 248 5 250 248 5 250 248 5 250 248 5 250 248 5 250 248 5 250 248 8 248 244 8 248 244 5 250 248 5 250 248 5 250 248 5 250 248 5 250 248 5 250 248 5 250 248 5 250 248 5 250 248 8 248 244 5 250 248 5 250 248 8 248 244 8 248 244 5 250 248 5 250 248 5 250 248 5 250 248 5 250 248 5 250 248 8 248 244 8 248 244 5 250 248 8 248 244 8 248 244 8 248 244 8 248 244 5 250 248 8 248 244 5 250 248 8 248 244 5 250 248 5 250 248 5 250 248 8 248 244 5 250 248 5 250 248 8 248 244 5 250 248 5 250 248 17 242 234 55 214 188 85 192 153 91 188 146 91 188 146 91 188 146 88 190 150 88 190 150 91 188 146 91 188 146 93 186 143 96 184 139 96 184 139 96 184 139 93 186 143 96 184 139 96 184 139 102 179 132 96 184 139 99 181 136 99 181 136 96 184 139 96 184 139 96 184 139 96 184 139 96 184 139 96 184 139 93 186 143 96 184 139 96 184 139 96 184 139 99 181 136 96 184 139 96 184 139 99 181 136 99 181 136 96 184 139 96 184 139 96 184 139 96 184 139 102 179 132 96 184 139 99 181 136 99 181 136 102 179 132 102 179 132 102 179 132 102 179 132 102 179 132 102 179 132 102 179 132 108 175 125 35 229 213 8 248 244 8 248 244 49 218 195 187 148 52 192 147 48 192 147 48 192 147 48 192 147 48 195 147 46 195 147 46 192 147 48 192 147 48 192 147 48 212 145 32 195 147 46 195 147 46 195 147 46 195 147 46 212 145 32 215 144 30 212 145 32 212 145 32 215 144 30 212 145 32 212 145 32 215 144 30 212 145 32 212 145 32 212 145 32 212 145 32 215 144 30 215 144 30 215 144 30 212 145 32 212 145 32 212 145 32 212 145 32 212 145 32 212 145 32 212 145 32 195 147 46 195 147 46 212 145 32 195 147 46 212 145 32 212 145 32 215 144 30 215 144 30 215 144 30 215 144 30 217 144 29 215 144 30 162 151 71 102 179 132 26 235 223 8 248 244 5 250 248 8 248 244 5 250 248 8 248 244 8 248 244 8 248 244 8 248 244 8 248 244 8 248 244 8 248 244 5 250 248 8 248 244 8 248 244 8 248 244 8 248 244 8 248 244 8 248 244 8 248 244 8 248 244 8 248 244 5 250 248 8 248 244 8 248 244 8 248 244 5 250 248 8 248 244 5 250 248 8 248 244 8 248 244 8 248 244 5 250 248 8 248 244 5 250 248 5 250 248 5 250 248 5 250 248 5 250 248 8 248 244 5 250 248 5 250 248 5 250 248 5 250 248 5 250 248 8 248 244 5 250 248 5 250 248 5 250 248 5 250 248 5 250 248 8 248 244 8 248 244 5 250 248 8 248 244 5 250 248 5 250 248 
5 250 248 5 250 248 5 250 248 5 250 248 5 250 248 8 248 244 5 250 248 5 250 248 5 250 248 5 250 248 5 250 248 5 250 248 5 250 248 5 250 248 5 250 248 5 250 248 5 250 248 5 250 248 5 250 248 5 250 248 5 250 248 8 248 244 8 248 244 8 248 244 5 250 248 8 248 244 8 248 244 5 250 248 5 250 248 5 250 248 5 250 248 5 250 248 5 250 248 5 250 248 8 248 244 8 248 244 8 248 244 5 250 248 8 248 244 8 248 244 8 248 244 5 250 248 5 250 248 5 250 248 5 250 248 5 250 248 5 250 248 8 248 244 8 248 244 8 248 244 8 248 244 8 248 244 8 248 244 8 248 244 5 250 248 5 250 248 5 250 248 5 250 248 5 250 248 26 235 223 44 222 202 88 190 150 91 188 146 88 190 150 88 190 150 93 186 143 91 188 146 93 186 143 93 186 143 93 186 143 96 184 139 93 186 143 93 186 143 93 186 143 93 186 143 96 184 139 96 184 139 96 184 139 96 184 139 93 186 143 93 186 143 96 184 139 96 184 139 96 184 139 96 184 139 96 184 139 99 181 136 99 181 136 99 181 136 99 181 136 96 184 139 99 181 136 96 184 139 96 184 139 99 181 136 99 181 136 99 181 136 99 181 136 99 181 136 99 181 136 99 181 136 99 181 136 102 179 132 102 179 132 102 179 132 105 177 129 105 177 129 108 175 125 35 229 213 8 248 244 8 248 244 49 218 195 192 147 48 192 147 48 195 147 46 195 147 46 195 147 46 192 147 48 192 147 48 195 147 46 195 147 46 212 145 32 195 147 46 195 147 46 195 147 46 195 147 46 195 147 46 195 147 46 215 144 30 212 145 32 212 145 32 212 145 32 212 145 32 215 144 30 215 144 30 215 144 30 215 144 30 215 144 30 215 144 30 215 144 30 217 144 29 215 144 30 212 145 32 212 145 32 212 145 32 195 147 46 212 145 32 195 147 46 195 147 46 195 147 46 195 147 46 195 147 46 195 147 46 195 147 46 212 145 32 215 144 30 212 145 32 215 144 30 195 147 46 82 194 157 46 220 199 8 248 244 8 248 244 5 250 248 8 248 244 5 250 248 5 250 248 5 250 248 5 250 248 5 250 248 8 248 244 5 250 248 5 250 248 5 250 248 5 250 248 8 248 244 8 248 244 8 248 244 8 248 244 5 250 248 5 250 248 8 248 244 8 248 244 8 248 244 5 250 248 5 250 248 8 248 244 5 250 248 5 250 248 8 248 244 5 250 248 8 248 244 5 250 248 5 250 248 5 250 248 5 250 248 8 248 244 8 248 244 8 248 244 8 248 244 5 250 248 5 250 248 8 248 244 5 250 248 5 250 248 5 250 248 8 248 244 5 250 248 5 250 248 5 250 248 8 248 244 8 248 244 5 250 248 8 248 244 5 250 248 5 250 248 8 248 244 8 248 244 5 250 248 5 250 248 
5 250 248 5 250 248 5 250 248 5 250 248 5 250 248 8 248 244 5 250 248 5 250 248 5 250 248 5 250 248 5 250 248 5 250 248 5 250 248 5 250 248 5 250 248 5 250 248 5 250 248 5 250 248 5 250 248 5 250 248 5 250 248 8 248 244 8 248 244 8 248 244 5 250 248 8 248 244 8 248 244 5 250 248 5 250 248 5 250 248 5 250 248 5 250 248 5 250 248 5 250 248 8 248 244 8 248 244 8 248 244 5 250 248 8 248 244 8 248 244 8 248 244 5 250 248 5 250 248 5 250 248 5 250 248 5 250 248 5 250 248 8 248 244 8 248 244 8 248 244 8 248 244 8 248 244 8 248 244 8 248 244 5 250 248 5 250 248 5 250 248 5 250 248 5 250 248 26 235 223 44 222 202 88 190 150 91 188 146 88 190 150 88 190 150 93 186 143 91 188 146 93 186 143 93 186 143 93 186 143 96 184 139 93 186 143 93 186 143 93 186 143 93 186 143 96 184 139 96 184 139 96 184 139 96 184 139 93 186 143 93 186 143 96 184 139 96 184 139 96 184 139 96 184 139 96 184 139 99 181 136 99 181 136 99 181 136 99 181 136 96 184 139 99 181 136 96 184 139 96 184 139 99 181 136 99 181 136 99 181 136 99 181 136 99 181 136 99 181 136 99 181 136 99 181 136 102 179 132 102 179 132 102 179 132 105 177 129 105 177 129 108 175 125 35 229 213 8 248 244 8 248 244 49 218 195 192 147 48 192 147 48 195 147 46 195 147 46 195 147 46 192 147 48 192 147 48 195 147 46 195 147 46 212 145 32 195 147 46 195 147 46 195 147 46 195 147 46 195 147 46 195 147 46 215 144 30 212 145 32 212 145 32 212 145 32 212 145 32 215 144 30 215 144 30 215 144 30 215 144 30 215 144 30 215 144 30 215 144 30 217 144 29 215 144 30 212 145 32 212 145 32 212 145 32 195 147 46 212 145 32 195 147 46 195 147 46 195 147 46 195 147 46 195 147 46 195 147 46 195 147 46 212 145 32 215 144 30 212 145 32 215 144 30 195 147 46 82 194 157 46 220 199 8 248 244 8 248 244 5 250 248 8 248 244 5 250 248 5 250 248 5 250 248 5 250 248 5 250 248 8 248 244 5 250 248 5 250 248 5 250 248 5 250 248 8 248 244 8 248 244 8 248 244 8 248 244 5 250 248 5 250 248 8 248 244 8 248 244 8 248 244 5 250 248 5 250 248 8 248 244 5 250 248 5 250 248 8 248 244 5 250 248 8 248 244 5 250 248 5 250 248 5 250 248 5 250 248 8 248 244 8 248 244 8 248 244 8 248 244 5 250 248 5 250 248 8 248 244 5 250 248 5 250 248 5 250 248 8 248 244 5 250 248 5 250 248 5 250 248 8 248 244 8 248 244 5 250 248 8 248 244 5 250 248 5 250 248 8 248 244 8 248 244 5 250 248 5 250 248 
5 250 248 5 250 248 5 250 248 5 250 248 5 250 248 5 250 248 5 250 248 5 250 248 5 250 248 5 250 248 5 250 248 5 250 248 5 250 248 5 250 248 5 250 248 5 250 248 5 250 248 5 250 248 5 250 248 5 250 248 8 248 244 8 248 244 8 248 244 8 248 244 8 248 244 5 250 248 8 248 244 5 250 248 5 250 248 5 250 248 5 250 248 5 250 248 5 250 248 5 250 248 5 250 248 5 250 248 8 248 244 8 248 244 8 248 244 5 250 248 5 250 248 8 248 244 5 250 248 5 250 248 5 250 248 5 250 248 5 250 248 5 250 248 8 248 244 8 248 244 5 250 248 5 250 248 5 250 248 5 250 248 5 250 248 5 250 248 5 250 248 8 248 244 8 248 244 5 250 248 8 248 244 5 250 248 14 244 237 44 222 202 76 199 164 93 186 143 91 188 146 88 190 150 91 188 146 93 186 143 93 186 143 93 186 143 93 186 143 93 186 143 99 181 136 93 186 143 96 184 139 99 181 136 99 181 136 99 181 136 93 186 143 96 184 139 96 184 139 99 181 136 93 186 143 102 179 132 96 184 139 99 181 136 99 181 136 99 181 136 102 179 132 96 184 139 102 179 132 99 181 136 102 179 132 99 181 136 99 181 136 99 181 136 99 181 136 99 181 136 99 181 136 99 181 136 102 179 132 102 179 132 105 177 129 102 179 132 102 179 132 105 177 129 35 229 213 8 248 244 8 248 244 49 218 195 192 147 48 192 147 48 192 147 48 195 147 46 212 145 32 195 147 46 192 147 48 195 147 46 195 147 46 195 147 46 195 147 46 195 147 46 195 147 46 212 145 32 195 147 46 212 145 32 195 147 46 212 145 32 212 145 32 212 145 32 212 145 32 215 144 30 212 145 32 212 145 32 215 144 30 215 144 30 215 144 30 215 144 30 215 144 30 215 144 30 212 145 32 212 145 32 212 145 32 212 145 32 195 147 46 215 144 30 212 145 32 212 145 32 212 145 32 195 147 46 195 147 46 212 145 32 215 144 30 160 151 73 82 194 157 35 229 213 8 248 244 8 248 244 8 248 244 5 250 248 8 248 244 8 248 244 5 250 248 5 250 248 5 250 248 8 248 244 5 250 248 5 250 248 5 250 248 8 248 244 5 250 248 8 248 244 8 248 244 8 248 244 8 248 244 5 250 248 8 248 244 8 248 244 8 248 244 8 248 244 5 250 248 5 250 248 5 250 248 5 250 248 5 250 248 8 248 244 5 250 248 5 250 248 5 250 248 5 250 248 8 248 244 8 248 244 5 250 248 5 250 248 8 248 244 5 250 248 5 250 248 8 248 244 8 248 244 5 250 248 8 248 244 8 248 244 5 250 248 5 250 248 5 250 248 5 250 248 5 250 248 8 248 244 8 248 244 5 250 248 8 248 244 8 248 244 5 250 248 8 248 244 5 250 248 5 250 248 5 250 248 5 250 248 
5 250 248 5 250 248 5 250 248 5 250 248 5 250 248 5 250 248 5 250 248 5 250 248 5 250 248 5 250 248 5 250 248 5 250 248 5 250 248 5 250 248 5 250 248 5 250 248 5 250 248 5 250 248 5 250 248 5 250 248 8 248 244 8 248 244 8 248 244 8 248 244 8 248 244 5 250 248 8 248 244 5 250 248 5 250 248 5 250 248 5 250 248 5 250 248 5 250 248 5 250 248 5 250 248 5 250 248 8 248 244 8 248 244 8 248 244 5 250 248 5 250 248 8 248 244 5 250 248 5 250 248 5 250 248 5 250 248 5 250 248 5 250 248 8 248 244 8 248 244 5 250 248 5 250 248 5 250 248 5 250 248 5 250 248 5 250 248 5 250 248 8 248 244 8 248 244 5 250 248 8 248 244 5 250 248 14 244 237 44 222 202 76 199 164 93 186 143 91 188 146 88 190 150 91 188 146 93 186 143 93 186 143 93 186 143 93 186 143 93 186 143 99 181 136 93 186 143 96 184 139 99 181 136 99 181 136 99 181 136 93 186 143 96 184 139 96 184 139 99 181 136 93 186 143 102 179 132 96 184 139 99 181 136 99 181 136 99 181 136 102 179 132 96 184 139 102 179 132 99 181 136 102 179 132 99 181 136 99 181 136 99 181 136 99 181 136 99 181 136 99 181 136 99 181 136 102 179 132 102 179 132 105 177 129 102 179 132 102 179 132 105 177 129 35 229 213 8 248 244 8 248 244 49 218 195 192 147 48 192 147 48 192 147 48 195 147 46 212 145 32 195 147 46 192 147 48 195 147 46 195 147 46 195 147 46 195 147 46 195 147 46 195 147 46 212 145 32 195 147 46 212 145 32 195 147 46 212 145 32 212 145 32 212 145 32 212 145 32 215 144 30 212 145 32 212 145 32 215 144 30 215 144 30 215 144 30 215 144 30 215 144 30 215 144 30 212 145 32 212 145 32 212 145 32 212 145 32 195 147 46 215 144 30 212 145 32 212 145 32 212 145 32 195 147 46 195 147 46 212 145 32 215 144 30 160 151 73 82 194 157 35 229 213 8 248 244 8 248 244 8 248 244 5 250 248 8 248 244 8 248 244 5 250 248 5 250 248 5 250 248 8 248 244 5 250 248 5 250 248 5 250 248 8 248 244 5 250 248 8 248 244 8 248 244 8 248 244 8 248 244 5 250 248 8 248 244 8 248 244 8 248 244 8 248 244 5 250 248 5 250 248 5 250 248 5 250 248 5 250 248 8 248 244 5 250 248 5 250 248 5 250 248 5 250 248 8 248 244 8 248 244 5 250 248 5 250 248 8 248 244 5 250 248 5 250 248 8 248 244 8 248 244 5 250 248 8 248 244 8 248 244 5 250 248 5 250 248 5 250 248 5 250 248 5 250 248 8 248 244 8 248 244 5 250 248 8 248 244 8 248 244 5 250 248 8 248 244 5 250 248 5 250 248 5 250 248 5 250 248 
5 250 248 8 248 244 5 250 248 5 250 248 5 250 248 5 250 248 5 250 248 5 250 248 5 250 248 8 248 244 8 248 244 5 250 248 5 250 248 5 250 248 5 250 248 5 250 248 5 250 248 5 250 248 5 250 248 5 250 248 5 250 248 8 248 244 5 250 248 5 250 248 5 250 248 8 248 244 8 248 244 5 250 248 5 250 248 5 250 248 5 250 248 5 250 248 8 248 244 5 250 248 8 248 244 5 250 248 8 248 244 5 250 248 5 250 248 5 250 248 5 250 248 8 248 244 5 250 248 8 248 244 5 250 248 5 250 248 8 248 244 8 248 244 8 248 244 5 250 248 5 250 248 5 250 248 5 250 248 5 250 248 5 250 248 5 250 248 5 250 248 8 248 244 8 248 244 8 248 244 8 248 244 8 248 244 5 250 248 5 250 248 5 250 248 11 246 241 20 239 230 67 205 174 91 188 146 93 186 143 91 188 146 93 186 143 93 186 143 96 184 139 96 184 139 96 184 139 99 181 136 96 184 139 93 186 143 96 184 139 93 186 143 93 186 143 96 184 139 96 184 139 96 184 139 99 181 136 102 179 132 99 181 136 99 181 136 99 181 136 102 179 132 99 181 136 99 181 136 99 181 136 102 179 132 102 179 132 102 179 132 105 177 129 99 181 136 99 181 136 99 181 136 96 184 139 99 181 136 99 181 136 99 181 136 102 179 132 99 181 136 102 179 132 35 229 213 8 248 244 8 248 244 49 218 195 192 147 48 187 148 52 187 148 52 195 147 46 212 145 32 212 145 32 195 147 46 195 147 46 195 147 46 195 147 46 195 147 46 195 147 46 195 147 46 195 147 46 195 147 46 195 147 46 195 147 46 195 147 46 195 147 46 212 145 32 212 145 32 215 144 30 215 144 30 215 144 30 215 144 30 215 144 30 215 144 30 212 145 32 215 144 30 215 144 30 215 144 30 215 144 30 215 144 30 212 145 32 212 145 32 212 145 32 212 145 32 215 144 30 212 145 32 212 145 32 117 169 115 38 227 209 17 242 234 5 250 248 5 250 248 8 248 244 8 248 244 8 248 244 5 250 248 8 248 244 5 250 248 5 250 248 8 248 244 5 250 248 5 250 248 8 248 244 8 248 244 5 250 248 8 248 244 5 250 248 8 248 244 8 248 244 8 248 244 5 250 248 5 250 248 5 250 248 5 250 248 5 250 248 8 248 244 5 250 248 5 250 248 5 250 248 5 250 248 5 250 248 8 248 244 5 250 248 8 248 244 8 248 244 8 248 244 8 248 244 8 248 244 8 248 244 8 248 244 5 250 248 5 250 248 8 248 244 8 248 244 5 250 248 8 248 244 8 248 244 5 250 248 5 250 248 5 250 248 8 248 244 5 250 248 8 248 244 5 250 248 5 250 248 5 250 248 5 250 248 8 248 244 8 248 244 5 250 248 5 250 248 5 250 248 5 250 248 5 250 248 5 250 248 
5 250 248 8 248 244 5 250 248 5 250 248 5 250 248 5 250 248 5 250 248 5 250 248 5 250 248 8 248 244 8 248 244 5 250 248 5 250 248 5 250 248 5 250 248 5 250 248 5 250 248 5 250 248 5 250 248 5 250 248 5 250 248 8 248 244 5 250 248 5 250 248 5 250 248 8 248 244 8 248 244 5 250 248 5 250 248 5 250 248 5 250 248 5 250 248 8 248 244 5 250 248 8 248 244 5 250 248 8 248 244 5 250 248 5 250 248 5 250 248 5 250 248 8 248 244 5 250 248 8 248 244 5 250 248 5 250 248 8 248 244 8 248 244 8 248 244 5 250 248 5 250 248 5 250 248 5 250 248 5 250 248 5 250 248 5 250 248 5 250 248 8 248 244 8 248 244 8 248 244 8 248 244 8 248 244 5 250 248 5 250 248 5 250 248 11 246 241 20 239 230 67 205 174 91 188 146 93 186 143 91 188 146 93 186 143 93 186 143 96 184 139 96 184 139 96 184 139 99 181 136 96 184 139 93 186 143 96 184 139 93 186 143 93 186 143 96 184 139 96 184 139 96 184 139 99 181 136 102 179 132 99 181 136 99 181 136 99 181 136 102 179 132 99 181 136 99 181 136 99 181 136 102 179 132 102 179 132 102 179 132 105 177 129 99 181 136 99 181 136 99 181 136 96 184 139 99 181 136 99 181 136 99 181 136 102 179 132 99 181 136 102 179 132 35 229 213 8 248 244 8 248 244 49 218 195 192 147 48 187 148 52 187 148 52 195 147 46 212 145 32 212 145 32 195 147 46 195 147 46 195 147 46 195 147 46 195 147 46 195 147 46 195 147 46 195 147 46 195 147 46 195 147 46 195 147 46 195 147 46 195 147 46 212 145 32 212 145 32 215 144 30 215 144 30 215 144 30 215 144 30 215 144 30 215 144 30 212 145 32 215 144 30 215 144 30 215 144 30 215 144 30 215 144 30 212 145 32 212 145 32 212 145 32 212 145 32 215 144 30 212 145 32 212 145 32 117 169 115 38 227 209 17 242 234 5 250 248 5 250 248 8 248 244 8 248 244 8 248 244 5 250 248 8 248 244 5 250 248 5 250 248 8 248 244 5 250 248 5 250 248 8 248 244 8 248 244 5 250 248 8 248 244 5 250 248 8 248 244 8 248 244 8 248 244 5 250 248 5 250 248 5 250 248 5 250 248 5 250 248 8 248 244 5 250 248 5 250 248 5 250 248 5 250 248 5 250 248 8 248 244 5 250 248 8 248 244 8 248 244 8 248 244 8 248 244 8 248 244 8 248 244 8 248 244 5 250 248 5 250 248 8 248 244 8 248 244 5 250 248 8 248 244 8 248 244 5 250 248 5 250 248 5 250 248 8 248 244 5 250 248 8 248 244 5 250 248 5 250 248 5 250 248 5 250 248 8 248 244 8 248 244 5 250 248 5 250 248 5 250 248 5 250 248 5 250 248 5 250 248 
5 250 248 8 248 244 5 250 248 5 250 248 8 248 244 8 248 244 5 250 248 8 248 244 8 248 244 8 248 244 5 250 248 8 248 244 8 248 244 5 250 248 8 248 244 5 250 248 8 248 244 8 248 244 8 248 244 8 248 244 8 248 244 8 248 244 8 248 244 5 250 248 5 250 248 5 250 248 5 250 248 5 250 248 5 250 248 5 250 248 5 250 248 5 250 248 5 250 248 5 250 248 5 250 248 8 248 244 5 250 248 5 250 248 5 250 248 8 248 244 5 250 248 5 250 248 8 248 244 5 250 248 5 250 248 8 248 244 8 248 244 5 250 248 8 248 244 5 250 248 8 248 244 5 250 248 5 250 248 8 248 244 5 250 248 5 250 248 5 250 248 8 248 244 5 250 248 5 250 248 5 250 248 5 250 248 5 250 248 5 250 248 5 250 248 8 248 244 8 248 244 8 248 244 8 248 244 11 246 241 26 235 223 76 199 164 96 184 139 96 184 139 96 184 139 96 184 139 99 181 136 96 184 139 93 186 143 91 188 146 91 188 146 96 184 139 96 184 139 96 184 139 99 181 136 96 184 139 99 181 136 102 179 132 99 181 136 99 181 136 102 179 132 102 179 132 102 179 132 102 179 132 102 179 132 102 179 132 99 181 136 99 181 136 102 179 132 102 179 132 99 181 136 99 181 136 102 179 132 99 181 136 96 184 139 99 181 136 102 179 132 105 177 129 35 229 213 8 248 244 8 248 244 49 218 195 195 147 46 192 147 48 195 147 46 192 147 48 195 147 46 212 145 32 212 145 32 195 147 46 212 145 32 195 147 46 195 147 46 195 147 46 212 145 32 212 145 32 195 147 46 192 147 48 195 147 46 195 147 46 212 145 32 195 147 46 212 145 32 212 145 32 195 147 46 212 145 32 215 144 30 215 144 30 215 144 30 215 144 30 215 144 30 215 144 30 212 145 32 215 144 30 215 144 30 217 144 29 215 144 30 215 144 30 155 151 77 41 224 206 14 244 237 8 248 244 8 248 244 8 248 244 8 248 244 8 248 244 5 250 248 5 250 248 5 250 248 8 248 244 8 248 244 5 250 248 5 250 248 8 248 244 8 248 244 8 248 244 8 248 244 8 248 244 8 248 244 8 248 244 8 248 244 8 248 244 8 248 244 8 248 244 8 248 244 8 248 244 5 250 248 5 250 248 8 248 244 8 248 244 8 248 244 8 248 244 8 248 244 5 250 248 5 250 248 5 250 248 5 250 248 5 250 248 5 250 248 5 250 248 8 248 244 5 250 248 8 248 244 8 248 244 5 250 248 8 248 244 8 248 244 5 250 248 8 248 244 8 248 244 8 248 244 5 250 248 8 248 244 8 248 244 5 250 248 8 248 244 5 250 248 8 248 244 8 248 244 8 248 244 5 250 248 8 248 244 5 250 248 8 248 244 5 250 248 5 250 248 8 248 244 8 248 244 8 248 244 8 248 244 
5 250 248 8 248 244 5 250 248 5 250 248 8 248 244 8 248 244 5 250 248 8 248 244 8 248 244 8 248 244 5 250 248 8 248 244 8 248 244 5 250 248 8 248 244 5 250 248 8 248 244 8 248 244 8 248 244 8 248 244 8 248 244 8 248 244 8 248 244 5 250 248 5 250 248 5 250 248 5 250 248 5 250 248 5 250 248 5 250 248 5 250 248 5 250 248 5 250 248 5 250 248 5 250 248 8 248 244 5 250 248 5 250 248 5 250 248 8 248 244 5 250 248 5 250 248 8 248 244 5 250 248 5 250 248 8 248 244 8 248 244 5 250 248 8 248 244 5 250 248 8 248 244 5 250 248 5 250 248 8 248 244 5 250 248 5 250 248 5 250 248 8 248 244 5 250 248 5 250 248 5 250 248 5 250 248 5 250 248 5 250 248 5 250 248 8 248 244 8 248 244 8 248 244 8 248 244 11 246 241 26 235 223 76 199 164 96 184 139 96 184 139 96 184 139 96 184 139 99 181 136 96 184 139 93 186 143 91 188 146 91 188 146 96 184 139 96 184 139 96 184 139 99 181 136 96 184 139 99 181 136 102 179 132 99 181 136 99 181 136 102 179 132 102 179 132 102 179 132 102 179 132 102 179 132 102 179 132 99 181 136 99 181 136 102 179 132 102 179 132 99 181 136 99 181 136 102 179 132 99 181 136 96 184 139 99 181 136 102 179 132 105 177 129 35 229 213 8 248 244 8 248 244 49 218 195 195 147 46 192 147 48 195 147 46 192 147 48 195 147 46 212 145 32 212 145 32 195 147 46 212 145 32 195 147 46 195 147 46 195 147 46 212 145 32 212 145 32 195 147 46 192 147 48 195 147 46 195 147 46 212 145 32 195 147 46 212 145 32 212 145 32 195 147 46 212 145 32 215 144 30 215 144 30 215 144 30 215 144 30 215 144 30 215 144 30 212 145 32 215 144 30 215 144 30 217 144 29 215 144 30 215 144 30 155 151 77 41 224 206 14 244 237 8 248 244 8 248 244 8 248 244 8 248 244 8 248 244 5 250 248 5 250 248 5 250 248 8 248 244 8 248 244 5 250 248 5 250 248 8 248 244 8 248 244 8 248 244 8 248 244 8 248 244 8 248 244 8 248 244 8 248 244 8 248 244 8 248 244 8 248 244 8 248 244 8 248 244 5 250 248 5 250 248 8 248 244 8 248 244 8 248 244 8 248 244 8 248 244 5 250 248 5 250 248 5 250 248 5 250 248 5 250 248 5 250 248 5 250 248 8 248 244 5 250 248 8 248 244 8 248 244 5 250 248 8 248 244 8 248 244 5 250 248 8 248 244 8 248 244 8 248 244 5 250 248 8 248 244 8 248 244 5 250 248 8 248 244 5 250 248 8 248 244 8 248 244 8 248 244 5 250 248 8 248 244 5 250 248 8 248 244 5 250 248 5 250 248 8 248 244 8 248 244 8 248 244 8 248 244 
5 250 248 5 250 248 5 250 248 5 250 248 8 248 244 5 250 248 8 248 244 8 248 244 8 248 244 5 250 248 8 248 244 5 250 248 5 250 248 8 248 244 8 248 244 8 248 244 8 248 244 5 250 248 8 248 244 8 248 244 8 248 244 8 248 244 5 250 248 5 250 248 5 250 248 5 250 248 5 250 248 5 250 248 5 250 248 5 250 248 8 248 244 5 250 248 5 250 248 5 250 248 5 250 248 5 250 248 5 250 248 5 250 248 8 248 244 8 248 244 5 250 248 8 248 244 5 250 248 8 248 244 5 250 248 8 248 244 8 248 244 8 248 244 5 250 248 8 248 244 5 250 248 5 250 248 5 250 248 5 250 248 5 250 248 8 248 244 8 248 244 8 248 244 8 248 244 8 248 244 5 250 248 8 248 244 8 248 244 5 250 248 8 248 244 5 250 248 8 248 244 5 250 248 5 250 248 8 248 244 5 250 248 5 250 248 5 250 248 5 250 248 11 246 241 64 207 178 91 188 146 93 186 143 99 181 136 96 184 139 99 181 136 96 184 139 99 181 136 99 181 136 99 181 136 99 181 136 99 181 136 102 179 132 102 179 132 99 181 136 99 181 136 105 177 129 102 179 132 102 179 132 105 177 129 99 181 136 99 181 136 96 184 139 102 179 132 102 179 132 102 179 132 105 177 129 105 177 129 102 179 132 102 179 132 99 181 136 102 179 132 105 177 129 35 229 213 8 248 244 5 250 248 49 218 195 192 147 48 192 147 48 212 145 32 212 145 32 212 145 32 212 145 32 212 145 32 212 145 32 192 147 48 195 147 46 212 145 32 195 147 46 195 147 46 195 147 46 212 145 32 192 147 48 195 147 46 195 147 46 212 145 32 195 147 46 195 147 46 212 145 32 215 144 30 212 145 32 212 145 32 215 144 30 215 144 30 212 145 32 217 144 29 217 144 29 212 145 32 195 147 46 117 169 115 20 239 230 5 250 248 5 250 248 5 250 248 5 250 248 5 250 248 8 248 244 8 248 244 5 250 248 8 248 244 8 248 244 8 248 244 5 250 248 8 248 244 8 248 244 8 248 244 8 248 244 5 250 248 5 250 248 8 248 244 8 248 244 8 248 244 8 248 244 8 248 244 8 248 244 8 248 244 8 248 244 5 250 248 5 250 248 8 248 244 8 248 244 5 250 248 8 248 244 8 248 244 5 250 248 8 248 244 5 250 248 8 248 244 5 250 248 5 250 248 5 250 248 5 250 248 5 250 248 5 250 248 5 250 248 8 248 244 8 248 244 5 250 248 8 248 244 8 248 244 8 248 244 5 250 248 8 248 244 5 250 248 5 250 248 8 248 244 8 248 244 8 248 244 8 248 244 8 248 244 5 250 248 5 250 248 5 250 248 5 250 248 5 250 248 5 250 248 8 248 244 5 250 248 5 250 248 5 250 248 5 250 248 5 250 248 5 250 248 8 248 244 5 250 248 
5 250 248 5 250 248 5 250 248 5 250 248 8 248 244 5 250 248 8 248 244 8 248 244 8 248 244 5 250 248 8 248 244 5 250 248 5 250 248 8 248 244 8 248 244 8 248 244 8 248 244 5 250 248 8 248 244 8 248 244 8 248 244 8 248 244 5 250 248 5 250 248 5 250 248 5 250 248 5 250 248 5 250 248 5 250 248 5 250 248 8 248 244 5 250 248 5 250 248 5 250 248 5 250 248 5 250 248 5 250 248 5 250 248 8 248 244 8 248 244 5 250 248 8 248 244 5 250 248 8 248 244 5 250 248 8 248 244 8 248 244 8 248 244 5 250 248 8 248 244 5 250 248 5 250 248 5 250 248 5 250 248 5 250 248 8 248 244 8 248 244 8 248 244 8 248 244 8 248 244 5 250 248 8 248 244 8 248 244 5 250 248 8 248 244 5 250 248 8 248 244 5 250 248 5 250 248 8 248 244 5 250 248 5 250 248 5 250 248 5 250 248 11 246 241 64 207 178 91 188 146 93 186 143 99 181 136 96 184 139 99 181 136 96 184 139 99 181 136 99 181 136 99 181 136 99 181 136 99 181 136 102 179 132 102 179 132 99 181 136 99 181 136 105 177 129 102 179 132 102 179 132 105 177 129 99 181 136 99 181 136 96 184 139 102 179 132 102 179 132 102 179 132 105 177 129 105 177 129 102 179 132 102 179 132 99 181 136 102 179 132 105 177 129 35 229 213 8 248 244 5 250 248 49 218 195 192 147 48 192 147 48 212 145 32 212 145 32 212 145 32 212 145 32 212 145 32 212 145 32 192 147 48 195 147 46 212 145 32 195 147 46 195 147 46 195 147 46 212 145 32 192 147 48 195 147 46 195 147 46 212 145 32 195 147 46 195 147 46 212 145 32 215 144 30 212 145 32 212 145 32 215 144 30 215 144 30 212 145 32 217 144 29 217 144 29 212 145 32 195 147 46 117 169 115 20 239 230 5 250 248 5 250 248 5 250 248 5 250 248 5 250 248 8 248 244 8 248 244 5 250 248 8 248 244 8 248 244 8 248 244 5 250 248 8 248 244 8 248 244 8 248 244 8 248 244 5 250 248 5 250 248 8 248 244 8 248 244 8 248 244 8 248 244 8 248 244 8 248 244 8 248 244 8 248 244 5 250 248 5 250 248 8 248 244 8 248 244 5 250 248 8 248 244 8 248 244 5 250 248 8 248 244 5 250 248 8 248 244 5 250 248 5 250 248 5 250 248 5 250 248 5 250 248 5 250 248 5 250 248 8 248 244 8 248 244 5 250 248 8 248 244 8 248 244 8 248 244 5 250 248 8 248 244 5 250 248 5 250 248 8 248 244 8 248 244 8 248 244 8 248 244 8 248 244 5 250 248 5 250 248 5 250 248 5 250 248 5 250 248 5 250 248 8 248 244 5 250 248 5 250 248 5 250 248 5 250 248 5 250 248 5 250 248 8 248 244 5 250 248 
8 248 244 8 248 244 5 250 248 8 248 244 5 250 248 5 250 248 5 250 248 5 250 248 8 248 244 8 248 244 8 248 244 8 248 244 5 250 248 8 248 244 8 248 244 8 248 244 8 248 244 8 248 244 5 250 248 5 250 248 8 248 244 5 250 248 5 250 248 5 250 248 5 250 248 5 250 248 5 250 248 8 248 244 5 250 248 5 250 248 5 250 248 5 250 248 8 248 244 5 250 248 5 250 248 5 250 248 5 250 248 5 250 248 5 250 248 5 250 248 5 250 248 5 250 248 5 250 248 8 248 244 8 248 244 8 248 244 8 248 244 8 248 244 5 250 248 5 250 248 5 250 248 8 248 244 8 248 244 5 250 248 8 248 244 8 248 244 5 250 248 8 248 244 8 248 244 5 250 248 5 250 248 5 250 248 5 250 248 5 250 248 5 250 248 5 250 248 8 248 244 8 248 244 5 250 248 5 250 248 5 250 248 5 250 248 5 250 248 8 248 244 8 248 244 8 248 244 8 248 244 8 248 244 8 248 244 14 244 237 67 205 174 82 194 157 91 188 146 99 181 136 99 181 136 99 181 136 105 177 129 102 179 132 99 181 136 102 179 132 99 181 136 96 184 139 102 179 132 102 179 132 99 181 136 99 181 136 99 181 136 102 179 132 99 181 136 102 179 132 102 179 132 102 179 132 105 177 129 105 177 129 102 179 132 102 179 132 99 181 136 102 179 132 32 231 216 8 248 244 8 248 244 49 218 195 192 147 48 192 147 48 212 145 32 212 145 32 215 144 30 212 145 32 195 147 46 195 147 46 195 147 46 212 145 32 195 147 46 212 145 32 212 145 32 195 147 46 195 147 46 212 145 32 192 147 48 195 147 46 212 145 32 212 145 32 212 145 32 195 147 46 212 145 32 212 145 32 212 145 32 182 148 56 165 150 69 135 156 94 23 237 227 8 248 244 8 248 244 8 248 244 5 250 248 8 248 244 5 250 248 5 250 248 5 250 248 5 250 248 5 250 248 8 248 244 5 250 248 8 248 244 5 250 248 8 248 244 8 248 244 8 248 244 8 248 244 5 250 248 5 250 248 8 248 244 5 250 248 5 250 248 5 250 248 8 248 244 8 248 244 8 248 244 8 248 244 5 250 248 5 250 248 5 250 248 8 248 244 8 248 244 8 248 244 8 248 244 5 250 248 8 248 244 8 248 244 8 248 244 5 250 248 5 250 248 5 250 248 5 250 248 8 248 244 5 250 248 5 250 248 5 250 248 5 250 248 5 250 248 8 248 244 5 250 248 8 248 244 8 248 244 5 250 248 5 250 248 8 248 244 8 248 244 5 250 248 5 250 248 8 248 244 8 248 244 5 250 248 8 248 244 8 248 244 8 248 244 8 248 244 5 250 248 8 248 244 5 250 248 5 250 248 8 248 244 5 250 248 5 250 248 5 250 248 5 250 248 5 250 248 5 250 248 5 250 248 5 250 248 
8 248 244 8 248 244 5 250 248 8 248 244 5 250 248 5 250 248 5 250 248 5 250 248 8 248 244 8 248 244 8 248 244 8 248 244 5 250 248 8 248 244 8 248 244 8 248 244 8 248 244 8 248 244 5 250 248 5 250 248 8 248 244 5 250 248 5 250 248 5 250 248 5 250 248 5 250 248 5 250 248 8 248 244 5 250 248 5 250 248 5 250 248 5 250 248 8 248 244 5 250 248 5 250 248 5 250 248 5 250 248 5 250 248 5 250 248 5 250 248 5 250 248 5 250 248 5 250 248 8 248 244 8 248 244 8 248 244 8 248 244 8 248 244 5 250 248 5 250 248 5 250 248 8 248 244 8 248 244 5 250 248 8 248 244 8 248 244 5 250 248 8 248 244 8 248 244 5 250 248 5 250 248 5 250 248 5 250 248 5 250 248 5 250 248 5 250 248 8 248 244 8 248 244 5 250 248 5 250 248 5 250 248 5 250 248 5 250 248 8 248 244 8 248 244 8 248 244 8 248 244 8 248 244 8 248 244 14 244 237 67 205 174 82 194 157 91 188 146 99 181 136 99 181 136 99 181 136 105 177 129 102 179 132 99 181 136 102 179 132 99 181 136 96 184 139 102 179 132 102 179 132 99 181 136 99 181 136 99 181 136 102 179 132 99 181 136 102 179 132 102 179 132 102 179 132 105 177 129 105 177 129 102 179 132 102 179 132 99 181 136 102 179 132 32 231 216 8 248 244 8 248 244 49 218 195 192 147 48 192 147 48 212 145 32 212 145 32 215 144 30 212 145 32 195 147 46 195 147 46 195 147 46 212 145 32 195 147 46 212 145 32 212 145 32 195 147 46 195 147 46 212 145 32 192 147 48 195 147 46 212 145 32 212 145 32 212 145 32 195 147 46 212 145 32 212 145 32 212 145 32 182 148 56 165 150 69 135 156 94 23 237 227 8 248 244 8 248 244 8 248 244 5 250 248 8 248 244 5 250 248 5 250 248 5 250 248 5 250 248 5 250 248 8 248 244 5 250 248 8 248 244 5 250 248 8 248 244 8 248 244 8 248 244 8 248 244 5 250 248 5 250 248 8 248 244 5 250 248 5 250 248 5 250 248 8 248 244 8 248 244 8 248 244 8 248 244 5 250 248 5 250 248 5 250 248 8 248 244 8 248 244 8 248 244 8 248 244 5 250 248 8 248 244 8 248 244 8 248 244 5 250 248 5 250 248 5 250 248 5 250 248 8 248 244 5 250 248 5 250 248 5 250 248 5 250 248 5 250 248 8 248 244 5 250 248 8 248 244 8 248 244 5 250 248 5 250 248 8 248 244 8 248 244 5 250 248 5 250 248 8 248 244 8 248 244 5 250 248 8 248 244 8 248 244 8 248 244 8 248 244 5 250 248 8 248 244 5 250 248 5 250 248 8 248 244 5 250 248 5 250 248 5 250 248 5 250 248 5 250 248 5 250 248 5 250 248 5 250 248 
8 248 244 8 248 244 8 248 244 8 248 244 8 248 244 8 248 244 8 248 244 8 248 244 5 250 248 8 248 244 5 250 248 5 250 248 5 250 248 8 248 244 8 248 244 5 250 248 5 250 248 8 248 244 5 250 248 5 250 248 8 248 244 8 248 244 8 248 244 8 248 244 5 250 248 5 250 248 5 250 248 5 250 248 5 250 248 5 250 248 5 250 248 5 250 248 5 250 248 5 250 248 8 248 244 8 248 244 5 250 248 8 248 244 5 250 248 5 250 248 8 248 244 5 250 248 5 250 248 5 250 248 5 250 248 5 250 248 5 250 248 5 250 248 8 248 244 8 248 244 5 250 248 8 248 244 8 248 244 8 248 244 5 250 248 8 248 244 8 248 244 8 248 244 5 250 248 8 248 244 5 250 248 5 250 248 8 248 244 8 248 244 8 248 244 8 248 244 8 248 244 5 250 248 8 248 244 5 250 248 5 250 248 8 248 244 5 250 248 8 248 244 5 250 248 5 250 248 8 248 244 8 248 244 8 248 244 5 250 248 5 250 248 5 250 248 5 250 248 5 250 248 5 250 248 38 227 209 70 203 171 73 201 167 82 194 157 93 186 143 102 179 132 96 184 139 99 181 136 99 181 136 102 179 132 102 179 132 105 177 129 102 179 132 102 179 132 105 177 129 105 177 129 102 179 132 102 179 132 105 177 129 99 181 136 102 179 132 99 181 136 99 181 136 32 231 216 8 248 244 8 248 244 49 218 195 192 147 48 195 147 46 195 147 46 212 145 32 212 145 32 195 147 46 212 145 32 212 145 32 195 147 46 212 145 32 212 145 32 195 147 46 212 145 32 195 147 46 195 147 46 212 145 32 212 145 32 192 147 48 182 148 56 150 152 81 140 153 89 120 166 111 49 218 195 5 250 248 8 248 244 5 250 248 5 250 248 5 250 248 8 248 244 8 248 244 5 250 248 5 250 248 5 250 248 8 248 244 8 248 244 8 248 244 8 248 244 8 248 244 5 250 248 5 250 248 5 250 248 5 250 248 8 248 244 8 248 244 5 250 248 5 250 248 8 248 244 8 248 244 8 248 244 5 250 248 5 250 248 8 248 244 5 250 248 5 250 248 5 250 248 5 250 248 5 250 248 5 250 248 5 250 248 5 250 248 5 250 248 5 250 248 8 248 244 8 248 244 8 248 244 8 248 244 5 250 248 5 250 248 8 248 244 5 250 248 8 248 244 5 250 248 8 248 244 5 250 248 5 250 248 5 250 248 5 250 248 5 250 248 8 248 244 5 250 248 5 250 248 5 250 248 8 248 244 5 250 248 5 250 248 5 250 248 5 250 248 5 250 248 5 250 248 8 248 244 5 250 248 8 248 244 5 250 248 5 250 248 5 250 248 5 250 248 5 250 248 5 250 248 5 250 248 5 250 248 5 250 248 5 250 248 5 250 248 5 250 248 5 250 248 5 250 248 5 250 248 5 250 248 
8 248 244 8 248 244 8 248 244 8 248 244 8 248 244 8 248 244 8 248 244 8 248 244 5 250 248 8 248 244 5 250 248 5 250 248 5 250 248 8 248 244 8 248 244 5 250 248 5 250 248 8 248 244 5 250 248 5 250 248 8 248 244 8 248 244 8 248 244 8 248 244 5 250 248 5 250 248 5 250 248 5 250 248 5 250 248 5 250 248 5 250 248 5 250 248 5 250 248 5 250 248 8 248 244 8 248 244 5 250 248 8 248 244 5 250 248 5 250 248 8 248 244 5 250 248 5 250 248 5 250 248 5 250 248 5 250 248 5 250 248 5 250 248 8 248 244 8 248 244 5 250 248 8 248 244 8 248 244 8 248 244 5 250 248 8 248 244 8 248 244 8 248 244 5 250 248 8 248 244 5 250 248 5 250 248 8 248 244 8 248 244 8 248 244 8 248 244 8 248 244 5 250 248 8 248 244 5 250 248 5 250 248 8 248 244 5 250 248 8 248 244 5 250 248 5 250 248 8 248 244 8 248 244 8 248 244 5 250 248 5 250 248 5 250 248 5 250 248 5 250 248 5 250 248 38 227 209 70 203 171 73 201 167 82 194 157 93 186 143 102 179 132 96 184 139 99 181 136 99 181 136 102 179 132 102 179 132 105 177 129 102 179 132 102 179 132 105 177 129 105 177 129 102 179 132 102 179 132 105 177 129 99 181 136 102 179 132 99 181 136 99 181 136 32 231 216 8 248 244 8 248 244 49 218 195 192 147 48 195 147 46 195 147 46 212 145 32 212 145 32 195 147 46 212 145 32 212 145 32 195 147 46 212 145 32 212 145 32 195 147 46 212 145 32 195 147 46 195 147 46 212 145 32 212 145 32 192 147 48 182 148 56 150 152 81 140 153 89 120 166 111 49 218 195 5 250 248 8 248 244 5 250 248 5 250 248 5 250 248 8 248 244 8 248 244 5 250 248 5 250 248 5 250 248 8 248 244 8 248 244 8 248 244 8 248 244 8 248 244 5 250 248 5 250 248 5 250 248 5 250 248 8 248 244 8 248 244 5 250 248 5 250 248 8 248 244 8 248 244 8 248 244 5 250 248 5 250 248 8 248 244 5 250 248 5 250 248 5 250 248 5 250 248 5 250 248 5 250 248 5 250 248 5 250 248 5 250 248 5 250 248 8 248 244 8 248 244 8 248 244 8 248 244 5 250 248 5 250 248 8 248 244 5 250 248 8 248 244 5 250 248 8 248 244 5 250 248 5 250 248 5 250 248 5 250 248 5 250 248 8 248 244 5 250 248 5 250 248 5 250 248 8 248 244 5 250 248 5 250 248 5 250 248 5 250 248 5 250 248 5 250 248 8 248 244 5 250 248 8 248 244 5 250 248 5 250 248 5 250 248 5 250 248 5 250 248 5 250 248 5 250 248 5 250 248 5 250 248 5 250 248 5 250 248 5 250 248 5 250 248 5 250 248 5 250 248 5 250 248 
5 250 248 8 248 244 8 248 244 8 248 244 8 248 244 8 248 244 8 248 244 8 248 244 5 250 248 5 250 248 5 250 248 5 250 248 8 248 244 8 248 244 8 248 244 8 248 244 8 248 244 8 248 244 8 248 244 8 248 244 8 248 244 8 248 244 5 250 248 5 250 248 8 248 244 8 248 244 8 248 244 8 248 244 5 250 248 5 250 248 5 250 248 5 250 248 5 250 248 8 248 244 5 250 248 8 248 244 8 248 244 8 248 244 8 248 244 5 250 248 5 250 248 8 248 244 5 250 248 5 250 248 8 248 244 8 248 244 8 248 244 5 250 248 8 248 244 5 250 248 8 248 244 8 248 244 8 248 244 5 250 248 5 250 248 8 248 244 5 250 248 5 250 248 8 248 244 8 248 244 5 250 248 8 248 244 8 248 244 8 248 244 8 248 244 5 250 248 8 248 244 5 250 248 8 248 244 8 248 244 8 248 244 8 248 244 8 248 244 8 248 244 8 248 244 8 248 244 8 248 244 5 250 248 5 250 248 5 250 248 8 248 244 8 248 244 5 250 248 5 250 248 8 248 244 8 248 244 5 250 248 8 248 244 8 248 244 5 250 248 5 250 248 5 250 248 14 244 237 38 227 209 58 212 185 64 207 178 64 207 178 67 205 174 76 199 164 91 188 146 102 179 132 105 177 129 108 175 125 102 179 132 105 177 129 105 177 129 105 177 129 105 177 129 32 231 216 8 248 244 8 248 244 52 216 192 212 145 32 212 145 32 212 145 32 212 145 32 215 144 30 215 144 30 212 145 32 187 148 52 160 151 73 142 153 87 120 166 111 114 171 118 114 171 118 102 179 132 64 207 178 20 239 230 5 250 248 5 250 248 5 250 248 5 250 248 8 248 244 8 248 244 8 248 244 8 248 244 5 250 248 5 250 248 5 250 248 5 250 248 5 250 248 8 248 244 5 250 248 5 250 248 5 250 248 5 250 248 5 250 248 5 250 248 5 250 248 8 248 244 5 250 248 5 250 248 8 248 244 5 250 248 5 250 248 5 250 248 5 250 248 5 250 248 5 250 248 5 250 248 8 248 244 5 250 248 5 250 248 5 250 248 5 250 248 5 250 248 5 250 248 5 250 248 8 248 244 8 248 244 8 248 244 5 250 248 5 250 248 5 250 248 8 248 244 8 248 244 8 248 244 8 248 244 8 248 244 8 248 244 5 250 248 5 250 248 5 250 248 8 248 244 8 248 244 5 250 248 5 250 248 5 250 248 5 250 248 8 248 244 5 250 248 5 250 248 5 250 248 5 250 248 5 250 248 8 248 244 8 248 244 5 250 248 8 248 244 8 248 244 8 248 244 5 250 248 8 248 244 8 248 244 8 248 244 5 250 248 5 250 248 8 248 244 5 250 248 5 250 248 5 250 248 5 250 248 5 250 248 5 250 248 5 250 248 5 250 248 5 250 248 5 250 248 5 250 248 8 248 244 
5 250 248 8 248 244 8 248 244 8 248 244 8 248 244 8 248 244 8 248 244 8 248 244 5 250 248 5 250 248 5 250 248 5 250 248 8 248 244 8 248 244 8 248 244 8 248 244 8 248 244 8 248 244 8 248 244 8 248 244 8 248 244 8 248 244 5 250 248 5 250 248 8 248 244 8 248 244 8 248 244 8 248 244 5 250 248 5 250 248 5 250 248 5 250 248 5 250 248 8 248 244 5 250 248 8 248 244 8 248 244 8 248 244 8 248 244 5 250 248 5 250 248 8 248 244 5 250 248 5 250 248 8 248 244 8 248 244 8 248 244 5 250 248 8 248 244 5 250 248 8 248 244 8 248 244 8 248 244 5 250 248 5 250 248 8 248 244 5 250 248 5 250 248 8 248 244 8 248 244 5 250 248 8 248 244 8 248 244 8 248 244 8 248 244 5 250 248 8 248 244 5 250 248 8 248 244 8 248 244 8 248 244 8 248 244 8 248 244 8 248 244 8 248 244 8 248 244 8 248 244 5 250 248 5 250 248 5 250 248 8 248 244 8 248 244 5 250 248 5 250 248 8 248 244 8 248 244 5 250 248 8 248 244 8 248 244 5 250 248 5 250 248 5 250 248 14 244 237 38 227 209 58 212 185 64 207 178 64 207 178 67 205 174 76 199 164 91 188 146 102 179 132 105 177 129 108 175 125 102 179 132 105 177 129 105 177 129 105 177 129 105 177 129 32 231 216 8 248 244 8 248 244 52 216 192 212 145 32 212 145 32 212 145 32 212 145 32 215 144 30 215 144 30 212 145 32 187 148 52 160 151 73 142 153 87 120 166 111 114 171 118 114 171 118 102 179 132 64 207 178 20 239 230 5 250 248 5 250 248 5 250 248 5 250 248 8 248 244 8 248 244 8 248 244 8 248 244 5 250 248 5 250 248 5 250 248 5 250 248 5 250 248 8 248 244 5 250 248 5 250 248 5 250 248 5 250 248 5 250 248 5 250 248 5 250 248 8 248 244 5 250 248 5 250 248 8 248 244 5 250 248 5 250 248 5 250 248 5 250 248 5 250 248 5 250 248 5 250 248 8 248 244 5 250 248 5 250 248 5 250 248 5 250 248 5 250 248 5 250 248 5 250 248 8 248 244 8 248 244 8 248 244 5 250 248 5 250 248 5 250 248 8 248 244 8 248 244 8 248 244 8 248 244 8 248 244 8 248 244 5 250 248 5 250 248 5 250 248 8 248 244 8 248 244 5 250 248 5 250 248 5 250 248 5 250 248 8 248 244 5 250 248 5 250 248 5 250 248 5 250 248 5 250 248 8 248 244 8 248 244 5 250 248 8 248 244 8 248 244 8 248 244 5 250 248 8 248 244 8 248 244 8 248 244 5 250 248 5 250 248 8 248 244 5 250 248 5 250 248 5 250 248 5 250 248 5 250 248 5 250 248 5 250 248 5 250 248 5 250 248 5 250 248 5 250 248 8 248 244 
8 248 244 5 250 248 8 248 244 5 250 248 8 248 244 5 250 248 8 248 244 5 250 248 5 250 248 5 250 248 8 248 244 8 248 244 5 250 248 8 248 244 5 250 248 5 250 248 5 250 248 5 250 248 5 250 248 5 250 248 5 250 248 5 250 248 8 248 244 8 248 244 5 250 248 8 248 244 5 250 248 8 248 244 5 250 248 8 248 244 5 250 248 8 248 244 5 250 248 8 248 244 8 248 244 8 248 244 5 250 248 8 248 244 8 248 244 5 250 248 5 250 248 8 248 244 5 250 248 8 248 244 8 248 244 8 248 244 8 248 244 5 250 248 8 248 244 8 248 244 8 248 244 5 250 248 5 250 248 8 248 244 5 250 248 8 248 244 5 250 248 8 248 244 8 248 244 5 250 248 5 250 248 5 250 248 8 248 244 5 250 248 8 248 244 8 248 244 8 248 244 8 248 244 8 248 244 8 248 244 8 248 244 8 248 244 8 248 244 8 248 244 8 248 244 8 248 244 8 248 244 8 248 244 8 248 244 5 250 248 8 248 244 8 248 244 8 248 244 8 248 244 5 250 248 5 250 248 5 250 248 5 250 248 5 250 248 5 250 248 5 250 248 5 250 248 5 250 248 5 250 248 5 250 248 5 250 248 5 250 248 5 250 248 8 248 244 5 250 248 8 248 244 8 248 244 5 250 248 5 250 248 5 250 248 5 250 248 5 250 248 8 248 244 8 248 244 8 248 244 8 248 244 8 248 244 5 250 248 5 250 248 5 250 248 5 250 248 8 248 244 8 248 244 8 248 244 5 250 248 5 250 248 5 250 248 5 250 248 8 248 244 5 250 248 5 250 248 5 250 248 8 248 244 5 250 248 5 250 248 5 250 248 5 250 248 5 250 248 5 250 248 5 250 248 5 250 248 5 250 248 5 250 248 5 250 248 5 250 248 8 248 244 8 248 244 8 248 244 8 248 244 8 248 244 8 248 244 8 248 244 5 250 248 8 248 244 8 248 244 8 248 244 8 248 244 5 250 248 5 250 248 5 250 248 5 250 248 5 250 248 8 248 244 8 248 244 5 250 248 5 250 248 5 250 248 5 250 248 8 248 244 8 248 244 8 248 244 5 250 248 5 250 248 5 250 248 5 250 248 5 250 248 8 248 244 5 250 248 5 250 248 5 250 248 5 250 248 5 250 248 8 248 244 8 248 244 8 248 244 5 250 248 5 250 248 8 248 244 5 250 248 5 250 248 5 250 248 8 248 244 8 248 244 5 250 248 5 250 248 5 250 248 5 250 248 8 248 244 8 248 244 5 250 248 8 248 244 5 250 248 5 250 248 8 248 244 5 250 248 5 250 248 8 248 244 5 250 248 5 250 248 5 250 248 5 250 248 5 250 248 8 248 244 5 250 248 5 250 248 5 250 248 5 250 248 5 250 248 5 250 248 5 250 248 5 250 248 5 250 248 5 250 248 5 250 248 8 248 244 
8 248 244 5 250 248 8 248 244 5 250 248 8 248 244 5 250 248 8 248 244 5 250 248 5 250 248 5 250 248 8 248 244 8 248 244 5 250 248 8 248 244 5 250 248 5 250 248 5 250 248 5 250 248 5 250 248 5 250 248 5 250 248 5 250 248 8 248 244 8 248 244 5 250 248 8 248 244 5 250 248 8 248 244 5 250 248 8 248 244 5 250 248 8 248 244 5 250 248 8 248 244 8 248 244 8 248 244 5 250 248 8 248 244 8 248 244 5 250 248 5 250 248 8 248 244 5 250 248 8 248 244 8 248 244 8 248 244 8 248 244 5 250 248 8 248 244 8 248 244 8 248 244 5 250 248 5 250 248 8 248 244 5 250 248 8 248 244 5 250 248 8 248 244 8 248 244 5 250 248 5 250 248 5 250 248 8 248 244 5 250 248 8 248 244 8 248 244 8 248 244 8 248 244 8 248 244 8 248 244 8 248 244 8 248 244 8 248 244 8 248 244 8 248 244 8 248 244 8 248 244 8 248 244 8 248 244 5 250 248 8 248 244 8 248 244 8 248 244 8 248 244 5 250 248 5 250 248 5 250 248 5 250 248 5 250 248 5 250 248 5 250 248 5 250 248 5 250 248 5 250 248 5 250 248 5 250 248 5 250 248 5 250 248 8 248 244 5 250 248 8 248 244 8 248 244 5 250 248 5 250 248 5 250 248 5 250 248 5 250 248 8 248 244 8 248 244 8 248 244 8 248 244 8 248 244 5 250 248 5 250 248 5 250 248 5 250 248 8 248 244 8 248 244 8 248 244 5 250 248 5 250 248 5 250 248 5 250 248 8 248 244 5 250 248 5 250 248 5 250 248 8 248 244 5 250 248 5 250 248 5 250 248 5 250 248 5 250 248 5 250 248 5 250 248 5 250 248 5 250 248 5 250 248 5 250 248 5 250 248 8 248 244 8 248 244 8 248 244 8 248 244 8 248 244 8 248 244 8 248 244 5 250 248 8 248 244 8 248 244 8 248 244 8 248 244 5 250 248 5 250 248 5 250 248 5 250 248 5 250 248 8 248 244 8 248 244 5 250 248 5 250 248 5 250 248 5 250 248 8 248 244 8 248 244 8 248 244 5 250 248 5 250 248 5 250 248 5 250 248 5 250 248 8 248 244 5 250 248 5 250 248 5 250 248 5 250 248 5 250 248 8 248 244 8 248 244 8 248 244 5 250 248 5 250 248 8 248 244 5 250 248 5 250 248 5 250 248 8 248 244 8 248 244 5 250 248 5 250 248 5 250 248 5 250 248 8 248 244 8 248 244 5 250 248 8 248 244 5 250 248 5 250 248 8 248 244 5 250 248 5 250 248 8 248 244 5 250 248 5 250 248 5 250 248 5 250 248 5 250 248 8 248 244 5 250 248 5 250 248 5 250 248 5 250 248 5 250 248 5 250 248 5 250 248 5 250 248 5 250 248 5 250 248 5 250 248 8 248 244 
8 248 244 8 248 244 8 248 244 8 248 244 5 250 248 5 250 248 8 248 244 8 248 244 8 248 244 5 250 248 8 248 244 5 250 248 5 250 248 5 250 248 5 250 248 5 250 248 5 250 248 5 250 248 5 250 248 5 250 248 5 250 248 5 250 248 5 250 248 5 250 248 5 250 248 5 250 248 5 250 248 8 248 244 5 250 248 5 250 248 8 248 244 5 250 248 8 248 244 5 250 248 8 248 244 8 248 244 5 250 248 5 250 248 5 250 248 5 250 248 5 250 248 5 250 248 5 250 248 5 250 248 8 248 244 5 250 248 8 248 244 8 248 244 8 248 244 5 250 248 5 250 248 8 248 244 5 250 248 5 250 248 5 250 248 5 250 248 5 250 248 8 248 244 8 248 244 8 248 244 5 250 248 8 248 244 8 248 244 8 248 244 5 250 248 5 250 248 8 248 244 8 248 244 8 248 244 8 248 244 8 248 244 8 248 244 8 248 244 8 248 244 8 248 244 8 248 244 8 248 244 8 248 244 5 250 248 5 250 248 8 248 244 8 248 244 8 248 244 8 248 244 5 250 248 5 250 248 5 250 248 5 250 248 5 250 248 5 250 248 5 250 248 8 248 244 5 250 248 5 250 248 5 250 248 5 250 248 5 250 248 5 250 248 5 250 248 5 250 248 5 250 248 5 250 248 5 250 248 5 250 248 5 250 248 5 250 248 5 250 248 5 250 248 5 250 248 5 250 248 5 250 248 5 250 248 5 250 248 5 250 248 8 248 244 5 250 248 5 250 248 5 250 248 5 250 248 5 250 248 5 250 248 5 250 248 5 250 248 5 250 248 8 248 244 5 250 248 5 250 248 5 250 248 5 250 248 5 250 248 5 250 248 5 250 248 5 250 248 5 250 248 5 250 248 5 250 248 5 250 248 5 250 248 5 250 248 5 250 248 5 250 248 5 250 248 8 248 244 8 248 244 5 250 248 8 248 244 8 248 244 8 248 244 8 248 244 5 250 248 5 250 248 5 250 248 5 250 248 8 248 244 5 250 248 8 248 244 5 250 248 8 248 244 5 250 248 8 248 244 5 250 248 5 250 248 5 250 248 5 250 248 8 248 244 5 250 248 8 248 244 8 248 244 8 248 244 5 250 248 5 250 248 8 248 244 8 248 244 8 248 244 5 250 248 5 250 248 5 250 248 5 250 248 5 250 248 8 248 244 8 248 244 8 248 244 8 248 244 5 250 248 5 250 248 8 248 244 8 248 244 5 250 248 8 248 244 5 250 248 5 250 248 5 250 248 8 248 244 8 248 244 5 250 248 8 248 244 8 248 244 5 250 248 8 248 244 8 248 244 5 250 248 8 248 244 8 248 244 8 248 244 5 250 248 8 248 244 5 250 248 8 248 244 8 248 244 5 250 248 5 250 248 5 250 248 5 250 248 5 250 248 8 248 244 8 248 244 8 248 244 5 250 248 5 250 248 8 248 244 
8 248 244 8 248 244 8 248 244 8 248 244 5 250 248 5 250 248 8 248 244 8 248 244 8 248 244 5 250 248 8 248 244 5 250 248 5 250 248 5 250 248 5 250 248 5 250 248 5 250 248 5 250 248 5 250 248 5 250 248 5 250 248 5 250 248 5 250 248 5 250 248 5 250 248 5 250 248 5 250 248 8 248 244 5 250 248 5 250 248 8 248 244 5 250 248 8 248 244 5 250 248 8 248 244 8 248 244 5 250 248 5 250 248 5 250 248 5 250 248 5 250 248 5 250 248 5 250 248 5 250 248 8 248 244 5 250 248 8 248 244 8 248 244 8 248 244 5 250 248 5 250 248 8 248 244 5 250 248 5 250 248 5 250 248 5 250 248 5 250 248 8 248 244 8 248 244 8 248 244 5 250 248 8 248 244 8 248 244 8 248 244 5 250 248 5 250 248 8 248 244 8 248 244 8 248 244 8 248 244 8 248 244 8 248 244 8 248 244 8 248 244 8 248 244 8 248 244 8 248 244 8 248 244 5 250 248 5 250 248 8 248 244 8 248 244 8 248 244 8 248 244 5 250 248 5 250 248 5 250 248 5 250 248 5 250 248 5 250 248 5 250 248 8 248 244 5 250 248 5 250 248 5 250 248 5 250 248 5 250 248 5 250 248 5 250 248 5 250 248 5 250 248 5 250 248 5 250 248 5 250 248 5 250 248 5 250 248 5 250 248 5 250 248 5 250 248 5 250 248 5 250 248 5 250 248 5 250 248 5 250 248 8 248 244 5 250 248 5 250 248 5 250 248 5 250 248 5 250 248 5 250 248 5 250 248 5 250 248 5 250 248 8 248 244 5 250 248 5 250 248 5 250 248 5 250 248 5 250 248 5 250 248 5 250 248 5 250 248 5 250 248 5 250 248 5 250 248 5 250 248 5 250 248 5 250 248 5 250 248 5 250 248 5 250 248 8 248 244 8 248 244 5 250 248 8 248 244 8 248 244 8 248 244 8 248 244 5 250 248 5 250 248 5 250 248 5 250 248 8 248 244 5 250 248 8 248 244 5 250 248 8 248 244 5 250 248 8 248 244 5 250 248 5 250 248 5 250 248 5 250 248 8 248 244 5 250 248 8 248 244 8 248 244 8 248 244 5 250 248 5 250 248 8 248 244 8 248 244 8 248 244 5 250 248 5 250 248 5 250 248 5 250 248 5 250 248 8 248 244 8 248 244 8 248 244 8 248 244 5 250 248 5 250 248 8 248 244 8 248 244 5 250 248 8 248 244 5 250 248 5 250 248 5 250 248 8 248 244 8 248 244 5 250 248 8 248 244 8 248 244 5 250 248 8 248 244 8 248 244 5 250 248 8 248 244 8 248 244 8 248 244 5 250 248 8 248 244 5 250 248 8 248 244 8 248 244 5 250 248 5 250 248 5 250 248 5 250 248 5 250 248 8 248 244 8 248 244 8 248 244 5 250 248 5 250 248 8 248 244 
8 248 244 5 250 248 5 250 248 5 250 248 8 248 244 8 248 244 8 248 244 5 250 248 8 248 244 5 250 248 5 250 248 5 250 248 5 250 248 8 248 244 8 248 244 8 248 244 5 250 248 8 248 244 5 250 248 5 250 248 5 250 248 5 250 248 5 250 248 5 250 248 5 250 248 5 250 248 5 250 248 5 250 248 5 250 248 5 250 248 8 248 244 5 250 248 8 248 244 8 248 244 5 250 248 5 250 248 5 250 248 5 250 248 5 250 248 5 250 248 5 250 248 8 248 244 5 250 248 8 248 244 5 250 248 8 248 244 8 248 244 8 248 244 8 248 244 5 250 248 8 248 244 8 248 244 5 250 248 5 250 248 8 248 244 8 248 244 8 248 244 5 250 248 5 250 248 5 250 248 8 248 244 5 250 248 8 248 244 5 250 248 5 250 248 8 248 244 8 248 244 8 248 244 8 248 244 8 248 244 8 248 244 8 248 244 8 248 244 8 248 244 8 248 244 8 248 244 8 248 244 8 248 244 5 250 248 8 248 244 8 248 244 5 250 248 5 250 248 5 250 248 5 250 248 5 250 248 5 250 248 5 250 248 5 250 248 5 250 248 8 248 244 8 248 244 8 248 244 5 250 248 5 250 248 5 250 248 5 250 248 5 250 248 5 250 248 5 250 248 8 248 244 8 248 244 5 250 248 5 250 248 5 250 248 5 250 248 8 248 244 8 248 244 5 250 248 8 248 244 8 248 244 5 250 248 5 250 248 8 248 244 5 250 248 5 250 248 5 250 248 5 250 248 5 250 248 5 250 248 5 250 248 8 248 244 5 250 248 5 250 248 5 250 248 5 250 248 5 250 248 5 250 248 8 248 244 8 248 244 8 248 244 5 250 248 8 248 244 5 250 248 5 250 248 5 250 248 5 250 248 8 248 244 5 250 248 8 248 244 8 248 244 8 248 244 8 248 244 5 250 248 8 248 244 8 248 244 8 248 244 8 248 244 5 250 248 8 248 244 8 248 244 8 248 244 8 248 244 8 248 244 5 250 248 5 250 248 5 250 248 8 248 244 5 250 248 5 250 248 5 250 248 5 250 248 5 250 248 5 250 248 5 250 248 5 250 248 8 248 244 8 248 244 8 248 244 5 250 248 8 248 244 5 250 248 5 250 248 5 250 248 5 250 248 5 250 248 5 250 248 5 250 248 5 250 248 5 250 248 5 250 248 8 248 244 8 248 244 5 250 248 5 250 248 5 250 248 8 248 244 5 250 248 5 250 248 5 250 248 8 248 244 8 248 244 5 250 248 5 250 248 5 250 248 8 248 244 5 250 248 8 248 244 8 248 244 8 248 244 8 248 244 5 250 248 5 250 248 8 248 244 5 250 248 5 250 248 8 248 244 5 250 248 8 248 244 5 250 248 8 248 244 5 250 248 5 250 248 8 248 244 5 250 248 5 250 248 8 248 244 5 250 248 8 248 244 8 248 244 
8 248 244 5 250 248 5 250 248 5 250 248 8 248 244 8 248 244 8 248 244 5 250 248 8 248 244 5 250 248 5 250 248 5 250 248 5 250 248 8 248 244 8 248 244 8 248 244 5 250 248 8 248 244 5 250 248 5 250 248 5 250 248 5 250 248 5 250 248 5 250 248 5 250 248 5 250 248 5 250 248 5 250 248 5 250 248 5 250 248 8 248 244 5 250 248 8 248 244 8 248 244 5 250 248 5 250 248 5 250 248 5 250 248 5 250 248 5 250 248 5 250 248 8 248 244 5 250 248 8 248 244 5 250 248 8 248 244 8 248 244 8 248 244 8 248 244 5 250 248 8 248 244 8 248 244 5 250 248 5 250 248 8 248 244 8 248 244 8 248 244 5 250 248 5 250 248 5 250 248 8 248 244 5 250 248 8 248 244 5 250 248 5 250 248 8 248 244 8 248 244 8 248 244 8 248 244 8 248 244 8 248 244 8 248 244 8 248 244 8 248 244 8 248 244 8 248 244 8 248 244 8 248 244 5 250 248 8 248 244 8 248 244 5 250 248 5 250 248 5 250 248 5 250 248 5 250 248 5 250 248 5 250 248 5 250 248 5 250 248 8 248 244 8 248 244 8 248 244 5 250 248 5 250 248 5 250 248 5 250 248 5 250 248 5 250 248 5 250 248 8 248 244 8 248 244 5 250 248 5 250 248 5 250 248 5 250 248 8 248 244 8 248 244 5 250 248 8 248 244 8 248 244 5 250 248 5 250 248 8 248 244 5 250 248 5 250 248 5 250 248 5 250 248 5 250 248 5 250 248 5 250 248 8 248 244 5 250 248 5 250 248 5 250 248 5 250 248 5 250 248 5 250 248 8 248 244 8 248 244 8 248 244 5 250 248 8 248 244 5 250 248 5 250 248 5 250 248 5 250 248 8 248 244 5 250 248 8 248 244 8 248 244 8 248 244 8 248 244 5 250 248 8 248 244 8 248 244 8 248 244 8 248 244 5 250 248 8 248 244 8 248 244 8 248 244 8 248 244 8 248 244 5 250 248 5 250 248 5 250 248 8 248 244 5 250 248 5 250 248 5 250 248 5 250 248 5 250 248 5 250 248 5 250 248 5 250 248 8 248 244 8 248 244 8 248 244 5 250 248 8 248 244 5 250 248 5 250 248 5 250 248 5 250 248 5 250 248 5 250 248 5 250 248 5 250 248 5 250 248 5 250 248 8 248 244 8 248 244 5 250 248 5 250 248 5 250 248 8 248 244 5 250 248 5 250 248 5 250 248 8 248 244 8 248 244 5 250 248 5 250 248 5 250 248 8 248 244 5 250 248 8 248 244 8 248 244 8 248 244 8 248 244 5 250 248 5 250 248 8 248 244 5 250 248 5 250 248 8 248 244 5 250 248 8 248 244 5 250 248 8 248 244 5 250 248 5 250 248 8 248 244 5 250 248 5 250 248 8 248 244 5 250 248 8 248 244 8 248 244 
5 250 248 5 250 248 5 250 248 5 250 248 5 250 248 5 250 248 5 250 248 5 250 248 5 250 248 5 250 248 5 250 248 5 250 248 5 250 248 5 250 248 8 248 244 5 250 248 5 250 248 8 248 244 5 250 248 5 250 248 5 250 248 5 250 248 8 248 244 5 250 248 5 250 248 5 250 248 5 250 248 5 250 248 5 250 248 5 250 248 8 248 244 5 250 248 8 248 244 5 250 248 8 248 244 8 248 244 5 250 248 5 250 248 5 250 248 5 250 248 5 250 248 5 250 248 5 250 248 5 250 248 8 248 244 8 248 244 8 248 244 8 248 244 5 250 248 5 250 248 5 250 248 5 250 248 5 250 248 5 250 248 8 248 244 5 250 248 5 250 248 5 250 248 8 248 244 8 248 244 5 250 248 8 248 244 8 248 244 8 248 244 5 250 248 5 250 248 5 250 248 8 248 244 5 250 248 8 248 244 8 248 244 8 248 244 8 248 244 8 248 244 8 248 244 8 248 244 8 248 244 5 250 248 8 248 244 8 248 244 5 250 248 5 250 248 5 250 248 8 248 244 5 250 248 5 250 248 5 250 248 8 248 244 8 248 244 5 250 248 5 250 248 5 250 248 5 250 248 8 248 244 5 250 248 5 250 248 5 250 248 5 250 248 8 248 244 5 250 248 5 250 248 5 250 248 5 250 248 5 250 248 8 248 244 5 250 248 5 250 248 8 248 244 5 250 248 5 250 248 5 250 248 5 250 248 5 250 248 8 248 244 8 248 244 8 248 244 5 250 248 8 248 244 5 250 248 5 250 248 5 250 248 5 250 248 5 250 248 8 248 244 5 250 248 5 250 248 5 250 248 8 248 244 8 248 244 5 250 248 5 250 248 5 250 248 5 250 248 5 250 248 5 250 248 8 248 244 5 250 248 5 250 248 8 248 244 8 248 244 8 248 244 5 250 248 8 248 244 8 248 244 8 248 244 8 248 244 8 248 244 8 248 244 8 248 244 8 248 244 5 250 248 5 250 248 8 248 244 8 248 244 5 250 248 8 248 244 8 248 244 8 248 244 8 248 244 5 250 248 8 248 244 8 248 244 8 248 244 8 248 244 8 248 244 8 248 244 5 250 248 8 248 244 5 250 248 8 248 244 5 250 248 5 250 248 8 248 244 5 250 248 5 250 248 5 250 248 5 250 248 5 250 248 8 248 244 5 250 248 5 250 248 8 248 244 8 248 244 5 250 248 5 250 248 5 250 248 5 250 248 8 248 244 8 248 244 5 250 248 5 250 248 5 250 248 5 250 248 5 250 248 5 250 248 8 248 244 5 250 248 8 248 244 5 250 248 5 250 248 8 248 244 5 250 248 5 250 248 8 248 244 8 248 244 8 248 244 5 250 248 5 250 248 5 250 248 8 248 244 8 248 244 5 250 248 8 248 244 5 250 248 5 250 248 5 250 248 5 250 248 5 250 248 5 250 248 5 250 248 
5 250 248 5 250 248 5 250 248 5 250 248 5 250 248 5 250 248 5 250 248 5 250 248 5 250 248 5 250 248 5 250 248 5 250 248 5 250 248 5 250 248 8 248 244 5 250 248 5 250 248 8 248 244 5 250 248 5 250 248 5 250 248 5 250 248 8 248 244 5 250 248 5 250 248 5 250 248 5 250 248 5 250 248 5 250 248 5 250 248 8 248 244 5 250 248 8 248 244 5 250 248 8 248 244 8 248 244 5 250 248 5 250 248 5 250 248 5 250 248 5 250 248 5 250 248 5 250 248 5 250 248 8 248 244 8 248 244 8 248 244 8 248 244 5 250 248 5 250 248 5 250 248 5 250 248 5 250 248 5 250 248 8 248 244 5 250 248 5 250 248 5 250 248 8 248 244 8 248 244 5 250 248 8 248 244 8 248 244 8 248 244 5 250 248 5 250 248 5 250 248 8 248 244 5 250 248 8 248 244 8 248 244 8 248 244 8 248 244 8 248 244 8 248 244 8 248 244 8 248 244 5 250 248 8 248 244 8 248 244 5 250 248 5 250 248 5 250 248 8 248 244 5 250 248 5 250 248 5 250 248 8 248 244 8 248 244 5 250 248 5 250 248 5 250 248 5 250 248 8 248 244 5 250 248 5 250 248 5 250 248 5 250 248 8 248 244 5 250 248 5 250 248 5 250 248 5 250 248 5 250 248 8 248 244 5 250 248 5 250 248 8 248 244 5 250 248 5 250 248 5 250 248 5 250 248 5 250 248 8 248 244 8 248 244 8 248 244 5 250 248 8 248 244 5 250 248 5 250 248 5 250 248 5 250 248 5 250 248 8 248 244 5 250 248 5 250 248 5 250 248 8 248 244 8 248 244 5 250 248 5 250 248 5 250 248 5 250 248 5 250 248 5 250 248 8 248 244 5 250 248 5 250 248 8 248 244 8 248 244 8 248 244 5 250 248 8 248 244 8 248 244 8 248 244 8 248 244 8 248 244 8 248 244 8 248 244 8 248 244 5 250 248 5 250 248 8 248 244 8 248 244 5 250 248 8 248 244 8 248 244 8 248 244 8 248 244 5 250 248 8 248 244 8 248 244 8 248 244 8 248 244 8 248 244 8 248 244 5 250 248 8 248 244 5 250 248 8 248 244 5 250 248 5 250 248 8 248 244 5 250 248 5 250 248 5 250 248 5 250 248 5 250 248 8 248 244 5 250 248 5 250 248 8 248 244 8 248 244 5 250 248 5 250 248 5 250 248 5 250 248 8 248 244 8 248 244 5 250 248 5 250 248 5 250 248 5 250 248 5 250 248 5 250 248 8 248 244 5 250 248 8 248 244 5 250 248 5 250 248 8 248 244 5 250 248 5 250 248 8 248 244 8 248 244 8 248 244 5 250 248 5 250 248 5 250 248 8 248 244 8 248 244 5 250 248 8 248 244 5 250 248 5 250 248 5 250 248 5 250 248 5 250 248 5 250 248 5 250 248 
5 250 248 5 250 248 5 250 248 5 250 248 5 250 248 5 250 248 5 250 248 5 250 248 5 250 248 5 250 248 5 250 248 5 250 248 8 248 244 5 250 248 5 250 248 5 250 248 5 250 248 8 248 244 5 250 248 5 250 248 5 250 248 5 250 248 5 250 248 8 248 244 8 248 244 5 250 248 5 250 248 5 250 248 5 250 248 5 250 248 5 250 248 5 250 248 8 248 244 8 248 244 8 248 244 5 250 248 5 250 248 5 250 248 5 250 248 5 250 248 8 248 244 5 250 248 8 248 244 5 250 248 8 248 244 5 250 248 8 248 244 5 250 248 11 246 241 5 250 248 5 250 248 5 250 248 5 250 248 5 250 248 5 250 248 5 250 248 8 248 244 5 250 248 5 250 248 5 250 248 5 250 248 5 250 248 8 248 244 8 248 244 8 248 244 8 248 244 8 248 244 8 248 244 5 250 248 8 248 244 8 248 244 8 248 244 8 248 244 5 250 248 8 248 244 5 250 248 8 248 244 8 248 244 8 248 244 5 250 248 5 250 248 5 250 248 8 248 244 8 248 244 5 250 248 5 250 248 5 250 248 5 250 248 5 250 248 5 250 248 5 250 248 5 250 248 5 250 248 5 250 248 5 250 248 5 250 248 5 250 248 5 250 248 5 250 248 5 250 248 8 248 244 8 248 244 8 248 244 5 250 248 5 250 248 8 248 244 8 248 244 8 248 244 5 250 248 5 250 248 5 250 248 5 250 248 5 250 248 5 250 248 5 250 248 5 250 248 5 250 248 5 250 248 5 250 248 8 248 244 5 250 248 5 250 248 5 250 248 5 250 248 5 250 248 5 250 248 5 250 248 5 250 248 5 250 248 5 250 248 5 250 248 5 250 248 5 250 248 5 250 248 8 248 244 5 250 248 5 250 248 8 248 244 8 248 244 8 248 244 5 250 248 5 250 248 8 248 244 8 248 244 5 250 248 8 248 244 8 248 244 8 248 244 8 248 244 8 248 244 8 248 244 8 248 244 8 248 244 5 250 248 5 250 248 5 250 248 8 248 244 8 248 244 8 248 244 8 248 244 8 248 244 8 248 244 8 248 244 8 248 244 5 250 248 8 248 244 8 248 244 8 248 244 5 250 248 5 250 248 8 248 244 5 250 248 5 250 248 5 250 248 5 250 248 5 250 248 5 250 248 5 250 248 8 248 244 5 250 248 5 250 248 5 250 248 8 248 244 5 250 248 5 250 248 5 250 248 8 248 244 8 248 244 8 248 244 8 248 244 5 250 248 5 250 248 5 250 248 5 250 248 5 250 248 8 248 244 8 248 244 8 248 244 5 250 248 8 248 244 8 248 244 5 250 248 5 250 248 5 250 248 8 248 244 8 248 244 8 248 244 8 248 244 8 248 244 8 248 244 8 248 244 8 248 244 8 248 244 8 248 244 8 248 244 8 248 244 8 248 244 8 248 244 5 250 248 5 250 248 
5 250 248 5 250 248 5 250 248 5 250 248 5 250 248 5 250 248 5 250 248 5 250 248 5 250 248 5 250 248 5 250 248 5 250 248 8 248 244 5 250 248 5 250 248 5 250 248 5 250 248 8 248 244 5 250 248 5 250 248 5 250 248 5 250 248 5 250 248 8 248 244 8 248 244 5 250 248 5 250 248 5 250 248 5 250 248 5 250 248 5 250 248 5 250 248 8 248 244 8 248 244 8 248 244 5 250 248 5 250 248 5 250 248 5 250 248 5 250 248 8 248 244 5 250 248 8 248 244 5 250 248 8 248 244 5 250 248 8 248 244 5 250 248 11 246 241 5 250 248 5 250 248 5 250 248 5 250 248 5 250 248 5 250 248 5 250 248 8 248 244 5 250 248 5 250 248 5 250 248 5 250 248 5 250 248 8 248 244 8 248 244 8 248 244 8 248 244 8 248 244 8 248 244 5 250 248 8 248 244 8 248 244 8 248 244 8 248 244 5 250 248 8 248 244 5 250 248 8 248 244 8 248 244 8 248 244 5 250 248 5 250 248 5 250 248 8 248 244 8 248 244 5 250 248 5 250 248 5 250 248 5 250 248 5 250 248 5 250 248 5 250 248 5 250 248 5 250 248 5 250 248 5 250 248 5 250 248 5 250 248 5 250 248 5 250 248 5 250 248 8 248 244 8 248 244 8 248 244 5 250 248 5 250 248 8 248 244 8 248 244 8 248 244 5 250 248 5 250 248 5 250 248 5 250 248 5 250 248 5 250 248 5 250 248 5 250 248 5 250 248 5 250 248 5 250 248 8 248 244 5 250 248 5 250 248 5 250 248 5 250 248 5 250 248 5 250 248 5 250 248 5 250 248 5 250 248 5 250 248 5 250 248 5 250 248 5 250 248 5 250 248 8 248 244 5 250 248 5 250 248 8 248 244 8 248 244 8 248 244 5 250 248 5 250 248 8 248 244 8 248 244 5 250 248 8 248 244 8 248 244 8 248 244 8 248 244 8 248 244 8 248 244 8 248 244 8 248 244 5 250 248 5 250 248 5 250 248 8 248 244 8 248 244 8 248 244 8 248 244 8 248 244 8 248 244 8 248 244 8 248 244 5 250 248 8 248 244 8 248 244 8 248 244 5 250 248 5 250 248 8 248 244 5 250 248 5 250 248 5 250 248 5 250 248 5 250 248 5 250 248 5 250 248 8 248 244 5 250 248 5 250 248 5 250 248 8 248 244 5 250 248 5 250 248 5 250 248 8 248 244 8 248 244 8 248 244 8 248 244 5 250 248 5 250 248 5 250 248 5 250 248 5 250 248 8 248 244 8 248 244 8 248 244 5 250 248 8 248 244 8 248 244 5 250 248 5 250 248 5 250 248 8 248 244 8 248 244 8 248 244 8 248 244 8 248 244 8 248 244 8 248 244 8 248 244 8 248 244 8 248 244 8 248 244 8 248 244 8 248 244 8 248 244 5 250 248 5 250 248 
5 250 248 5 250 248 5 250 248 5 250 248 5 250 248 5 250 248 5 250 248 5 250 248 5 250 248 5 250 248 5 250 248 5 250 248 5 250 248 5 250 248 5 250 248 5 250 248 5 250 248 5 250 248 5 250 248 5 250 248 5 250 248 5 250 248 5 250 248 5 250 248 5 250 248 8 248 244 5 250 248 5 250 248 5 250 248 5 250 248 8 248 244 8 248 244 8 248 244 8 248 244 8 248 244 8 248 244 5 250 248 8 248 244 8 248 244 5 250 248 5 250 248 5 250 248 8 248 244 5 250 248 5 250 248 5 250 248 5 250 248 5 250 248 5 250 248 5 250 248 5 250 248 8 248 244 5 250 248 5 250 248 5 250 248 8 248 244 8 248 244 5 250 248 5 250 248 5 250 248 5 250 248 5 250 248 5 250 248 8 248 244 8 248 244 5 250 248 8 248 244 8 248 244 8 248 244 8 248 244 8 248 244 8 248 244 8 248 244 8 248 244 8 248 244 8 248 244 8 248 244 8 248 244 8 248 244 8 248 244 8 248 244 8 248 244 8 248 244 8 248 244 5 250 248 8 248 244 8 248 244 8 248 244 5 250 248 5 250 248 5 250 248 5 250 248 5 250 248 5 250 248 5 250 248 5 250 248 5 250 248 8 248 244 5 250 248 8 248 244 8 248 244 5 250 248 5 250 248 5 250 248 5 250 248 8 248 244 8 248 244 8 248 244 8 248 244 8 248 244 5 250 248 5 250 248 5 250 248 8 248 244 5 250 248 5 250 248 8 248 244 5 250 248 8 248 244 8 248 244 8 248 244 5 250 248 5 250 248 8 248 244 5 250 248 5 250 248 5 250 248 5 250 248 8 248 244 5 250 248 5 250 248 5 250 248 8 248 244 5 250 248 5 250 248 5 250 248 8 248 244 5 250 248 5 250 248 8 248 244 8 248 244 5 250 248 5 250 248 8 248 244 8 248 244 8 248 244 8 248 244 5 250 248 8 248 244 11 246 241 8 248 244 8 248 244 5 250 248 8 248 244 8 248 244 8 248 244 5 250 248 8 248 244 5 250 248 8 248 244 8 248 244 8 248 244 8 248 244 5 250 248 8 248 244 8 248 244 8 248 244 5 250 248 8 248 244 5 250 248 5 250 248 5 250 248 5 250 248 5 250 248 5 250 248 5 250 248 5 250 248 5 250 248 5 250 248 5 250 248 5 250 248 5 250 248 5 250 248 5 250 248 8 248 244 8 248 244 8 248 244 8 248 244 8 248 244 5 250 248 5 250 248 5 250 248 5 250 248 5 250 248 5 250 248 5 250 248 5 250 248 8 248 244 5 250 248 5 250 248 8 248 244 5 250 248 8 248 244 8 248 244 5 250 248 8 248 244 8 248 244 11 246 241 8 248 244 5 250 248 5 250 248 5 250 248 5 250 248 5 250 248 8 248 244 8 248 244 5 250 248 8 248 244 8 248 244 8 248 244 
5 250 248 5 250 248 5 250 248 5 250 248 5 250 248 5 250 248 5 250 248 5 250 248 5 250 248 5 250 248 5 250 248 5 250 248 5 250 248 5 250 248 5 250 248 5 250 248 5 250 248 5 250 248 5 250 248 5 250 248 5 250 248 5 250 248 5 250 248 5 250 248 5 250 248 8 248 244 5 250 248 5 250 248 5 250 248 5 250 248 8 248 244 8 248 244 8 248 244 8 248 244 8 248 244 8 248 244 5 250 248 8 248 244 8 248 244 5 250 248 5 250 248 5 250 248 8 248 244 5 250 248 5 250 248 5 250 248 5 250 248 5 250 248 5 250 248 5 250 248 5 250 248 8 248 244 5 250 248 5 250 248 5 250 248 8 248 244 8 248 244 5 250 248 5 250 248 5 250 248 5 250 248 5 250 248 5 250 248 8 248 244 8 248 244 5 250 248 8 248 244 8 248 244 8 248 244 8 248 244 8 248 244 8 248 244 8 248 244 8 248 244 8 248 244 8 248 244 8 248 244 8 248 244 8 248 244 8 248 244 8 248 244 8 248 244 8 248 244 8 248 244 5 250 248 8 248 244 8 248 244 8 248 244 5 250 248 5 250 248 5 250 248 5 250 248 5 250 248 5 250 248 5 250 248 5 250 248 5 250 248 8 248 244 5 250 248 8 248 244 8 248 244 5 250 248 5 250 248 5 250 248 5 250 248 8 248 244 8 248 244 8 248 244 8 248 244 8 248 244 5 250 248 5 250 248 5 250 248 8 248 244 5 250 248 5 250 248 8 248 244 5 250 248 8 248 244 8 248 244 8 248 244 5 250 248 5 250 248 8 248 244 5 250 248 5 250 248 5 250 248 5 250 248 8 248 244 5 250 248 5 250 248 5 250 248 8 248 244 5 250 248 5 250 248 5 250 248 8 248 244 5 250 248 5 250 248 8 248 244 8 248 244 5 250 248 5 250 248 8 248 244 8 248 244 8 248 244 8 248 244 5 250 248 8 248 244 11 246 241 8 248 244 8 248 244 5 250 248 8 248 244 8 248 244 8 248 244 5 250 248 8 248 244 5 250 248 8 248 244 8 248 244 8 248 244 8 248 244 5 250 248 8 248 244 8 248 244 8 248 244 5 250 248 8 248 244 5 250 248 5 250 248 5 250 248 5 250 248 5 250 248 5 250 248 5 250 248 5 250 248 5 250 248 5 250 248 5 250 248 5 250 248 5 250 248 5 250 248 5 250 248 8 248 244 8 248 244 8 248 244 8 248 244 8 248 244 5 250 248 5 250 248 5 250 248 5 250 248 5 250 248 5 250 248 5 250 248 5 250 248 8 248 244 5 250 248 5 250 248 8 248 244 5 250 248 8 248 244 8 248 244 5 250 248 8 248 244 8 248 244 11 246 241 8 248 244 5 250 248 5 250 248 5 250 248 5 250 248 5 250 248 8 248 244 8 248 244 5 250 248 8 248 244 8 248 244 8 248 244 
5 250 248 5 250 248 5 250 248 5 250 248 5 250 248 5 250 248 5 250 248 5 250 248 5 250 248 5 250 248 5 250 248 5 250 248 5 250 248 8 248 244 8 248 244 5 250 248 5 250 248 8 248 244 5 250 248 5 250 248 5 250 248 5 250 248 5 250 248 5 250 248 5 250 248 8 248 244 5 250 248 5 250 248 5 250 248 5 250 248 8 248 244 8 248 244 8 248 244 5 250 248 5 250 248 5 250 248 8 248 244 5 250 248 8 248 244 8 248 244 5 250 248 5 250 248 8 248 244 5 250 248 5 250 248 5 250 248 5 250 248 5 250 248 5 250 248 5 250 248 5 250 248 5 250 248 8 248 244 5 250 248 5 250 248 5 250 248 5 250 248 5 250 248 5 250 248 5 250 248 8 248 244 5 250 248 8 248 244 8 248 244 8 248 244 5 250 248 8 248 244 5 250 248 8 248 244 8 248 244 8 248 244 8 248 244 8 248 244 8 248 244 8 248 244 5 250 248 8 248 244 8 248 244 8 248 244 5 250 248 5 250 248 5 250 248 8 248 244 5 250 248 8 248 244 5 250 248 5 250 248 5 250 248 5 250 248 5 250 248 5 250 248 5 250 248 5 250 248 5 250 248 5 250 248 5 250 248 5 250 248 5 250 248 5 250 248 5 250 248 8 248 244 5 250 248 5 250 248 5 250 248 8 248 244 5 250 248 8 248 244 5 250 248 5 250 248 8 248 244 8 248 244 8 248 244 8 248 244 5 250 248 8 248 244 5 250 248 5 250 248 5 250 248 5 250 248 5 250 248 5 250 248 5 250 248 8 248 244 5 250 248 5 250 248 5 250 248 5 250 248 8 248 244 5 250 248 5 250 248 5 250 248 5 250 248 8 248 244 5 250 248 5 250 248 5 250 248 5 250 248 8 248 244 5 250 248 5 250 248 8 248 244 8 248 244 8 248 244 8 248 244 5 250 248 8 248 244 8 248 244 8 248 244 5 250 248 5 250 248 8 248 244 8 248 244 5 250 248 8 248 244 8 248 244 8 248 244 8 248 244 8 248 244 8 248 244 5 250 248 8 248 244 5 250 248 5 250 248 8 248 244 5 250 248 5 250 248 5 250 248 5 250 248 5 250 248 8 248 244 5 250 248 5 250 248 5 250 248 5 250 248 8 248 244 5 250 248 5 250 248 5 250 248 5 250 248 8 248 244 5 250 248 8 248 244 8 248 244 5 250 248 5 250 248 8 248 244 5 250 248 8 248 244 8 248 244 8 248 244 5 250 248 5 250 248 8 248 244 8 248 244 8 248 244 8 248 244 5 250 248 5 250 248 8 248 244 5 250 248 5 250 248 8 248 244 5 250 248 8 248 244 8 248 244 8 248 244 8 248 244 8 248 244 8 248 244 8 248 244 8 248 244 8 248 244 5 250 248 5 250 248 8 248 244 8 248 244 8 248 244 5 250 248 5 250 248 8 248 244 
5 250 248 5 250 248 5 250 248 5 250 248 5 250 248 5 250 248 5 250 248 5 250 248 5 250 248 5 250 248 5 250 248 5 250 248 5 250 248 8 248 244 8 248 244 5 250 248 5 250 248 8 248 244 5 250 248 5 250 248 5 250 248 5 250 248 5 250 248 5 250 248 5 250 248 8 248 244 5 250 248 5 250 248 5 250 248 5 250 248 8 248 244 8 248 244 8 248 244 5 250 248 5 250 248 5 250 248 8 248 244 5 250 248 8 248 244 8 248 244 5 250 248 5 250 248 8 248 244 5 250 248 5 250 248 5 250 248 5 250 248 5 250 248 5 250 248 5 250 248 5 250 248 5 250 248 8 248 244 5 250 248 5 250 248 5 250 248 5 250 248 5 250 248 5 250 248 5 250 248 8 248 244 5 250 248 8 248 244 8 248 244 8 248 244 5 250 248 8 248 244 5 250 248 8 248 244 8 248 244 8 248 244 8 248 244 8 248 244 8 248 244 8 248 244 5 250 248 8 248 244 8 248 244 8 248 244 5 250 248 5 250 248 5 250 248 8 248 244 5 250 248 8 248 244 5 250 248 5 250 248 5 250 248 5 250 248 5 250 248 5 250 248 5 250 248 5 250 248 5 250 248 5 250 248 5 250 248 5 250 248 5 250 248 5 250 248 5 250 248 8 248 244 5 250 248 5 250 248 5 250 248 8 248 244 5 250 248 8 248 244 5 250 248 5 250 248 8 248 244 8 248 244 8 248 244 8 248 244 5 250 248 8 248 244 5 250 248 5 250 248 5 250 248 5 250 248 5 250 248 5 250 248 5 250 248 8 248 244 5 250 248 5 250 248 5 250 248 5 250 248 8 248 244 5 250 248 5 250 248 5 250 248 5 250 248 8 248 244 5 250 248 5 250 248 5 250 248 5 250 248 8 248 244 5 250 248 5 250 248 8 248 244 8 248 244 8 248 244 8 248 244 5 250 248 8 248 244 8 248 244 8 248 244 5 250 248 5 250 248 8 248 244 8 248 244 5 250 248 8 248 244 8 248 244 8 248 244 8 248 244 8 248 244 8 248 244 5 250 248 8 248 244 5 250 248 5 250 248 8 248 244 5 250 248 5 250 248 5 250 248 5 250 248 5 250 248 8 248 244 5 250 248 5 250 248 5 250 248 5 250 248 8 248 244 5 250 248 5 250 248 5 250 248 5 250 248 8 248 244 5 250 248 8 248 244 8 248 244 5 250 248 5 250 248 8 248 244 5 250 248 8 248 244 8 248 244 8 248 244 5 250 248 5 250 248 8 248 244 8 248 244 8 248 244 8 248 244 5 250 248 5 250 248 8 248 244 5 250 248 5 250 248 8 248 244 5 250 248 8 248 244 8 248 244 8 248 244 8 248 244 8 248 244 8 248 244 8 248 244 8 248 244 8 248 244 5 250 248 5 250 248 8 248 244 8 248 244 8 248 244 5 250 248 5 250 248 8 248 244 
5 250 248 5 250 248 5 250 248 5 250 248 5 250 248 5 250 248 8 248 244 5 250 248 5 250 248 5 250 248 5 250 248 5 250 248 5 250 248 5 250 248 5 250 248 5 250 248 5 250 248 5 250 248 5 250 248 5 250 248 5 250 248 5 250 248 5 250 248 5 250 248 5 250 248 8 248 244 5 250 248 5 250 248 5 250 248 5 250 248 5 250 248 5 250 248 5 250 248 5 250 248 8 248 244 8 248 244 5 250 248 5 250 248 5 250 248 5 250 248 5 250 248 5 250 248 5 250 248 5 250 248 8 248 244 5 250 248 5 250 248 5 250 248 5 250 248 5 250 248 5 250 248 5 250 248 5 250 248 5 250 248 5 250 248 5 250 248 5 250 248 5 250 248 5 250 248 8 248 244 5 250 248 5 250 248 8 248 244 5 250 248 5 250 248 5 250 248 8 248 244 8 248 244 5 250 248 8 248 244 8 248 244 8 248 244 5 250 248 8 248 244 8 248 244 8 248 244 8 248 244 8 248 244 8 248 244 5 250 248 5 250 248 5 250 248 5 250 248 8 248 244 5 250 248 5 250 248 5 250 248 8 248 244 5 250 248 5 250 248 5 250 248 5 250 248 5 250 248 5 250 248 5 250 248 5 250 248 5 250 248 5 250 248 8 248 244 5 250 248 5 250 248 5 250 248 5 250 248 5 250 248 8 248 244 5 250 248 5 250 248 5 250 248 5 250 248 8 248 244 5 250 248 8 248 244 5 250 248 5 250 248 5 250 248 8 248 244 5 250 248 8 248 244 5 250 248 5 250 248 5 250 248 5 250 248 5 250 248 5 250 248 5 250 248 5 250 248 5 250 248 5 250 248 5 250 248 8 248 244 5 250 248 5 250 248 5 250 248 5 250 248 8 248 244 5 250 248 5 250 248 5 250 248 8 248 244 5 250 248 8 248 244 5 250 248 5 250 248 5 250 248 5 250 248 8 248 244 5 250 248 5 250 248 5 250 248 5 250 248 8 248 244 5 250 248 5 250 248 5 250 248 8 248 244 5 250 248 5 250 248 5 250 248 5 250 248 8 248 244 5 250 248 5 250 248 8 248 244 5 250 248 8 248 244 5 250 248 5 250 248 5 250 248 8 248 244 8 248 244 8 248 244 5 250 248 5 250 248 5 250 248 5 250 248 5 250 248 8 248 244 8 248 244 5 250 248 5 250 248 5 250 248 5 250 248 5 250 248 8 248 244 5 250 248 8 248 244 8 248 244 5 250 248 5 250 248 5 250 248 5 250 248 8 248 244 8 248 244 5 250 248 5 250 248 8 248 244 5 250 248 5 250 248 5 250 248 5 250 248 5 250 248 8 248 244 5 250 248 5 250 248 8 248 244 8 248 244 5 250 248 8 248 244 5 250 248 8 248 244 5 250 248 5 250 248 8 248 244 5 250 248 5 250 248 5 250 248 8 248 244 8 248 244 5 250 248 5 250 248 
5 250 248 5 250 248 5 250 248 5 250 248 5 250 248 5 250 248 8 248 244 5 250 248 5 250 248 5 250 248 5 250 248 5 250 248 5 250 248 5 250 248 5 250 248 5 250 248 5 250 248 5 250 248 5 250 248 5 250 248 5 250 248 5 250 248 5 250 248 5 250 248 5 250 248 8 248 244 5 250 248 5 250 248 5 250 248 5 250 248 5 250 248 5 250 248 5 250 248 5 250 248 8 248 244 8 248 244 5 250 248 5 250 248 5 250 248 5 250 248 5 250 248 5 250 248 5 250 248 5 250 248 8 248 244 5 250 248 5 250 248 5 250 248 5 250 248 5 250 248 5 250 248 5 250 248 5 250 248 5 250 248 5 250 248 5 250 248 5 250 248 5 250 248 5 250 248 8 248 244 5 250 248 5 250 248 8 248 244 5 250 248 5 250 248 5 250 248 8 248 244 8 248 244 5 250 248 8 248 244 8 248 244 8 248 244 5 250 248 8 248 244 8 248 244 8 248 244 8 248 244 8 248 244 8 248 244 5 250 248 5 250 248 5 250 248 5 250 248 8 248 244 5 250 248 5 250 248 5 250 248 8 248 244 5 250 248 5 250 248 5 250 248 5 250 248 5 250 248 5 250 248 5 250 248 5 250 248 5 250 248 5 250 248 8 248 244 5 250 248 5 250 248 5 250 248 5 250 248 5 250 248 8 248 244 5 250 248 5 250 248 5 250 248 5 250 248 8 248 244 5 250 248 8 248 244 5 250 248 5 250 248 5 250 248 8 248 244 5 250 248 8 248 244 5 250 248 5 250 248 5 250 248 5 250 248 5 250 248 5 250 248 5 250 248 5 250 248 5 250 248 5 250 248 5 250 248 8 248 244 5 250 248 5 250 248 5 250 248 5 250 248 8 248 244 5 250 248 5 250 248 5 250 248 8 248 244 5 250 248 8 248 244 5 250 248 5 250 248 5 250 248 5 250 248 8 248 244 5 250 248 5 250 248 5 250 248 5 250 248 8 248 244 5 250 248 5 250 248 5 250 248 8 248 244 5 250 248 5 250 248 5 250 248 5 250 248 8 248 244 5 250 248 5 250 248 8 248 244 5 250 248 8 248 244 5 250 248 5 250 248 5 250 248 8 248 244 8 248 244 8 248 244 5 250 248 5 250 248 5 250 248 5 250 248 5 250 248 8 248 244 8 248 244 5 250 248 5 250 248 5 250 248 5 250 248 5 250 248 8 248 244 5 250 248 8 248 244 8 248 244 5 250 248 5 250 248 5 250 248 5 250 248 8 248 244 8 248 244 5 250 248 5 250 248 8 248 244 5 250 248 5 250 248 5 250 248 5 250 248 5 250 248 8 248 244 5 250 248 5 250 248 8 248 244 8 248 244 5 250 248 8 248 244 5 250 248 8 248 244 5 250 248 5 250 248 8 248 244 5 250 248 5 250 248 5 250 248 8 248 244 8 248 244 5 250 248 5 250 248 
5 250 248 5 250 248 5 250 248 5 250 248 5 250 248 5 250 248 5 250 248 5 250 248 5 250 248 5 250 248 5 250 248 5 250 248 5 250 248 8 248 244 8 248 244 8 248 244 5 250 248 8 248 244 5 250 248 5 250 248 8 248 244 5 250 248 5 250 248 5 250 248 5 250 248 5 250 248 5 250 248 8 248 244 5 250 248 5 250 248 5 250 248 5 250 248 5 250 248 5 250 248 5 250 248 5 250 248 5 250 248 5 250 248 5 250 248 5 250 248 5 250 248 5 250 248 5 250 248 8 248 244 5 250 248 8 248 244 5 250 248 5 250 248 5 250 248 5 250 248 5 250 248 5 250 248 5 250 248 5 250 248 5 250 248 5 250 248 5 250 248 5 250 248 5 250 248 5 250 248 5 250 248 5 250 248 8 248 244 8 248 244 8 248 244 8 248 244 5 250 248 8 248 244 8 248 244 8 248 244 8 248 244 8 248 244 8 248 244 8 248 244 8 248 244 8 248 244 5 250 248 5 250 248 8 248 244 8 248 244 5 250 248 5 250 248 5 250 248 5 250 248 5 250 248 5 250 248 8 248 244 5 250 248 5 250 248 5 250 248 5 250 248 5 250 248 5 250 248 5 250 248 5 250 248 8 248 244 8 248 244 5 250 248 8 248 244 8 248 244 8 248 244 8 248 244 8 248 244 8 248 244 5 250 248 5 250 248 5 250 248 5 250 248 5 250 248 8 248 244 8 248 244 8 248 244 8 248 244 8 248 244 5 250 248 8 248 244 5 250 248 5 250 248 5 250 248 5 250 248 5 250 248 5 250 248 5 250 248 8 248 244 8 248 244 5 250 248 5 250 248 5 250 248 5 250 248 8 248 244 8 248 244 8 248 244 5 250 248 5 250 248 5 250 248 5 250 248 5 250 248 5 250 248 8 248 244 5 250 248 5 250 248 8 248 244 8 248 244 5 250 248 5 250 248 5 250 248 5 250 248 5 250 248 5 250 248 8 248 244 8 248 244 8 248 244 8 248 244 8 248 244 8 248 244 5 250 248 5 250 248 5 250 248 8 248 244 5 250 248 8 248 244 8 248 244 8 248 244 8 248 244 5 250 248 5 250 248 8 248 244 8 248 244 5 250 248 5 250 248 5 250 248 8 248 244 5 250 248 5 250 248 5 250 248 8 248 244 8 248 244 5 250 248 8 248 244 5 250 248 5 250 248 5 250 248 8 248 244 8 248 244 5 250 248 5 250 248 5 250 248 8 248 244 8 248 244 8 248 244 8 248 244 8 248 244 5 250 248 8 248 244 5 250 248 5 250 248 5 250 248 5 250 248 5 250 248 5 250 248 5 250 248 8 248 244 8 248 244 8 248 244 8 248 244 8 248 244 8 248 244 5 250 248 8 248 244 5 250 248 5 250 248 5 250 248 5 250 248 8 248 244 5 250 248 5 250 248 5 250 248 5 250 248 5 250 248 5 250 248 
5 250 248 5 250 248 5 250 248 5 250 248 5 250 248 5 250 248 5 250 248 5 250 248 5 250 248 5 250 248 5 250 248 5 250 248 5 250 248 8 248 244 8 248 244 8 248 244 5 250 248 8 248 244 5 250 248 5 250 248 8 248 244 5 250 248 5 250 248 5 250 248 5 250 248 5 250 248 5 250 248 8 248 244 5 250 248 5 250 248 5 250 248 5 250 248 5 250 248 5 250 248 5 250 248 5 250 248 5 250 248 5 250 248 5 250 248 5 250 248 5 250 248 5 250 248 5 250 248 8 248 244 5 250 248 8 248 244 5 250 248 5 250 248 5 250 248 5 250 248 5 250 248 5 250 248 5 250 248 5 250 248 5 250 248 5 250 248 5 250 248 5 250 248 5 250 248 5 250 248 5 250 248 5 250 248 8 248 244 8 248 244 8 248 244 8 248 244 5 250 248 8 248 244 8 248 244 8 248 244 8 248 244 8 248 244 8 248 244 8 248 244 8 248 244 8 248 244 5 250 248 5 250 248 8 248 244 8 248 244 5 250 248 5 250 248 5 250 248 5 250 248 5 250 248 5 250 248 8 248 244 5 250 248 5 250 248 5 250 248 5 250 248 5 250 248 5 250 248 5 250 248 5 250 248 8 248 244 8 248 244 5 250 248 8 248 244 8 248 244 8 248 244 8 248 244 8 248 244 8 248 244 5 250 248 5 250 248 5 250 248 5 250 248 5 250 248 8 248 244 8 248 244 8 248 244 8 248 244 8 248 244 5 250 248 8 248 244 5 250 248 5 250 248 5 250 248 5 250 248 5 250 248 5 250 248 5 250 248 8 248 244 8 248 244 5 250 248 5 250 248 5 250 248 5 250 248 8 248 244 8 248 244 8 248 244 5 250 248 5 250 248 5 250 248 5 250 248 5 250 248 5 250 248 8 248 244 5 250 248 5 250 248 8 248 244 8 248 244 5 250 248 5 250 248 5 250 248 5 250 248 5 250 248 5 250 248 8 248 244 8 248 244 8 248 244 8 248 244 8 248 244 8 248 244 5 250 248 5 250 248 5 250 248 8 248 244 5 250 248 8 248 244 8 248 244 8 248 244 8 248 244 5 250 248 5 250 248 8 248 244 8 248 244 5 250 248 5 250 248 5 250 248 8 248 244 5 250 248 5 250 248 5 250 248 8 248 244 8 248 244 5 250 248 8 248 244 5 250 248 5 250 248 5 250 248 8 248 244 8 248 244 5 250 248 5 250 248 5 250 248 8 248 244 8 248 244 8 248 244 8 248 244 8 248 244 5 250 248 8 248 244 5 250 248 5 250 248 5 250 248 5 250 248 5 250 248 5 250 248 5 250 248 8 248 244 8 248 244 8 248 244 8 248 244 8 248 244 8 248 244 5 250 248 8 248 244 5 250 248 5 250 248 5 250 248 5 250 248 8 248 244 5 250 248 5 250 248 5 250 248 5 250 248 5 250 248 5 250 248 
