P3
220 364
255
139 0 0 139 0 0 139 0 0 139 0 0 139 0 0 139 0 0 139 0 0 139 0 0 139 0 0 139 0 0 139 0 0 139 0 0 139 0 0 139 0 0 139 0 0 139 0 0 139 0 0 139 0 0 139 0 0 139 0 0 139 0 0 139 0 0 139 0 0 139 0 0 139 0 0 139 0 0 139 0 0 139 0 0 139 0 0 139 0 0 139 0 0 139 0 0 139 0 0 139 0 0 139 0 0 139 0 0 139 0 0 139 0 0 139 0 0 139 0 0 139 0 0 139 0 0 139 0 0 139 0 0 139 0 0 139 0 0 139 0 0 139 0 0 139 0 0 139 0 0 139 0 0 139 0 0 139 0 0 139 0 0 139 0 0 139 0 0 139 0 0 139 0 0 139 0 0 139 0 0 139 0 0 139 0 0 139 0 0 139 0 0 139 0 0 139 0 0 139 0 0 139 0 0 139 0 0 139 0 0 139 0 0 139 0 0 139 0 0 139 0 0 139 0 0 139 0 0 139 0 0 139 0 0 139 0 0 139 0 0 139 0 0 139 0 0 139 0 0 139 0 0 139 0 0 139 0 0 139 0 0 139 0 0 139 0 0 139 0 0 139 0 0 139 0 0 139 0 0 139 0 0 139 0 0 139 0 0 139 0 0 139 0 0 139 0 0 139 0 0 139 0 0 139 0 0 139 0 0 139 0 0 139 0 0 139 0 0 139 0 0 139 0 0 139 0 0 139 0 0 139 0 0 139 0 0 139 0 0 139 0 0 139 0 0 139 0 0 139 0 0 139 0 0 139 0 0 139 0 0 139 0 0 139 0 0 139 0 0 139 0 0 139 0 0 139 0 0 139 0 0 139 0 0 139 0 0 139 0 0 139 0 0 139 0 0 139 0 0 139 0 0 139 0 0 139 0 0 139 0 0 139 0 0 139 0 0 139 0 0 139 0 0 139 0 0 139 0 0 139 0 0 139 0 0 139 0 0 139 0 0 139 0 0 139 0 0 139 0 0 139 0 0 139 0 0 139 0 0 139 0 0 139 0 0 139 0 0 139 0 0 139 0 0 139 0 0 139 0 0 139 0 0 139 0 0 139 0 0 139 0 0 139 0 0 139 0 0 139 0 0 139 0 0 139 0 0 139 0 0 139 0 0 139 0 0 139 0 0 139 0 0 139 0 0 139 0 0 139 0 0 139 0 0 139 0 0 139 0 0 143 7 8 143 7 8 145 9 10 146 11 12 147 13 14 150 17 18 151 19 20 151 19 20 150 17 18 150 17 18 150 17 18 150 17 18 151 19 20 151 19 20 151 19 20 150 17 18 150 17 18 147 13 14 147 13 14 147 13 14 147 13 14 147 13 14 150 17 18 151 19 20 151 19 20 153 23 24 151 19 20 147 13 14 146 11 12 145 9 10 145 9 10 145 9 10 143 7 8 145 9 10 145 9 10 143 7 8 143 7 8 143 7 8 143 7 8 145 9 10 
139 0 0 139 0 0 139 0 0 139 0 0 139 0 0 139 0 0 139 0 0 139 0 0 139 0 0 139 0 0 139 0 0 139 0 0 139 0 0 139 0 0 139 0 0 139 0 0 139 0 0 139 0 0 139 0 0 139 0 0 139 0 0 139 0 0 139 0 0 139 0 0 139 0 0 139 0 0 139 0 0 139 0 0 139 0 0 139 0 0 139 0 0 139 0 0 139 0 0 139 0 0 139 0 0 139 0 0 139 0 0 139 0 0 139 0 0 139 0 0 139 0 0 139 0 0 139 0 0 139 0 0 139 0 0 139 0 0 139 0 0 139 0 0 139 0 0 139 0 0 139 0 0 139 0 0 139 0 0 139 0 0 139 0 0 139 0 0 139 0 0 139 0 0 139 0 0 139 0 0 139 0 0 139 0 0 139 0 0 139 0 0 139 0 0 139 0 0 139 0 0 139 0 0 139 0 0 139 0 0 139 0 0 139 0 0 139 0 0 139 0 0 139 0 0 139 0 0 139 0 0 139 0 0 139 0 0 139 0 0 139 0 0 139 0 0 139 0 0 139 0 0 139 0 0 139 0 0 139 0 0 139 0 0 139 0 0 139 0 0 139 0 0 139 0 0 139 0 0 139 0 0 139 0 0 139 0 0 139 0 0 139 0 0 139 0 0 139 0 0 139 0 0 139 0 0 139 0 0 139 0 0 139 0 0 139 0 0 139 0 0 139 0 0 139 0 0 139 0 0 139 0 0 139 0 0 139 0 0 139 0 0 139 0 0 139 0 0 139 0 0 139 0 0 139 0 0 139 0 0 139 0 0 139 0 0 139 0 0 139 0 0 139 0 0 139 0 0 139 0 0 139 0 0 139 0 0 139 0 0 139 0 0 139 0 0 139 0 0 139 0 0 139 0 0 139 0 0 139 0 0 139 0 0 139 0 0 139 0 0 139 0 0 139 0 0 139 0 0 139 0 0 139 0 0 139 0 0 139 0 0 139 0 0 139 0 0 139 0 0 139 0 0 139 0 0 139 0 0 139 0 0 139 0 0 139 0 0 139 0 0 139 0 0 139 0 0 139 0 0 139 0 0 139 0 0 139 0 0 139 0 0 139 0 0 139 0 0 139 0 0 139 0 0 139 0 0 139 0 0 139 0 0 139 0 0 139 0 0 139 0 0 139 0 0 139 0 0 139 0 0 139 0 0 139 0 0 139 0 0 143 7 8 143 7 8 145 9 10 146 11 12 147 13 14 150 17 18 151 19 20 151 19 20 150 17 18 150 17 18 150 17 18 150 17 18 151 19 20 151 19 20 151 19 20 150 17 18 150 17 18 147 13 14 147 13 14 147 13 14 147 13 14 147 13 14 150 17 18 151 19 20 151 19 20 153 23 24 151 19 20 147 13 14 146 11 12 145 9 10 145 9 10 145 9 10 143 7 8 145 9 10 145 9 10 143 7 8 143 7 8 143 7 8 143 7 8 145 9 10 
139 0 0 139 0 0 139 0 0 139 0 0 139 0 0 139 0 0 139 0 0 143 7 8 139 0 0 139 0 0 139 0 0 139 0 0 139 0 0 139 0 0 139 0 0 139 0 0 139 0 0 139 0 0 139 0 0 139 0 0 139 0 0 139 0 0 139 0 0 139 0 0 139 0 0 139 0 0 139 0 0 139 0 0 139 0 0 139 0 0 139 0 0 139 0 0 139 0 0 139 0 0 139 0 0 139 0 0 139 0 0 139 0 0 139 0 0 139 0 0 139 0 0 139 0 0 139 0 0 139 0 0 139 0 0 139 0 0 139 0 0 139 0 0 139 0 0 139 0 0 139 0 0 139 0 0 139 0 0 139 0 0 139 0 0 139 0 0 139 0 0 139 0 0 139 0 0 139 0 0 139 0 0 139 0 0 139 0 0 139 0 0 139 0 0 139 0 0 139 0 0 139 0 0 139 0 0 139 0 0 139 0 0 139 0 0 139 0 0 139 0 0 139 0 0 139 0 0 139 0 0 139 0 0 139 0 0 139 0 0 139 0 0 139 0 0 139 0 0 139 0 0 139 0 0 139 0 0 139 0 0 139 0 0 139 0 0 139 0 0 139 0 0 139 0 0 139 0 0 139 0 0 139 0 0 139 0 0 139 0 0 139 0 0 139 0 0 139 0 0 139 0 0 139 0 0 139 0 0 139 0 0 139 0 0 139 0 0 139 0 0 139 0 0 139 0 0 139 0 0 139 0 0 139 0 0 139 0 0 139 0 0 139 0 0 139 0 0 139 0 0 139 0 0 139 0 0 139 0 0 139 0 0 139 0 0 139 0 0 139 0 0 139 0 0 139 0 0 139 0 0 139 0 0 139 0 0 139 0 0 139 0 0 139 0 0 139 0 0 139 0 0 139 0 0 139 0 0 139 0 0 139 0 0 139 0 0 139 0 0 139 0 0 139 0 0 139 0 0 139 0 0 139 0 0 139 0 0 139 0 0 139 0 0 139 0 0 139 0 0 139 0 0 139 0 0 139 0 0 139 0 0 139 0 0 139 0 0 139 0 0 139 0 0 139 0 0 139 0 0 139 0 0 139 0 0 139 0 0 139 0 0 139 0 0 139 0 0 139 0 0 139 0 0 139 0 0 139 0 0 139 0 0 139 0 0 139 0 0 139 0 0 139 0 0 139 0 0 139 0 0 139 0 0 139 0 0 139 0 0 143 7 8 145 9 10 145 9 10 146 11 12 147 13 14 147 13 14 150 17 18 150 17 18 147 13 14 147 13 14 146 11 12 146 11 12 146 11 12 147 13 14 147 13 14 147 13 14 147 13 14 147 13 14 146 11 12 146 11 12 146 11 12 147 13 14 147 13 14 150 17 18 151 19 20 153 23 24 153 23 24 151 19 20 150 17 18 147 13 14 146 11 12 146 11 12 146 11 12 146 11 12 145 9 10 145 9 10 145 9 10 145 9 10 145 9 10 143 7 8 
139 0 0 139 0 0 139 0 0 139 0 0 139 0 0 139 0 0 139 0 0 143 7 8 139 0 0 139 0 0 139 0 0 139 0 0 139 0 0 139 0 0 139 0 0 139 0 0 139 0 0 139 0 0 139 0 0 139 0 0 139 0 0 139 0 0 139 0 0 139 0 0 139 0 0 139 0 0 139 0 0 139 0 0 139 0 0 139 0 0 139 0 0 139 0 0 139 0 0 139 0 0 139 0 0 139 0 0 139 0 0 139 0 0 139 0 0 139 0 0 139 0 0 139 0 0 139 0 0 139 0 0 139 0 0 139 0 0 139 0 0 139 0 0 139 0 0 139 0 0 139 0 0 139 0 0 139 0 0 139 0 0 139 0 0 139 0 0 139 0 0 139 0 0 139 0 0 139 0 0 139 0 0 139 0 0 139 0 0 139 0 0 139 0 0 139 0 0 139 0 0 139 0 0 139 0 0 139 0 0 139 0 0 139 0 0 139 0 0 139 0 0 139 0 0 139 0 0 139 0 0 139 0 0 139 0 0 139 0 0 139 0 0 139 0 0 139 0 0 139 0 0 139 0 0 139 0 0 139 0 0 139 0 0 139 0 0 139 0 0 139 0 0 139 0 0 139 0 0 139 0 0 139 0 0 139 0 0 139 0 0 139 0 0 139 0 0 139 0 0 139 0 0 139 0 0 139 0 0 139 0 0 139 0 0 139 0 0 139 0 0 139 0 0 139 0 0 139 0 0 139 0 0 139 0 0 139 0 0 139 0 0 139 0 0 139 0 0 139 0 0 139 0 0 139 0 0 139 0 0 139 0 0 139 0 0 139 0 0 139 0 0 139 0 0 139 0 0 139 0 0 139 0 0 139 0 0 139 0 0 139 0 0 139 0 0 139 0 0 139 0 0 139 0 0 139 0 0 139 0 0 139 0 0 139 0 0 139 0 0 139 0 0 139 0 0 139 0 0 139 0 0 139 0 0 139 0 0 139 0 0 139 0 0 139 0 0 139 0 0 139 0 0 139 0 0 139 0 0 139 0 0 139 0 0 139 0 0 139 0 0 139 0 0 139 0 0 139 0 0 139 0 0 139 0 0 139 0 0 139 0 0 139 0 0 139 0 0 139 0 0 139 0 0 139 0 0 139 0 0 139 0 0 139 0 0 139 0 0 139 0 0 139 0 0 139 0 0 139 0 0 139 0 0 139 0 0 139 0 0 143 7 8 145 9 10 145 9 10 146 11 12 147 13 14 147 13 14 150 17 18 150 17 18 147 13 14 147 13 14 146 11 12 146 11 12 146 11 12 147 13 14 147 13 14 147 13 14 147 13 14 147 13 14 146 11 12 146 11 12 146 11 12 147 13 14 147 13 14 150 17 18 151 19 20 153 23 24 153 23 24 151 19 20 150 17 18 147 13 14 146 11 12 146 11 12 146 11 12 146 11 12 145 9 10 145 9 10 145 9 10 145 9 10 145 9 10 143 7 8 
139 0 0 139 0 0 139 0 0 139 0 0 139 0 0 139 0 0 139 0 0 139 0 0 139 0 0 139 0 0 139 0 0 139 0 0 139 0 0 139 0 0 139 0 0 139 0 0 139 0 0 139 0 0 139 0 0 139 0 0 139 0 0 139 0 0 139 0 0 139 0 0 139 0 0 139 0 0 139 0 0 139 0 0 139 0 0 139 0 0 139 0 0 139 0 0 139 0 0 139 0 0 139 0 0 139 0 0 139 0 0 139 0 0 139 0 0 139 0 0 139 0 0 139 0 0 139 0 0 139 0 0 139 0 0 139 0 0 139 0 0 139 0 0 139 0 0 139 0 0 139 0 0 139 0 0 139 0 0 139 0 0 139 0 0 139 0 0 139 0 0 139 0 0 139 0 0 139 0 0 139 0 0 139 0 0 139 0 0 139 0 0 139 0 0 139 0 0 139 0 0 139 0 0 139 0 0 139 0 0 139 0 0 139 0 0 139 0 0 139 0 0 139 0 0 139 0 0 139 0 0 139 0 0 139 0 0 139 0 0 139 0 0 139 0 0 139 0 0 139 0 0 139 0 0 139 0 0 139 0 0 139 0 0 139 0 0 139 0 0 139 0 0 139 0 0 139 0 0 139 0 0 139 0 0 139 0 0 139 0 0 139 0 0 139 0 0 139 0 0 139 0 0 139 0 0 139 0 0 139 0 0 139 0 0 139 0 0 139 0 0 139 0 0 139 0 0 139 0 0 139 0 0 139 0 0 139 0 0 139 0 0 139 0 0 139 0 0 139 0 0 139 0 0 139 0 0 139 0 0 139 0 0 139 0 0 139 0 0 139 0 0 139 0 0 139 0 0 139 0 0 139 0 0 139 0 0 139 0 0 139 0 0 139 0 0 139 0 0 139 0 0 139 0 0 139 0 0 139 0 0 139 0 0 139 0 0 139 0 0 139 0 0 139 0 0 139 0 0 139 0 0 139 0 0 139 0 0 139 0 0 139 0 0 139 0 0 139 0 0 139 0 0 139 0 0 139 0 0 139 0 0 139 0 0 139 0 0 139 0 0 139 0 0 139 0 0 139 0 0 139 0 0 139 0 0 139 0 0 139 0 0 139 0 0 139 0 0 139 0 0 139 0 0 139 0 0 139 0 0 139 0 0 139 0 0 139 0 0 139 0 0 139 0 0 139 0 0 139 0 0 139 0 0 139 0 0 143 7 8 143 7 8 145 9 10 145 9 10 146 11 12 146 11 12 147 13 14 147 13 14 146 11 12 146 11 12 146 11 12 146 11 12 146 11 12 146 11 12 146 11 12 146 11 12 146 11 12 146 11 12 146 11 12 146 11 12 146 11 12 147 13 14 146 11 12 146 11 12 146 11 12 146 11 12 147 13 14 150 17 18 150 17 18 150 17 18 150 17 18 150 17 18 150 17 18 147 13 14 146 11 12 146 11 12 146 11 12 145 9 10 145 9 10 145 9 10 145 9 10 
139 0 0 139 0 0 139 0 0 139 0 0 139 0 0 139 0 0 139 0 0 139 0 0 139 0 0 139 0 0 139 0 0 139 0 0 139 0 0 139 0 0 139 0 0 139 0 0 139 0 0 139 0 0 139 0 0 139 0 0 139 0 0 139 0 0 139 0 0 139 0 0 139 0 0 139 0 0 139 0 0 139 0 0 139 0 0 139 0 0 139 0 0 139 0 0 139 0 0 139 0 0 139 0 0 139 0 0 139 0 0 139 0 0 139 0 0 139 0 0 139 0 0 139 0 0 139 0 0 139 0 0 139 0 0 139 0 0 139 0 0 139 0 0 139 0 0 139 0 0 139 0 0 139 0 0 139 0 0 139 0 0 139 0 0 139 0 0 139 0 0 139 0 0 139 0 0 139 0 0 139 0 0 139 0 0 139 0 0 139 0 0 139 0 0 139 0 0 139 0 0 139 0 0 139 0 0 139 0 0 139 0 0 139 0 0 139 0 0 139 0 0 139 0 0 139 0 0 139 0 0 139 0 0 139 0 0 139 0 0 139 0 0 139 0 0 139 0 0 139 0 0 139 0 0 139 0 0 139 0 0 139 0 0 139 0 0 139 0 0 139 0 0 139 0 0 139 0 0 139 0 0 139 0 0 139 0 0 139 0 0 139 0 0 139 0 0 139 0 0 139 0 0 139 0 0 139 0 0 139 0 0 139 0 0 139 0 0 139 0 0 139 0 0 139 0 0 139 0 0 139 0 0 139 0 0 139 0 0 139 0 0 139 0 0 139 0 0 139 0 0 139 0 0 139 0 0 139 0 0 139 0 0 139 0 0 139 0 0 139 0 0 139 0 0 139 0 0 139 0 0 139 0 0 139 0 0 139 0 0 139 0 0 139 0 0 139 0 0 139 0 0 139 0 0 139 0 0 139 0 0 139 0 0 139 0 0 139 0 0 139 0 0 139 0 0 139 0 0 139 0 0 139 0 0 139 0 0 139 0 0 139 0 0 139 0 0 139 0 0 139 0 0 139 0 0 139 0 0 139 0 0 139 0 0 139 0 0 139 0 0 139 0 0 139 0 0 139 0 0 139 0 0 139 0 0 139 0 0 139 0 0 139 0 0 139 0 0 139 0 0 139 0 0 139 0 0 139 0 0 139 0 0 139 0 0 139 0 0 139 0 0 139 0 0 139 0 0 139 0 0 139 0 0 139 0 0 143 7 8 143 7 8 145 9 10 145 9 10 146 11 12 146 11 12 147 13 14 147 13 14 146 11 12 146 11 12 146 11 12 146 11 12 146 11 12 146 11 12 146 11 12 146 11 12 146 11 12 146 11 12 146 11 12 146 11 12 146 11 12 147 13 14 146 11 12 146 11 12 146 11 12 146 11 12 147 13 14 150 17 18 150 17 18 150 17 18 150 17 18 150 17 18 150 17 18 147 13 14 146 11 12 146 11 12 146 11 12 145 9 10 145 9 10 145 9 10 145 9 10 
139 0 0 139 0 0 139 0 0 139 0 0 139 0 0 139 0 0 139 0 0 139 0 0 139 0 0 139 0 0 139 0 0 139 0 0 139 0 0 139 0 0 139 0 0 139 0 0 139 0 0 139 0 0 139 0 0 139 0 0 139 0 0 139 0 0 139 0 0 139 0 0 139 0 0 139 0 0 139 0 0 139 0 0 139 0 0 139 0 0 139 0 0 139 0 0 139 0 0 139 0 0 139 0 0 139 0 0 139 0 0 139 0 0 139 0 0 139 0 0 139 0 0 139 0 0 139 0 0 139 0 0 139 0 0 139 0 0 139 0 0 139 0 0 139 0 0 139 0 0 139 0 0 139 0 0 139 0 0 139 0 0 139 0 0 139 0 0 139 0 0 139 0 0 139 0 0 139 0 0 139 0 0 139 0 0 139 0 0 139 0 0 139 0 0 139 0 0 139 0 0 139 0 0 139 0 0 139 0 0 139 0 0 139 0 0 139 0 0 139 0 0 139 0 0 139 0 0 139 0 0 139 0 0 139 0 0 139 0 0 139 0 0 139 0 0 139 0 0 139 0 0 139 0 0 139 0 0 139 0 0 139 0 0 139 0 0 139 0 0 139 0 0 139 0 0 139 0 0 139 0 0 139 0 0 139 0 0 139 0 0 139 0 0 139 0 0 139 0 0 139 0 0 139 0 0 139 0 0 139 0 0 139 0 0 139 0 0 139 0 0 139 0 0 139 0 0 139 0 0 139 0 0 139 0 0 139 0 0 139 0 0 139 0 0 139 0 0 139 0 0 139 0 0 139 0 0 139 0 0 139 0 0 139 0 0 139 0 0 139 0 0 139 0 0 139 0 0 139 0 0 139 0 0 139 0 0 139 0 0 139 0 0 139 0 0 139 0 0 139 0 0 139 0 0 139 0 0 139 0 0 139 0 0 139 0 0 139 0 0 139 0 0 139 0 0 139 0 0 139 0 0 139 0 0 139 0 0 139 0 0 139 0 0 139 0 0 139 0 0 139 0 0 139 0 0 139 0 0 139 0 0 139 0 0 139 0 0 139 0 0 139 0 0 139 0 0 139 0 0 139 0 0 139 0 0 139 0 0 139 0 0 139 0 0 139 0 0 139 0 0 139 0 0 139 0 0 139 0 0 139 0 0 139 0 0 139 0 0 139 0 0 139 0 0 139 0 0 139 0 0 143 7 8 143 7 8 143 7 8 145 9 10 146 11 12 146 11 12 146 11 12 147 13 14 147 13 14 146 11 12 147 13 14 146 11 12 147 13 14 146 11 12 146 11 12 146 11 12 146 11 12 146 11 12 146 11 12 146 11 12 147 13 14 147 13 14 147 13 14 146 11 12 146 11 12 146 11 12 146 11 12 146 11 12 146 11 12 146 11 12 146 11 12 147 13 14 147 13 14 147 13 14 147 13 14 147 13 14 146 11 12 146 11 12 145 9 10 145 9 10 145 9 10 145 9 10 145 9 10 
139 0 0 139 0 0 139 0 0 139 0 0 139 0 0 139 0 0 139 0 0 139 0 0 139 0 0 139 0 0 139 0 0 139 0 0 139 0 0 139 0 0 139 0 0 139 0 0 139 0 0 139 0 0 139 0 0 139 0 0 139 0 0 139 0 0 139 0 0 139 0 0 139 0 0 139 0 0 139 0 0 139 0 0 139 0 0 139 0 0 139 0 0 139 0 0 139 0 0 139 0 0 139 0 0 139 0 0 139 0 0 139 0 0 139 0 0 139 0 0 139 0 0 139 0 0 139 0 0 139 0 0 139 0 0 139 0 0 139 0 0 139 0 0 139 0 0 139 0 0 139 0 0 139 0 0 139 0 0 139 0 0 139 0 0 139 0 0 139 0 0 139 0 0 139 0 0 139 0 0 139 0 0 139 0 0 139 0 0 139 0 0 139 0 0 139 0 0 139 0 0 139 0 0 139 0 0 139 0 0 139 0 0 139 0 0 139 0 0 139 0 0 139 0 0 139 0 0 139 0 0 139 0 0 139 0 0 139 0 0 139 0 0 139 0 0 139 0 0 139 0 0 139 0 0 139 0 0 139 0 0 139 0 0 139 0 0 139 0 0 139 0 0 139 0 0 139 0 0 139 0 0 139 0 0 139 0 0 139 0 0 139 0 0 139 0 0 139 0 0 139 0 0 139 0 0 139 0 0 139 0 0 139 0 0 139 0 0 139 0 0 139 0 0 139 0 0 139 0 0 139 0 0 139 0 0 139 0 0 139 0 0 139 0 0 139 0 0 139 0 0 139 0 0 139 0 0 139 0 0 139 0 0 139 0 0 139 0 0 139 0 0 139 0 0 139 0 0 139 0 0 139 0 0 139 0 0 139 0 0 139 0 0 139 0 0 139 0 0 139 0 0 139 0 0 139 0 0 139 0 0 139 0 0 139 0 0 139 0 0 139 0 0 139 0 0 139 0 0 139 0 0 139 0 0 139 0 0 139 0 0 139 0 0 139 0 0 139 0 0 139 0 0 139 0 0 139 0 0 139 0 0 139 0 0 139 0 0 139 0 0 139 0 0 139 0 0 139 0 0 139 0 0 139 0 0 139 0 0 139 0 0 139 0 0 139 0 0 139 0 0 139 0 0 139 0 0 139 0 0 139 0 0 139 0 0 139 0 0 139 0 0 139 0 0 139 0 0 139 0 0 143 7 8 143 7 8 143 7 8 145 9 10 146 11 12 146 11 12 146 11 12 147 13 14 147 13 14 146 11 12 147 13 14 146 11 12 147 13 14 146 11 12 146 11 12 146 11 12 146 11 12 146 11 12 146 11 12 146 11 12 147 13 14 147 13 14 147 13 14 146 11 12 146 11 12 146 11 12 146 11 12 146 11 12 146 11 12 146 11 12 146 11 12 147 13 14 147 13 14 147 13 14 147 13 14 147 13 14 146 11 12 146 11 12 145 9 10 145 9 10 145 9 10 145 9 10 145 9 10 
139 0 0 139 0 0 139 0 0 139 0 0 139 0 0 139 0 0 139 0 0 139 0 0 139 0 0 139 0 0 139 0 0 139 0 0 139 0 0 139 0 0 139 0 0 139 0 0 139 0 0 139 0 0 139 0 0 139 0 0 139 0 0 139 0 0 139 0 0 139 0 0 139 0 0 139 0 0 139 0 0 139 0 0 139 0 0 139 0 0 139 0 0 139 0 0 139 0 0 139 0 0 139 0 0 139 0 0 139 0 0 139 0 0 139 0 0 139 0 0 139 0 0 139 0 0 139 0 0 139 0 0 139 0 0 139 0 0 139 0 0 139 0 0 139 0 0 139 0 0 139 0 0 139 0 0 139 0 0 139 0 0 139 0 0 139 0 0 139 0 0 139 0 0 139 0 0 139 0 0 139 0 0 139 0 0 139 0 0 139 0 0 139 0 0 139 0 0 139 0 0 139 0 0 139 0 0 139 0 0 139 0 0 139 0 0 139 0 0 139 0 0 139 0 0 139 0 0 139 0 0 139 0 0 139 0 0 139 0 0 139 0 0 139 0 0 139 0 0 139 0 0 139 0 0 139 0 0 139 0 0 139 0 0 139 0 0 139 0 0 139 0 0 139 0 0 139 0 0 139 0 0 139 0 0 139 0 0 139 0 0 139 0 0 139 0 0 139 0 0 139 0 0 139 0 0 139 0 0 139 0 0 139 0 0 139 0 0 139 0 0 139 0 0 139 0 0 139 0 0 139 0 0 139 0 0 139 0 0 139 0 0 139 0 0 139 0 0 139 0 0 139 0 0 139 0 0 139 0 0 139 0 0 139 0 0 139 0 0 139 0 0 139 0 0 139 0 0 139 0 0 139 0 0 139 0 0 139 0 0 139 0 0 139 0 0 139 0 0 139 0 0 139 0 0 139 0 0 139 0 0 139 0 0 139 0 0 139 0 0 139 0 0 139 0 0 139 0 0 139 0 0 139 0 0 139 0 0 139 0 0 139 0 0 139 0 0 139 0 0 139 0 0 139 0 0 139 0 0 139 0 0 139 0 0 139 0 0 139 0 0 139 0 0 139 0 0 139 0 0 139 0 0 139 0 0 139 0 0 139 0 0 139 0 0 139 0 0 139 0 0 139 0 0 139 0 0 139 0 0 139 0 0 139 0 0 139 0 0 139 0 0 139 0 0 139 0 0 139 0 0 139 0 0 143 7 8 145 9 10 146 11 12 146 11 12 146 11 12 147 13 14 147 13 14 150 17 18 150 17 18 150 17 18 147 13 14 150 17 18 150 17 18 150 17 18 150 17 18 150 17 18 147 13 14 147 13 14 147 13 14 146 11 12 146 11 12 146 11 12 145 9 10 145 9 10 145 9 10 145 9 10 146 11 12 146 11 12 146 11 12 146 11 12 146 11 12 146 11 12 145 9 10 145 9 10 145 9 10 145 9 10 145 9 10 145 9 10 145 9 10 145 9 10 145 9 10 143 7 8 
139 0 0 139 0 0 139 0 0 139 0 0 139 0 0 139 0 0 139 0 0 139 0 0 139 0 0 139 0 0 139 0 0 139 0 0 139 0 0 139 0 0 139 0 0 139 0 0 139 0 0 139 0 0 139 0 0 139 0 0 139 0 0 139 0 0 139 0 0 139 0 0 139 0 0 139 0 0 139 0 0 139 0 0 139 0 0 139 0 0 139 0 0 139 0 0 139 0 0 139 0 0 139 0 0 139 0 0 139 0 0 139 0 0 139 0 0 139 0 0 139 0 0 139 0 0 139 0 0 139 0 0 139 0 0 139 0 0 139 0 0 139 0 0 139 0 0 139 0 0 139 0 0 139 0 0 139 0 0 139 0 0 139 0 0 139 0 0 139 0 0 139 0 0 139 0 0 139 0 0 139 0 0 139 0 0 139 0 0 139 0 0 139 0 0 139 0 0 139 0 0 139 0 0 139 0 0 139 0 0 139 0 0 139 0 0 139 0 0 139 0 0 139 0 0 139 0 0 139 0 0 139 0 0 139 0 0 139 0 0 139 0 0 139 0 0 139 0 0 139 0 0 139 0 0 139 0 0 139 0 0 139 0 0 139 0 0 139 0 0 139 0 0 139 0 0 139 0 0 139 0 0 139 0 0 139 0 0 139 0 0 139 0 0 139 0 0 139 0 0 139 0 0 139 0 0 139 0 0 139 0 0 139 0 0 139 0 0 139 0 0 139 0 0 139 0 0 139 0 0 139 0 0 139 0 0 139 0 0 139 0 0 139 0 0 139 0 0 139 0 0 139 0 0 139 0 0 139 0 0 139 0 0 139 0 0 139 0 0 139 0 0 139 0 0 139 0 0 139 0 0 139 0 0 139 0 0 139 0 0 139 0 0 139 0 0 139 0 0 139 0 0 139 0 0 139 0 0 139 0 0 139 0 0 139 0 0 139 0 0 139 0 0 139 0 0 139 0 0 139 0 0 139 0 0 139 0 0 139 0 0 139 0 0 139 0 0 139 0 0 139 0 0 139 0 0 139 0 0 139 0 0 139 0 0 139 0 0 139 0 0 139 0 0 139 0 0 139 0 0 139 0 0 139 0 0 139 0 0 139 0 0 139 0 0 139 0 0 139 0 0 139 0 0 139 0 0 139 0 0 139 0 0 139 0 0 139 0 0 139 0 0 139 0 0 139 0 0 139 0 0 139 0 0 143 7 8 145 9 10 146 11 12 146 11 12 146 11 12 147 13 14 147 13 14 150 17 18 150 17 18 150 17 18 147 13 14 150 17 18 150 17 18 150 17 18 150 17 18 150 17 18 147 13 14 147 13 14 147 13 14 146 11 12 146 11 12 146 11 12 145 9 10 145 9 10 145 9 10 145 9 10 146 11 12 146 11 12 146 11 12 146 11 12 146 11 12 146 11 12 145 9 10 145 9 10 145 9 10 145 9 10 145 9 10 145 9 10 145 9 10 145 9 10 145 9 10 143 7 8 
139 0 0 139 0 0 139 0 0 139 0 0 139 0 0 139 0 0 139 0 0 139 0 0 139 0 0 139 0 0 139 0 0 139 0 0 139 0 0 139 0 0 139 0 0 139 0 0 139 0 0 139 0 0 139 0 0 139 0 0 139 0 0 139 0 0 139 0 0 139 0 0 139 0 0 139 0 0 139 0 0 139 0 0 139 0 0 139 0 0 139 0 0 139 0 0 139 0 0 139 0 0 139 0 0 139 0 0 139 0 0 139 0 0 139 0 0 139 0 0 139 0 0 139 0 0 139 0 0 139 0 0 139 0 0 139 0 0 139 0 0 139 0 0 139 0 0 139 0 0 139 0 0 139 0 0 139 0 0 139 0 0 139 0 0 139 0 0 139 0 0 139 0 0 139 0 0 139 0 0 139 0 0 139 0 0 139 0 0 139 0 0 139 0 0 139 0 0 139 0 0 139 0 0 139 0 0 139 0 0 139 0 0 139 0 0 139 0 0 139 0 0 139 0 0 139 0 0 139 0 0 139 0 0 139 0 0 139 0 0 139 0 0 139 0 0 139 0 0 139 0 0 139 0 0 139 0 0 139 0 0 139 0 0 139 0 0 139 0 0 139 0 0 139 0 0 139 0 0 139 0 0 139 0 0 139 0 0 139 0 0 139 0 0 139 0 0 139 0 0 139 0 0 139 0 0 139 0 0 139 0 0 139 0 0 139 0 0 139 0 0 139 0 0 139 0 0 139 0 0 139 0 0 139 0 0 139 0 0 139 0 0 139 0 0 139 0 0 139 0 0 139 0 0 139 0 0 139 0 0 139 0 0 139 0 0 139 0 0 139 0 0 139 0 0 139 0 0 139 0 0 139 0 0 139 0 0 139 0 0 139 0 0 139 0 0 139 0 0 139 0 0 139 0 0 139 0 0 139 0 0 139 0 0 139 0 0 139 0 0 139 0 0 139 0 0 139 0 0 139 0 0 139 0 0 139 0 0 139 0 0 139 0 0 139 0 0 139 0 0 139 0 0 139 0 0 139 0 0 139 0 0 139 0 0 139 0 0 139 0 0 139 0 0 139 0 0 139 0 0 139 0 0 139 0 0 139 0 0 139 0 0 139 0 0 139 0 0 139 0 0 139 0 0 139 0 0 139 0 0 139 0 0 139 0 0 139 0 0 139 0 0 139 0 0 139 0 0 143 7 8 145 9 10 145 9 10 145 9 10 146 11 12 147 13 14 147 13 14 150 17 18 150 17 18 150 17 18 150 17 18 150 17 18 151 19 20 153 23 24 155 25 26 158 30 32 157 29 30 158 30 32 155 25 26 151 19 20 147 13 14 146 11 12 146 11 12 145 9 10 145 9 10 145 9 10 145 9 10 145 9 10 145 9 10 145 9 10 145 9 10 145 9 10 145 9 10 145 9 10 145 9 10 145 9 10 145 9 10 145 9 10 145 9 10 143 7 8 143 7 8 143 7 8 145 9 10 145 9 10 
139 0 0 139 0 0 139 0 0 139 0 0 139 0 0 139 0 0 139 0 0 139 0 0 139 0 0 139 0 0 139 0 0 139 0 0 139 0 0 139 0 0 139 0 0 139 0 0 139 0 0 139 0 0 139 0 0 139 0 0 139 0 0 139 0 0 139 0 0 139 0 0 139 0 0 139 0 0 139 0 0 139 0 0 139 0 0 139 0 0 139 0 0 139 0 0 139 0 0 139 0 0 139 0 0 139 0 0 139 0 0 139 0 0 139 0 0 139 0 0 139 0 0 139 0 0 139 0 0 139 0 0 139 0 0 139 0 0 139 0 0 139 0 0 139 0 0 139 0 0 139 0 0 139 0 0 139 0 0 139 0 0 139 0 0 139 0 0 139 0 0 139 0 0 139 0 0 139 0 0 139 0 0 139 0 0 139 0 0 139 0 0 139 0 0 139 0 0 139 0 0 139 0 0 139 0 0 139 0 0 139 0 0 139 0 0 139 0 0 139 0 0 139 0 0 139 0 0 139 0 0 139 0 0 139 0 0 139 0 0 139 0 0 139 0 0 139 0 0 139 0 0 139 0 0 139 0 0 139 0 0 139 0 0 139 0 0 139 0 0 139 0 0 139 0 0 139 0 0 139 0 0 139 0 0 139 0 0 139 0 0 139 0 0 139 0 0 139 0 0 139 0 0 139 0 0 139 0 0 139 0 0 139 0 0 139 0 0 139 0 0 139 0 0 139 0 0 139 0 0 139 0 0 139 0 0 139 0 0 139 0 0 139 0 0 139 0 0 139 0 0 139 0 0 139 0 0 139 0 0 139 0 0 139 0 0 139 0 0 139 0 0 139 0 0 139 0 0 139 0 0 139 0 0 139 0 0 139 0 0 139 0 0 139 0 0 139 0 0 139 0 0 139 0 0 139 0 0 139 0 0 139 0 0 139 0 0 139 0 0 139 0 0 139 0 0 139 0 0 139 0 0 139 0 0 139 0 0 139 0 0 139 0 0 139 0 0 139 0 0 139 0 0 139 0 0 139 0 0 139 0 0 139 0 0 139 0 0 139 0 0 139 0 0 139 0 0 139 0 0 139 0 0 139 0 0 139 0 0 139 0 0 139 0 0 139 0 0 139 0 0 139 0 0 139 0 0 139 0 0 139 0 0 139 0 0 139 0 0 139 0 0 139 0 0 139 0 0 143 7 8 145 9 10 145 9 10 145 9 10 146 11 12 147 13 14 147 13 14 150 17 18 150 17 18 150 17 18 150 17 18 150 17 18 151 19 20 153 23 24 155 25 26 158 30 32 157 29 30 158 30 32 155 25 26 151 19 20 147 13 14 146 11 12 146 11 12 145 9 10 145 9 10 145 9 10 145 9 10 145 9 10 145 9 10 145 9 10 145 9 10 145 9 10 145 9 10 145 9 10 145 9 10 145 9 10 145 9 10 145 9 10 145 9 10 143 7 8 143 7 8 143 7 8 145 9 10 145 9 10 
139 0 0 139 0 0 139 0 0 139 0 0 139 0 0 139 0 0 139 0 0 139 0 0 139 0 0 139 0 0 139 0 0 139 0 0 139 0 0 139 0 0 139 0 0 139 0 0 139 0 0 139 0 0 139 0 0 139 0 0 139 0 0 139 0 0 139 0 0 139 0 0 139 0 0 139 0 0 139 0 0 139 0 0 139 0 0 139 0 0 139 0 0 139 0 0 139 0 0 139 0 0 139 0 0 139 0 0 139 0 0 139 0 0 139 0 0 139 0 0 139 0 0 139 0 0 139 0 0 139 0 0 139 0 0 139 0 0 139 0 0 139 0 0 139 0 0 139 0 0 139 0 0 139 0 0 139 0 0 139 0 0 139 0 0 139 0 0 139 0 0 139 0 0 139 0 0 139 0 0 139 0 0 139 0 0 139 0 0 139 0 0 139 0 0 139 0 0 139 0 0 139 0 0 139 0 0 139 0 0 139 0 0 139 0 0 139 0 0 139 0 0 139 0 0 139 0 0 139 0 0 139 0 0 139 0 0 139 0 0 139 0 0 139 0 0 139 0 0 139 0 0 139 0 0 139 0 0 139 0 0 139 0 0 139 0 0 139 0 0 139 0 0 139 0 0 139 0 0 139 0 0 139 0 0 139 0 0 139 0 0 139 0 0 139 0 0 139 0 0 139 0 0 139 0 0 139 0 0 139 0 0 139 0 0 139 0 0 139 0 0 139 0 0 139 0 0 139 0 0 139 0 0 139 0 0 139 0 0 139 0 0 139 0 0 139 0 0 139 0 0 139 0 0 139 0 0 139 0 0 139 0 0 139 0 0 139 0 0 139 0 0 139 0 0 139 0 0 139 0 0 139 0 0 139 0 0 139 0 0 139 0 0 139 0 0 139 0 0 139 0 0 139 0 0 139 0 0 139 0 0 139 0 0 139 0 0 139 0 0 139 0 0 139 0 0 139 0 0 139 0 0 139 0 0 139 0 0 139 0 0 139 0 0 139 0 0 139 0 0 139 0 0 139 0 0 139 0 0 139 0 0 139 0 0 139 0 0 139 0 0 139 0 0 139 0 0 139 0 0 139 0 0 139 0 0 139 0 0 139 0 0 139 0 0 139 0 0 139 0 0 139 0 0 139 0 0 139 0 0 139 0 0 139 0 0 139 0 0 139 0 0 139 0 0 143 7 8 143 7 8 145 9 10 145 9 10 146 11 12 147 13 14 150 17 18 150 17 18 150 17 18 150 17 18 150 17 18 150 17 18 153 23 24 157 29 30 159 32 34 168 46 49 172 52 55 168 46 49 158 30 32 157 29 30 153 23 24 150 17 18 146 11 12 145 9 10 145 9 10 145 9 10 145 9 10 145 9 10 145 9 10 145 9 10 145 9 10 145 9 10 145 9 10 145 9 10 145 9 10 145 9 10 145 9 10 145 9 10 145 9 10 145 9 10 143 7 8 145 9 10 145 9 10 145 9 10 145 9 10 
139 0 0 139 0 0 139 0 0 139 0 0 139 0 0 139 0 0 139 0 0 139 0 0 139 0 0 139 0 0 139 0 0 139 0 0 139 0 0 139 0 0 139 0 0 139 0 0 139 0 0 139 0 0 139 0 0 139 0 0 139 0 0 139 0 0 139 0 0 139 0 0 139 0 0 139 0 0 139 0 0 139 0 0 139 0 0 139 0 0 139 0 0 139 0 0 139 0 0 139 0 0 139 0 0 139 0 0 139 0 0 139 0 0 139 0 0 139 0 0 139 0 0 139 0 0 139 0 0 139 0 0 139 0 0 139 0 0 139 0 0 139 0 0 139 0 0 139 0 0 139 0 0 139 0 0 139 0 0 139 0 0 139 0 0 139 0 0 139 0 0 139 0 0 139 0 0 139 0 0 139 0 0 139 0 0 139 0 0 139 0 0 139 0 0 139 0 0 139 0 0 139 0 0 139 0 0 139 0 0 139 0 0 139 0 0 139 0 0 139 0 0 139 0 0 139 0 0 139 0 0 139 0 0 139 0 0 139 0 0 139 0 0 139 0 0 139 0 0 139 0 0 139 0 0 139 0 0 139 0 0 139 0 0 139 0 0 139 0 0 139 0 0 139 0 0 139 0 0 139 0 0 139 0 0 139 0 0 139 0 0 139 0 0 139 0 0 139 0 0 139 0 0 139 0 0 139 0 0 139 0 0 139 0 0 139 0 0 139 0 0 139 0 0 139 0 0 139 0 0 139 0 0 139 0 0 139 0 0 139 0 0 139 0 0 139 0 0 139 0 0 139 0 0 139 0 0 139 0 0 139 0 0 139 0 0 139 0 0 139 0 0 139 0 0 139 0 0 139 0 0 139 0 0 139 0 0 139 0 0 139 0 0 139 0 0 139 0 0 139 0 0 139 0 0 139 0 0 139 0 0 139 0 0 139 0 0 139 0 0 139 0 0 139 0 0 139 0 0 139 0 0 139 0 0 139 0 0 139 0 0 139 0 0 139 0 0 139 0 0 139 0 0 139 0 0 139 0 0 139 0 0 139 0 0 139 0 0 139 0 0 139 0 0 139 0 0 139 0 0 139 0 0 139 0 0 139 0 0 139 0 0 139 0 0 139 0 0 139 0 0 139 0 0 139 0 0 139 0 0 139 0 0 139 0 0 139 0 0 139 0 0 139 0 0 143 7 8 143 7 8 145 9 10 145 9 10 146 11 12 147 13 14 150 17 18 150 17 18 150 17 18 150 17 18 150 17 18 150 17 18 153 23 24 157 29 30 159 32 34 168 46 49 172 52 55 168 46 49 158 30 32 157 29 30 153 23 24 150 17 18 146 11 12 145 9 10 145 9 10 145 9 10 145 9 10 145 9 10 145 9 10 145 9 10 145 9 10 145 9 10 145 9 10 145 9 10 145 9 10 145 9 10 145 9 10 145 9 10 145 9 10 145 9 10 143 7 8 145 9 10 145 9 10 145 9 10 145 9 10 
139 0 0 139 0 0 139 0 0 139 0 0 139 0 0 139 0 0 139 0 0 139 0 0 139 0 0 139 0 0 139 0 0 139 0 0 139 0 0 139 0 0 139 0 0 139 0 0 139 0 0 139 0 0 139 0 0 139 0 0 139 0 0 139 0 0 139 0 0 139 0 0 139 0 0 139 0 0 139 0 0 139 0 0 139 0 0 139 0 0 139 0 0 139 0 0 139 0 0 139 0 0 139 0 0 139 0 0 139 0 0 139 0 0 139 0 0 139 0 0 139 0 0 139 0 0 139 0 0 139 0 0 139 0 0 139 0 0 139 0 0 139 0 0 139 0 0 139 0 0 139 0 0 139 0 0 139 0 0 139 0 0 139 0 0 139 0 0 139 0 0 139 0 0 139 0 0 139 0 0 139 0 0 139 0 0 139 0 0 139 0 0 139 0 0 139 0 0 139 0 0 139 0 0 139 0 0 139 0 0 139 0 0 139 0 0 139 0 0 139 0 0 139 0 0 139 0 0 139 0 0 139 0 0 139 0 0 139 0 0 139 0 0 139 0 0 139 0 0 139 0 0 139 0 0 139 0 0 139 0 0 139 0 0 139 0 0 139 0 0 139 0 0 139 0 0 139 0 0 139 0 0 139 0 0 139 0 0 139 0 0 139 0 0 139 0 0 139 0 0 139 0 0 139 0 0 139 0 0 139 0 0 139 0 0 139 0 0 139 0 0 139 0 0 139 0 0 139 0 0 139 0 0 139 0 0 139 0 0 139 0 0 139 0 0 139 0 0 139 0 0 139 0 0 139 0 0 139 0 0 139 0 0 139 0 0 139 0 0 139 0 0 139 0 0 139 0 0 139 0 0 139 0 0 139 0 0 139 0 0 139 0 0 139 0 0 139 0 0 139 0 0 139 0 0 139 0 0 139 0 0 139 0 0 139 0 0 139 0 0 139 0 0 139 0 0 139 0 0 139 0 0 139 0 0 139 0 0 139 0 0 139 0 0 139 0 0 139 0 0 139 0 0 139 0 0 139 0 0 139 0 0 139 0 0 139 0 0 139 0 0 139 0 0 139 0 0 139 0 0 139 0 0 139 0 0 139 0 0 139 0 0 139 0 0 139 0 0 139 0 0 139 0 0 139 0 0 139 0 0 139 0 0 139 0 0 139 0 0 139 0 0 139 0 0 143 7 8 145 9 10 145 9 10 146 11 12 146 11 12 147 13 14 150 17 18 150 17 18 150 17 18 151 19 20 153 23 24 155 25 26 159 32 34 169 48 51 174 56 59 174 56 59 172 52 55 168 46 49 158 30 32 151 19 20 147 13 14 146 11 12 145 9 10 145 9 10 145 9 10 145 9 10 145 9 10 145 9 10 145 9 10 145 9 10 145 9 10 145 9 10 145 9 10 145 9 10 145 9 10 145 9 10 145 9 10 145 9 10 145 9 10 145 9 10 145 9 10 145 9 10 145 9 10 145 9 10 145 9 10 
139 0 0 139 0 0 139 0 0 139 0 0 139 0 0 139 0 0 139 0 0 139 0 0 139 0 0 139 0 0 139 0 0 139 0 0 139 0 0 139 0 0 139 0 0 139 0 0 139 0 0 139 0 0 139 0 0 139 0 0 139 0 0 139 0 0 139 0 0 139 0 0 139 0 0 139 0 0 139 0 0 139 0 0 139 0 0 139 0 0 139 0 0 139 0 0 139 0 0 139 0 0 139 0 0 139 0 0 139 0 0 139 0 0 139 0 0 139 0 0 139 0 0 139 0 0 139 0 0 139 0 0 139 0 0 139 0 0 139 0 0 139 0 0 139 0 0 139 0 0 139 0 0 139 0 0 139 0 0 139 0 0 139 0 0 139 0 0 139 0 0 139 0 0 139 0 0 139 0 0 139 0 0 139 0 0 139 0 0 139 0 0 139 0 0 139 0 0 139 0 0 139 0 0 139 0 0 139 0 0 139 0 0 139 0 0 139 0 0 139 0 0 139 0 0 139 0 0 139 0 0 139 0 0 139 0 0 139 0 0 139 0 0 139 0 0 139 0 0 139 0 0 139 0 0 139 0 0 139 0 0 139 0 0 139 0 0 139 0 0 139 0 0 139 0 0 139 0 0 139 0 0 139 0 0 139 0 0 139 0 0 139 0 0 139 0 0 139 0 0 139 0 0 139 0 0 139 0 0 139 0 0 139 0 0 139 0 0 139 0 0 139 0 0 139 0 0 139 0 0 139 0 0 139 0 0 139 0 0 139 0 0 139 0 0 139 0 0 139 0 0 139 0 0 139 0 0 139 0 0 139 0 0 139 0 0 139 0 0 139 0 0 139 0 0 139 0 0 139 0 0 139 0 0 139 0 0 139 0 0 139 0 0 139 0 0 139 0 0 139 0 0 139 0 0 139 0 0 139 0 0 139 0 0 139 0 0 139 0 0 139 0 0 139 0 0 139 0 0 139 0 0 139 0 0 139 0 0 139 0 0 139 0 0 139 0 0 139 0 0 139 0 0 139 0 0 139 0 0 139 0 0 139 0 0 139 0 0 139 0 0 139 0 0 139 0 0 139 0 0 139 0 0 139 0 0 139 0 0 139 0 0 139 0 0 139 0 0 139 0 0 139 0 0 139 0 0 139 0 0 139 0 0 139 0 0 139 0 0 139 0 0 139 0 0 143 7 8 145 9 10 145 9 10 146 11 12 146 11 12 147 13 14 150 17 18 150 17 18 150 17 18 151 19 20 153 23 24 155 25 26 159 32 34 169 48 51 174 56 59 174 56 59 172 52 55 168 46 49 158 30 32 151 19 20 147 13 14 146 11 12 145 9 10 145 9 10 145 9 10 145 9 10 145 9 10 145 9 10 145 9 10 145 9 10 145 9 10 145 9 10 145 9 10 145 9 10 145 9 10 145 9 10 145 9 10 145 9 10 145 9 10 145 9 10 145 9 10 145 9 10 145 9 10 145 9 10 145 9 10 
139 0 0 139 0 0 139 0 0 139 0 0 139 0 0 139 0 0 139 0 0 139 0 0 139 0 0 139 0 0 139 0 0 139 0 0 139 0 0 139 0 0 139 0 0 139 0 0 139 0 0 139 0 0 139 0 0 139 0 0 139 0 0 139 0 0 139 0 0 139 0 0 139 0 0 139 0 0 139 0 0 139 0 0 139 0 0 139 0 0 139 0 0 139 0 0 139 0 0 139 0 0 139 0 0 139 0 0 139 0 0 139 0 0 139 0 0 139 0 0 139 0 0 139 0 0 139 0 0 139 0 0 139 0 0 139 0 0 139 0 0 139 0 0 139 0 0 139 0 0 139 0 0 139 0 0 139 0 0 139 0 0 139 0 0 139 0 0 139 0 0 139 0 0 139 0 0 139 0 0 139 0 0 139 0 0 139 0 0 139 0 0 139 0 0 139 0 0 139 0 0 139 0 0 139 0 0 139 0 0 139 0 0 139 0 0 139 0 0 139 0 0 139 0 0 139 0 0 139 0 0 139 0 0 139 0 0 139 0 0 139 0 0 139 0 0 139 0 0 139 0 0 139 0 0 139 0 0 139 0 0 139 0 0 139 0 0 139 0 0 139 0 0 139 0 0 139 0 0 139 0 0 139 0 0 139 0 0 139 0 0 139 0 0 139 0 0 139 0 0 139 0 0 139 0 0 139 0 0 139 0 0 139 0 0 139 0 0 139 0 0 139 0 0 139 0 0 139 0 0 139 0 0 139 0 0 139 0 0 139 0 0 139 0 0 139 0 0 139 0 0 139 0 0 139 0 0 139 0 0 139 0 0 139 0 0 139 0 0 139 0 0 139 0 0 139 0 0 139 0 0 139 0 0 139 0 0 139 0 0 139 0 0 139 0 0 139 0 0 139 0 0 139 0 0 139 0 0 139 0 0 139 0 0 139 0 0 139 0 0 139 0 0 139 0 0 139 0 0 139 0 0 139 0 0 139 0 0 139 0 0 139 0 0 139 0 0 139 0 0 139 0 0 139 0 0 139 0 0 139 0 0 139 0 0 139 0 0 139 0 0 139 0 0 139 0 0 139 0 0 139 0 0 139 0 0 139 0 0 139 0 0 139 0 0 139 0 0 139 0 0 139 0 0 139 0 0 139 0 0 139 0 0 139 0 0 139 0 0 139 0 0 143 7 8 145 9 10 145 9 10 146 11 12 146 11 12 146 11 12 147 13 14 147 13 14 151 19 20 153 23 24 153 23 24 157 29 30 168 46 49 174 56 59 183 69 73 183 69 73 179 63 67 169 48 51 158 30 32 153 23 24 147 13 14 146 11 12 145 9 10 145 9 10 145 9 10 145 9 10 145 9 10 145 9 10 145 9 10 145 9 10 145 9 10 145 9 10 145 9 10 145 9 10 145 9 10 145 9 10 145 9 10 145 9 10 145 9 10 145 9 10 145 9 10 145 9 10 145 9 10 145 9 10 145 9 10 145 9 10 
139 0 0 139 0 0 139 0 0 139 0 0 139 0 0 139 0 0 139 0 0 139 0 0 139 0 0 139 0 0 139 0 0 139 0 0 139 0 0 139 0 0 139 0 0 139 0 0 139 0 0 139 0 0 139 0 0 139 0 0 139 0 0 139 0 0 139 0 0 139 0 0 139 0 0 139 0 0 139 0 0 139 0 0 139 0 0 139 0 0 139 0 0 139 0 0 139 0 0 139 0 0 139 0 0 139 0 0 139 0 0 139 0 0 139 0 0 139 0 0 139 0 0 139 0 0 139 0 0 139 0 0 139 0 0 139 0 0 139 0 0 139 0 0 139 0 0 139 0 0 139 0 0 139 0 0 139 0 0 139 0 0 139 0 0 139 0 0 139 0 0 139 0 0 139 0 0 139 0 0 139 0 0 139 0 0 139 0 0 139 0 0 139 0 0 139 0 0 139 0 0 139 0 0 139 0 0 139 0 0 139 0 0 139 0 0 139 0 0 139 0 0 139 0 0 139 0 0 139 0 0 139 0 0 139 0 0 139 0 0 139 0 0 139 0 0 139 0 0 139 0 0 139 0 0 139 0 0 139 0 0 139 0 0 139 0 0 139 0 0 139 0 0 139 0 0 139 0 0 139 0 0 139 0 0 139 0 0 139 0 0 139 0 0 139 0 0 139 0 0 139 0 0 139 0 0 139 0 0 139 0 0 139 0 0 139 0 0 139 0 0 139 0 0 139 0 0 139 0 0 139 0 0 139 0 0 139 0 0 139 0 0 139 0 0 139 0 0 139 0 0 139 0 0 139 0 0 139 0 0 139 0 0 139 0 0 139 0 0 139 0 0 139 0 0 139 0 0 139 0 0 139 0 0 139 0 0 139 0 0 139 0 0 139 0 0 139 0 0 139 0 0 139 0 0 139 0 0 139 0 0 139 0 0 139 0 0 139 0 0 139 0 0 139 0 0 139 0 0 139 0 0 139 0 0 139 0 0 139 0 0 139 0 0 139 0 0 139 0 0 139 0 0 139 0 0 139 0 0 139 0 0 139 0 0 139 0 0 139 0 0 139 0 0 139 0 0 139 0 0 139 0 0 139 0 0 139 0 0 139 0 0 139 0 0 139 0 0 139 0 0 139 0 0 139 0 0 139 0 0 139 0 0 139 0 0 139 0 0 139 0 0 143 7 8 145 9 10 145 9 10 146 11 12 146 11 12 146 11 12 147 13 14 147 13 14 151 19 20 153 23 24 153 23 24 157 29 30 168 46 49 174 56 59 183 69 73 183 69 73 179 63 67 169 48 51 158 30 32 153 23 24 147 13 14 146 11 12 145 9 10 145 9 10 145 9 10 145 9 10 145 9 10 145 9 10 145 9 10 145 9 10 145 9 10 145 9 10 145 9 10 145 9 10 145 9 10 145 9 10 145 9 10 145 9 10 145 9 10 145 9 10 145 9 10 145 9 10 145 9 10 145 9 10 145 9 10 145 9 10 
139 0 0 139 0 0 139 0 0 139 0 0 139 0 0 139 0 0 139 0 0 139 0 0 139 0 0 139 0 0 139 0 0 139 0 0 139 0 0 139 0 0 139 0 0 139 0 0 139 0 0 139 0 0 139 0 0 139 0 0 139 0 0 139 0 0 139 0 0 139 0 0 139 0 0 139 0 0 139 0 0 139 0 0 139 0 0 139 0 0 139 0 0 139 0 0 139 0 0 139 0 0 139 0 0 139 0 0 139 0 0 139 0 0 139 0 0 139 0 0 139 0 0 139 0 0 139 0 0 139 0 0 139 0 0 139 0 0 139 0 0 139 0 0 139 0 0 139 0 0 139 0 0 139 0 0 139 0 0 139 0 0 139 0 0 139 0 0 139 0 0 139 0 0 139 0 0 139 0 0 139 0 0 139 0 0 139 0 0 139 0 0 139 0 0 139 0 0 139 0 0 139 0 0 139 0 0 139 0 0 139 0 0 139 0 0 139 0 0 139 0 0 139 0 0 139 0 0 139 0 0 139 0 0 139 0 0 139 0 0 139 0 0 139 0 0 139 0 0 139 0 0 139 0 0 139 0 0 139 0 0 139 0 0 139 0 0 139 0 0 139 0 0 139 0 0 139 0 0 139 0 0 139 0 0 139 0 0 139 0 0 139 0 0 139 0 0 139 0 0 139 0 0 139 0 0 139 0 0 139 0 0 139 0 0 139 0 0 139 0 0 139 0 0 139 0 0 139 0 0 139 0 0 139 0 0 139 0 0 139 0 0 139 0 0 139 0 0 139 0 0 139 0 0 139 0 0 139 0 0 139 0 0 139 0 0 139 0 0 139 0 0 139 0 0 139 0 0 139 0 0 139 0 0 139 0 0 139 0 0 139 0 0 139 0 0 139 0 0 139 0 0 139 0 0 139 0 0 139 0 0 139 0 0 139 0 0 139 0 0 139 0 0 139 0 0 139 0 0 139 0 0 139 0 0 139 0 0 139 0 0 139 0 0 139 0 0 139 0 0 139 0 0 139 0 0 139 0 0 139 0 0 139 0 0 139 0 0 139 0 0 139 0 0 139 0 0 139 0 0 139 0 0 139 0 0 139 0 0 139 0 0 139 0 0 139 0 0 139 0 0 139 0 0 139 0 0 139 0 0 139 0 0 139 0 0 139 0 0 139 0 0 145 9 10 146 11 12 146 11 12 146 11 12 147 13 14 147 13 14 147 13 14 151 19 20 151 19 20 155 25 26 158 30 32 169 48 51 172 52 55 179 63 67 179 63 67 172 52 55 172 52 55 168 46 49 157 29 30 153 23 24 147 13 14 146 11 12 146 11 12 145 9 10 145 9 10 145 9 10 146 11 12 145 9 10 145 9 10 146 11 12 146 11 12 145 9 10 145 9 10 145 9 10 145 9 10 145 9 10 145 9 10 145 9 10 145 9 10 145 9 10 145 9 10 145 9 10 145 9 10 145 9 10 145 9 10 145 9 10 
139 0 0 139 0 0 139 0 0 139 0 0 139 0 0 139 0 0 139 0 0 139 0 0 139 0 0 139 0 0 139 0 0 139 0 0 139 0 0 139 0 0 139 0 0 139 0 0 139 0 0 139 0 0 139 0 0 139 0 0 139 0 0 139 0 0 139 0 0 139 0 0 139 0 0 139 0 0 139 0 0 139 0 0 139 0 0 139 0 0 139 0 0 139 0 0 139 0 0 139 0 0 139 0 0 139 0 0 139 0 0 139 0 0 139 0 0 139 0 0 139 0 0 139 0 0 139 0 0 139 0 0 139 0 0 139 0 0 139 0 0 139 0 0 139 0 0 139 0 0 139 0 0 139 0 0 139 0 0 139 0 0 139 0 0 139 0 0 139 0 0 139 0 0 139 0 0 139 0 0 139 0 0 139 0 0 139 0 0 139 0 0 139 0 0 139 0 0 139 0 0 139 0 0 139 0 0 139 0 0 139 0 0 139 0 0 139 0 0 139 0 0 139 0 0 139 0 0 139 0 0 139 0 0 139 0 0 139 0 0 139 0 0 139 0 0 139 0 0 139 0 0 139 0 0 139 0 0 139 0 0 139 0 0 139 0 0 139 0 0 139 0 0 139 0 0 139 0 0 139 0 0 139 0 0 139 0 0 139 0 0 139 0 0 139 0 0 139 0 0 139 0 0 139 0 0 139 0 0 139 0 0 139 0 0 139 0 0 139 0 0 139 0 0 139 0 0 139 0 0 139 0 0 139 0 0 139 0 0 139 0 0 139 0 0 139 0 0 139 0 0 139 0 0 139 0 0 139 0 0 139 0 0 139 0 0 139 0 0 139 0 0 139 0 0 139 0 0 139 0 0 139 0 0 139 0 0 139 0 0 139 0 0 139 0 0 139 0 0 139 0 0 139 0 0 139 0 0 139 0 0 139 0 0 139 0 0 139 0 0 139 0 0 139 0 0 139 0 0 139 0 0 139 0 0 139 0 0 139 0 0 139 0 0 139 0 0 139 0 0 139 0 0 139 0 0 139 0 0 139 0 0 139 0 0 139 0 0 139 0 0 139 0 0 139 0 0 139 0 0 139 0 0 139 0 0 139 0 0 139 0 0 139 0 0 139 0 0 139 0 0 139 0 0 139 0 0 139 0 0 139 0 0 139 0 0 139 0 0 139 0 0 145 9 10 146 11 12 146 11 12 146 11 12 147 13 14 147 13 14 147 13 14 151 19 20 151 19 20 155 25 26 158 30 32 169 48 51 172 52 55 179 63 67 179 63 67 172 52 55 172 52 55 168 46 49 157 29 30 153 23 24 147 13 14 146 11 12 146 11 12 145 9 10 145 9 10 145 9 10 146 11 12 145 9 10 145 9 10 146 11 12 146 11 12 145 9 10 145 9 10 145 9 10 145 9 10 145 9 10 145 9 10 145 9 10 145 9 10 145 9 10 145 9 10 145 9 10 145 9 10 145 9 10 145 9 10 145 9 10 
139 0 0 139 0 0 139 0 0 139 0 0 139 0 0 139 0 0 139 0 0 139 0 0 139 0 0 139 0 0 139 0 0 139 0 0 139 0 0 139 0 0 139 0 0 139 0 0 139 0 0 139 0 0 139 0 0 139 0 0 139 0 0 139 0 0 139 0 0 139 0 0 139 0 0 139 0 0 139 0 0 139 0 0 139 0 0 139 0 0 139 0 0 139 0 0 139 0 0 139 0 0 139 0 0 139 0 0 139 0 0 139 0 0 139 0 0 139 0 0 139 0 0 139 0 0 139 0 0 139 0 0 139 0 0 139 0 0 139 0 0 139 0 0 139 0 0 139 0 0 139 0 0 139 0 0 139 0 0 139 0 0 139 0 0 139 0 0 139 0 0 139 0 0 139 0 0 139 0 0 139 0 0 139 0 0 139 0 0 139 0 0 139 0 0 139 0 0 139 0 0 139 0 0 139 0 0 139 0 0 139 0 0 139 0 0 139 0 0 139 0 0 139 0 0 139 0 0 139 0 0 139 0 0 139 0 0 139 0 0 139 0 0 139 0 0 139 0 0 139 0 0 139 0 0 139 0 0 139 0 0 139 0 0 139 0 0 139 0 0 139 0 0 139 0 0 139 0 0 139 0 0 139 0 0 139 0 0 139 0 0 139 0 0 139 0 0 139 0 0 139 0 0 139 0 0 139 0 0 139 0 0 139 0 0 139 0 0 139 0 0 139 0 0 139 0 0 139 0 0 139 0 0 139 0 0 139 0 0 139 0 0 139 0 0 139 0 0 139 0 0 139 0 0 139 0 0 139 0 0 139 0 0 139 0 0 139 0 0 139 0 0 139 0 0 139 0 0 139 0 0 139 0 0 139 0 0 139 0 0 139 0 0 139 0 0 139 0 0 139 0 0 139 0 0 139 0 0 139 0 0 139 0 0 139 0 0 139 0 0 139 0 0 139 0 0 139 0 0 139 0 0 139 0 0 139 0 0 139 0 0 139 0 0 139 0 0 139 0 0 139 0 0 139 0 0 139 0 0 139 0 0 139 0 0 139 0 0 139 0 0 139 0 0 139 0 0 139 0 0 139 0 0 139 0 0 139 0 0 139 0 0 139 0 0 139 0 0 139 0 0 139 0 0 139 0 0 139 0 0 139 0 0 139 0 0 143 7 8 145 9 10 146 11 12 146 11 12 147 13 14 147 13 14 150 17 18 151 19 20 153 23 24 151 19 20 153 23 24 157 29 30 159 32 34 168 46 49 168 46 49 168 46 49 158 30 32 153 23 24 150 17 18 150 17 18 150 17 18 150 17 18 147 13 14 147 13 14 146 11 12 146 11 12 146 11 12 145 9 10 145 9 10 146 11 12 146 11 12 145 9 10 145 9 10 145 9 10 145 9 10 145 9 10 145 9 10 145 9 10 145 9 10 145 9 10 145 9 10 145 9 10 145 9 10 145 9 10 145 9 10 145 9 10 145 9 10 145 9 10 
139 0 0 139 0 0 139 0 0 139 0 0 139 0 0 139 0 0 139 0 0 139 0 0 139 0 0 139 0 0 139 0 0 139 0 0 139 0 0 139 0 0 139 0 0 139 0 0 139 0 0 139 0 0 139 0 0 139 0 0 139 0 0 139 0 0 139 0 0 139 0 0 139 0 0 139 0 0 139 0 0 139 0 0 139 0 0 139 0 0 139 0 0 139 0 0 139 0 0 139 0 0 139 0 0 139 0 0 139 0 0 139 0 0 139 0 0 139 0 0 139 0 0 139 0 0 139 0 0 139 0 0 139 0 0 139 0 0 139 0 0 139 0 0 139 0 0 139 0 0 139 0 0 139 0 0 139 0 0 139 0 0 139 0 0 139 0 0 139 0 0 139 0 0 139 0 0 139 0 0 139 0 0 139 0 0 139 0 0 139 0 0 139 0 0 139 0 0 139 0 0 139 0 0 139 0 0 139 0 0 139 0 0 139 0 0 139 0 0 139 0 0 139 0 0 139 0 0 139 0 0 139 0 0 139 0 0 139 0 0 139 0 0 139 0 0 139 0 0 139 0 0 139 0 0 139 0 0 139 0 0 139 0 0 139 0 0 139 0 0 139 0 0 139 0 0 139 0 0 139 0 0 139 0 0 139 0 0 139 0 0 139 0 0 139 0 0 139 0 0 139 0 0 139 0 0 139 0 0 139 0 0 139 0 0 139 0 0 139 0 0 139 0 0 139 0 0 139 0 0 139 0 0 139 0 0 139 0 0 139 0 0 139 0 0 139 0 0 139 0 0 139 0 0 139 0 0 139 0 0 139 0 0 139 0 0 139 0 0 139 0 0 139 0 0 139 0 0 139 0 0 139 0 0 139 0 0 139 0 0 139 0 0 139 0 0 139 0 0 139 0 0 139 0 0 139 0 0 139 0 0 139 0 0 139 0 0 139 0 0 139 0 0 139 0 0 139 0 0 139 0 0 139 0 0 139 0 0 139 0 0 139 0 0 139 0 0 139 0 0 139 0 0 139 0 0 139 0 0 139 0 0 139 0 0 139 0 0 139 0 0 139 0 0 139 0 0 139 0 0 139 0 0 139 0 0 139 0 0 139 0 0 139 0 0 139 0 0 139 0 0 139 0 0 139 0 0 139 0 0 139 0 0 139 0 0 143 7 8 145 9 10 146 11 12 146 11 12 147 13 14 147 13 14 150 17 18 151 19 20 153 23 24 151 19 20 153 23 24 157 29 30 159 32 34 168 46 49 168 46 49 168 46 49 158 30 32 153 23 24 150 17 18 150 17 18 150 17 18 150 17 18 147 13 14 147 13 14 146 11 12 146 11 12 146 11 12 145 9 10 145 9 10 146 11 12 146 11 12 145 9 10 145 9 10 145 9 10 145 9 10 145 9 10 145 9 10 145 9 10 145 9 10 145 9 10 145 9 10 145 9 10 145 9 10 145 9 10 145 9 10 145 9 10 145 9 10 145 9 10 
139 0 0 139 0 0 139 0 0 139 0 0 139 0 0 139 0 0 139 0 0 139 0 0 139 0 0 139 0 0 139 0 0 139 0 0 139 0 0 139 0 0 139 0 0 139 0 0 139 0 0 139 0 0 139 0 0 139 0 0 139 0 0 139 0 0 139 0 0 139 0 0 139 0 0 139 0 0 139 0 0 139 0 0 139 0 0 139 0 0 139 0 0 139 0 0 139 0 0 139 0 0 139 0 0 139 0 0 139 0 0 139 0 0 139 0 0 139 0 0 139 0 0 139 0 0 139 0 0 139 0 0 139 0 0 139 0 0 139 0 0 139 0 0 139 0 0 139 0 0 139 0 0 139 0 0 139 0 0 139 0 0 139 0 0 139 0 0 139 0 0 139 0 0 139 0 0 139 0 0 139 0 0 139 0 0 139 0 0 139 0 0 139 0 0 139 0 0 139 0 0 139 0 0 139 0 0 139 0 0 139 0 0 139 0 0 139 0 0 139 0 0 139 0 0 139 0 0 139 0 0 139 0 0 139 0 0 139 0 0 139 0 0 139 0 0 139 0 0 139 0 0 139 0 0 139 0 0 139 0 0 139 0 0 139 0 0 139 0 0 139 0 0 139 0 0 139 0 0 139 0 0 139 0 0 139 0 0 139 0 0 139 0 0 139 0 0 139 0 0 139 0 0 139 0 0 139 0 0 139 0 0 139 0 0 139 0 0 139 0 0 139 0 0 139 0 0 139 0 0 139 0 0 139 0 0 139 0 0 139 0 0 139 0 0 139 0 0 139 0 0 139 0 0 139 0 0 139 0 0 139 0 0 139 0 0 139 0 0 139 0 0 139 0 0 139 0 0 139 0 0 139 0 0 139 0 0 139 0 0 139 0 0 139 0 0 139 0 0 139 0 0 139 0 0 139 0 0 139 0 0 139 0 0 139 0 0 139 0 0 139 0 0 139 0 0 139 0 0 139 0 0 139 0 0 139 0 0 139 0 0 139 0 0 139 0 0 139 0 0 139 0 0 139 0 0 139 0 0 139 0 0 139 0 0 139 0 0 139 0 0 139 0 0 139 0 0 139 0 0 139 0 0 139 0 0 139 0 0 139 0 0 139 0 0 139 0 0 139 0 0 139 0 0 139 0 0 139 0 0 139 0 0 143 7 8 145 9 10 145 9 10 146 11 12 146 11 12 147 13 14 150 17 18 153 23 24 153 23 24 155 25 26 153 23 24 155 25 26 155 25 26 153 23 24 155 25 26 151 19 20 150 17 18 147 13 14 146 11 12 146 11 12 146 11 12 146 11 12 146 11 12 146 11 12 146 11 12 146 11 12 146 11 12 145 9 10 145 9 10 145 9 10 146 11 12 145 9 10 146 11 12 145 9 10 145 9 10 145 9 10 145 9 10 145 9 10 145 9 10 145 9 10 145 9 10 145 9 10 145 9 10 145 9 10 145 9 10 145 9 10 145 9 10 145 9 10 145 9 10 
139 0 0 139 0 0 139 0 0 139 0 0 139 0 0 139 0 0 139 0 0 139 0 0 139 0 0 139 0 0 139 0 0 139 0 0 139 0 0 139 0 0 139 0 0 139 0 0 139 0 0 139 0 0 139 0 0 139 0 0 139 0 0 139 0 0 139 0 0 139 0 0 139 0 0 139 0 0 139 0 0 139 0 0 139 0 0 139 0 0 139 0 0 139 0 0 139 0 0 139 0 0 139 0 0 139 0 0 139 0 0 139 0 0 139 0 0 139 0 0 139 0 0 139 0 0 139 0 0 139 0 0 139 0 0 139 0 0 139 0 0 139 0 0 139 0 0 139 0 0 139 0 0 139 0 0 139 0 0 139 0 0 139 0 0 139 0 0 139 0 0 139 0 0 139 0 0 139 0 0 139 0 0 139 0 0 139 0 0 139 0 0 139 0 0 139 0 0 139 0 0 139 0 0 139 0 0 139 0 0 139 0 0 139 0 0 139 0 0 139 0 0 139 0 0 139 0 0 139 0 0 139 0 0 139 0 0 139 0 0 139 0 0 139 0 0 139 0 0 139 0 0 139 0 0 139 0 0 139 0 0 139 0 0 139 0 0 139 0 0 139 0 0 139 0 0 139 0 0 139 0 0 139 0 0 139 0 0 139 0 0 139 0 0 139 0 0 139 0 0 139 0 0 139 0 0 139 0 0 139 0 0 139 0 0 139 0 0 139 0 0 139 0 0 139 0 0 139 0 0 139 0 0 139 0 0 139 0 0 139 0 0 139 0 0 139 0 0 139 0 0 139 0 0 139 0 0 139 0 0 139 0 0 139 0 0 139 0 0 139 0 0 139 0 0 139 0 0 139 0 0 139 0 0 139 0 0 139 0 0 139 0 0 139 0 0 139 0 0 139 0 0 139 0 0 139 0 0 139 0 0 139 0 0 139 0 0 139 0 0 139 0 0 139 0 0 139 0 0 139 0 0 139 0 0 139 0 0 139 0 0 139 0 0 139 0 0 139 0 0 139 0 0 139 0 0 139 0 0 139 0 0 139 0 0 139 0 0 139 0 0 139 0 0 139 0 0 139 0 0 139 0 0 139 0 0 139 0 0 139 0 0 139 0 0 139 0 0 139 0 0 139 0 0 139 0 0 139 0 0 139 0 0 143 7 8 145 9 10 145 9 10 146 11 12 146 11 12 147 13 14 150 17 18 153 23 24 153 23 24 155 25 26 153 23 24 155 25 26 155 25 26 153 23 24 155 25 26 151 19 20 150 17 18 147 13 14 146 11 12 146 11 12 146 11 12 146 11 12 146 11 12 146 11 12 146 11 12 146 11 12 146 11 12 145 9 10 145 9 10 145 9 10 146 11 12 145 9 10 146 11 12 145 9 10 145 9 10 145 9 10 145 9 10 145 9 10 145 9 10 145 9 10 145 9 10 145 9 10 145 9 10 145 9 10 145 9 10 145 9 10 145 9 10 145 9 10 145 9 10 
139 0 0 139 0 0 139 0 0 139 0 0 139 0 0 139 0 0 139 0 0 139 0 0 139 0 0 139 0 0 139 0 0 139 0 0 139 0 0 139 0 0 139 0 0 139 0 0 139 0 0 139 0 0 139 0 0 139 0 0 139 0 0 139 0 0 139 0 0 139 0 0 139 0 0 139 0 0 139 0 0 139 0 0 139 0 0 139 0 0 139 0 0 139 0 0 139 0 0 139 0 0 139 0 0 139 0 0 139 0 0 139 0 0 139 0 0 139 0 0 139 0 0 139 0 0 139 0 0 139 0 0 139 0 0 139 0 0 139 0 0 139 0 0 139 0 0 139 0 0 139 0 0 139 0 0 139 0 0 139 0 0 139 0 0 139 0 0 139 0 0 139 0 0 139 0 0 139 0 0 139 0 0 139 0 0 139 0 0 139 0 0 139 0 0 139 0 0 139 0 0 139 0 0 139 0 0 139 0 0 139 0 0 139 0 0 139 0 0 139 0 0 139 0 0 139 0 0 139 0 0 139 0 0 139 0 0 139 0 0 139 0 0 139 0 0 139 0 0 139 0 0 139 0 0 139 0 0 139 0 0 139 0 0 139 0 0 139 0 0 139 0 0 139 0 0 139 0 0 139 0 0 139 0 0 139 0 0 139 0 0 139 0 0 139 0 0 139 0 0 139 0 0 139 0 0 139 0 0 139 0 0 139 0 0 139 0 0 139 0 0 139 0 0 139 0 0 139 0 0 139 0 0 139 0 0 139 0 0 139 0 0 139 0 0 139 0 0 139 0 0 139 0 0 139 0 0 139 0 0 139 0 0 139 0 0 139 0 0 139 0 0 139 0 0 139 0 0 139 0 0 139 0 0 139 0 0 139 0 0 139 0 0 139 0 0 139 0 0 139 0 0 139 0 0 139 0 0 139 0 0 139 0 0 139 0 0 139 0 0 139 0 0 139 0 0 139 0 0 139 0 0 139 0 0 139 0 0 139 0 0 139 0 0 139 0 0 139 0 0 139 0 0 139 0 0 139 0 0 139 0 0 139 0 0 139 0 0 139 0 0 139 0 0 139 0 0 139 0 0 139 0 0 139 0 0 139 0 0 139 0 0 139 0 0 139 0 0 139 0 0 139 0 0 139 0 0 139 0 0 143 7 8 145 9 10 145 9 10 146 11 12 146 11 12 147 13 14 151 19 20 150 17 18 151 19 20 153 23 24 155 25 26 155 25 26 153 23 24 151 19 20 151 19 20 150 17 18 150 17 18 147 13 14 146 11 12 146 11 12 146 11 12 146 11 12 146 11 12 147 13 14 147 13 14 146 11 12 146 11 12 146 11 12 146 11 12 146 11 12 146 11 12 146 11 12 146 11 12 146 11 12 146 11 12 146 11 12 146 11 12 145 9 10 145 9 10 145 9 10 145 9 10 145 9 10 145 9 10 145 9 10 145 9 10 145 9 10 145 9 10 145 9 10 145 9 10 145 9 10 
139 0 0 139 0 0 139 0 0 139 0 0 139 0 0 139 0 0 139 0 0 139 0 0 139 0 0 139 0 0 139 0 0 139 0 0 139 0 0 139 0 0 139 0 0 139 0 0 139 0 0 139 0 0 139 0 0 139 0 0 139 0 0 139 0 0 139 0 0 139 0 0 139 0 0 139 0 0 139 0 0 139 0 0 139 0 0 139 0 0 139 0 0 139 0 0 139 0 0 139 0 0 139 0 0 139 0 0 139 0 0 139 0 0 139 0 0 139 0 0 139 0 0 139 0 0 139 0 0 139 0 0 139 0 0 139 0 0 139 0 0 139 0 0 139 0 0 139 0 0 139 0 0 139 0 0 139 0 0 139 0 0 139 0 0 139 0 0 139 0 0 139 0 0 139 0 0 139 0 0 139 0 0 139 0 0 139 0 0 139 0 0 139 0 0 139 0 0 139 0 0 139 0 0 139 0 0 139 0 0 139 0 0 139 0 0 139 0 0 139 0 0 139 0 0 139 0 0 139 0 0 139 0 0 139 0 0 139 0 0 139 0 0 139 0 0 139 0 0 139 0 0 139 0 0 139 0 0 139 0 0 139 0 0 139 0 0 139 0 0 139 0 0 139 0 0 139 0 0 139 0 0 139 0 0 139 0 0 139 0 0 139 0 0 139 0 0 139 0 0 139 0 0 139 0 0 139 0 0 139 0 0 139 0 0 139 0 0 139 0 0 139 0 0 139 0 0 139 0 0 139 0 0 139 0 0 139 0 0 139 0 0 139 0 0 139 0 0 139 0 0 139 0 0 139 0 0 139 0 0 139 0 0 139 0 0 139 0 0 139 0 0 139 0 0 139 0 0 139 0 0 139 0 0 139 0 0 139 0 0 139 0 0 139 0 0 139 0 0 139 0 0 139 0 0 139 0 0 139 0 0 139 0 0 139 0 0 139 0 0 139 0 0 139 0 0 139 0 0 139 0 0 139 0 0 139 0 0 139 0 0 139 0 0 139 0 0 139 0 0 139 0 0 139 0 0 139 0 0 139 0 0 139 0 0 139 0 0 139 0 0 139 0 0 139 0 0 139 0 0 139 0 0 139 0 0 139 0 0 139 0 0 139 0 0 139 0 0 139 0 0 139 0 0 139 0 0 139 0 0 143 7 8 145 9 10 145 9 10 146 11 12 146 11 12 147 13 14 151 19 20 150 17 18 151 19 20 153 23 24 155 25 26 155 25 26 153 23 24 151 19 20 151 19 20 150 17 18 150 17 18 147 13 14 146 11 12 146 11 12 146 11 12 146 11 12 146 11 12 147 13 14 147 13 14 146 11 12 146 11 12 146 11 12 146 11 12 146 11 12 146 11 12 146 11 12 146 11 12 146 11 12 146 11 12 146 11 12 146 11 12 145 9 10 145 9 10 145 9 10 145 9 10 145 9 10 145 9 10 145 9 10 145 9 10 145 9 10 145 9 10 145 9 10 145 9 10 145 9 10 
139 0 0 139 0 0 139 0 0 139 0 0 139 0 0 139 0 0 139 0 0 139 0 0 139 0 0 139 0 0 139 0 0 139 0 0 139 0 0 139 0 0 139 0 0 139 0 0 139 0 0 139 0 0 139 0 0 139 0 0 139 0 0 139 0 0 139 0 0 139 0 0 139 0 0 139 0 0 139 0 0 139 0 0 139 0 0 139 0 0 139 0 0 139 0 0 139 0 0 139 0 0 139 0 0 139 0 0 139 0 0 139 0 0 139 0 0 139 0 0 139 0 0 139 0 0 139 0 0 139 0 0 139 0 0 139 0 0 139 0 0 139 0 0 139 0 0 139 0 0 139 0 0 139 0 0 139 0 0 139 0 0 139 0 0 139 0 0 139 0 0 139 0 0 139 0 0 139 0 0 139 0 0 139 0 0 139 0 0 139 0 0 139 0 0 139 0 0 139 0 0 139 0 0 139 0 0 139 0 0 139 0 0 139 0 0 139 0 0 139 0 0 139 0 0 139 0 0 139 0 0 139 0 0 139 0 0 139 0 0 139 0 0 139 0 0 139 0 0 139 0 0 139 0 0 139 0 0 139 0 0 139 0 0 139 0 0 139 0 0 139 0 0 139 0 0 139 0 0 139 0 0 139 0 0 139 0 0 139 0 0 139 0 0 139 0 0 139 0 0 139 0 0 139 0 0 139 0 0 139 0 0 139 0 0 139 0 0 139 0 0 139 0 0 139 0 0 139 0 0 139 0 0 139 0 0 139 0 0 139 0 0 139 0 0 139 0 0 139 0 0 139 0 0 139 0 0 139 0 0 139 0 0 139 0 0 139 0 0 139 0 0 139 0 0 139 0 0 139 0 0 139 0 0 139 0 0 139 0 0 139 0 0 139 0 0 139 0 0 139 0 0 139 0 0 139 0 0 139 0 0 139 0 0 139 0 0 139 0 0 139 0 0 139 0 0 139 0 0 139 0 0 139 0 0 139 0 0 139 0 0 139 0 0 139 0 0 139 0 0 139 0 0 139 0 0 139 0 0 139 0 0 139 0 0 139 0 0 139 0 0 139 0 0 139 0 0 139 0 0 139 0 0 139 0 0 139 0 0 139 0 0 139 0 0 139 0 0 139 0 0 139 0 0 139 0 0 139 0 0 143 7 8 145 9 10 146 11 12 147 13 14 147 13 14 147 13 14 150 17 18 150 17 18 151 19 20 153 23 24 157 29 30 155 25 26 153 23 24 151 19 20 151 19 20 151 19 20 150 17 18 150 17 18 147 13 14 146 11 12 146 11 12 146 11 12 146 11 12 146 11 12 146 11 12 146 11 12 146 11 12 146 11 12 146 11 12 146 11 12 146 11 12 146 11 12 146 11 12 146 11 12 146 11 12 145 9 10 145 9 10 145 9 10 146 11 12 145 9 10 145 9 10 145 9 10 145 9 10 145 9 10 146 11 12 145 9 10 145 9 10 145 9 10 145 9 10 145 9 10 
139 0 0 139 0 0 139 0 0 139 0 0 139 0 0 139 0 0 139 0 0 139 0 0 139 0 0 139 0 0 139 0 0 139 0 0 139 0 0 139 0 0 139 0 0 139 0 0 139 0 0 139 0 0 139 0 0 139 0 0 139 0 0 139 0 0 139 0 0 139 0 0 139 0 0 139 0 0 139 0 0 139 0 0 139 0 0 139 0 0 139 0 0 139 0 0 139 0 0 139 0 0 139 0 0 139 0 0 139 0 0 139 0 0 139 0 0 139 0 0 139 0 0 139 0 0 139 0 0 139 0 0 139 0 0 139 0 0 139 0 0 139 0 0 139 0 0 139 0 0 139 0 0 139 0 0 139 0 0 139 0 0 139 0 0 139 0 0 139 0 0 139 0 0 139 0 0 139 0 0 139 0 0 139 0 0 139 0 0 139 0 0 139 0 0 139 0 0 139 0 0 139 0 0 139 0 0 139 0 0 139 0 0 139 0 0 139 0 0 139 0 0 139 0 0 139 0 0 139 0 0 139 0 0 139 0 0 139 0 0 139 0 0 139 0 0 139 0 0 139 0 0 139 0 0 139 0 0 139 0 0 139 0 0 139 0 0 139 0 0 139 0 0 139 0 0 139 0 0 139 0 0 139 0 0 139 0 0 139 0 0 139 0 0 139 0 0 139 0 0 139 0 0 139 0 0 139 0 0 139 0 0 139 0 0 139 0 0 139 0 0 139 0 0 139 0 0 139 0 0 139 0 0 139 0 0 139 0 0 139 0 0 139 0 0 139 0 0 139 0 0 139 0 0 139 0 0 139 0 0 139 0 0 139 0 0 139 0 0 139 0 0 139 0 0 139 0 0 139 0 0 139 0 0 139 0 0 139 0 0 139 0 0 139 0 0 139 0 0 139 0 0 139 0 0 139 0 0 139 0 0 139 0 0 139 0 0 139 0 0 139 0 0 139 0 0 139 0 0 139 0 0 139 0 0 139 0 0 139 0 0 139 0 0 139 0 0 139 0 0 139 0 0 139 0 0 139 0 0 139 0 0 139 0 0 139 0 0 139 0 0 139 0 0 139 0 0 139 0 0 139 0 0 139 0 0 139 0 0 139 0 0 139 0 0 139 0 0 139 0 0 139 0 0 139 0 0 139 0 0 143 7 8 145 9 10 146 11 12 147 13 14 147 13 14 147 13 14 150 17 18 150 17 18 151 19 20 153 23 24 157 29 30 155 25 26 153 23 24 151 19 20 151 19 20 151 19 20 150 17 18 150 17 18 147 13 14 146 11 12 146 11 12 146 11 12 146 11 12 146 11 12 146 11 12 146 11 12 146 11 12 146 11 12 146 11 12 146 11 12 146 11 12 146 11 12 146 11 12 146 11 12 146 11 12 145 9 10 145 9 10 145 9 10 146 11 12 145 9 10 145 9 10 145 9 10 145 9 10 145 9 10 146 11 12 145 9 10 145 9 10 145 9 10 145 9 10 145 9 10 
139 0 0 139 0 0 139 0 0 139 0 0 139 0 0 139 0 0 139 0 0 139 0 0 139 0 0 139 0 0 139 0 0 139 0 0 139 0 0 139 0 0 139 0 0 139 0 0 139 0 0 139 0 0 139 0 0 139 0 0 139 0 0 139 0 0 139 0 0 139 0 0 139 0 0 139 0 0 139 0 0 139 0 0 139 0 0 139 0 0 139 0 0 139 0 0 139 0 0 139 0 0 139 0 0 139 0 0 139 0 0 139 0 0 139 0 0 139 0 0 139 0 0 139 0 0 139 0 0 139 0 0 139 0 0 139 0 0 139 0 0 139 0 0 139 0 0 139 0 0 139 0 0 139 0 0 139 0 0 139 0 0 139 0 0 139 0 0 139 0 0 139 0 0 139 0 0 139 0 0 139 0 0 139 0 0 139 0 0 139 0 0 139 0 0 139 0 0 139 0 0 139 0 0 139 0 0 139 0 0 139 0 0 139 0 0 139 0 0 139 0 0 139 0 0 139 0 0 139 0 0 139 0 0 139 0 0 139 0 0 139 0 0 139 0 0 139 0 0 139 0 0 139 0 0 139 0 0 139 0 0 139 0 0 139 0 0 139 0 0 139 0 0 139 0 0 139 0 0 139 0 0 139 0 0 139 0 0 139 0 0 139 0 0 139 0 0 139 0 0 139 0 0 139 0 0 139 0 0 139 0 0 139 0 0 139 0 0 139 0 0 139 0 0 139 0 0 139 0 0 139 0 0 139 0 0 139 0 0 139 0 0 139 0 0 139 0 0 139 0 0 139 0 0 139 0 0 139 0 0 139 0 0 139 0 0 139 0 0 139 0 0 139 0 0 139 0 0 139 0 0 139 0 0 139 0 0 139 0 0 139 0 0 139 0 0 139 0 0 139 0 0 139 0 0 139 0 0 139 0 0 139 0 0 139 0 0 139 0 0 139 0 0 139 0 0 139 0 0 139 0 0 139 0 0 139 0 0 139 0 0 139 0 0 139 0 0 139 0 0 139 0 0 139 0 0 139 0 0 139 0 0 139 0 0 139 0 0 139 0 0 139 0 0 139 0 0 139 0 0 139 0 0 139 0 0 139 0 0 139 0 0 139 0 0 139 0 0 139 0 0 139 0 0 139 0 0 143 7 8 145 9 10 145 9 10 146 11 12 146 11 12 147 13 14 150 17 18 151 19 20 151 19 20 153 23 24 151 19 20 153 23 24 153 23 24 153 23 24 151 19 20 151 19 20 150 17 18 150 17 18 147 13 14 146 11 12 146 11 12 146 11 12 146 11 12 146 11 12 146 11 12 146 11 12 146 11 12 146 11 12 146 11 12 146 11 12 146 11 12 146 11 12 146 11 12 146 11 12 145 9 10 145 9 10 145 9 10 145 9 10 145 9 10 145 9 10 145 9 10 145 9 10 145 9 10 145 9 10 145 9 10 145 9 10 145 9 10 145 9 10 146 11 12 145 9 10 145 9 10 
139 0 0 139 0 0 139 0 0 139 0 0 139 0 0 139 0 0 139 0 0 139 0 0 139 0 0 139 0 0 139 0 0 139 0 0 139 0 0 139 0 0 139 0 0 139 0 0 139 0 0 139 0 0 139 0 0 139 0 0 139 0 0 139 0 0 139 0 0 139 0 0 139 0 0 139 0 0 139 0 0 139 0 0 139 0 0 139 0 0 139 0 0 139 0 0 139 0 0 139 0 0 139 0 0 139 0 0 139 0 0 139 0 0 139 0 0 139 0 0 139 0 0 139 0 0 139 0 0 139 0 0 139 0 0 139 0 0 139 0 0 139 0 0 139 0 0 139 0 0 139 0 0 139 0 0 139 0 0 139 0 0 139 0 0 139 0 0 139 0 0 139 0 0 139 0 0 139 0 0 139 0 0 139 0 0 139 0 0 139 0 0 139 0 0 139 0 0 139 0 0 139 0 0 139 0 0 139 0 0 139 0 0 139 0 0 139 0 0 139 0 0 139 0 0 139 0 0 139 0 0 139 0 0 139 0 0 139 0 0 139 0 0 139 0 0 139 0 0 139 0 0 139 0 0 139 0 0 139 0 0 139 0 0 139 0 0 139 0 0 139 0 0 139 0 0 139 0 0 139 0 0 139 0 0 139 0 0 139 0 0 139 0 0 139 0 0 139 0 0 139 0 0 139 0 0 139 0 0 139 0 0 139 0 0 139 0 0 139 0 0 139 0 0 139 0 0 139 0 0 139 0 0 139 0 0 139 0 0 139 0 0 139 0 0 139 0 0 139 0 0 139 0 0 139 0 0 139 0 0 139 0 0 139 0 0 139 0 0 139 0 0 139 0 0 139 0 0 139 0 0 139 0 0 139 0 0 139 0 0 139 0 0 139 0 0 139 0 0 139 0 0 139 0 0 139 0 0 139 0 0 139 0 0 139 0 0 139 0 0 139 0 0 139 0 0 139 0 0 139 0 0 139 0 0 139 0 0 139 0 0 139 0 0 139 0 0 139 0 0 139 0 0 139 0 0 139 0 0 139 0 0 139 0 0 139 0 0 139 0 0 139 0 0 139 0 0 139 0 0 139 0 0 139 0 0 139 0 0 139 0 0 139 0 0 139 0 0 139 0 0 139 0 0 139 0 0 143 7 8 145 9 10 145 9 10 146 11 12 146 11 12 147 13 14 150 17 18 151 19 20 151 19 20 153 23 24 151 19 20 153 23 24 153 23 24 153 23 24 151 19 20 151 19 20 150 17 18 150 17 18 147 13 14 146 11 12 146 11 12 146 11 12 146 11 12 146 11 12 146 11 12 146 11 12 146 11 12 146 11 12 146 11 12 146 11 12 146 11 12 146 11 12 146 11 12 146 11 12 145 9 10 145 9 10 145 9 10 145 9 10 145 9 10 145 9 10 145 9 10 145 9 10 145 9 10 145 9 10 145 9 10 145 9 10 145 9 10 145 9 10 146 11 12 145 9 10 145 9 10 
139 0 0 139 0 0 139 0 0 139 0 0 139 0 0 139 0 0 139 0 0 139 0 0 139 0 0 139 0 0 139 0 0 139 0 0 139 0 0 139 0 0 139 0 0 139 0 0 139 0 0 139 0 0 139 0 0 139 0 0 139 0 0 139 0 0 139 0 0 139 0 0 139 0 0 139 0 0 139 0 0 139 0 0 139 0 0 139 0 0 139 0 0 139 0 0 139 0 0 139 0 0 139 0 0 139 0 0 139 0 0 139 0 0 139 0 0 139 0 0 139 0 0 139 0 0 139 0 0 139 0 0 139 0 0 139 0 0 139 0 0 139 0 0 139 0 0 139 0 0 139 0 0 139 0 0 139 0 0 139 0 0 139 0 0 139 0 0 139 0 0 139 0 0 139 0 0 139 0 0 139 0 0 139 0 0 139 0 0 139 0 0 139 0 0 139 0 0 139 0 0 139 0 0 139 0 0 139 0 0 139 0 0 139 0 0 139 0 0 139 0 0 139 0 0 139 0 0 139 0 0 139 0 0 139 0 0 139 0 0 139 0 0 139 0 0 139 0 0 139 0 0 139 0 0 139 0 0 139 0 0 139 0 0 139 0 0 139 0 0 139 0 0 139 0 0 139 0 0 139 0 0 139 0 0 139 0 0 139 0 0 139 0 0 139 0 0 139 0 0 139 0 0 139 0 0 139 0 0 139 0 0 139 0 0 139 0 0 139 0 0 139 0 0 139 0 0 139 0 0 139 0 0 139 0 0 139 0 0 139 0 0 139 0 0 139 0 0 139 0 0 139 0 0 139 0 0 139 0 0 139 0 0 139 0 0 139 0 0 139 0 0 139 0 0 139 0 0 139 0 0 139 0 0 139 0 0 139 0 0 139 0 0 139 0 0 139 0 0 139 0 0 139 0 0 139 0 0 139 0 0 139 0 0 139 0 0 139 0 0 139 0 0 139 0 0 139 0 0 139 0 0 139 0 0 139 0 0 139 0 0 139 0 0 139 0 0 139 0 0 139 0 0 139 0 0 139 0 0 139 0 0 139 0 0 139 0 0 139 0 0 139 0 0 139 0 0 139 0 0 139 0 0 139 0 0 139 0 0 139 0 0 139 0 0 139 0 0 139 0 0 139 0 0 143 7 8 145 9 10 146 11 12 146 11 12 146 11 12 147 13 14 147 13 14 150 17 18 153 23 24 151 19 20 153 23 24 153 23 24 155 25 26 153 23 24 151 19 20 150 17 18 147 13 14 147 13 14 147 13 14 147 13 14 146 11 12 146 11 12 147 13 14 147 13 14 146 11 12 146 11 12 146 11 12 146 11 12 146 11 12 146 11 12 146 11 12 146 11 12 146 11 12 146 11 12 146 11 12 146 11 12 145 9 10 145 9 10 145 9 10 145 9 10 146 11 12 145 9 10 145 9 10 145 9 10 145 9 10 145 9 10 145 9 10 145 9 10 145 9 10 146 11 12 145 9 10 145 9 10 
139 0 0 139 0 0 139 0 0 139 0 0 139 0 0 139 0 0 139 0 0 139 0 0 139 0 0 139 0 0 139 0 0 139 0 0 139 0 0 139 0 0 139 0 0 139 0 0 139 0 0 139 0 0 139 0 0 139 0 0 139 0 0 139 0 0 139 0 0 139 0 0 139 0 0 139 0 0 139 0 0 139 0 0 139 0 0 139 0 0 139 0 0 139 0 0 139 0 0 139 0 0 139 0 0 139 0 0 139 0 0 139 0 0 139 0 0 139 0 0 139 0 0 139 0 0 139 0 0 139 0 0 139 0 0 139 0 0 139 0 0 139 0 0 139 0 0 139 0 0 139 0 0 139 0 0 139 0 0 139 0 0 139 0 0 139 0 0 139 0 0 139 0 0 139 0 0 139 0 0 139 0 0 139 0 0 139 0 0 139 0 0 139 0 0 139 0 0 139 0 0 139 0 0 139 0 0 139 0 0 139 0 0 139 0 0 139 0 0 139 0 0 139 0 0 139 0 0 139 0 0 139 0 0 139 0 0 139 0 0 139 0 0 139 0 0 139 0 0 139 0 0 139 0 0 139 0 0 139 0 0 139 0 0 139 0 0 139 0 0 139 0 0 139 0 0 139 0 0 139 0 0 139 0 0 139 0 0 139 0 0 139 0 0 139 0 0 139 0 0 139 0 0 139 0 0 139 0 0 139 0 0 139 0 0 139 0 0 139 0 0 139 0 0 139 0 0 139 0 0 139 0 0 139 0 0 139 0 0 139 0 0 139 0 0 139 0 0 139 0 0 139 0 0 139 0 0 139 0 0 139 0 0 139 0 0 139 0 0 139 0 0 139 0 0 139 0 0 139 0 0 139 0 0 139 0 0 139 0 0 139 0 0 139 0 0 139 0 0 139 0 0 139 0 0 139 0 0 139 0 0 139 0 0 139 0 0 139 0 0 139 0 0 139 0 0 139 0 0 139 0 0 139 0 0 139 0 0 139 0 0 139 0 0 139 0 0 139 0 0 139 0 0 139 0 0 139 0 0 139 0 0 139 0 0 139 0 0 139 0 0 139 0 0 139 0 0 139 0 0 139 0 0 139 0 0 139 0 0 139 0 0 139 0 0 139 0 0 139 0 0 139 0 0 143 7 8 145 9 10 146 11 12 146 11 12 146 11 12 147 13 14 147 13 14 150 17 18 153 23 24 151 19 20 153 23 24 153 23 24 155 25 26 153 23 24 151 19 20 150 17 18 147 13 14 147 13 14 147 13 14 147 13 14 146 11 12 146 11 12 147 13 14 147 13 14 146 11 12 146 11 12 146 11 12 146 11 12 146 11 12 146 11 12 146 11 12 146 11 12 146 11 12 146 11 12 146 11 12 146 11 12 145 9 10 145 9 10 145 9 10 145 9 10 146 11 12 145 9 10 145 9 10 145 9 10 145 9 10 145 9 10 145 9 10 145 9 10 145 9 10 146 11 12 145 9 10 145 9 10 
139 0 0 139 0 0 139 0 0 139 0 0 139 0 0 139 0 0 139 0 0 139 0 0 139 0 0 139 0 0 139 0 0 139 0 0 139 0 0 139 0 0 139 0 0 139 0 0 139 0 0 139 0 0 139 0 0 139 0 0 139 0 0 139 0 0 139 0 0 139 0 0 139 0 0 139 0 0 139 0 0 139 0 0 139 0 0 139 0 0 139 0 0 139 0 0 139 0 0 139 0 0 139 0 0 139 0 0 139 0 0 139 0 0 139 0 0 139 0 0 139 0 0 139 0 0 139 0 0 139 0 0 139 0 0 139 0 0 139 0 0 139 0 0 139 0 0 139 0 0 139 0 0 139 0 0 139 0 0 139 0 0 139 0 0 139 0 0 139 0 0 139 0 0 139 0 0 139 0 0 139 0 0 139 0 0 139 0 0 139 0 0 139 0 0 139 0 0 139 0 0 139 0 0 139 0 0 139 0 0 139 0 0 139 0 0 139 0 0 139 0 0 139 0 0 139 0 0 139 0 0 139 0 0 139 0 0 139 0 0 139 0 0 139 0 0 139 0 0 139 0 0 139 0 0 139 0 0 139 0 0 139 0 0 139 0 0 139 0 0 139 0 0 139 0 0 139 0 0 139 0 0 139 0 0 139 0 0 139 0 0 139 0 0 139 0 0 139 0 0 139 0 0 139 0 0 139 0 0 139 0 0 139 0 0 139 0 0 139 0 0 139 0 0 139 0 0 139 0 0 139 0 0 139 0 0 139 0 0 139 0 0 139 0 0 139 0 0 139 0 0 139 0 0 139 0 0 139 0 0 139 0 0 139 0 0 139 0 0 139 0 0 139 0 0 139 0 0 139 0 0 139 0 0 139 0 0 139 0 0 139 0 0 139 0 0 139 0 0 139 0 0 139 0 0 139 0 0 139 0 0 139 0 0 139 0 0 139 0 0 139 0 0 139 0 0 139 0 0 139 0 0 139 0 0 139 0 0 139 0 0 139 0 0 139 0 0 139 0 0 139 0 0 139 0 0 139 0 0 139 0 0 139 0 0 139 0 0 139 0 0 139 0 0 139 0 0 139 0 0 139 0 0 139 0 0 139 0 0 139 0 0 139 0 0 139 0 0 139 0 0 143 7 8 143 7 8 145 9 10 145 9 10 146 11 12 146 11 12 146 11 12 147 13 14 147 13 14 150 17 18 153 23 24 155 25 26 155 25 26 151 19 20 151 19 20 147 13 14 147 13 14 146 11 12 146 11 12 146 11 12 146 11 12 146 11 12 146 11 12 146 11 12 147 13 14 146 11 12 146 11 12 146 11 12 146 11 12 146 11 12 146 11 12 146 11 12 146 11 12 146 11 12 147 13 14 150 17 18 151 19 20 151 19 20 153 23 24 153 23 24 151 19 20 150 17 18 146 11 12 145 9 10 146 11 12 146 11 12 145 9 10 145 9 10 145 9 10 145 9 10 145 9 10 145 9 10 145 9 10 
139 0 0 139 0 0 139 0 0 139 0 0 139 0 0 139 0 0 139 0 0 139 0 0 139 0 0 139 0 0 139 0 0 139 0 0 139 0 0 139 0 0 139 0 0 139 0 0 139 0 0 139 0 0 139 0 0 139 0 0 139 0 0 139 0 0 139 0 0 139 0 0 139 0 0 139 0 0 139 0 0 139 0 0 139 0 0 139 0 0 139 0 0 139 0 0 139 0 0 139 0 0 139 0 0 139 0 0 139 0 0 139 0 0 139 0 0 139 0 0 139 0 0 139 0 0 139 0 0 139 0 0 139 0 0 139 0 0 139 0 0 139 0 0 139 0 0 139 0 0 139 0 0 139 0 0 139 0 0 139 0 0 139 0 0 139 0 0 139 0 0 139 0 0 139 0 0 139 0 0 139 0 0 139 0 0 139 0 0 139 0 0 139 0 0 139 0 0 139 0 0 139 0 0 139 0 0 139 0 0 139 0 0 139 0 0 139 0 0 139 0 0 139 0 0 139 0 0 139 0 0 139 0 0 139 0 0 139 0 0 139 0 0 139 0 0 139 0 0 139 0 0 139 0 0 139 0 0 139 0 0 139 0 0 139 0 0 139 0 0 139 0 0 139 0 0 139 0 0 139 0 0 139 0 0 139 0 0 139 0 0 139 0 0 139 0 0 139 0 0 139 0 0 139 0 0 139 0 0 139 0 0 139 0 0 139 0 0 139 0 0 139 0 0 139 0 0 139 0 0 139 0 0 139 0 0 139 0 0 139 0 0 139 0 0 139 0 0 139 0 0 139 0 0 139 0 0 139 0 0 139 0 0 139 0 0 139 0 0 139 0 0 139 0 0 139 0 0 139 0 0 139 0 0 139 0 0 139 0 0 139 0 0 139 0 0 139 0 0 139 0 0 139 0 0 139 0 0 139 0 0 139 0 0 139 0 0 139 0 0 139 0 0 139 0 0 139 0 0 139 0 0 139 0 0 139 0 0 139 0 0 139 0 0 139 0 0 139 0 0 139 0 0 139 0 0 139 0 0 139 0 0 139 0 0 139 0 0 139 0 0 139 0 0 139 0 0 139 0 0 139 0 0 139 0 0 139 0 0 139 0 0 139 0 0 139 0 0 139 0 0 143 7 8 143 7 8 145 9 10 145 9 10 146 11 12 146 11 12 146 11 12 147 13 14 147 13 14 150 17 18 153 23 24 155 25 26 155 25 26 151 19 20 151 19 20 147 13 14 147 13 14 146 11 12 146 11 12 146 11 12 146 11 12 146 11 12 146 11 12 146 11 12 147 13 14 146 11 12 146 11 12 146 11 12 146 11 12 146 11 12 146 11 12 146 11 12 146 11 12 146 11 12 147 13 14 150 17 18 151 19 20 151 19 20 153 23 24 153 23 24 151 19 20 150 17 18 146 11 12 145 9 10 146 11 12 146 11 12 145 9 10 145 9 10 145 9 10 145 9 10 145 9 10 145 9 10 145 9 10 
139 0 0 139 0 0 139 0 0 139 0 0 139 0 0 139 0 0 139 0 0 139 0 0 139 0 0 139 0 0 139 0 0 139 0 0 139 0 0 139 0 0 139 0 0 139 0 0 139 0 0 139 0 0 139 0 0 139 0 0 139 0 0 139 0 0 139 0 0 139 0 0 139 0 0 139 0 0 139 0 0 139 0 0 139 0 0 139 0 0 139 0 0 139 0 0 139 0 0 139 0 0 139 0 0 139 0 0 139 0 0 139 0 0 139 0 0 139 0 0 139 0 0 139 0 0 139 0 0 139 0 0 139 0 0 139 0 0 139 0 0 139 0 0 139 0 0 139 0 0 139 0 0 139 0 0 139 0 0 139 0 0 139 0 0 139 0 0 139 0 0 139 0 0 139 0 0 139 0 0 139 0 0 139 0 0 139 0 0 139 0 0 139 0 0 139 0 0 139 0 0 139 0 0 139 0 0 139 0 0 139 0 0 139 0 0 139 0 0 139 0 0 139 0 0 139 0 0 139 0 0 139 0 0 139 0 0 139 0 0 139 0 0 139 0 0 139 0 0 139 0 0 139 0 0 139 0 0 139 0 0 139 0 0 139 0 0 139 0 0 139 0 0 139 0 0 139 0 0 139 0 0 139 0 0 139 0 0 139 0 0 139 0 0 139 0 0 139 0 0 139 0 0 139 0 0 139 0 0 139 0 0 139 0 0 139 0 0 139 0 0 139 0 0 139 0 0 139 0 0 139 0 0 139 0 0 139 0 0 139 0 0 139 0 0 139 0 0 139 0 0 139 0 0 139 0 0 139 0 0 139 0 0 139 0 0 139 0 0 139 0 0 139 0 0 139 0 0 139 0 0 139 0 0 139 0 0 139 0 0 139 0 0 139 0 0 139 0 0 139 0 0 139 0 0 139 0 0 139 0 0 139 0 0 139 0 0 139 0 0 139 0 0 139 0 0 139 0 0 139 0 0 139 0 0 139 0 0 139 0 0 139 0 0 139 0 0 139 0 0 139 0 0 139 0 0 139 0 0 139 0 0 139 0 0 139 0 0 139 0 0 139 0 0 139 0 0 139 0 0 139 0 0 139 0 0 139 0 0 139 0 0 139 0 0 139 0 0 139 0 0 143 7 8 145 9 10 146 11 12 146 11 12 147 13 14 147 13 14 147 13 14 150 17 18 151 19 20 151 19 20 151 19 20 150 17 18 153 23 24 151 19 20 147 13 14 147 13 14 146 11 12 146 11 12 146 11 12 146 11 12 146 11 12 146 11 12 146 11 12 150 17 18 151 19 20 151 19 20 150 17 18 150 17 18 146 11 12 146 11 12 146 11 12 146 11 12 150 17 18 155 25 26 158 30 32 169 48 51 179 63 67 180 65 69 179 63 67 180 65 69 179 63 67 159 32 34 153 23 24 147 13 14 145 9 10 145 9 10 145 9 10 146 11 12 146 11 12 146 11 12 145 9 10 145 9 10 145 9 10 
139 0 0 139 0 0 139 0 0 139 0 0 139 0 0 139 0 0 139 0 0 139 0 0 139 0 0 139 0 0 139 0 0 139 0 0 139 0 0 139 0 0 139 0 0 139 0 0 139 0 0 139 0 0 139 0 0 139 0 0 139 0 0 139 0 0 139 0 0 139 0 0 139 0 0 139 0 0 139 0 0 139 0 0 139 0 0 139 0 0 139 0 0 139 0 0 139 0 0 139 0 0 139 0 0 139 0 0 139 0 0 139 0 0 139 0 0 139 0 0 139 0 0 139 0 0 139 0 0 139 0 0 139 0 0 139 0 0 139 0 0 139 0 0 139 0 0 139 0 0 139 0 0 139 0 0 139 0 0 139 0 0 139 0 0 139 0 0 139 0 0 139 0 0 139 0 0 139 0 0 139 0 0 139 0 0 139 0 0 139 0 0 139 0 0 139 0 0 139 0 0 139 0 0 139 0 0 139 0 0 139 0 0 139 0 0 139 0 0 139 0 0 139 0 0 139 0 0 139 0 0 139 0 0 139 0 0 139 0 0 139 0 0 139 0 0 139 0 0 139 0 0 139 0 0 139 0 0 139 0 0 139 0 0 139 0 0 139 0 0 139 0 0 139 0 0 139 0 0 139 0 0 139 0 0 139 0 0 139 0 0 139 0 0 139 0 0 139 0 0 139 0 0 139 0 0 139 0 0 139 0 0 139 0 0 139 0 0 139 0 0 139 0 0 139 0 0 139 0 0 139 0 0 139 0 0 139 0 0 139 0 0 139 0 0 139 0 0 139 0 0 139 0 0 139 0 0 139 0 0 139 0 0 139 0 0 139 0 0 139 0 0 139 0 0 139 0 0 139 0 0 139 0 0 139 0 0 139 0 0 139 0 0 139 0 0 139 0 0 139 0 0 139 0 0 139 0 0 139 0 0 139 0 0 139 0 0 139 0 0 139 0 0 139 0 0 139 0 0 139 0 0 139 0 0 139 0 0 139 0 0 139 0 0 139 0 0 139 0 0 139 0 0 139 0 0 139 0 0 139 0 0 139 0 0 139 0 0 139 0 0 139 0 0 139 0 0 139 0 0 139 0 0 139 0 0 139 0 0 139 0 0 139 0 0 139 0 0 139 0 0 143 7 8 145 9 10 146 11 12 146 11 12 147 13 14 147 13 14 147 13 14 150 17 18 151 19 20 151 19 20 151 19 20 150 17 18 153 23 24 151 19 20 147 13 14 147 13 14 146 11 12 146 11 12 146 11 12 146 11 12 146 11 12 146 11 12 146 11 12 150 17 18 151 19 20 151 19 20 150 17 18 150 17 18 146 11 12 146 11 12 146 11 12 146 11 12 150 17 18 155 25 26 158 30 32 169 48 51 179 63 67 180 65 69 179 63 67 180 65 69 179 63 67 159 32 34 153 23 24 147 13 14 145 9 10 145 9 10 145 9 10 146 11 12 146 11 12 146 11 12 145 9 10 145 9 10 145 9 10 
139 0 0 139 0 0 139 0 0 139 0 0 139 0 0 139 0 0 139 0 0 139 0 0 139 0 0 139 0 0 139 0 0 139 0 0 139 0 0 139 0 0 139 0 0 139 0 0 139 0 0 139 0 0 139 0 0 139 0 0 139 0 0 139 0 0 139 0 0 139 0 0 139 0 0 139 0 0 139 0 0 139 0 0 139 0 0 139 0 0 139 0 0 139 0 0 139 0 0 139 0 0 139 0 0 139 0 0 139 0 0 139 0 0 139 0 0 139 0 0 139 0 0 139 0 0 139 0 0 139 0 0 139 0 0 139 0 0 139 0 0 139 0 0 139 0 0 139 0 0 139 0 0 139 0 0 139 0 0 139 0 0 139 0 0 139 0 0 139 0 0 139 0 0 139 0 0 139 0 0 139 0 0 139 0 0 139 0 0 139 0 0 139 0 0 139 0 0 139 0 0 139 0 0 139 0 0 139 0 0 139 0 0 139 0 0 139 0 0 139 0 0 139 0 0 139 0 0 139 0 0 139 0 0 139 0 0 139 0 0 139 0 0 139 0 0 139 0 0 139 0 0 139 0 0 139 0 0 139 0 0 139 0 0 139 0 0 139 0 0 139 0 0 139 0 0 139 0 0 139 0 0 139 0 0 139 0 0 139 0 0 139 0 0 139 0 0 139 0 0 139 0 0 139 0 0 139 0 0 139 0 0 139 0 0 139 0 0 139 0 0 139 0 0 139 0 0 139 0 0 139 0 0 139 0 0 139 0 0 139 0 0 139 0 0 139 0 0 139 0 0 139 0 0 139 0 0 139 0 0 139 0 0 139 0 0 139 0 0 139 0 0 139 0 0 139 0 0 139 0 0 139 0 0 139 0 0 139 0 0 139 0 0 139 0 0 139 0 0 139 0 0 139 0 0 139 0 0 139 0 0 139 0 0 139 0 0 139 0 0 139 0 0 139 0 0 139 0 0 139 0 0 139 0 0 139 0 0 139 0 0 139 0 0 139 0 0 139 0 0 139 0 0 139 0 0 139 0 0 139 0 0 139 0 0 139 0 0 139 0 0 139 0 0 139 0 0 139 0 0 139 0 0 139 0 0 139 0 0 139 0 0 139 0 0 139 0 0 143 7 8 143 7 8 146 11 12 147 13 14 147 13 14 147 13 14 151 19 20 153 23 24 158 30 32 158 30 32 158 30 32 153 23 24 151 19 20 150 17 18 150 17 18 147 13 14 147 13 14 147 13 14 146 11 12 146 11 12 146 11 12 147 13 14 147 13 14 147 13 14 147 13 14 147 13 14 150 17 18 147 13 14 146 11 12 146 11 12 146 11 12 146 11 12 147 13 14 153 23 24 168 46 49 174 56 59 180 65 69 183 69 73 179 63 67 174 56 59 159 32 34 155 25 26 151 19 20 146 11 12 146 11 12 145 9 10 145 9 10 145 9 10 146 11 12 151 19 20 158 30 32 157 29 30 155 25 26 157 29 30 
139 0 0 139 0 0 139 0 0 139 0 0 139 0 0 139 0 0 139 0 0 139 0 0 139 0 0 139 0 0 139 0 0 139 0 0 139 0 0 139 0 0 139 0 0 139 0 0 139 0 0 139 0 0 139 0 0 139 0 0 139 0 0 139 0 0 139 0 0 139 0 0 139 0 0 139 0 0 139 0 0 139 0 0 139 0 0 139 0 0 139 0 0 139 0 0 139 0 0 139 0 0 139 0 0 139 0 0 139 0 0 139 0 0 139 0 0 139 0 0 139 0 0 139 0 0 139 0 0 139 0 0 139 0 0 139 0 0 139 0 0 139 0 0 139 0 0 139 0 0 139 0 0 139 0 0 139 0 0 139 0 0 139 0 0 139 0 0 139 0 0 139 0 0 139 0 0 139 0 0 139 0 0 139 0 0 139 0 0 139 0 0 139 0 0 139 0 0 139 0 0 139 0 0 139 0 0 139 0 0 139 0 0 139 0 0 139 0 0 139 0 0 139 0 0 139 0 0 139 0 0 139 0 0 139 0 0 139 0 0 139 0 0 139 0 0 139 0 0 139 0 0 139 0 0 139 0 0 139 0 0 139 0 0 139 0 0 139 0 0 139 0 0 139 0 0 139 0 0 139 0 0 139 0 0 139 0 0 139 0 0 139 0 0 139 0 0 139 0 0 139 0 0 139 0 0 139 0 0 139 0 0 139 0 0 139 0 0 139 0 0 139 0 0 139 0 0 139 0 0 139 0 0 139 0 0 139 0 0 139 0 0 139 0 0 139 0 0 139 0 0 139 0 0 139 0 0 139 0 0 139 0 0 139 0 0 139 0 0 139 0 0 139 0 0 139 0 0 139 0 0 139 0 0 139 0 0 139 0 0 139 0 0 139 0 0 139 0 0 139 0 0 139 0 0 139 0 0 139 0 0 139 0 0 139 0 0 139 0 0 139 0 0 139 0 0 139 0 0 139 0 0 139 0 0 139 0 0 139 0 0 139 0 0 139 0 0 139 0 0 139 0 0 139 0 0 139 0 0 139 0 0 139 0 0 139 0 0 139 0 0 139 0 0 139 0 0 139 0 0 139 0 0 139 0 0 139 0 0 139 0 0 139 0 0 139 0 0 143 7 8 143 7 8 146 11 12 147 13 14 147 13 14 147 13 14 151 19 20 153 23 24 158 30 32 158 30 32 158 30 32 153 23 24 151 19 20 150 17 18 150 17 18 147 13 14 147 13 14 147 13 14 146 11 12 146 11 12 146 11 12 147 13 14 147 13 14 147 13 14 147 13 14 147 13 14 150 17 18 147 13 14 146 11 12 146 11 12 146 11 12 146 11 12 147 13 14 153 23 24 168 46 49 174 56 59 180 65 69 183 69 73 179 63 67 174 56 59 159 32 34 155 25 26 151 19 20 146 11 12 146 11 12 145 9 10 145 9 10 145 9 10 146 11 12 151 19 20 158 30 32 157 29 30 155 25 26 157 29 30 
139 0 0 139 0 0 139 0 0 139 0 0 139 0 0 139 0 0 139 0 0 139 0 0 139 0 0 139 0 0 139 0 0 139 0 0 139 0 0 139 0 0 139 0 0 139 0 0 139 0 0 139 0 0 139 0 0 139 0 0 139 0 0 139 0 0 139 0 0 139 0 0 139 0 0 139 0 0 139 0 0 139 0 0 139 0 0 139 0 0 139 0 0 139 0 0 139 0 0 139 0 0 139 0 0 139 0 0 139 0 0 139 0 0 139 0 0 139 0 0 139 0 0 139 0 0 139 0 0 139 0 0 139 0 0 139 0 0 139 0 0 139 0 0 139 0 0 139 0 0 139 0 0 139 0 0 139 0 0 139 0 0 139 0 0 139 0 0 139 0 0 139 0 0 139 0 0 139 0 0 139 0 0 139 0 0 139 0 0 139 0 0 139 0 0 139 0 0 139 0 0 139 0 0 139 0 0 139 0 0 139 0 0 139 0 0 139 0 0 139 0 0 139 0 0 139 0 0 139 0 0 139 0 0 139 0 0 139 0 0 139 0 0 139 0 0 139 0 0 139 0 0 139 0 0 139 0 0 139 0 0 139 0 0 139 0 0 139 0 0 139 0 0 139 0 0 139 0 0 139 0 0 139 0 0 139 0 0 139 0 0 139 0 0 139 0 0 139 0 0 139 0 0 139 0 0 139 0 0 139 0 0 139 0 0 139 0 0 139 0 0 139 0 0 139 0 0 139 0 0 139 0 0 139 0 0 139 0 0 139 0 0 139 0 0 139 0 0 139 0 0 139 0 0 139 0 0 139 0 0 139 0 0 139 0 0 139 0 0 139 0 0 139 0 0 139 0 0 139 0 0 139 0 0 139 0 0 139 0 0 139 0 0 139 0 0 139 0 0 139 0 0 139 0 0 139 0 0 139 0 0 139 0 0 139 0 0 139 0 0 139 0 0 139 0 0 139 0 0 139 0 0 139 0 0 139 0 0 139 0 0 139 0 0 139 0 0 139 0 0 139 0 0 139 0 0 139 0 0 139 0 0 139 0 0 139 0 0 139 0 0 139 0 0 139 0 0 139 0 0 139 0 0 139 0 0 139 0 0 139 0 0 143 7 8 143 7 8 145 9 10 146 11 12 146 11 12 147 13 14 147 13 14 150 17 18 153 23 24 157 29 30 158 30 32 158 30 32 157 29 30 151 19 20 150 17 18 147 13 14 146 11 12 146 11 12 146 11 12 146 11 12 146 11 12 146 11 12 147 13 14 150 17 18 147 13 14 146 11 12 146 11 12 146 11 12 146 11 12 146 11 12 146 11 12 146 11 12 146 11 12 147 13 14 151 19 20 155 25 26 159 32 34 169 48 51 159 32 34 155 25 26 151 19 20 150 17 18 146 11 12 145 9 10 145 9 10 145 9 10 145 9 10 145 9 10 146 11 12 147 13 14 153 23 24 155 25 26 153 23 24 153 23 24 151 19 20 150 17 18 
139 0 0 139 0 0 139 0 0 139 0 0 139 0 0 139 0 0 139 0 0 139 0 0 139 0 0 139 0 0 139 0 0 139 0 0 139 0 0 139 0 0 139 0 0 139 0 0 139 0 0 139 0 0 139 0 0 139 0 0 139 0 0 139 0 0 139 0 0 139 0 0 139 0 0 139 0 0 139 0 0 139 0 0 139 0 0 139 0 0 139 0 0 139 0 0 139 0 0 139 0 0 139 0 0 139 0 0 139 0 0 139 0 0 139 0 0 139 0 0 139 0 0 139 0 0 139 0 0 139 0 0 139 0 0 139 0 0 139 0 0 139 0 0 139 0 0 139 0 0 139 0 0 139 0 0 139 0 0 139 0 0 139 0 0 139 0 0 139 0 0 139 0 0 139 0 0 139 0 0 139 0 0 139 0 0 139 0 0 139 0 0 139 0 0 139 0 0 139 0 0 139 0 0 139 0 0 139 0 0 139 0 0 139 0 0 139 0 0 139 0 0 139 0 0 139 0 0 139 0 0 139 0 0 139 0 0 139 0 0 139 0 0 139 0 0 139 0 0 139 0 0 139 0 0 139 0 0 139 0 0 139 0 0 139 0 0 139 0 0 139 0 0 139 0 0 139 0 0 139 0 0 139 0 0 139 0 0 139 0 0 139 0 0 139 0 0 139 0 0 139 0 0 139 0 0 139 0 0 139 0 0 139 0 0 139 0 0 139 0 0 139 0 0 139 0 0 139 0 0 139 0 0 139 0 0 139 0 0 139 0 0 139 0 0 139 0 0 139 0 0 139 0 0 139 0 0 139 0 0 139 0 0 139 0 0 139 0 0 139 0 0 139 0 0 139 0 0 139 0 0 139 0 0 139 0 0 139 0 0 139 0 0 139 0 0 139 0 0 139 0 0 139 0 0 139 0 0 139 0 0 139 0 0 139 0 0 139 0 0 139 0 0 139 0 0 139 0 0 139 0 0 139 0 0 139 0 0 139 0 0 139 0 0 139 0 0 139 0 0 139 0 0 139 0 0 139 0 0 139 0 0 139 0 0 139 0 0 139 0 0 139 0 0 139 0 0 139 0 0 139 0 0 139 0 0 139 0 0 139 0 0 143 7 8 143 7 8 145 9 10 146 11 12 146 11 12 147 13 14 147 13 14 150 17 18 153 23 24 157 29 30 158 30 32 158 30 32 157 29 30 151 19 20 150 17 18 147 13 14 146 11 12 146 11 12 146 11 12 146 11 12 146 11 12 146 11 12 147 13 14 150 17 18 147 13 14 146 11 12 146 11 12 146 11 12 146 11 12 146 11 12 146 11 12 146 11 12 146 11 12 147 13 14 151 19 20 155 25 26 159 32 34 169 48 51 159 32 34 155 25 26 151 19 20 150 17 18 146 11 12 145 9 10 145 9 10 145 9 10 145 9 10 145 9 10 146 11 12 147 13 14 153 23 24 155 25 26 153 23 24 153 23 24 151 19 20 150 17 18 
139 0 0 139 0 0 139 0 0 139 0 0 139 0 0 139 0 0 139 0 0 139 0 0 139 0 0 139 0 0 139 0 0 139 0 0 139 0 0 139 0 0 139 0 0 139 0 0 139 0 0 139 0 0 139 0 0 139 0 0 139 0 0 139 0 0 139 0 0 139 0 0 139 0 0 139 0 0 139 0 0 139 0 0 139 0 0 139 0 0 139 0 0 139 0 0 139 0 0 139 0 0 139 0 0 139 0 0 139 0 0 139 0 0 139 0 0 139 0 0 139 0 0 139 0 0 139 0 0 139 0 0 139 0 0 139 0 0 139 0 0 139 0 0 139 0 0 139 0 0 139 0 0 139 0 0 139 0 0 139 0 0 139 0 0 139 0 0 139 0 0 139 0 0 139 0 0 139 0 0 139 0 0 139 0 0 139 0 0 139 0 0 139 0 0 139 0 0 139 0 0 139 0 0 139 0 0 139 0 0 139 0 0 139 0 0 139 0 0 139 0 0 139 0 0 139 0 0 139 0 0 139 0 0 139 0 0 139 0 0 139 0 0 139 0 0 139 0 0 139 0 0 139 0 0 139 0 0 139 0 0 139 0 0 139 0 0 139 0 0 139 0 0 139 0 0 139 0 0 139 0 0 139 0 0 139 0 0 139 0 0 139 0 0 139 0 0 139 0 0 139 0 0 139 0 0 139 0 0 139 0 0 139 0 0 139 0 0 139 0 0 139 0 0 139 0 0 139 0 0 139 0 0 139 0 0 139 0 0 139 0 0 139 0 0 139 0 0 139 0 0 139 0 0 139 0 0 139 0 0 139 0 0 139 0 0 139 0 0 139 0 0 139 0 0 139 0 0 139 0 0 139 0 0 139 0 0 139 0 0 139 0 0 139 0 0 139 0 0 139 0 0 139 0 0 139 0 0 139 0 0 139 0 0 139 0 0 139 0 0 139 0 0 139 0 0 139 0 0 139 0 0 139 0 0 139 0 0 139 0 0 139 0 0 139 0 0 139 0 0 139 0 0 139 0 0 139 0 0 139 0 0 139 0 0 139 0 0 139 0 0 139 0 0 139 0 0 139 0 0 139 0 0 139 0 0 139 0 0 139 0 0 143 7 8 145 9 10 146 11 12 147 13 14 147 13 14 150 17 18 151 19 20 150 17 18 150 17 18 150 17 18 150 17 18 150 17 18 147 13 14 146 11 12 147 13 14 147 13 14 147 13 14 147 13 14 147 13 14 146 11 12 147 13 14 146 11 12 147 13 14 147 13 14 147 13 14 147 13 14 146 11 12 146 11 12 147 13 14 147 13 14 147 13 14 150 17 18 155 25 26 159 32 34 169 48 51 169 48 51 159 32 34 157 29 30 155 25 26 151 19 20 146 11 12 146 11 12 146 11 12 146 11 12 146 11 12 146 11 12 147 13 14 146 11 12 146 11 12 146 11 12 146 11 12 146 11 12 146 11 12 146 11 12 145 9 10 145 9 10 
139 0 0 139 0 0 139 0 0 139 0 0 139 0 0 139 0 0 139 0 0 139 0 0 139 0 0 139 0 0 139 0 0 139 0 0 139 0 0 139 0 0 139 0 0 139 0 0 139 0 0 139 0 0 139 0 0 139 0 0 139 0 0 139 0 0 139 0 0 139 0 0 139 0 0 139 0 0 139 0 0 139 0 0 139 0 0 139 0 0 139 0 0 139 0 0 139 0 0 139 0 0 139 0 0 139 0 0 139 0 0 139 0 0 139 0 0 139 0 0 139 0 0 139 0 0 139 0 0 139 0 0 139 0 0 139 0 0 139 0 0 139 0 0 139 0 0 139 0 0 139 0 0 139 0 0 139 0 0 139 0 0 139 0 0 139 0 0 139 0 0 139 0 0 139 0 0 139 0 0 139 0 0 139 0 0 139 0 0 139 0 0 139 0 0 139 0 0 139 0 0 139 0 0 139 0 0 139 0 0 139 0 0 139 0 0 139 0 0 139 0 0 139 0 0 139 0 0 139 0 0 139 0 0 139 0 0 139 0 0 139 0 0 139 0 0 139 0 0 139 0 0 139 0 0 139 0 0 139 0 0 139 0 0 139 0 0 139 0 0 139 0 0 139 0 0 139 0 0 139 0 0 139 0 0 139 0 0 139 0 0 139 0 0 139 0 0 139 0 0 139 0 0 139 0 0 139 0 0 139 0 0 139 0 0 139 0 0 139 0 0 139 0 0 139 0 0 139 0 0 139 0 0 139 0 0 139 0 0 139 0 0 139 0 0 139 0 0 139 0 0 139 0 0 139 0 0 139 0 0 139 0 0 139 0 0 139 0 0 139 0 0 139 0 0 139 0 0 139 0 0 139 0 0 139 0 0 139 0 0 139 0 0 139 0 0 139 0 0 139 0 0 139 0 0 139 0 0 139 0 0 139 0 0 139 0 0 139 0 0 139 0 0 139 0 0 139 0 0 139 0 0 139 0 0 139 0 0 139 0 0 139 0 0 139 0 0 139 0 0 139 0 0 139 0 0 139 0 0 139 0 0 139 0 0 139 0 0 139 0 0 139 0 0 139 0 0 139 0 0 139 0 0 139 0 0 139 0 0 139 0 0 143 7 8 145 9 10 146 11 12 147 13 14 147 13 14 150 17 18 151 19 20 150 17 18 150 17 18 150 17 18 150 17 18 150 17 18 147 13 14 146 11 12 147 13 14 147 13 14 147 13 14 147 13 14 147 13 14 146 11 12 147 13 14 146 11 12 147 13 14 147 13 14 147 13 14 147 13 14 146 11 12 146 11 12 147 13 14 147 13 14 147 13 14 150 17 18 155 25 26 159 32 34 169 48 51 169 48 51 159 32 34 157 29 30 155 25 26 151 19 20 146 11 12 146 11 12 146 11 12 146 11 12 146 11 12 146 11 12 147 13 14 146 11 12 146 11 12 146 11 12 146 11 12 146 11 12 146 11 12 146 11 12 145 9 10 145 9 10 
139 0 0 139 0 0 139 0 0 139 0 0 139 0 0 139 0 0 139 0 0 139 0 0 139 0 0 139 0 0 139 0 0 139 0 0 139 0 0 139 0 0 139 0 0 139 0 0 139 0 0 139 0 0 139 0 0 139 0 0 139 0 0 139 0 0 139 0 0 139 0 0 139 0 0 139 0 0 139 0 0 139 0 0 139 0 0 139 0 0 139 0 0 139 0 0 139 0 0 139 0 0 139 0 0 139 0 0 139 0 0 139 0 0 139 0 0 139 0 0 139 0 0 139 0 0 139 0 0 139 0 0 139 0 0 139 0 0 139 0 0 139 0 0 139 0 0 139 0 0 139 0 0 139 0 0 139 0 0 139 0 0 139 0 0 139 0 0 139 0 0 139 0 0 139 0 0 139 0 0 139 0 0 139 0 0 139 0 0 139 0 0 139 0 0 139 0 0 139 0 0 139 0 0 139 0 0 139 0 0 139 0 0 139 0 0 139 0 0 139 0 0 139 0 0 139 0 0 139 0 0 139 0 0 139 0 0 139 0 0 139 0 0 139 0 0 139 0 0 139 0 0 139 0 0 139 0 0 139 0 0 139 0 0 139 0 0 139 0 0 139 0 0 139 0 0 139 0 0 139 0 0 139 0 0 139 0 0 139 0 0 139 0 0 139 0 0 139 0 0 139 0 0 139 0 0 139 0 0 139 0 0 139 0 0 139 0 0 139 0 0 139 0 0 139 0 0 139 0 0 139 0 0 139 0 0 139 0 0 139 0 0 139 0 0 139 0 0 139 0 0 139 0 0 139 0 0 139 0 0 139 0 0 139 0 0 139 0 0 139 0 0 139 0 0 139 0 0 139 0 0 139 0 0 139 0 0 139 0 0 139 0 0 139 0 0 139 0 0 139 0 0 139 0 0 139 0 0 139 0 0 139 0 0 139 0 0 139 0 0 139 0 0 139 0 0 139 0 0 139 0 0 139 0 0 139 0 0 139 0 0 139 0 0 139 0 0 139 0 0 139 0 0 139 0 0 139 0 0 139 0 0 139 0 0 139 0 0 139 0 0 139 0 0 139 0 0 139 0 0 139 0 0 139 0 0 139 0 0 143 7 8 145 9 10 146 11 12 147 13 14 151 19 20 151 19 20 150 17 18 150 17 18 147 13 14 147 13 14 146 11 12 146 11 12 146 11 12 146 11 12 147 13 14 147 13 14 147 13 14 150 17 18 147 13 14 147 13 14 147 13 14 147 13 14 147 13 14 147 13 14 147 13 14 147 13 14 146 11 12 146 11 12 147 13 14 146 11 12 146 11 12 147 13 14 151 19 20 155 25 26 157 29 30 157 29 30 155 25 26 151 19 20 147 13 14 146 11 12 146 11 12 146 11 12 146 11 12 146 11 12 145 9 10 146 11 12 147 13 14 151 19 20 151 19 20 147 13 14 145 9 10 146 11 12 146 11 12 146 11 12 146 11 12 146 11 12 146 11 12 
139 0 0 139 0 0 139 0 0 139 0 0 139 0 0 139 0 0 139 0 0 139 0 0 139 0 0 139 0 0 139 0 0 139 0 0 139 0 0 139 0 0 139 0 0 139 0 0 139 0 0 139 0 0 139 0 0 139 0 0 139 0 0 139 0 0 139 0 0 139 0 0 139 0 0 139 0 0 139 0 0 139 0 0 139 0 0 139 0 0 139 0 0 139 0 0 139 0 0 139 0 0 139 0 0 139 0 0 139 0 0 139 0 0 139 0 0 139 0 0 139 0 0 139 0 0 139 0 0 139 0 0 139 0 0 139 0 0 139 0 0 139 0 0 139 0 0 139 0 0 139 0 0 139 0 0 139 0 0 139 0 0 139 0 0 139 0 0 139 0 0 139 0 0 139 0 0 139 0 0 139 0 0 139 0 0 139 0 0 139 0 0 139 0 0 139 0 0 139 0 0 139 0 0 139 0 0 139 0 0 139 0 0 139 0 0 139 0 0 139 0 0 139 0 0 139 0 0 139 0 0 139 0 0 139 0 0 139 0 0 139 0 0 139 0 0 139 0 0 139 0 0 139 0 0 139 0 0 139 0 0 139 0 0 139 0 0 139 0 0 139 0 0 139 0 0 139 0 0 139 0 0 139 0 0 139 0 0 139 0 0 139 0 0 139 0 0 139 0 0 139 0 0 139 0 0 139 0 0 139 0 0 139 0 0 139 0 0 139 0 0 139 0 0 139 0 0 139 0 0 139 0 0 139 0 0 139 0 0 139 0 0 139 0 0 139 0 0 139 0 0 139 0 0 139 0 0 139 0 0 139 0 0 139 0 0 139 0 0 139 0 0 139 0 0 139 0 0 139 0 0 139 0 0 139 0 0 139 0 0 139 0 0 139 0 0 139 0 0 139 0 0 139 0 0 139 0 0 139 0 0 139 0 0 139 0 0 139 0 0 139 0 0 139 0 0 139 0 0 139 0 0 139 0 0 139 0 0 139 0 0 139 0 0 139 0 0 139 0 0 139 0 0 139 0 0 139 0 0 139 0 0 139 0 0 139 0 0 139 0 0 139 0 0 139 0 0 139 0 0 139 0 0 139 0 0 139 0 0 143 7 8 145 9 10 146 11 12 147 13 14 151 19 20 151 19 20 150 17 18 150 17 18 147 13 14 147 13 14 146 11 12 146 11 12 146 11 12 146 11 12 147 13 14 147 13 14 147 13 14 150 17 18 147 13 14 147 13 14 147 13 14 147 13 14 147 13 14 147 13 14 147 13 14 147 13 14 146 11 12 146 11 12 147 13 14 146 11 12 146 11 12 147 13 14 151 19 20 155 25 26 157 29 30 157 29 30 155 25 26 151 19 20 147 13 14 146 11 12 146 11 12 146 11 12 146 11 12 146 11 12 145 9 10 146 11 12 147 13 14 151 19 20 151 19 20 147 13 14 145 9 10 146 11 12 146 11 12 146 11 12 146 11 12 146 11 12 146 11 12 
139 0 0 139 0 0 139 0 0 139 0 0 139 0 0 139 0 0 139 0 0 139 0 0 139 0 0 139 0 0 139 0 0 139 0 0 139 0 0 139 0 0 139 0 0 139 0 0 139 0 0 139 0 0 139 0 0 139 0 0 139 0 0 139 0 0 139 0 0 139 0 0 139 0 0 139 0 0 139 0 0 139 0 0 139 0 0 139 0 0 139 0 0 139 0 0 139 0 0 139 0 0 139 0 0 139 0 0 139 0 0 139 0 0 139 0 0 139 0 0 139 0 0 139 0 0 139 0 0 139 0 0 139 0 0 139 0 0 139 0 0 139 0 0 139 0 0 139 0 0 139 0 0 139 0 0 139 0 0 139 0 0 139 0 0 139 0 0 139 0 0 139 0 0 139 0 0 139 0 0 139 0 0 139 0 0 139 0 0 139 0 0 139 0 0 139 0 0 139 0 0 139 0 0 139 0 0 139 0 0 139 0 0 139 0 0 139 0 0 139 0 0 139 0 0 139 0 0 139 0 0 139 0 0 139 0 0 139 0 0 139 0 0 139 0 0 139 0 0 139 0 0 139 0 0 139 0 0 139 0 0 139 0 0 139 0 0 139 0 0 139 0 0 139 0 0 139 0 0 139 0 0 139 0 0 139 0 0 139 0 0 139 0 0 139 0 0 139 0 0 139 0 0 139 0 0 139 0 0 139 0 0 139 0 0 139 0 0 139 0 0 139 0 0 139 0 0 139 0 0 139 0 0 139 0 0 139 0 0 139 0 0 139 0 0 139 0 0 139 0 0 139 0 0 139 0 0 139 0 0 139 0 0 139 0 0 139 0 0 139 0 0 139 0 0 139 0 0 139 0 0 139 0 0 139 0 0 139 0 0 139 0 0 139 0 0 139 0 0 139 0 0 139 0 0 139 0 0 139 0 0 139 0 0 139 0 0 139 0 0 139 0 0 139 0 0 139 0 0 139 0 0 139 0 0 139 0 0 139 0 0 139 0 0 139 0 0 139 0 0 139 0 0 139 0 0 139 0 0 139 0 0 139 0 0 139 0 0 139 0 0 139 0 0 139 0 0 139 0 0 139 0 0 139 0 0 143 7 8 145 9 10 146 11 12 150 17 18 151 19 20 153 23 24 155 25 26 153 23 24 150 17 18 147 13 14 146 11 12 147 13 14 146 11 12 146 11 12 147 13 14 147 13 14 147 13 14 147 13 14 147 13 14 147 13 14 147 13 14 147 13 14 147 13 14 147 13 14 147 13 14 150 17 18 153 23 24 153 23 24 150 17 18 146 11 12 146 11 12 146 11 12 147 13 14 153 23 24 155 25 26 153 23 24 150 17 18 147 13 14 146 11 12 146 11 12 146 11 12 146 11 12 146 11 12 146 11 12 146 11 12 146 11 12 146 11 12 147 13 14 151 19 20 155 25 26 155 25 26 150 17 18 151 19 20 153 23 24 153 23 24 151 19 20 150 17 18 147 13 14 
139 0 0 139 0 0 139 0 0 139 0 0 139 0 0 139 0 0 139 0 0 139 0 0 139 0 0 139 0 0 139 0 0 139 0 0 139 0 0 139 0 0 139 0 0 139 0 0 139 0 0 139 0 0 139 0 0 139 0 0 139 0 0 139 0 0 139 0 0 139 0 0 139 0 0 139 0 0 139 0 0 139 0 0 139 0 0 139 0 0 139 0 0 139 0 0 139 0 0 139 0 0 139 0 0 139 0 0 139 0 0 139 0 0 139 0 0 139 0 0 139 0 0 139 0 0 139 0 0 139 0 0 139 0 0 139 0 0 139 0 0 139 0 0 139 0 0 139 0 0 139 0 0 139 0 0 139 0 0 139 0 0 139 0 0 139 0 0 139 0 0 139 0 0 139 0 0 139 0 0 139 0 0 139 0 0 139 0 0 139 0 0 139 0 0 139 0 0 139 0 0 139 0 0 139 0 0 139 0 0 139 0 0 139 0 0 139 0 0 139 0 0 139 0 0 139 0 0 139 0 0 139 0 0 139 0 0 139 0 0 139 0 0 139 0 0 139 0 0 139 0 0 139 0 0 139 0 0 139 0 0 139 0 0 139 0 0 139 0 0 139 0 0 139 0 0 139 0 0 139 0 0 139 0 0 139 0 0 139 0 0 139 0 0 139 0 0 139 0 0 139 0 0 139 0 0 139 0 0 139 0 0 139 0 0 139 0 0 139 0 0 139 0 0 139 0 0 139 0 0 139 0 0 139 0 0 139 0 0 139 0 0 139 0 0 139 0 0 139 0 0 139 0 0 139 0 0 139 0 0 139 0 0 139 0 0 139 0 0 139 0 0 139 0 0 139 0 0 139 0 0 139 0 0 139 0 0 139 0 0 139 0 0 139 0 0 139 0 0 139 0 0 139 0 0 139 0 0 139 0 0 139 0 0 139 0 0 139 0 0 139 0 0 139 0 0 139 0 0 139 0 0 139 0 0 139 0 0 139 0 0 139 0 0 139 0 0 139 0 0 139 0 0 139 0 0 139 0 0 139 0 0 139 0 0 139 0 0 139 0 0 139 0 0 139 0 0 139 0 0 139 0 0 139 0 0 143 7 8 145 9 10 146 11 12 150 17 18 151 19 20 153 23 24 155 25 26 153 23 24 150 17 18 147 13 14 146 11 12 147 13 14 146 11 12 146 11 12 147 13 14 147 13 14 147 13 14 147 13 14 147 13 14 147 13 14 147 13 14 147 13 14 147 13 14 147 13 14 147 13 14 150 17 18 153 23 24 153 23 24 150 17 18 146 11 12 146 11 12 146 11 12 147 13 14 153 23 24 155 25 26 153 23 24 150 17 18 147 13 14 146 11 12 146 11 12 146 11 12 146 11 12 146 11 12 146 11 12 146 11 12 146 11 12 146 11 12 147 13 14 151 19 20 155 25 26 155 25 26 150 17 18 151 19 20 153 23 24 153 23 24 151 19 20 150 17 18 147 13 14 
139 0 0 139 0 0 139 0 0 139 0 0 139 0 0 139 0 0 139 0 0 139 0 0 139 0 0 139 0 0 139 0 0 139 0 0 139 0 0 139 0 0 139 0 0 139 0 0 139 0 0 139 0 0 139 0 0 139 0 0 139 0 0 139 0 0 139 0 0 139 0 0 139 0 0 139 0 0 139 0 0 139 0 0 139 0 0 139 0 0 139 0 0 139 0 0 139 0 0 139 0 0 139 0 0 139 0 0 139 0 0 143 7 8 139 0 0 139 0 0 139 0 0 139 0 0 139 0 0 139 0 0 139 0 0 139 0 0 139 0 0 139 0 0 139 0 0 139 0 0 139 0 0 139 0 0 139 0 0 139 0 0 139 0 0 139 0 0 139 0 0 139 0 0 139 0 0 139 0 0 139 0 0 139 0 0 139 0 0 139 0 0 139 0 0 139 0 0 139 0 0 139 0 0 139 0 0 139 0 0 139 0 0 139 0 0 139 0 0 139 0 0 139 0 0 139 0 0 139 0 0 139 0 0 139 0 0 139 0 0 139 0 0 139 0 0 139 0 0 139 0 0 139 0 0 139 0 0 139 0 0 139 0 0 139 0 0 139 0 0 139 0 0 139 0 0 139 0 0 139 0 0 139 0 0 139 0 0 139 0 0 139 0 0 139 0 0 139 0 0 139 0 0 139 0 0 139 0 0 139 0 0 139 0 0 139 0 0 139 0 0 139 0 0 139 0 0 139 0 0 139 0 0 139 0 0 139 0 0 139 0 0 139 0 0 139 0 0 139 0 0 139 0 0 139 0 0 139 0 0 139 0 0 139 0 0 139 0 0 139 0 0 139 0 0 139 0 0 139 0 0 139 0 0 139 0 0 139 0 0 139 0 0 139 0 0 139 0 0 139 0 0 139 0 0 139 0 0 139 0 0 139 0 0 139 0 0 139 0 0 139 0 0 139 0 0 139 0 0 139 0 0 139 0 0 139 0 0 139 0 0 139 0 0 139 0 0 139 0 0 139 0 0 139 0 0 139 0 0 139 0 0 139 0 0 139 0 0 139 0 0 139 0 0 139 0 0 139 0 0 139 0 0 139 0 0 143 7 8 146 11 12 150 17 18 153 23 24 157 29 30 157 29 30 155 25 26 151 19 20 151 19 20 147 13 14 147 13 14 146 11 12 147 13 14 147 13 14 147 13 14 147 13 14 147 13 14 147 13 14 147 13 14 147 13 14 147 13 14 147 13 14 147 13 14 150 17 18 151 19 20 155 25 26 158 30 32 159 32 34 153 23 24 147 13 14 147 13 14 150 17 18 150 17 18 150 17 18 147 13 14 146 11 12 146 11 12 146 11 12 146 11 12 146 11 12 146 11 12 146 11 12 146 11 12 146 11 12 145 9 10 145 9 10 146 11 12 146 11 12 146 11 12 147 13 14 146 11 12 147 13 14 153 23 24 157 29 30 153 23 24 151 19 20 150 17 18 153 23 24 
139 0 0 139 0 0 139 0 0 139 0 0 139 0 0 139 0 0 139 0 0 139 0 0 139 0 0 139 0 0 139 0 0 139 0 0 139 0 0 139 0 0 139 0 0 139 0 0 139 0 0 139 0 0 139 0 0 139 0 0 139 0 0 139 0 0 139 0 0 139 0 0 139 0 0 139 0 0 139 0 0 139 0 0 139 0 0 139 0 0 139 0 0 139 0 0 139 0 0 139 0 0 139 0 0 139 0 0 139 0 0 143 7 8 139 0 0 139 0 0 139 0 0 139 0 0 139 0 0 139 0 0 139 0 0 139 0 0 139 0 0 139 0 0 139 0 0 139 0 0 139 0 0 139 0 0 139 0 0 139 0 0 139 0 0 139 0 0 139 0 0 139 0 0 139 0 0 139 0 0 139 0 0 139 0 0 139 0 0 139 0 0 139 0 0 139 0 0 139 0 0 139 0 0 139 0 0 139 0 0 139 0 0 139 0 0 139 0 0 139 0 0 139 0 0 139 0 0 139 0 0 139 0 0 139 0 0 139 0 0 139 0 0 139 0 0 139 0 0 139 0 0 139 0 0 139 0 0 139 0 0 139 0 0 139 0 0 139 0 0 139 0 0 139 0 0 139 0 0 139 0 0 139 0 0 139 0 0 139 0 0 139 0 0 139 0 0 139 0 0 139 0 0 139 0 0 139 0 0 139 0 0 139 0 0 139 0 0 139 0 0 139 0 0 139 0 0 139 0 0 139 0 0 139 0 0 139 0 0 139 0 0 139 0 0 139 0 0 139 0 0 139 0 0 139 0 0 139 0 0 139 0 0 139 0 0 139 0 0 139 0 0 139 0 0 139 0 0 139 0 0 139 0 0 139 0 0 139 0 0 139 0 0 139 0 0 139 0 0 139 0 0 139 0 0 139 0 0 139 0 0 139 0 0 139 0 0 139 0 0 139 0 0 139 0 0 139 0 0 139 0 0 139 0 0 139 0 0 139 0 0 139 0 0 139 0 0 139 0 0 139 0 0 139 0 0 139 0 0 139 0 0 139 0 0 139 0 0 139 0 0 139 0 0 139 0 0 139 0 0 139 0 0 139 0 0 143 7 8 146 11 12 150 17 18 153 23 24 157 29 30 157 29 30 155 25 26 151 19 20 151 19 20 147 13 14 147 13 14 146 11 12 147 13 14 147 13 14 147 13 14 147 13 14 147 13 14 147 13 14 147 13 14 147 13 14 147 13 14 147 13 14 147 13 14 150 17 18 151 19 20 155 25 26 158 30 32 159 32 34 153 23 24 147 13 14 147 13 14 150 17 18 150 17 18 150 17 18 147 13 14 146 11 12 146 11 12 146 11 12 146 11 12 146 11 12 146 11 12 146 11 12 146 11 12 146 11 12 145 9 10 145 9 10 146 11 12 146 11 12 146 11 12 147 13 14 146 11 12 147 13 14 153 23 24 157 29 30 153 23 24 151 19 20 150 17 18 153 23 24 
139 0 0 139 0 0 139 0 0 139 0 0 139 0 0 139 0 0 139 0 0 139 0 0 139 0 0 139 0 0 139 0 0 139 0 0 139 0 0 139 0 0 139 0 0 139 0 0 139 0 0 139 0 0 139 0 0 139 0 0 139 0 0 139 0 0 139 0 0 139 0 0 139 0 0 139 0 0 139 0 0 139 0 0 139 0 0 139 0 0 139 0 0 139 0 0 139 0 0 139 0 0 139 0 0 139 0 0 139 0 0 139 0 0 139 0 0 139 0 0 139 0 0 139 0 0 139 0 0 139 0 0 139 0 0 139 0 0 139 0 0 139 0 0 139 0 0 139 0 0 139 0 0 139 0 0 139 0 0 139 0 0 139 0 0 139 0 0 139 0 0 139 0 0 139 0 0 139 0 0 139 0 0 139 0 0 139 0 0 139 0 0 139 0 0 139 0 0 139 0 0 139 0 0 139 0 0 139 0 0 139 0 0 139 0 0 139 0 0 139 0 0 139 0 0 139 0 0 139 0 0 139 0 0 139 0 0 139 0 0 139 0 0 139 0 0 139 0 0 139 0 0 139 0 0 139 0 0 139 0 0 139 0 0 139 0 0 139 0 0 139 0 0 139 0 0 139 0 0 139 0 0 139 0 0 139 0 0 139 0 0 139 0 0 139 0 0 139 0 0 139 0 0 139 0 0 139 0 0 139 0 0 139 0 0 139 0 0 139 0 0 139 0 0 139 0 0 139 0 0 139 0 0 139 0 0 139 0 0 139 0 0 139 0 0 139 0 0 139 0 0 139 0 0 139 0 0 139 0 0 139 0 0 139 0 0 139 0 0 139 0 0 139 0 0 139 0 0 139 0 0 139 0 0 139 0 0 139 0 0 139 0 0 139 0 0 139 0 0 139 0 0 139 0 0 139 0 0 139 0 0 139 0 0 139 0 0 139 0 0 139 0 0 139 0 0 139 0 0 139 0 0 139 0 0 139 0 0 139 0 0 139 0 0 139 0 0 139 0 0 139 0 0 139 0 0 139 0 0 139 0 0 139 0 0 139 0 0 139 0 0 139 0 0 139 0 0 139 0 0 139 0 0 143 7 8 145 9 10 147 13 14 151 19 20 157 29 30 155 25 26 153 23 24 151 19 20 150 17 18 150 17 18 150 17 18 150 17 18 151 19 20 151 19 20 151 19 20 150 17 18 150 17 18 150 17 18 150 17 18 147 13 14 147 13 14 147 13 14 147 13 14 150 17 18 153 23 24 151 19 20 151 19 20 151 19 20 150 17 18 147 13 14 150 17 18 150 17 18 151 19 20 155 25 26 153 23 24 150 17 18 146 11 12 146 11 12 146 11 12 146 11 12 146 11 12 146 11 12 146 11 12 146 11 12 146 11 12 146 11 12 146 11 12 146 11 12 146 11 12 150 17 18 150 17 18 147 13 14 146 11 12 146 11 12 150 17 18 151 19 20 151 19 20 153 23 24 151 19 20 
139 0 0 139 0 0 139 0 0 139 0 0 139 0 0 139 0 0 139 0 0 139 0 0 139 0 0 139 0 0 139 0 0 139 0 0 139 0 0 139 0 0 139 0 0 139 0 0 139 0 0 139 0 0 139 0 0 139 0 0 139 0 0 139 0 0 139 0 0 139 0 0 139 0 0 139 0 0 139 0 0 139 0 0 139 0 0 139 0 0 139 0 0 139 0 0 139 0 0 139 0 0 139 0 0 139 0 0 139 0 0 139 0 0 139 0 0 139 0 0 139 0 0 139 0 0 139 0 0 139 0 0 139 0 0 139 0 0 139 0 0 139 0 0 139 0 0 139 0 0 139 0 0 139 0 0 139 0 0 139 0 0 139 0 0 139 0 0 139 0 0 139 0 0 139 0 0 139 0 0 139 0 0 139 0 0 139 0 0 139 0 0 139 0 0 139 0 0 139 0 0 139 0 0 139 0 0 139 0 0 139 0 0 139 0 0 139 0 0 139 0 0 139 0 0 139 0 0 139 0 0 139 0 0 139 0 0 139 0 0 139 0 0 139 0 0 139 0 0 139 0 0 139 0 0 139 0 0 139 0 0 139 0 0 139 0 0 139 0 0 139 0 0 139 0 0 139 0 0 139 0 0 139 0 0 139 0 0 139 0 0 139 0 0 139 0 0 139 0 0 139 0 0 139 0 0 139 0 0 139 0 0 139 0 0 139 0 0 139 0 0 139 0 0 139 0 0 139 0 0 139 0 0 139 0 0 139 0 0 139 0 0 139 0 0 139 0 0 139 0 0 139 0 0 139 0 0 139 0 0 139 0 0 139 0 0 139 0 0 139 0 0 139 0 0 139 0 0 139 0 0 139 0 0 139 0 0 139 0 0 139 0 0 139 0 0 139 0 0 139 0 0 139 0 0 139 0 0 139 0 0 139 0 0 139 0 0 139 0 0 139 0 0 139 0 0 139 0 0 139 0 0 139 0 0 139 0 0 139 0 0 139 0 0 139 0 0 139 0 0 139 0 0 139 0 0 139 0 0 139 0 0 139 0 0 139 0 0 139 0 0 139 0 0 139 0 0 139 0 0 139 0 0 143 7 8 145 9 10 147 13 14 151 19 20 157 29 30 155 25 26 153 23 24 151 19 20 150 17 18 150 17 18 150 17 18 150 17 18 151 19 20 151 19 20 151 19 20 150 17 18 150 17 18 150 17 18 150 17 18 147 13 14 147 13 14 147 13 14 147 13 14 150 17 18 153 23 24 151 19 20 151 19 20 151 19 20 150 17 18 147 13 14 150 17 18 150 17 18 151 19 20 155 25 26 153 23 24 150 17 18 146 11 12 146 11 12 146 11 12 146 11 12 146 11 12 146 11 12 146 11 12 146 11 12 146 11 12 146 11 12 146 11 12 146 11 12 146 11 12 150 17 18 150 17 18 147 13 14 146 11 12 146 11 12 150 17 18 151 19 20 151 19 20 153 23 24 151 19 20 
139 0 0 139 0 0 139 0 0 139 0 0 139 0 0 143 7 8 139 0 0 139 0 0 139 0 0 139 0 0 139 0 0 139 0 0 139 0 0 139 0 0 139 0 0 139 0 0 139 0 0 139 0 0 139 0 0 139 0 0 139 0 0 139 0 0 139 0 0 139 0 0 139 0 0 139 0 0 139 0 0 139 0 0 139 0 0 139 0 0 139 0 0 139 0 0 139 0 0 139 0 0 139 0 0 139 0 0 139 0 0 139 0 0 139 0 0 139 0 0 139 0 0 139 0 0 139 0 0 139 0 0 139 0 0 139 0 0 139 0 0 139 0 0 139 0 0 139 0 0 139 0 0 139 0 0 139 0 0 139 0 0 139 0 0 139 0 0 139 0 0 139 0 0 139 0 0 139 0 0 139 0 0 139 0 0 139 0 0 139 0 0 139 0 0 139 0 0 139 0 0 139 0 0 139 0 0 139 0 0 139 0 0 139 0 0 139 0 0 139 0 0 139 0 0 139 0 0 139 0 0 139 0 0 139 0 0 139 0 0 139 0 0 139 0 0 139 0 0 139 0 0 139 0 0 139 0 0 139 0 0 139 0 0 139 0 0 139 0 0 139 0 0 139 0 0 139 0 0 139 0 0 139 0 0 139 0 0 139 0 0 139 0 0 139 0 0 139 0 0 139 0 0 139 0 0 139 0 0 139 0 0 139 0 0 139 0 0 139 0 0 139 0 0 139 0 0 139 0 0 139 0 0 139 0 0 139 0 0 139 0 0 139 0 0 139 0 0 139 0 0 139 0 0 139 0 0 139 0 0 139 0 0 139 0 0 139 0 0 139 0 0 139 0 0 139 0 0 139 0 0 139 0 0 139 0 0 139 0 0 139 0 0 139 0 0 139 0 0 139 0 0 139 0 0 139 0 0 139 0 0 139 0 0 139 0 0 139 0 0 139 0 0 139 0 0 139 0 0 139 0 0 139 0 0 139 0 0 139 0 0 139 0 0 139 0 0 139 0 0 139 0 0 139 0 0 139 0 0 139 0 0 139 0 0 139 0 0 139 0 0 139 0 0 139 0 0 139 0 0 143 7 8 145 9 10 147 13 14 150 17 18 153 23 24 153 23 24 151 19 20 151 19 20 147 13 14 150 17 18 150 17 18 151 19 20 153 23 24 153 23 24 155 25 26 153 23 24 153 23 24 151 19 20 150 17 18 147 13 14 147 13 14 147 13 14 146 11 12 147 13 14 147 13 14 147 13 14 147 13 14 147 13 14 147 13 14 147 13 14 146 11 12 147 13 14 150 17 18 153 23 24 157 29 30 153 23 24 147 13 14 147 13 14 146 11 12 146 11 12 146 11 12 146 11 12 145 9 10 146 11 12 147 13 14 151 19 20 155 25 26 155 25 26 169 48 51 179 63 67 180 65 69 169 48 51 159 32 34 153 23 24 147 13 14 145 9 10 146 11 12 146 11 12 150 17 18 147 13 14 
139 0 0 139 0 0 139 0 0 139 0 0 139 0 0 143 7 8 139 0 0 139 0 0 139 0 0 139 0 0 139 0 0 139 0 0 139 0 0 139 0 0 139 0 0 139 0 0 139 0 0 139 0 0 139 0 0 139 0 0 139 0 0 139 0 0 139 0 0 139 0 0 139 0 0 139 0 0 139 0 0 139 0 0 139 0 0 139 0 0 139 0 0 139 0 0 139 0 0 139 0 0 139 0 0 139 0 0 139 0 0 139 0 0 139 0 0 139 0 0 139 0 0 139 0 0 139 0 0 139 0 0 139 0 0 139 0 0 139 0 0 139 0 0 139 0 0 139 0 0 139 0 0 139 0 0 139 0 0 139 0 0 139 0 0 139 0 0 139 0 0 139 0 0 139 0 0 139 0 0 139 0 0 139 0 0 139 0 0 139 0 0 139 0 0 139 0 0 139 0 0 139 0 0 139 0 0 139 0 0 139 0 0 139 0 0 139 0 0 139 0 0 139 0 0 139 0 0 139 0 0 139 0 0 139 0 0 139 0 0 139 0 0 139 0 0 139 0 0 139 0 0 139 0 0 139 0 0 139 0 0 139 0 0 139 0 0 139 0 0 139 0 0 139 0 0 139 0 0 139 0 0 139 0 0 139 0 0 139 0 0 139 0 0 139 0 0 139 0 0 139 0 0 139 0 0 139 0 0 139 0 0 139 0 0 139 0 0 139 0 0 139 0 0 139 0 0 139 0 0 139 0 0 139 0 0 139 0 0 139 0 0 139 0 0 139 0 0 139 0 0 139 0 0 139 0 0 139 0 0 139 0 0 139 0 0 139 0 0 139 0 0 139 0 0 139 0 0 139 0 0 139 0 0 139 0 0 139 0 0 139 0 0 139 0 0 139 0 0 139 0 0 139 0 0 139 0 0 139 0 0 139 0 0 139 0 0 139 0 0 139 0 0 139 0 0 139 0 0 139 0 0 139 0 0 139 0 0 139 0 0 139 0 0 139 0 0 139 0 0 139 0 0 139 0 0 139 0 0 139 0 0 139 0 0 139 0 0 139 0 0 139 0 0 139 0 0 139 0 0 143 7 8 145 9 10 147 13 14 150 17 18 153 23 24 153 23 24 151 19 20 151 19 20 147 13 14 150 17 18 150 17 18 151 19 20 153 23 24 153 23 24 155 25 26 153 23 24 153 23 24 151 19 20 150 17 18 147 13 14 147 13 14 147 13 14 146 11 12 147 13 14 147 13 14 147 13 14 147 13 14 147 13 14 147 13 14 147 13 14 146 11 12 147 13 14 150 17 18 153 23 24 157 29 30 153 23 24 147 13 14 147 13 14 146 11 12 146 11 12 146 11 12 146 11 12 145 9 10 146 11 12 147 13 14 151 19 20 155 25 26 155 25 26 169 48 51 179 63 67 180 65 69 169 48 51 159 32 34 153 23 24 147 13 14 145 9 10 146 11 12 146 11 12 150 17 18 147 13 14 
139 0 0 139 0 0 139 0 0 139 0 0 139 0 0 139 0 0 139 0 0 139 0 0 139 0 0 139 0 0 139 0 0 139 0 0 139 0 0 139 0 0 139 0 0 139 0 0 139 0 0 139 0 0 139 0 0 139 0 0 139 0 0 139 0 0 139 0 0 139 0 0 139 0 0 139 0 0 139 0 0 139 0 0 139 0 0 139 0 0 139 0 0 139 0 0 139 0 0 139 0 0 139 0 0 139 0 0 139 0 0 139 0 0 139 0 0 139 0 0 139 0 0 139 0 0 139 0 0 139 0 0 139 0 0 139 0 0 139 0 0 139 0 0 139 0 0 139 0 0 139 0 0 139 0 0 139 0 0 139 0 0 139 0 0 139 0 0 139 0 0 143 7 8 139 0 0 139 0 0 139 0 0 139 0 0 139 0 0 139 0 0 139 0 0 139 0 0 139 0 0 139 0 0 139 0 0 139 0 0 139 0 0 139 0 0 139 0 0 139 0 0 139 0 0 139 0 0 139 0 0 139 0 0 139 0 0 139 0 0 139 0 0 139 0 0 139 0 0 139 0 0 139 0 0 139 0 0 139 0 0 139 0 0 139 0 0 139 0 0 139 0 0 139 0 0 139 0 0 139 0 0 139 0 0 139 0 0 139 0 0 139 0 0 139 0 0 139 0 0 139 0 0 139 0 0 139 0 0 139 0 0 139 0 0 139 0 0 139 0 0 139 0 0 139 0 0 139 0 0 139 0 0 139 0 0 139 0 0 139 0 0 139 0 0 139 0 0 139 0 0 139 0 0 139 0 0 139 0 0 139 0 0 139 0 0 139 0 0 139 0 0 139 0 0 139 0 0 139 0 0 139 0 0 139 0 0 139 0 0 139 0 0 139 0 0 139 0 0 139 0 0 139 0 0 139 0 0 139 0 0 139 0 0 139 0 0 139 0 0 139 0 0 139 0 0 139 0 0 139 0 0 139 0 0 139 0 0 139 0 0 139 0 0 139 0 0 139 0 0 139 0 0 139 0 0 139 0 0 139 0 0 139 0 0 139 0 0 139 0 0 139 0 0 143 7 8 143 7 8 145 9 10 150 17 18 151 19 20 155 25 26 157 29 30 155 25 26 151 19 20 150 17 18 147 13 14 150 17 18 151 19 20 153 23 24 158 30 32 159 32 34 159 32 34 157 29 30 153 23 24 150 17 18 147 13 14 147 13 14 147 13 14 147 13 14 147 13 14 147 13 14 147 13 14 147 13 14 147 13 14 150 17 18 150 17 18 147 13 14 146 11 12 146 11 12 147 13 14 155 25 26 158 30 32 155 25 26 147 13 14 146 11 12 146 11 12 146 11 12 146 11 12 146 11 12 145 9 10 145 9 10 146 11 12 147 13 14 151 19 20 151 19 20 153 23 24 158 30 32 157 29 30 157 29 30 153 23 24 150 17 18 146 11 12 145 9 10 145 9 10 145 9 10 146 11 12 145 9 10 
139 0 0 139 0 0 139 0 0 139 0 0 139 0 0 139 0 0 139 0 0 139 0 0 139 0 0 139 0 0 139 0 0 139 0 0 139 0 0 139 0 0 139 0 0 139 0 0 139 0 0 139 0 0 139 0 0 139 0 0 139 0 0 139 0 0 139 0 0 139 0 0 139 0 0 139 0 0 139 0 0 139 0 0 139 0 0 139 0 0 139 0 0 139 0 0 139 0 0 139 0 0 139 0 0 139 0 0 139 0 0 139 0 0 139 0 0 139 0 0 139 0 0 139 0 0 139 0 0 139 0 0 139 0 0 139 0 0 139 0 0 139 0 0 139 0 0 139 0 0 139 0 0 139 0 0 139 0 0 139 0 0 139 0 0 139 0 0 139 0 0 143 7 8 139 0 0 139 0 0 139 0 0 139 0 0 139 0 0 139 0 0 139 0 0 139 0 0 139 0 0 139 0 0 139 0 0 139 0 0 139 0 0 139 0 0 139 0 0 139 0 0 139 0 0 139 0 0 139 0 0 139 0 0 139 0 0 139 0 0 139 0 0 139 0 0 139 0 0 139 0 0 139 0 0 139 0 0 139 0 0 139 0 0 139 0 0 139 0 0 139 0 0 139 0 0 139 0 0 139 0 0 139 0 0 139 0 0 139 0 0 139 0 0 139 0 0 139 0 0 139 0 0 139 0 0 139 0 0 139 0 0 139 0 0 139 0 0 139 0 0 139 0 0 139 0 0 139 0 0 139 0 0 139 0 0 139 0 0 139 0 0 139 0 0 139 0 0 139 0 0 139 0 0 139 0 0 139 0 0 139 0 0 139 0 0 139 0 0 139 0 0 139 0 0 139 0 0 139 0 0 139 0 0 139 0 0 139 0 0 139 0 0 139 0 0 139 0 0 139 0 0 139 0 0 139 0 0 139 0 0 139 0 0 139 0 0 139 0 0 139 0 0 139 0 0 139 0 0 139 0 0 139 0 0 139 0 0 139 0 0 139 0 0 139 0 0 139 0 0 139 0 0 139 0 0 139 0 0 139 0 0 139 0 0 139 0 0 139 0 0 139 0 0 143 7 8 143 7 8 145 9 10 150 17 18 151 19 20 155 25 26 157 29 30 155 25 26 151 19 20 150 17 18 147 13 14 150 17 18 151 19 20 153 23 24 158 30 32 159 32 34 159 32 34 157 29 30 153 23 24 150 17 18 147 13 14 147 13 14 147 13 14 147 13 14 147 13 14 147 13 14 147 13 14 147 13 14 147 13 14 150 17 18 150 17 18 147 13 14 146 11 12 146 11 12 147 13 14 155 25 26 158 30 32 155 25 26 147 13 14 146 11 12 146 11 12 146 11 12 146 11 12 146 11 12 145 9 10 145 9 10 146 11 12 147 13 14 151 19 20 151 19 20 153 23 24 158 30 32 157 29 30 157 29 30 153 23 24 150 17 18 146 11 12 145 9 10 145 9 10 145 9 10 146 11 12 145 9 10 
139 0 0 139 0 0 139 0 0 139 0 0 139 0 0 139 0 0 139 0 0 139 0 0 139 0 0 139 0 0 139 0 0 139 0 0 139 0 0 139 0 0 139 0 0 139 0 0 139 0 0 139 0 0 139 0 0 139 0 0 139 0 0 139 0 0 139 0 0 139 0 0 139 0 0 139 0 0 139 0 0 139 0 0 139 0 0 139 0 0 139 0 0 139 0 0 139 0 0 139 0 0 139 0 0 139 0 0 139 0 0 139 0 0 139 0 0 139 0 0 139 0 0 139 0 0 139 0 0 139 0 0 139 0 0 139 0 0 139 0 0 139 0 0 139 0 0 139 0 0 139 0 0 139 0 0 139 0 0 139 0 0 139 0 0 139 0 0 139 0 0 139 0 0 139 0 0 139 0 0 139 0 0 139 0 0 139 0 0 139 0 0 139 0 0 139 0 0 139 0 0 139 0 0 139 0 0 139 0 0 139 0 0 139 0 0 139 0 0 139 0 0 139 0 0 139 0 0 139 0 0 139 0 0 139 0 0 139 0 0 139 0 0 139 0 0 139 0 0 139 0 0 139 0 0 139 0 0 139 0 0 139 0 0 139 0 0 139 0 0 139 0 0 139 0 0 139 0 0 139 0 0 139 0 0 139 0 0 139 0 0 139 0 0 139 0 0 139 0 0 139 0 0 139 0 0 139 0 0 139 0 0 139 0 0 139 0 0 139 0 0 139 0 0 139 0 0 139 0 0 139 0 0 139 0 0 139 0 0 139 0 0 139 0 0 139 0 0 139 0 0 139 0 0 139 0 0 139 0 0 139 0 0 139 0 0 139 0 0 139 0 0 139 0 0 139 0 0 139 0 0 139 0 0 139 0 0 139 0 0 139 0 0 139 0 0 139 0 0 139 0 0 139 0 0 139 0 0 139 0 0 139 0 0 139 0 0 139 0 0 139 0 0 139 0 0 139 0 0 139 0 0 139 0 0 139 0 0 139 0 0 139 0 0 139 0 0 139 0 0 139 0 0 139 0 0 139 0 0 139 0 0 139 0 0 139 0 0 139 0 0 139 0 0 143 7 8 146 11 12 150 17 18 153 23 24 157 29 30 158 30 32 159 32 34 157 29 30 155 25 26 153 23 24 151 19 20 153 23 24 157 29 30 157 29 30 158 30 32 159 32 34 169 48 51 168 46 49 157 29 30 151 19 20 147 13 14 147 13 14 147 13 14 147 13 14 147 13 14 147 13 14 147 13 14 146 11 12 147 13 14 147 13 14 147 13 14 146 11 12 147 13 14 147 13 14 146 11 12 146 11 12 146 11 12 146 11 12 146 11 12 146 11 12 146 11 12 145 9 10 146 11 12 146 11 12 146 11 12 146 11 12 146 11 12 146 11 12 146 11 12 146 11 12 146 11 12 146 11 12 147 13 14 146 11 12 146 11 12 146 11 12 146 11 12 145 9 10 146 11 12 145 9 10 145 9 10 145 9 10 
139 0 0 139 0 0 139 0 0 139 0 0 139 0 0 139 0 0 139 0 0 139 0 0 139 0 0 139 0 0 139 0 0 139 0 0 139 0 0 139 0 0 139 0 0 139 0 0 139 0 0 139 0 0 139 0 0 139 0 0 139 0 0 139 0 0 139 0 0 139 0 0 139 0 0 139 0 0 139 0 0 139 0 0 139 0 0 139 0 0 139 0 0 139 0 0 139 0 0 139 0 0 139 0 0 139 0 0 139 0 0 139 0 0 139 0 0 139 0 0 139 0 0 139 0 0 139 0 0 139 0 0 139 0 0 139 0 0 139 0 0 139 0 0 139 0 0 139 0 0 139 0 0 139 0 0 139 0 0 139 0 0 139 0 0 139 0 0 139 0 0 139 0 0 139 0 0 139 0 0 139 0 0 139 0 0 139 0 0 139 0 0 139 0 0 139 0 0 139 0 0 139 0 0 139 0 0 139 0 0 139 0 0 139 0 0 139 0 0 139 0 0 139 0 0 139 0 0 139 0 0 139 0 0 139 0 0 139 0 0 139 0 0 139 0 0 139 0 0 139 0 0 139 0 0 139 0 0 139 0 0 139 0 0 139 0 0 139 0 0 139 0 0 139 0 0 139 0 0 139 0 0 139 0 0 139 0 0 139 0 0 139 0 0 139 0 0 139 0 0 139 0 0 139 0 0 139 0 0 139 0 0 139 0 0 139 0 0 139 0 0 139 0 0 139 0 0 139 0 0 139 0 0 139 0 0 139 0 0 139 0 0 139 0 0 139 0 0 139 0 0 139 0 0 139 0 0 139 0 0 139 0 0 139 0 0 139 0 0 139 0 0 139 0 0 139 0 0 139 0 0 139 0 0 139 0 0 139 0 0 139 0 0 139 0 0 139 0 0 139 0 0 139 0 0 139 0 0 139 0 0 139 0 0 139 0 0 139 0 0 139 0 0 139 0 0 139 0 0 139 0 0 139 0 0 139 0 0 139 0 0 139 0 0 139 0 0 139 0 0 139 0 0 139 0 0 139 0 0 139 0 0 139 0 0 139 0 0 139 0 0 139 0 0 143 7 8 146 11 12 150 17 18 153 23 24 157 29 30 158 30 32 159 32 34 157 29 30 155 25 26 153 23 24 151 19 20 153 23 24 157 29 30 157 29 30 158 30 32 159 32 34 169 48 51 168 46 49 157 29 30 151 19 20 147 13 14 147 13 14 147 13 14 147 13 14 147 13 14 147 13 14 147 13 14 146 11 12 147 13 14 147 13 14 147 13 14 146 11 12 147 13 14 147 13 14 146 11 12 146 11 12 146 11 12 146 11 12 146 11 12 146 11 12 146 11 12 145 9 10 146 11 12 146 11 12 146 11 12 146 11 12 146 11 12 146 11 12 146 11 12 146 11 12 146 11 12 146 11 12 147 13 14 146 11 12 146 11 12 146 11 12 146 11 12 145 9 10 146 11 12 145 9 10 145 9 10 145 9 10 
139 0 0 139 0 0 139 0 0 139 0 0 139 0 0 139 0 0 139 0 0 139 0 0 139 0 0 139 0 0 139 0 0 139 0 0 139 0 0 139 0 0 139 0 0 139 0 0 139 0 0 139 0 0 139 0 0 139 0 0 139 0 0 139 0 0 139 0 0 139 0 0 139 0 0 139 0 0 139 0 0 139 0 0 139 0 0 139 0 0 139 0 0 139 0 0 139 0 0 139 0 0 139 0 0 139 0 0 139 0 0 139 0 0 139 0 0 139 0 0 139 0 0 139 0 0 139 0 0 139 0 0 139 0 0 139 0 0 139 0 0 139 0 0 139 0 0 139 0 0 139 0 0 139 0 0 139 0 0 139 0 0 139 0 0 139 0 0 139 0 0 139 0 0 139 0 0 139 0 0 139 0 0 139 0 0 139 0 0 139 0 0 139 0 0 139 0 0 139 0 0 139 0 0 139 0 0 139 0 0 139 0 0 139 0 0 139 0 0 139 0 0 139 0 0 139 0 0 139 0 0 139 0 0 139 0 0 139 0 0 139 0 0 139 0 0 139 0 0 139 0 0 139 0 0 139 0 0 139 0 0 139 0 0 139 0 0 139 0 0 139 0 0 139 0 0 139 0 0 139 0 0 139 0 0 139 0 0 139 0 0 139 0 0 139 0 0 139 0 0 139 0 0 139 0 0 139 0 0 139 0 0 139 0 0 139 0 0 139 0 0 139 0 0 139 0 0 139 0 0 139 0 0 139 0 0 139 0 0 139 0 0 139 0 0 139 0 0 139 0 0 139 0 0 139 0 0 139 0 0 139 0 0 139 0 0 139 0 0 139 0 0 139 0 0 139 0 0 139 0 0 139 0 0 139 0 0 139 0 0 139 0 0 139 0 0 139 0 0 139 0 0 139 0 0 139 0 0 139 0 0 139 0 0 139 0 0 139 0 0 139 0 0 139 0 0 139 0 0 139 0 0 139 0 0 139 0 0 139 0 0 139 0 0 139 0 0 139 0 0 139 0 0 139 0 0 139 0 0 139 0 0 139 0 0 139 0 0 139 0 0 143 7 8 146 11 12 151 19 20 155 25 26 158 30 32 168 46 49 169 48 51 168 46 49 158 30 32 155 25 26 153 23 24 155 25 26 155 25 26 155 25 26 158 30 32 158 30 32 157 29 30 159 32 34 158 30 32 153 23 24 150 17 18 150 17 18 147 13 14 147 13 14 147 13 14 147 13 14 147 13 14 147 13 14 147 13 14 147 13 14 147 13 14 147 13 14 147 13 14 147 13 14 147 13 14 147 13 14 147 13 14 150 17 18 147 13 14 146 11 12 146 11 12 146 11 12 146 11 12 146 11 12 146 11 12 146 11 12 147 13 14 147 13 14 147 13 14 147 13 14 147 13 14 150 17 18 151 19 20 155 25 26 157 29 30 155 25 26 150 17 18 150 17 18 146 11 12 145 9 10 145 9 10 145 9 10 146 11 12 
139 0 0 139 0 0 139 0 0 139 0 0 139 0 0 139 0 0 139 0 0 139 0 0 139 0 0 139 0 0 139 0 0 139 0 0 139 0 0 139 0 0 139 0 0 139 0 0 139 0 0 139 0 0 139 0 0 139 0 0 139 0 0 139 0 0 139 0 0 139 0 0 139 0 0 139 0 0 139 0 0 139 0 0 139 0 0 139 0 0 139 0 0 139 0 0 139 0 0 139 0 0 139 0 0 139 0 0 139 0 0 139 0 0 139 0 0 139 0 0 139 0 0 139 0 0 139 0 0 139 0 0 139 0 0 139 0 0 139 0 0 139 0 0 139 0 0 139 0 0 139 0 0 139 0 0 139 0 0 139 0 0 139 0 0 139 0 0 139 0 0 139 0 0 139 0 0 139 0 0 139 0 0 139 0 0 139 0 0 139 0 0 139 0 0 139 0 0 139 0 0 139 0 0 139 0 0 139 0 0 139 0 0 139 0 0 139 0 0 139 0 0 139 0 0 139 0 0 139 0 0 139 0 0 139 0 0 139 0 0 139 0 0 139 0 0 139 0 0 139 0 0 139 0 0 139 0 0 139 0 0 139 0 0 139 0 0 139 0 0 139 0 0 139 0 0 139 0 0 139 0 0 139 0 0 139 0 0 139 0 0 139 0 0 139 0 0 139 0 0 139 0 0 139 0 0 139 0 0 139 0 0 139 0 0 139 0 0 139 0 0 139 0 0 139 0 0 139 0 0 139 0 0 139 0 0 139 0 0 139 0 0 139 0 0 139 0 0 139 0 0 139 0 0 139 0 0 139 0 0 139 0 0 139 0 0 139 0 0 139 0 0 139 0 0 139 0 0 139 0 0 139 0 0 139 0 0 139 0 0 139 0 0 139 0 0 139 0 0 139 0 0 139 0 0 139 0 0 139 0 0 139 0 0 139 0 0 139 0 0 139 0 0 139 0 0 139 0 0 139 0 0 139 0 0 139 0 0 139 0 0 139 0 0 139 0 0 139 0 0 139 0 0 139 0 0 139 0 0 139 0 0 139 0 0 139 0 0 139 0 0 143 7 8 146 11 12 151 19 20 155 25 26 158 30 32 168 46 49 169 48 51 168 46 49 158 30 32 155 25 26 153 23 24 155 25 26 155 25 26 155 25 26 158 30 32 158 30 32 157 29 30 159 32 34 158 30 32 153 23 24 150 17 18 150 17 18 147 13 14 147 13 14 147 13 14 147 13 14 147 13 14 147 13 14 147 13 14 147 13 14 147 13 14 147 13 14 147 13 14 147 13 14 147 13 14 147 13 14 147 13 14 150 17 18 147 13 14 146 11 12 146 11 12 146 11 12 146 11 12 146 11 12 146 11 12 146 11 12 147 13 14 147 13 14 147 13 14 147 13 14 147 13 14 150 17 18 151 19 20 155 25 26 157 29 30 155 25 26 150 17 18 150 17 18 146 11 12 145 9 10 145 9 10 145 9 10 146 11 12 
139 0 0 139 0 0 139 0 0 139 0 0 139 0 0 139 0 0 143 7 8 139 0 0 139 0 0 139 0 0 139 0 0 139 0 0 139 0 0 139 0 0 139 0 0 139 0 0 139 0 0 139 0 0 139 0 0 139 0 0 139 0 0 139 0 0 139 0 0 139 0 0 139 0 0 139 0 0 139 0 0 139 0 0 139 0 0 139 0 0 139 0 0 139 0 0 139 0 0 139 0 0 139 0 0 139 0 0 139 0 0 139 0 0 139 0 0 139 0 0 139 0 0 139 0 0 139 0 0 139 0 0 139 0 0 139 0 0 139 0 0 139 0 0 139 0 0 139 0 0 139 0 0 139 0 0 139 0 0 139 0 0 139 0 0 139 0 0 139 0 0 139 0 0 139 0 0 139 0 0 139 0 0 139 0 0 139 0 0 139 0 0 139 0 0 139 0 0 139 0 0 139 0 0 139 0 0 139 0 0 139 0 0 139 0 0 139 0 0 139 0 0 139 0 0 139 0 0 139 0 0 139 0 0 139 0 0 139 0 0 139 0 0 139 0 0 139 0 0 139 0 0 139 0 0 139 0 0 139 0 0 139 0 0 139 0 0 139 0 0 139 0 0 139 0 0 139 0 0 139 0 0 139 0 0 139 0 0 139 0 0 139 0 0 139 0 0 139 0 0 139 0 0 139 0 0 139 0 0 139 0 0 139 0 0 139 0 0 139 0 0 139 0 0 139 0 0 139 0 0 139 0 0 139 0 0 139 0 0 139 0 0 139 0 0 139 0 0 139 0 0 139 0 0 139 0 0 139 0 0 139 0 0 139 0 0 139 0 0 139 0 0 139 0 0 139 0 0 139 0 0 139 0 0 139 0 0 139 0 0 139 0 0 139 0 0 139 0 0 139 0 0 139 0 0 139 0 0 139 0 0 139 0 0 139 0 0 139 0 0 139 0 0 139 0 0 139 0 0 139 0 0 139 0 0 139 0 0 139 0 0 139 0 0 139 0 0 139 0 0 139 0 0 139 0 0 139 0 0 139 0 0 139 0 0 139 0 0 143 7 8 146 11 12 151 19 20 155 25 26 159 32 34 169 48 51 172 52 55 169 48 51 169 48 51 168 46 49 159 32 34 157 29 30 158 30 32 158 30 32 158 30 32 168 46 49 159 32 34 157 29 30 151 19 20 153 23 24 151 19 20 147 13 14 150 17 18 147 13 14 150 17 18 150 17 18 150 17 18 150 17 18 150 17 18 147 13 14 147 13 14 150 17 18 147 13 14 147 13 14 147 13 14 150 17 18 155 25 26 168 46 49 174 56 59 174 56 59 158 30 32 150 17 18 147 13 14 150 17 18 150 17 18 147 13 14 147 13 14 147 13 14 147 13 14 147 13 14 150 17 18 155 25 26 155 25 26 158 30 32 169 48 51 172 52 55 168 46 49 155 25 26 151 19 20 150 17 18 146 11 12 146 11 12 145 9 10 146 11 12 
139 0 0 139 0 0 139 0 0 139 0 0 139 0 0 139 0 0 143 7 8 139 0 0 139 0 0 139 0 0 139 0 0 139 0 0 139 0 0 139 0 0 139 0 0 139 0 0 139 0 0 139 0 0 139 0 0 139 0 0 139 0 0 139 0 0 139 0 0 139 0 0 139 0 0 139 0 0 139 0 0 139 0 0 139 0 0 139 0 0 139 0 0 139 0 0 139 0 0 139 0 0 139 0 0 139 0 0 139 0 0 139 0 0 139 0 0 139 0 0 139 0 0 139 0 0 139 0 0 139 0 0 139 0 0 139 0 0 139 0 0 139 0 0 139 0 0 139 0 0 139 0 0 139 0 0 139 0 0 139 0 0 139 0 0 139 0 0 139 0 0 139 0 0 139 0 0 139 0 0 139 0 0 139 0 0 139 0 0 139 0 0 139 0 0 139 0 0 139 0 0 139 0 0 139 0 0 139 0 0 139 0 0 139 0 0 139 0 0 139 0 0 139 0 0 139 0 0 139 0 0 139 0 0 139 0 0 139 0 0 139 0 0 139 0 0 139 0 0 139 0 0 139 0 0 139 0 0 139 0 0 139 0 0 139 0 0 139 0 0 139 0 0 139 0 0 139 0 0 139 0 0 139 0 0 139 0 0 139 0 0 139 0 0 139 0 0 139 0 0 139 0 0 139 0 0 139 0 0 139 0 0 139 0 0 139 0 0 139 0 0 139 0 0 139 0 0 139 0 0 139 0 0 139 0 0 139 0 0 139 0 0 139 0 0 139 0 0 139 0 0 139 0 0 139 0 0 139 0 0 139 0 0 139 0 0 139 0 0 139 0 0 139 0 0 139 0 0 139 0 0 139 0 0 139 0 0 139 0 0 139 0 0 139 0 0 139 0 0 139 0 0 139 0 0 139 0 0 139 0 0 139 0 0 139 0 0 139 0 0 139 0 0 139 0 0 139 0 0 139 0 0 139 0 0 139 0 0 139 0 0 139 0 0 139 0 0 139 0 0 139 0 0 139 0 0 139 0 0 139 0 0 139 0 0 139 0 0 143 7 8 146 11 12 151 19 20 155 25 26 159 32 34 169 48 51 172 52 55 169 48 51 169 48 51 168 46 49 159 32 34 157 29 30 158 30 32 158 30 32 158 30 32 168 46 49 159 32 34 157 29 30 151 19 20 153 23 24 151 19 20 147 13 14 150 17 18 147 13 14 150 17 18 150 17 18 150 17 18 150 17 18 150 17 18 147 13 14 147 13 14 150 17 18 147 13 14 147 13 14 147 13 14 150 17 18 155 25 26 168 46 49 174 56 59 174 56 59 158 30 32 150 17 18 147 13 14 150 17 18 150 17 18 147 13 14 147 13 14 147 13 14 147 13 14 147 13 14 150 17 18 155 25 26 155 25 26 158 30 32 169 48 51 172 52 55 168 46 49 155 25 26 151 19 20 150 17 18 146 11 12 146 11 12 145 9 10 146 11 12 
139 0 0 139 0 0 139 0 0 139 0 0 139 0 0 139 0 0 139 0 0 139 0 0 139 0 0 139 0 0 139 0 0 139 0 0 139 0 0 139 0 0 139 0 0 139 0 0 139 0 0 139 0 0 139 0 0 139 0 0 139 0 0 139 0 0 139 0 0 139 0 0 139 0 0 139 0 0 139 0 0 139 0 0 139 0 0 139 0 0 139 0 0 139 0 0 139 0 0 139 0 0 139 0 0 139 0 0 139 0 0 139 0 0 139 0 0 139 0 0 139 0 0 139 0 0 139 0 0 139 0 0 139 0 0 139 0 0 139 0 0 139 0 0 139 0 0 139 0 0 139 0 0 139 0 0 139 0 0 139 0 0 139 0 0 139 0 0 139 0 0 139 0 0 139 0 0 139 0 0 139 0 0 139 0 0 139 0 0 139 0 0 139 0 0 139 0 0 139 0 0 139 0 0 139 0 0 139 0 0 139 0 0 139 0 0 139 0 0 139 0 0 139 0 0 139 0 0 139 0 0 139 0 0 139 0 0 139 0 0 139 0 0 139 0 0 139 0 0 139 0 0 139 0 0 139 0 0 139 0 0 139 0 0 139 0 0 139 0 0 139 0 0 139 0 0 139 0 0 139 0 0 139 0 0 139 0 0 139 0 0 139 0 0 139 0 0 139 0 0 139 0 0 139 0 0 139 0 0 139 0 0 139 0 0 139 0 0 139 0 0 139 0 0 139 0 0 139 0 0 139 0 0 139 0 0 139 0 0 139 0 0 139 0 0 139 0 0 139 0 0 139 0 0 139 0 0 139 0 0 139 0 0 139 0 0 139 0 0 139 0 0 139 0 0 139 0 0 139 0 0 139 0 0 139 0 0 139 0 0 139 0 0 139 0 0 139 0 0 139 0 0 139 0 0 139 0 0 139 0 0 139 0 0 139 0 0 139 0 0 139 0 0 139 0 0 139 0 0 139 0 0 139 0 0 139 0 0 139 0 0 139 0 0 139 0 0 139 0 0 139 0 0 139 0 0 139 0 0 139 0 0 139 0 0 139 0 0 143 7 8 146 11 12 153 23 24 158 30 32 168 46 49 169 48 51 168 46 49 159 32 34 168 46 49 169 48 51 172 52 55 169 48 51 169 48 51 159 32 34 158 30 32 158 30 32 155 25 26 153 23 24 151 19 20 150 17 18 151 19 20 151 19 20 155 25 26 157 29 30 153 23 24 147 13 14 150 17 18 150 17 18 150 17 18 150 17 18 150 17 18 150 17 18 147 13 14 150 17 18 151 19 20 155 25 26 168 46 49 172 52 55 179 63 67 180 65 69 184 71 75 183 69 73 172 52 55 158 30 32 157 29 30 157 29 30 158 30 32 159 32 34 159 32 34 155 25 26 157 29 30 158 30 32 153 23 24 151 19 20 159 32 34 169 48 51 169 48 51 155 25 26 147 13 14 147 13 14 145 9 10 145 9 10 146 11 12 145 9 10 
139 0 0 139 0 0 139 0 0 139 0 0 139 0 0 139 0 0 139 0 0 139 0 0 139 0 0 139 0 0 139 0 0 139 0 0 139 0 0 139 0 0 139 0 0 139 0 0 139 0 0 139 0 0 139 0 0 139 0 0 139 0 0 139 0 0 139 0 0 139 0 0 139 0 0 139 0 0 139 0 0 139 0 0 139 0 0 139 0 0 139 0 0 139 0 0 139 0 0 139 0 0 139 0 0 139 0 0 139 0 0 139 0 0 139 0 0 139 0 0 139 0 0 139 0 0 139 0 0 139 0 0 139 0 0 139 0 0 139 0 0 139 0 0 139 0 0 139 0 0 139 0 0 139 0 0 139 0 0 139 0 0 139 0 0 139 0 0 139 0 0 139 0 0 139 0 0 139 0 0 139 0 0 139 0 0 139 0 0 139 0 0 139 0 0 139 0 0 139 0 0 139 0 0 139 0 0 139 0 0 139 0 0 139 0 0 139 0 0 139 0 0 139 0 0 139 0 0 139 0 0 139 0 0 139 0 0 139 0 0 139 0 0 139 0 0 139 0 0 139 0 0 139 0 0 139 0 0 139 0 0 139 0 0 139 0 0 139 0 0 139 0 0 139 0 0 139 0 0 139 0 0 139 0 0 139 0 0 139 0 0 139 0 0 139 0 0 139 0 0 139 0 0 139 0 0 139 0 0 139 0 0 139 0 0 139 0 0 139 0 0 139 0 0 139 0 0 139 0 0 139 0 0 139 0 0 139 0 0 139 0 0 139 0 0 139 0 0 139 0 0 139 0 0 139 0 0 139 0 0 139 0 0 139 0 0 139 0 0 139 0 0 139 0 0 139 0 0 139 0 0 139 0 0 139 0 0 139 0 0 139 0 0 139 0 0 139 0 0 139 0 0 139 0 0 139 0 0 139 0 0 139 0 0 139 0 0 139 0 0 139 0 0 139 0 0 139 0 0 139 0 0 139 0 0 139 0 0 139 0 0 139 0 0 139 0 0 139 0 0 139 0 0 139 0 0 139 0 0 139 0 0 139 0 0 139 0 0 143 7 8 146 11 12 153 23 24 158 30 32 168 46 49 169 48 51 168 46 49 159 32 34 168 46 49 169 48 51 172 52 55 169 48 51 169 48 51 159 32 34 158 30 32 158 30 32 155 25 26 153 23 24 151 19 20 150 17 18 151 19 20 151 19 20 155 25 26 157 29 30 153 23 24 147 13 14 150 17 18 150 17 18 150 17 18 150 17 18 150 17 18 150 17 18 147 13 14 150 17 18 151 19 20 155 25 26 168 46 49 172 52 55 179 63 67 180 65 69 184 71 75 183 69 73 172 52 55 158 30 32 157 29 30 157 29 30 158 30 32 159 32 34 159 32 34 155 25 26 157 29 30 158 30 32 153 23 24 151 19 20 159 32 34 169 48 51 169 48 51 155 25 26 147 13 14 147 13 14 145 9 10 145 9 10 146 11 12 145 9 10 
139 0 0 139 0 0 139 0 0 139 0 0 139 0 0 139 0 0 139 0 0 139 0 0 139 0 0 139 0 0 139 0 0 139 0 0 139 0 0 139 0 0 139 0 0 139 0 0 139 0 0 139 0 0 139 0 0 139 0 0 139 0 0 139 0 0 139 0 0 139 0 0 139 0 0 139 0 0 139 0 0 139 0 0 139 0 0 139 0 0 139 0 0 139 0 0 139 0 0 139 0 0 139 0 0 139 0 0 139 0 0 139 0 0 139 0 0 139 0 0 139 0 0 139 0 0 139 0 0 139 0 0 139 0 0 139 0 0 139 0 0 139 0 0 139 0 0 139 0 0 139 0 0 139 0 0 139 0 0 139 0 0 139 0 0 139 0 0 139 0 0 139 0 0 139 0 0 139 0 0 139 0 0 139 0 0 139 0 0 139 0 0 139 0 0 139 0 0 139 0 0 139 0 0 139 0 0 139 0 0 139 0 0 139 0 0 139 0 0 139 0 0 139 0 0 139 0 0 139 0 0 139 0 0 139 0 0 139 0 0 139 0 0 139 0 0 139 0 0 139 0 0 139 0 0 139 0 0 139 0 0 139 0 0 139 0 0 139 0 0 139 0 0 139 0 0 139 0 0 139 0 0 139 0 0 139 0 0 139 0 0 139 0 0 139 0 0 139 0 0 139 0 0 139 0 0 139 0 0 139 0 0 139 0 0 139 0 0 139 0 0 139 0 0 139 0 0 139 0 0 139 0 0 139 0 0 139 0 0 139 0 0 139 0 0 139 0 0 139 0 0 139 0 0 139 0 0 139 0 0 139 0 0 139 0 0 139 0 0 139 0 0 139 0 0 139 0 0 139 0 0 139 0 0 139 0 0 139 0 0 139 0 0 139 0 0 139 0 0 139 0 0 139 0 0 139 0 0 139 0 0 139 0 0 139 0 0 139 0 0 139 0 0 139 0 0 139 0 0 139 0 0 139 0 0 139 0 0 139 0 0 139 0 0 139 0 0 139 0 0 139 0 0 139 0 0 139 0 0 139 0 0 139 0 0 143 7 8 145 9 10 150 17 18 157 29 30 159 32 34 159 32 34 159 32 34 158 30 32 158 30 32 159 32 34 159 32 34 159 32 34 158 30 32 155 25 26 151 19 20 153 23 24 150 17 18 150 17 18 151 19 20 150 17 18 150 17 18 151 19 20 158 30 32 168 46 49 157 29 30 151 19 20 147 13 14 150 17 18 150 17 18 150 17 18 150 17 18 147 13 14 147 13 14 147 13 14 153 23 24 172 52 55 185 73 78 187 75 80 185 73 78 184 71 75 183 69 73 180 65 69 183 69 73 180 65 69 184 71 75 185 73 78 184 71 75 180 65 69 180 65 69 174 56 59 158 30 32 150 17 18 150 17 18 150 17 18 151 19 20 157 29 30 158 30 32 158 30 32 151 19 20 150 17 18 146 11 12 145 9 10 145 9 10 146 11 12 145 9 10 
139 0 0 139 0 0 139 0 0 139 0 0 139 0 0 139 0 0 139 0 0 139 0 0 139 0 0 139 0 0 139 0 0 139 0 0 139 0 0 139 0 0 139 0 0 139 0 0 139 0 0 139 0 0 139 0 0 139 0 0 139 0 0 139 0 0 139 0 0 139 0 0 139 0 0 139 0 0 139 0 0 139 0 0 139 0 0 139 0 0 139 0 0 139 0 0 139 0 0 139 0 0 139 0 0 139 0 0 139 0 0 139 0 0 139 0 0 139 0 0 139 0 0 139 0 0 139 0 0 139 0 0 139 0 0 139 0 0 139 0 0 139 0 0 139 0 0 139 0 0 139 0 0 139 0 0 139 0 0 139 0 0 139 0 0 139 0 0 139 0 0 139 0 0 139 0 0 139 0 0 139 0 0 139 0 0 139 0 0 139 0 0 139 0 0 139 0 0 139 0 0 139 0 0 139 0 0 139 0 0 139 0 0 139 0 0 139 0 0 139 0 0 139 0 0 139 0 0 139 0 0 139 0 0 139 0 0 139 0 0 139 0 0 139 0 0 139 0 0 139 0 0 139 0 0 139 0 0 139 0 0 139 0 0 139 0 0 139 0 0 139 0 0 139 0 0 139 0 0 139 0 0 139 0 0 139 0 0 139 0 0 139 0 0 139 0 0 139 0 0 139 0 0 139 0 0 139 0 0 139 0 0 139 0 0 139 0 0 139 0 0 139 0 0 139 0 0 139 0 0 139 0 0 139 0 0 139 0 0 139 0 0 139 0 0 139 0 0 139 0 0 139 0 0 139 0 0 139 0 0 139 0 0 139 0 0 139 0 0 139 0 0 139 0 0 139 0 0 139 0 0 139 0 0 139 0 0 139 0 0 139 0 0 139 0 0 139 0 0 139 0 0 139 0 0 139 0 0 139 0 0 139 0 0 139 0 0 139 0 0 139 0 0 139 0 0 139 0 0 139 0 0 139 0 0 139 0 0 139 0 0 139 0 0 139 0 0 139 0 0 139 0 0 139 0 0 139 0 0 139 0 0 139 0 0 143 7 8 145 9 10 150 17 18 157 29 30 159 32 34 159 32 34 159 32 34 158 30 32 158 30 32 159 32 34 159 32 34 159 32 34 158 30 32 155 25 26 151 19 20 153 23 24 150 17 18 150 17 18 151 19 20 150 17 18 150 17 18 151 19 20 158 30 32 168 46 49 157 29 30 151 19 20 147 13 14 150 17 18 150 17 18 150 17 18 150 17 18 147 13 14 147 13 14 147 13 14 153 23 24 172 52 55 185 73 78 187 75 80 185 73 78 184 71 75 183 69 73 180 65 69 183 69 73 180 65 69 184 71 75 185 73 78 184 71 75 180 65 69 180 65 69 174 56 59 158 30 32 150 17 18 150 17 18 150 17 18 151 19 20 157 29 30 158 30 32 158 30 32 151 19 20 150 17 18 146 11 12 145 9 10 145 9 10 146 11 12 145 9 10 
139 0 0 139 0 0 139 0 0 139 0 0 139 0 0 139 0 0 139 0 0 139 0 0 139 0 0 139 0 0 139 0 0 139 0 0 139 0 0 139 0 0 139 0 0 139 0 0 139 0 0 139 0 0 139 0 0 139 0 0 139 0 0 139 0 0 139 0 0 139 0 0 139 0 0 139 0 0 139 0 0 139 0 0 139 0 0 139 0 0 143 7 8 139 0 0 139 0 0 139 0 0 139 0 0 139 0 0 139 0 0 139 0 0 139 0 0 139 0 0 139 0 0 139 0 0 139 0 0 139 0 0 139 0 0 139 0 0 139 0 0 139 0 0 139 0 0 139 0 0 139 0 0 139 0 0 139 0 0 139 0 0 139 0 0 139 0 0 139 0 0 139 0 0 139 0 0 139 0 0 139 0 0 139 0 0 139 0 0 139 0 0 139 0 0 139 0 0 139 0 0 139 0 0 139 0 0 139 0 0 139 0 0 139 0 0 139 0 0 139 0 0 139 0 0 139 0 0 139 0 0 139 0 0 139 0 0 139 0 0 139 0 0 139 0 0 139 0 0 139 0 0 139 0 0 139 0 0 139 0 0 139 0 0 139 0 0 139 0 0 139 0 0 139 0 0 139 0 0 139 0 0 139 0 0 139 0 0 139 0 0 139 0 0 139 0 0 139 0 0 139 0 0 139 0 0 139 0 0 139 0 0 139 0 0 139 0 0 139 0 0 139 0 0 139 0 0 139 0 0 139 0 0 139 0 0 139 0 0 139 0 0 139 0 0 139 0 0 139 0 0 139 0 0 139 0 0 139 0 0 139 0 0 139 0 0 139 0 0 139 0 0 139 0 0 139 0 0 139 0 0 139 0 0 139 0 0 139 0 0 139 0 0 139 0 0 139 0 0 139 0 0 139 0 0 139 0 0 139 0 0 139 0 0 139 0 0 139 0 0 139 0 0 139 0 0 139 0 0 139 0 0 139 0 0 139 0 0 139 0 0 139 0 0 139 0 0 139 0 0 139 0 0 139 0 0 139 0 0 139 0 0 139 0 0 143 7 8 146 11 12 153 23 24 158 30 32 159 32 34 158 30 32 157 29 30 158 30 32 159 32 34 169 48 51 159 32 34 155 25 26 150 17 18 147 13 14 153 23 24 155 25 26 155 25 26 151 19 20 150 17 18 150 17 18 150 17 18 147 13 14 150 17 18 150 17 18 147 13 14 151 19 20 151 19 20 150 17 18 153 23 24 150 17 18 150 17 18 151 19 20 153 23 24 153 23 24 153 23 24 155 25 26 159 32 34 179 63 67 187 75 80 189 79 84 187 75 80 187 75 80 187 75 80 185 73 78 184 71 75 185 73 78 185 73 78 187 75 80 188 77 82 187 75 80 174 56 59 158 30 32 155 25 26 159 32 34 168 46 49 158 30 32 147 13 14 146 11 12 146 11 12 146 11 12 145 9 10 145 9 10 145 9 10 145 9 10 146 11 12 
139 0 0 139 0 0 139 0 0 139 0 0 139 0 0 139 0 0 139 0 0 139 0 0 139 0 0 139 0 0 139 0 0 139 0 0 139 0 0 139 0 0 139 0 0 139 0 0 139 0 0 139 0 0 139 0 0 139 0 0 139 0 0 139 0 0 139 0 0 139 0 0 139 0 0 139 0 0 139 0 0 139 0 0 139 0 0 139 0 0 143 7 8 139 0 0 139 0 0 139 0 0 139 0 0 139 0 0 139 0 0 139 0 0 139 0 0 139 0 0 139 0 0 139 0 0 139 0 0 139 0 0 139 0 0 139 0 0 139 0 0 139 0 0 139 0 0 139 0 0 139 0 0 139 0 0 139 0 0 139 0 0 139 0 0 139 0 0 139 0 0 139 0 0 139 0 0 139 0 0 139 0 0 139 0 0 139 0 0 139 0 0 139 0 0 139 0 0 139 0 0 139 0 0 139 0 0 139 0 0 139 0 0 139 0 0 139 0 0 139 0 0 139 0 0 139 0 0 139 0 0 139 0 0 139 0 0 139 0 0 139 0 0 139 0 0 139 0 0 139 0 0 139 0 0 139 0 0 139 0 0 139 0 0 139 0 0 139 0 0 139 0 0 139 0 0 139 0 0 139 0 0 139 0 0 139 0 0 139 0 0 139 0 0 139 0 0 139 0 0 139 0 0 139 0 0 139 0 0 139 0 0 139 0 0 139 0 0 139 0 0 139 0 0 139 0 0 139 0 0 139 0 0 139 0 0 139 0 0 139 0 0 139 0 0 139 0 0 139 0 0 139 0 0 139 0 0 139 0 0 139 0 0 139 0 0 139 0 0 139 0 0 139 0 0 139 0 0 139 0 0 139 0 0 139 0 0 139 0 0 139 0 0 139 0 0 139 0 0 139 0 0 139 0 0 139 0 0 139 0 0 139 0 0 139 0 0 139 0 0 139 0 0 139 0 0 139 0 0 139 0 0 139 0 0 139 0 0 139 0 0 139 0 0 139 0 0 139 0 0 139 0 0 139 0 0 139 0 0 139 0 0 139 0 0 143 7 8 146 11 12 153 23 24 158 30 32 159 32 34 158 30 32 157 29 30 158 30 32 159 32 34 169 48 51 159 32 34 155 25 26 150 17 18 147 13 14 153 23 24 155 25 26 155 25 26 151 19 20 150 17 18 150 17 18 150 17 18 147 13 14 150 17 18 150 17 18 147 13 14 151 19 20 151 19 20 150 17 18 153 23 24 150 17 18 150 17 18 151 19 20 153 23 24 153 23 24 153 23 24 155 25 26 159 32 34 179 63 67 187 75 80 189 79 84 187 75 80 187 75 80 187 75 80 185 73 78 184 71 75 185 73 78 185 73 78 187 75 80 188 77 82 187 75 80 174 56 59 158 30 32 155 25 26 159 32 34 168 46 49 158 30 32 147 13 14 146 11 12 146 11 12 146 11 12 145 9 10 145 9 10 145 9 10 145 9 10 146 11 12 
139 0 0 139 0 0 139 0 0 139 0 0 139 0 0 143 7 8 139 0 0 139 0 0 139 0 0 139 0 0 139 0 0 139 0 0 139 0 0 139 0 0 139 0 0 139 0 0 139 0 0 139 0 0 139 0 0 139 0 0 139 0 0 139 0 0 139 0 0 139 0 0 139 0 0 139 0 0 139 0 0 139 0 0 139 0 0 139 0 0 139 0 0 139 0 0 139 0 0 139 0 0 139 0 0 139 0 0 139 0 0 139 0 0 139 0 0 139 0 0 139 0 0 139 0 0 139 0 0 139 0 0 139 0 0 139 0 0 139 0 0 139 0 0 139 0 0 139 0 0 139 0 0 139 0 0 139 0 0 139 0 0 139 0 0 139 0 0 139 0 0 139 0 0 139 0 0 139 0 0 139 0 0 139 0 0 139 0 0 139 0 0 139 0 0 139 0 0 139 0 0 139 0 0 139 0 0 139 0 0 139 0 0 139 0 0 139 0 0 139 0 0 139 0 0 139 0 0 139 0 0 139 0 0 139 0 0 139 0 0 139 0 0 139 0 0 139 0 0 139 0 0 139 0 0 139 0 0 139 0 0 139 0 0 139 0 0 139 0 0 139 0 0 139 0 0 139 0 0 139 0 0 139 0 0 139 0 0 139 0 0 139 0 0 139 0 0 139 0 0 139 0 0 139 0 0 139 0 0 139 0 0 139 0 0 139 0 0 139 0 0 139 0 0 139 0 0 139 0 0 139 0 0 139 0 0 139 0 0 139 0 0 139 0 0 139 0 0 139 0 0 139 0 0 139 0 0 139 0 0 139 0 0 139 0 0 139 0 0 139 0 0 139 0 0 139 0 0 139 0 0 139 0 0 139 0 0 139 0 0 139 0 0 139 0 0 139 0 0 139 0 0 139 0 0 139 0 0 139 0 0 139 0 0 139 0 0 139 0 0 139 0 0 139 0 0 139 0 0 139 0 0 139 0 0 139 0 0 139 0 0 139 0 0 139 0 0 139 0 0 139 0 0 139 0 0 139 0 0 139 0 0 143 7 8 146 11 12 151 19 20 157 29 30 158 30 32 157 29 30 157 29 30 157 29 30 158 30 32 169 48 51 172 52 55 168 46 49 157 29 30 153 23 24 155 25 26 155 25 26 155 25 26 155 25 26 155 25 26 153 23 24 153 23 24 151 19 20 150 17 18 150 17 18 147 13 14 147 13 14 150 17 18 151 19 20 150 17 18 150 17 18 151 19 20 151 19 20 153 23 24 157 29 30 158 30 32 168 46 49 159 32 34 151 19 20 151 19 20 157 29 30 180 65 69 185 73 78 184 71 75 183 69 73 183 69 73 183 69 73 180 65 69 179 63 67 172 52 55 158 30 32 151 19 20 147 13 14 147 13 14 153 23 24 153 23 24 150 17 18 147 13 14 146 11 12 146 11 12 145 9 10 146 11 12 147 13 14 150 17 18 147 13 14 147 13 14 147 13 14 
139 0 0 139 0 0 139 0 0 139 0 0 139 0 0 143 7 8 139 0 0 139 0 0 139 0 0 139 0 0 139 0 0 139 0 0 139 0 0 139 0 0 139 0 0 139 0 0 139 0 0 139 0 0 139 0 0 139 0 0 139 0 0 139 0 0 139 0 0 139 0 0 139 0 0 139 0 0 139 0 0 139 0 0 139 0 0 139 0 0 139 0 0 139 0 0 139 0 0 139 0 0 139 0 0 139 0 0 139 0 0 139 0 0 139 0 0 139 0 0 139 0 0 139 0 0 139 0 0 139 0 0 139 0 0 139 0 0 139 0 0 139 0 0 139 0 0 139 0 0 139 0 0 139 0 0 139 0 0 139 0 0 139 0 0 139 0 0 139 0 0 139 0 0 139 0 0 139 0 0 139 0 0 139 0 0 139 0 0 139 0 0 139 0 0 139 0 0 139 0 0 139 0 0 139 0 0 139 0 0 139 0 0 139 0 0 139 0 0 139 0 0 139 0 0 139 0 0 139 0 0 139 0 0 139 0 0 139 0 0 139 0 0 139 0 0 139 0 0 139 0 0 139 0 0 139 0 0 139 0 0 139 0 0 139 0 0 139 0 0 139 0 0 139 0 0 139 0 0 139 0 0 139 0 0 139 0 0 139 0 0 139 0 0 139 0 0 139 0 0 139 0 0 139 0 0 139 0 0 139 0 0 139 0 0 139 0 0 139 0 0 139 0 0 139 0 0 139 0 0 139 0 0 139 0 0 139 0 0 139 0 0 139 0 0 139 0 0 139 0 0 139 0 0 139 0 0 139 0 0 139 0 0 139 0 0 139 0 0 139 0 0 139 0 0 139 0 0 139 0 0 139 0 0 139 0 0 139 0 0 139 0 0 139 0 0 139 0 0 139 0 0 139 0 0 139 0 0 139 0 0 139 0 0 139 0 0 139 0 0 139 0 0 139 0 0 139 0 0 139 0 0 139 0 0 139 0 0 139 0 0 139 0 0 139 0 0 139 0 0 139 0 0 139 0 0 139 0 0 139 0 0 143 7 8 146 11 12 151 19 20 157 29 30 158 30 32 157 29 30 157 29 30 157 29 30 158 30 32 169 48 51 172 52 55 168 46 49 157 29 30 153 23 24 155 25 26 155 25 26 155 25 26 155 25 26 155 25 26 153 23 24 153 23 24 151 19 20 150 17 18 150 17 18 147 13 14 147 13 14 150 17 18 151 19 20 150 17 18 150 17 18 151 19 20 151 19 20 153 23 24 157 29 30 158 30 32 168 46 49 159 32 34 151 19 20 151 19 20 157 29 30 180 65 69 185 73 78 184 71 75 183 69 73 183 69 73 183 69 73 180 65 69 179 63 67 172 52 55 158 30 32 151 19 20 147 13 14 147 13 14 153 23 24 153 23 24 150 17 18 147 13 14 146 11 12 146 11 12 145 9 10 146 11 12 147 13 14 150 17 18 147 13 14 147 13 14 147 13 14 
139 0 0 139 0 0 143 7 8 139 0 0 143 7 8 139 0 0 139 0 0 139 0 0 139 0 0 139 0 0 139 0 0 139 0 0 139 0 0 139 0 0 139 0 0 139 0 0 139 0 0 139 0 0 139 0 0 139 0 0 139 0 0 139 0 0 139 0 0 139 0 0 139 0 0 139 0 0 139 0 0 139 0 0 139 0 0 139 0 0 139 0 0 139 0 0 139 0 0 139 0 0 139 0 0 139 0 0 139 0 0 139 0 0 139 0 0 139 0 0 139 0 0 139 0 0 139 0 0 139 0 0 139 0 0 139 0 0 139 0 0 139 0 0 139 0 0 139 0 0 139 0 0 139 0 0 139 0 0 139 0 0 139 0 0 139 0 0 139 0 0 139 0 0 139 0 0 139 0 0 139 0 0 139 0 0 139 0 0 139 0 0 139 0 0 139 0 0 139 0 0 139 0 0 139 0 0 139 0 0 139 0 0 139 0 0 139 0 0 139 0 0 139 0 0 139 0 0 139 0 0 139 0 0 139 0 0 139 0 0 139 0 0 139 0 0 139 0 0 139 0 0 139 0 0 139 0 0 139 0 0 139 0 0 139 0 0 139 0 0 139 0 0 139 0 0 139 0 0 139 0 0 139 0 0 139 0 0 139 0 0 139 0 0 139 0 0 139 0 0 139 0 0 139 0 0 139 0 0 139 0 0 139 0 0 139 0 0 139 0 0 139 0 0 139 0 0 139 0 0 139 0 0 139 0 0 139 0 0 139 0 0 139 0 0 139 0 0 139 0 0 139 0 0 139 0 0 139 0 0 139 0 0 139 0 0 139 0 0 139 0 0 139 0 0 139 0 0 139 0 0 139 0 0 139 0 0 139 0 0 139 0 0 139 0 0 139 0 0 139 0 0 139 0 0 139 0 0 139 0 0 139 0 0 139 0 0 139 0 0 139 0 0 139 0 0 139 0 0 139 0 0 139 0 0 139 0 0 139 0 0 139 0 0 139 0 0 139 0 0 139 0 0 139 0 0 139 0 0 143 7 8 147 13 14 151 19 20 155 25 26 158 30 32 158 30 32 157 29 30 155 25 26 158 30 32 159 32 34 168 46 49 168 46 49 159 32 34 157 29 30 157 29 30 157 29 30 157 29 30 155 25 26 155 25 26 157 29 30 153 23 24 150 17 18 150 17 18 150 17 18 150 17 18 150 17 18 150 17 18 157 29 30 158 30 32 159 32 34 168 46 49 183 69 73 184 71 75 172 52 55 159 32 34 155 25 26 151 19 20 151 19 20 155 25 26 157 29 30 169 48 51 169 48 51 158 30 32 153 23 24 151 19 20 150 17 18 150 17 18 151 19 20 150 17 18 150 17 18 147 13 14 147 13 14 146 11 12 146 11 12 147 13 14 146 11 12 146 11 12 151 19 20 153 23 24 155 25 26 153 23 24 153 23 24 155 25 26 169 48 51 157 29 30 155 25 26 159 32 34 
139 0 0 139 0 0 143 7 8 139 0 0 143 7 8 139 0 0 139 0 0 139 0 0 139 0 0 139 0 0 139 0 0 139 0 0 139 0 0 139 0 0 139 0 0 139 0 0 139 0 0 139 0 0 139 0 0 139 0 0 139 0 0 139 0 0 139 0 0 139 0 0 139 0 0 139 0 0 139 0 0 139 0 0 139 0 0 139 0 0 139 0 0 139 0 0 139 0 0 139 0 0 139 0 0 139 0 0 139 0 0 139 0 0 139 0 0 139 0 0 139 0 0 139 0 0 139 0 0 139 0 0 139 0 0 139 0 0 139 0 0 139 0 0 139 0 0 139 0 0 139 0 0 139 0 0 139 0 0 139 0 0 139 0 0 139 0 0 139 0 0 139 0 0 139 0 0 139 0 0 139 0 0 139 0 0 139 0 0 139 0 0 139 0 0 139 0 0 139 0 0 139 0 0 139 0 0 139 0 0 139 0 0 139 0 0 139 0 0 139 0 0 139 0 0 139 0 0 139 0 0 139 0 0 139 0 0 139 0 0 139 0 0 139 0 0 139 0 0 139 0 0 139 0 0 139 0 0 139 0 0 139 0 0 139 0 0 139 0 0 139 0 0 139 0 0 139 0 0 139 0 0 139 0 0 139 0 0 139 0 0 139 0 0 139 0 0 139 0 0 139 0 0 139 0 0 139 0 0 139 0 0 139 0 0 139 0 0 139 0 0 139 0 0 139 0 0 139 0 0 139 0 0 139 0 0 139 0 0 139 0 0 139 0 0 139 0 0 139 0 0 139 0 0 139 0 0 139 0 0 139 0 0 139 0 0 139 0 0 139 0 0 139 0 0 139 0 0 139 0 0 139 0 0 139 0 0 139 0 0 139 0 0 139 0 0 139 0 0 139 0 0 139 0 0 139 0 0 139 0 0 139 0 0 139 0 0 139 0 0 139 0 0 139 0 0 139 0 0 139 0 0 139 0 0 139 0 0 139 0 0 139 0 0 139 0 0 139 0 0 139 0 0 139 0 0 139 0 0 143 7 8 147 13 14 151 19 20 155 25 26 158 30 32 158 30 32 157 29 30 155 25 26 158 30 32 159 32 34 168 46 49 168 46 49 159 32 34 157 29 30 157 29 30 157 29 30 157 29 30 155 25 26 155 25 26 157 29 30 153 23 24 150 17 18 150 17 18 150 17 18 150 17 18 150 17 18 150 17 18 157 29 30 158 30 32 159 32 34 168 46 49 183 69 73 184 71 75 172 52 55 159 32 34 155 25 26 151 19 20 151 19 20 155 25 26 157 29 30 169 48 51 169 48 51 158 30 32 153 23 24 151 19 20 150 17 18 150 17 18 151 19 20 150 17 18 150 17 18 147 13 14 147 13 14 146 11 12 146 11 12 147 13 14 146 11 12 146 11 12 151 19 20 153 23 24 155 25 26 153 23 24 153 23 24 155 25 26 169 48 51 157 29 30 155 25 26 159 32 34 
139 0 0 139 0 0 139 0 0 139 0 0 139 0 0 143 7 8 139 0 0 139 0 0 139 0 0 139 0 0 139 0 0 139 0 0 139 0 0 139 0 0 139 0 0 139 0 0 139 0 0 139 0 0 139 0 0 139 0 0 139 0 0 139 0 0 139 0 0 139 0 0 139 0 0 139 0 0 139 0 0 139 0 0 139 0 0 139 0 0 139 0 0 139 0 0 139 0 0 139 0 0 139 0 0 139 0 0 139 0 0 139 0 0 139 0 0 139 0 0 139 0 0 139 0 0 139 0 0 139 0 0 139 0 0 139 0 0 139 0 0 139 0 0 139 0 0 139 0 0 139 0 0 139 0 0 139 0 0 139 0 0 139 0 0 139 0 0 139 0 0 139 0 0 139 0 0 139 0 0 139 0 0 139 0 0 139 0 0 139 0 0 139 0 0 139 0 0 139 0 0 139 0 0 139 0 0 139 0 0 139 0 0 139 0 0 139 0 0 139 0 0 139 0 0 139 0 0 139 0 0 139 0 0 139 0 0 139 0 0 139 0 0 139 0 0 139 0 0 139 0 0 139 0 0 139 0 0 139 0 0 139 0 0 139 0 0 139 0 0 139 0 0 139 0 0 139 0 0 139 0 0 139 0 0 139 0 0 139 0 0 139 0 0 139 0 0 139 0 0 139 0 0 139 0 0 139 0 0 139 0 0 139 0 0 139 0 0 139 0 0 139 0 0 139 0 0 139 0 0 139 0 0 139 0 0 139 0 0 139 0 0 139 0 0 139 0 0 139 0 0 139 0 0 139 0 0 139 0 0 139 0 0 139 0 0 139 0 0 139 0 0 139 0 0 139 0 0 139 0 0 139 0 0 139 0 0 139 0 0 139 0 0 139 0 0 139 0 0 139 0 0 139 0 0 139 0 0 139 0 0 139 0 0 139 0 0 139 0 0 139 0 0 139 0 0 139 0 0 139 0 0 139 0 0 139 0 0 139 0 0 139 0 0 139 0 0 139 0 0 139 0 0 139 0 0 143 7 8 146 11 12 150 17 18 155 25 26 158 30 32 158 30 32 155 25 26 155 25 26 155 25 26 157 29 30 157 29 30 157 29 30 155 25 26 153 23 24 153 23 24 157 29 30 158 30 32 157 29 30 153 23 24 150 17 18 153 23 24 151 19 20 150 17 18 150 17 18 151 19 20 158 30 32 179 63 67 188 77 82 195 89 94 200 96 102 194 87 92 188 77 82 184 71 75 179 63 67 168 46 49 155 25 26 151 19 20 150 17 18 151 19 20 159 32 34 172 52 55 168 46 49 158 30 32 151 19 20 150 17 18 147 13 14 147 13 14 147 13 14 150 17 18 151 19 20 151 19 20 153 23 24 150 17 18 146 11 12 146 11 12 147 13 14 147 13 14 147 13 14 157 29 30 169 48 51 174 56 59 172 52 55 158 30 32 158 30 32 155 25 26 153 23 24 151 19 20 155 25 26 
139 0 0 139 0 0 139 0 0 139 0 0 139 0 0 143 7 8 139 0 0 139 0 0 139 0 0 139 0 0 139 0 0 139 0 0 139 0 0 139 0 0 139 0 0 139 0 0 139 0 0 139 0 0 139 0 0 139 0 0 139 0 0 139 0 0 139 0 0 139 0 0 139 0 0 139 0 0 139 0 0 139 0 0 139 0 0 139 0 0 139 0 0 139 0 0 139 0 0 139 0 0 139 0 0 139 0 0 139 0 0 139 0 0 139 0 0 139 0 0 139 0 0 139 0 0 139 0 0 139 0 0 139 0 0 139 0 0 139 0 0 139 0 0 139 0 0 139 0 0 139 0 0 139 0 0 139 0 0 139 0 0 139 0 0 139 0 0 139 0 0 139 0 0 139 0 0 139 0 0 139 0 0 139 0 0 139 0 0 139 0 0 139 0 0 139 0 0 139 0 0 139 0 0 139 0 0 139 0 0 139 0 0 139 0 0 139 0 0 139 0 0 139 0 0 139 0 0 139 0 0 139 0 0 139 0 0 139 0 0 139 0 0 139 0 0 139 0 0 139 0 0 139 0 0 139 0 0 139 0 0 139 0 0 139 0 0 139 0 0 139 0 0 139 0 0 139 0 0 139 0 0 139 0 0 139 0 0 139 0 0 139 0 0 139 0 0 139 0 0 139 0 0 139 0 0 139 0 0 139 0 0 139 0 0 139 0 0 139 0 0 139 0 0 139 0 0 139 0 0 139 0 0 139 0 0 139 0 0 139 0 0 139 0 0 139 0 0 139 0 0 139 0 0 139 0 0 139 0 0 139 0 0 139 0 0 139 0 0 139 0 0 139 0 0 139 0 0 139 0 0 139 0 0 139 0 0 139 0 0 139 0 0 139 0 0 139 0 0 139 0 0 139 0 0 139 0 0 139 0 0 139 0 0 139 0 0 139 0 0 139 0 0 139 0 0 139 0 0 139 0 0 139 0 0 139 0 0 139 0 0 139 0 0 139 0 0 139 0 0 139 0 0 139 0 0 143 7 8 146 11 12 150 17 18 155 25 26 158 30 32 158 30 32 155 25 26 155 25 26 155 25 26 157 29 30 157 29 30 157 29 30 155 25 26 153 23 24 153 23 24 157 29 30 158 30 32 157 29 30 153 23 24 150 17 18 153 23 24 151 19 20 150 17 18 150 17 18 151 19 20 158 30 32 179 63 67 188 77 82 195 89 94 200 96 102 194 87 92 188 77 82 184 71 75 179 63 67 168 46 49 155 25 26 151 19 20 150 17 18 151 19 20 159 32 34 172 52 55 168 46 49 158 30 32 151 19 20 150 17 18 147 13 14 147 13 14 147 13 14 150 17 18 151 19 20 151 19 20 153 23 24 150 17 18 146 11 12 146 11 12 147 13 14 147 13 14 147 13 14 157 29 30 169 48 51 174 56 59 172 52 55 158 30 32 158 30 32 155 25 26 153 23 24 151 19 20 155 25 26 
139 0 0 139 0 0 139 0 0 139 0 0 139 0 0 139 0 0 139 0 0 139 0 0 139 0 0 139 0 0 139 0 0 139 0 0 139 0 0 139 0 0 139 0 0 139 0 0 139 0 0 139 0 0 139 0 0 139 0 0 139 0 0 139 0 0 139 0 0 139 0 0 139 0 0 139 0 0 139 0 0 139 0 0 139 0 0 139 0 0 139 0 0 139 0 0 139 0 0 139 0 0 139 0 0 139 0 0 139 0 0 139 0 0 139 0 0 139 0 0 139 0 0 139 0 0 139 0 0 139 0 0 139 0 0 139 0 0 139 0 0 139 0 0 139 0 0 139 0 0 139 0 0 139 0 0 139 0 0 139 0 0 139 0 0 139 0 0 139 0 0 139 0 0 139 0 0 139 0 0 139 0 0 139 0 0 139 0 0 139 0 0 139 0 0 139 0 0 139 0 0 139 0 0 139 0 0 139 0 0 139 0 0 139 0 0 139 0 0 139 0 0 139 0 0 139 0 0 139 0 0 139 0 0 139 0 0 139 0 0 139 0 0 139 0 0 139 0 0 139 0 0 139 0 0 139 0 0 139 0 0 139 0 0 139 0 0 139 0 0 139 0 0 139 0 0 139 0 0 139 0 0 139 0 0 139 0 0 139 0 0 139 0 0 139 0 0 139 0 0 139 0 0 139 0 0 139 0 0 139 0 0 139 0 0 139 0 0 139 0 0 139 0 0 139 0 0 139 0 0 139 0 0 139 0 0 139 0 0 139 0 0 139 0 0 139 0 0 139 0 0 139 0 0 139 0 0 139 0 0 139 0 0 139 0 0 139 0 0 139 0 0 139 0 0 139 0 0 139 0 0 139 0 0 139 0 0 139 0 0 139 0 0 139 0 0 139 0 0 139 0 0 139 0 0 139 0 0 139 0 0 139 0 0 139 0 0 139 0 0 139 0 0 139 0 0 139 0 0 139 0 0 139 0 0 139 0 0 139 0 0 139 0 0 139 0 0 139 0 0 139 0 0 143 7 8 146 11 12 151 19 20 153 23 24 157 29 30 157 29 30 157 29 30 153 23 24 153 23 24 151 19 20 151 19 20 151 19 20 151 19 20 151 19 20 153 23 24 155 25 26 158 30 32 155 25 26 151 19 20 150 17 18 150 17 18 153 23 24 153 23 24 150 17 18 150 17 18 172 52 55 183 69 73 183 69 73 192 83 88 195 89 94 192 83 88 188 77 82 179 63 67 157 29 30 155 25 26 155 25 26 153 23 24 151 19 20 150 17 18 150 17 18 153 23 24 155 25 26 153 23 24 151 19 20 151 19 20 153 23 24 153 23 24 158 30 32 169 48 51 169 48 51 174 56 59 169 48 51 155 25 26 150 17 18 147 13 14 147 13 14 150 17 18 150 17 18 147 13 14 150 17 18 147 13 14 157 29 30 168 46 49 157 29 30 169 48 51 157 29 30 168 46 49 168 46 49 174 56 59 
139 0 0 139 0 0 139 0 0 139 0 0 139 0 0 139 0 0 139 0 0 139 0 0 139 0 0 139 0 0 139 0 0 139 0 0 139 0 0 139 0 0 139 0 0 139 0 0 139 0 0 139 0 0 139 0 0 139 0 0 139 0 0 139 0 0 139 0 0 139 0 0 139 0 0 139 0 0 139 0 0 139 0 0 139 0 0 139 0 0 139 0 0 139 0 0 139 0 0 139 0 0 139 0 0 139 0 0 139 0 0 139 0 0 139 0 0 139 0 0 139 0 0 139 0 0 139 0 0 139 0 0 139 0 0 139 0 0 139 0 0 139 0 0 139 0 0 139 0 0 139 0 0 139 0 0 139 0 0 139 0 0 139 0 0 139 0 0 139 0 0 139 0 0 139 0 0 139 0 0 139 0 0 139 0 0 139 0 0 139 0 0 139 0 0 139 0 0 139 0 0 139 0 0 139 0 0 139 0 0 139 0 0 139 0 0 139 0 0 139 0 0 139 0 0 139 0 0 139 0 0 139 0 0 139 0 0 139 0 0 139 0 0 139 0 0 139 0 0 139 0 0 139 0 0 139 0 0 139 0 0 139 0 0 139 0 0 139 0 0 139 0 0 139 0 0 139 0 0 139 0 0 139 0 0 139 0 0 139 0 0 139 0 0 139 0 0 139 0 0 139 0 0 139 0 0 139 0 0 139 0 0 139 0 0 139 0 0 139 0 0 139 0 0 139 0 0 139 0 0 139 0 0 139 0 0 139 0 0 139 0 0 139 0 0 139 0 0 139 0 0 139 0 0 139 0 0 139 0 0 139 0 0 139 0 0 139 0 0 139 0 0 139 0 0 139 0 0 139 0 0 139 0 0 139 0 0 139 0 0 139 0 0 139 0 0 139 0 0 139 0 0 139 0 0 139 0 0 139 0 0 139 0 0 139 0 0 139 0 0 139 0 0 139 0 0 139 0 0 139 0 0 139 0 0 139 0 0 139 0 0 139 0 0 139 0 0 139 0 0 139 0 0 143 7 8 146 11 12 151 19 20 153 23 24 157 29 30 157 29 30 157 29 30 153 23 24 153 23 24 151 19 20 151 19 20 151 19 20 151 19 20 151 19 20 153 23 24 155 25 26 158 30 32 155 25 26 151 19 20 150 17 18 150 17 18 153 23 24 153 23 24 150 17 18 150 17 18 172 52 55 183 69 73 183 69 73 192 83 88 195 89 94 192 83 88 188 77 82 179 63 67 157 29 30 155 25 26 155 25 26 153 23 24 151 19 20 150 17 18 150 17 18 153 23 24 155 25 26 153 23 24 151 19 20 151 19 20 153 23 24 153 23 24 158 30 32 169 48 51 169 48 51 174 56 59 169 48 51 155 25 26 150 17 18 147 13 14 147 13 14 150 17 18 150 17 18 147 13 14 150 17 18 147 13 14 157 29 30 168 46 49 157 29 30 169 48 51 157 29 30 168 46 49 168 46 49 174 56 59 
139 0 0 139 0 0 143 7 8 139 0 0 139 0 0 139 0 0 139 0 0 139 0 0 139 0 0 139 0 0 139 0 0 139 0 0 139 0 0 139 0 0 139 0 0 139 0 0 139 0 0 139 0 0 139 0 0 139 0 0 139 0 0 139 0 0 139 0 0 139 0 0 139 0 0 139 0 0 139 0 0 139 0 0 139 0 0 139 0 0 139 0 0 139 0 0 139 0 0 139 0 0 139 0 0 139 0 0 139 0 0 139 0 0 139 0 0 139 0 0 139 0 0 139 0 0 139 0 0 139 0 0 139 0 0 139 0 0 139 0 0 139 0 0 139 0 0 139 0 0 139 0 0 139 0 0 139 0 0 139 0 0 139 0 0 139 0 0 139 0 0 139 0 0 139 0 0 139 0 0 139 0 0 139 0 0 139 0 0 139 0 0 139 0 0 139 0 0 139 0 0 139 0 0 139 0 0 139 0 0 139 0 0 139 0 0 139 0 0 139 0 0 139 0 0 139 0 0 139 0 0 139 0 0 139 0 0 139 0 0 139 0 0 139 0 0 139 0 0 139 0 0 139 0 0 139 0 0 139 0 0 139 0 0 139 0 0 139 0 0 139 0 0 139 0 0 139 0 0 139 0 0 139 0 0 139 0 0 139 0 0 139 0 0 139 0 0 139 0 0 139 0 0 139 0 0 139 0 0 139 0 0 139 0 0 139 0 0 139 0 0 139 0 0 139 0 0 139 0 0 139 0 0 139 0 0 139 0 0 139 0 0 139 0 0 139 0 0 139 0 0 139 0 0 139 0 0 139 0 0 139 0 0 139 0 0 139 0 0 139 0 0 139 0 0 139 0 0 139 0 0 139 0 0 139 0 0 139 0 0 139 0 0 139 0 0 139 0 0 139 0 0 139 0 0 139 0 0 139 0 0 139 0 0 139 0 0 139 0 0 139 0 0 139 0 0 139 0 0 139 0 0 139 0 0 139 0 0 139 0 0 139 0 0 139 0 0 139 0 0 139 0 0 145 9 10 147 13 14 153 23 24 158 30 32 158 30 32 157 29 30 155 25 26 155 25 26 155 25 26 153 23 24 151 19 20 151 19 20 155 25 26 157 29 30 158 30 32 157 29 30 155 25 26 155 25 26 153 23 24 150 17 18 150 17 18 151 19 20 151 19 20 147 13 14 147 13 14 151 19 20 155 25 26 147 13 14 150 17 18 155 25 26 153 23 24 150 17 18 150 17 18 153 23 24 153 23 24 153 23 24 155 25 26 151 19 20 150 17 18 150 17 18 153 23 24 158 30 32 158 30 32 153 23 24 153 23 24 155 25 26 155 25 26 153 23 24 151 19 20 150 17 18 150 17 18 147 13 14 146 11 12 147 13 14 150 17 18 151 19 20 151 19 20 153 23 24 153 23 24 157 29 30 151 19 20 151 19 20 151 19 20 157 29 30 151 19 20 151 19 20 153 23 24 157 29 30 159 32 34 
139 0 0 139 0 0 143 7 8 139 0 0 139 0 0 139 0 0 139 0 0 139 0 0 139 0 0 139 0 0 139 0 0 139 0 0 139 0 0 139 0 0 139 0 0 139 0 0 139 0 0 139 0 0 139 0 0 139 0 0 139 0 0 139 0 0 139 0 0 139 0 0 139 0 0 139 0 0 139 0 0 139 0 0 139 0 0 139 0 0 139 0 0 139 0 0 139 0 0 139 0 0 139 0 0 139 0 0 139 0 0 139 0 0 139 0 0 139 0 0 139 0 0 139 0 0 139 0 0 139 0 0 139 0 0 139 0 0 139 0 0 139 0 0 139 0 0 139 0 0 139 0 0 139 0 0 139 0 0 139 0 0 139 0 0 139 0 0 139 0 0 139 0 0 139 0 0 139 0 0 139 0 0 139 0 0 139 0 0 139 0 0 139 0 0 139 0 0 139 0 0 139 0 0 139 0 0 139 0 0 139 0 0 139 0 0 139 0 0 139 0 0 139 0 0 139 0 0 139 0 0 139 0 0 139 0 0 139 0 0 139 0 0 139 0 0 139 0 0 139 0 0 139 0 0 139 0 0 139 0 0 139 0 0 139 0 0 139 0 0 139 0 0 139 0 0 139 0 0 139 0 0 139 0 0 139 0 0 139 0 0 139 0 0 139 0 0 139 0 0 139 0 0 139 0 0 139 0 0 139 0 0 139 0 0 139 0 0 139 0 0 139 0 0 139 0 0 139 0 0 139 0 0 139 0 0 139 0 0 139 0 0 139 0 0 139 0 0 139 0 0 139 0 0 139 0 0 139 0 0 139 0 0 139 0 0 139 0 0 139 0 0 139 0 0 139 0 0 139 0 0 139 0 0 139 0 0 139 0 0 139 0 0 139 0 0 139 0 0 139 0 0 139 0 0 139 0 0 139 0 0 139 0 0 139 0 0 139 0 0 139 0 0 139 0 0 139 0 0 139 0 0 139 0 0 139 0 0 139 0 0 139 0 0 139 0 0 139 0 0 139 0 0 145 9 10 147 13 14 153 23 24 158 30 32 158 30 32 157 29 30 155 25 26 155 25 26 155 25 26 153 23 24 151 19 20 151 19 20 155 25 26 157 29 30 158 30 32 157 29 30 155 25 26 155 25 26 153 23 24 150 17 18 150 17 18 151 19 20 151 19 20 147 13 14 147 13 14 151 19 20 155 25 26 147 13 14 150 17 18 155 25 26 153 23 24 150 17 18 150 17 18 153 23 24 153 23 24 153 23 24 155 25 26 151 19 20 150 17 18 150 17 18 153 23 24 158 30 32 158 30 32 153 23 24 153 23 24 155 25 26 155 25 26 153 23 24 151 19 20 150 17 18 150 17 18 147 13 14 146 11 12 147 13 14 150 17 18 151 19 20 151 19 20 153 23 24 153 23 24 157 29 30 151 19 20 151 19 20 151 19 20 157 29 30 151 19 20 151 19 20 153 23 24 157 29 30 159 32 34 
139 0 0 139 0 0 139 0 0 139 0 0 139 0 0 139 0 0 143 7 8 139 0 0 139 0 0 139 0 0 139 0 0 139 0 0 139 0 0 139 0 0 139 0 0 139 0 0 139 0 0 139 0 0 139 0 0 139 0 0 139 0 0 139 0 0 139 0 0 139 0 0 139 0 0 139 0 0 139 0 0 139 0 0 139 0 0 139 0 0 139 0 0 139 0 0 139 0 0 139 0 0 139 0 0 139 0 0 139 0 0 139 0 0 139 0 0 139 0 0 139 0 0 139 0 0 139 0 0 139 0 0 139 0 0 139 0 0 139 0 0 139 0 0 139 0 0 139 0 0 139 0 0 139 0 0 139 0 0 139 0 0 139 0 0 139 0 0 139 0 0 139 0 0 139 0 0 139 0 0 139 0 0 139 0 0 139 0 0 139 0 0 139 0 0 139 0 0 139 0 0 139 0 0 139 0 0 139 0 0 139 0 0 139 0 0 139 0 0 139 0 0 139 0 0 139 0 0 139 0 0 139 0 0 139 0 0 139 0 0 139 0 0 139 0 0 139 0 0 139 0 0 139 0 0 139 0 0 139 0 0 139 0 0 139 0 0 139 0 0 139 0 0 139 0 0 139 0 0 139 0 0 139 0 0 139 0 0 139 0 0 139 0 0 139 0 0 139 0 0 139 0 0 139 0 0 139 0 0 139 0 0 139 0 0 139 0 0 139 0 0 139 0 0 139 0 0 139 0 0 139 0 0 139 0 0 139 0 0 139 0 0 139 0 0 139 0 0 139 0 0 139 0 0 139 0 0 139 0 0 139 0 0 139 0 0 139 0 0 139 0 0 139 0 0 139 0 0 139 0 0 139 0 0 139 0 0 139 0 0 139 0 0 139 0 0 139 0 0 139 0 0 139 0 0 139 0 0 139 0 0 139 0 0 139 0 0 139 0 0 139 0 0 139 0 0 139 0 0 139 0 0 139 0 0 139 0 0 139 0 0 139 0 0 139 0 0 139 0 0 143 7 8 146 11 12 150 17 18 155 25 26 157 29 30 157 29 30 157 29 30 158 30 32 158 30 32 158 30 32 158 30 32 155 25 26 153 23 24 157 29 30 158 30 32 168 46 49 168 46 49 159 32 34 168 46 49 158 30 32 183 69 73 190 81 86 188 77 82 172 52 55 153 23 24 147 13 14 147 13 14 147 13 14 147 13 14 147 13 14 150 17 18 150 17 18 150 17 18 150 17 18 158 30 32 169 48 51 157 29 30 157 29 30 158 30 32 157 29 30 155 25 26 155 25 26 159 32 34 157 29 30 150 17 18 147 13 14 151 19 20 155 25 26 168 46 49 168 46 49 158 30 32 155 25 26 147 13 14 146 11 12 146 11 12 146 11 12 146 11 12 146 11 12 151 19 20 153 23 24 153 23 24 155 25 26 151 19 20 153 23 24 151 19 20 147 13 14 147 13 14 145 9 10 147 13 14 150 17 18 
139 0 0 139 0 0 139 0 0 139 0 0 139 0 0 139 0 0 143 7 8 139 0 0 139 0 0 139 0 0 139 0 0 139 0 0 139 0 0 139 0 0 139 0 0 139 0 0 139 0 0 139 0 0 139 0 0 139 0 0 139 0 0 139 0 0 139 0 0 139 0 0 139 0 0 139 0 0 139 0 0 139 0 0 139 0 0 139 0 0 139 0 0 139 0 0 139 0 0 139 0 0 139 0 0 139 0 0 139 0 0 139 0 0 139 0 0 139 0 0 139 0 0 139 0 0 139 0 0 139 0 0 139 0 0 139 0 0 139 0 0 139 0 0 139 0 0 139 0 0 139 0 0 139 0 0 139 0 0 139 0 0 139 0 0 139 0 0 139 0 0 139 0 0 139 0 0 139 0 0 139 0 0 139 0 0 139 0 0 139 0 0 139 0 0 139 0 0 139 0 0 139 0 0 139 0 0 139 0 0 139 0 0 139 0 0 139 0 0 139 0 0 139 0 0 139 0 0 139 0 0 139 0 0 139 0 0 139 0 0 139 0 0 139 0 0 139 0 0 139 0 0 139 0 0 139 0 0 139 0 0 139 0 0 139 0 0 139 0 0 139 0 0 139 0 0 139 0 0 139 0 0 139 0 0 139 0 0 139 0 0 139 0 0 139 0 0 139 0 0 139 0 0 139 0 0 139 0 0 139 0 0 139 0 0 139 0 0 139 0 0 139 0 0 139 0 0 139 0 0 139 0 0 139 0 0 139 0 0 139 0 0 139 0 0 139 0 0 139 0 0 139 0 0 139 0 0 139 0 0 139 0 0 139 0 0 139 0 0 139 0 0 139 0 0 139 0 0 139 0 0 139 0 0 139 0 0 139 0 0 139 0 0 139 0 0 139 0 0 139 0 0 139 0 0 139 0 0 139 0 0 139 0 0 139 0 0 139 0 0 139 0 0 139 0 0 139 0 0 139 0 0 139 0 0 139 0 0 139 0 0 139 0 0 139 0 0 139 0 0 143 7 8 146 11 12 150 17 18 155 25 26 157 29 30 157 29 30 157 29 30 158 30 32 158 30 32 158 30 32 158 30 32 155 25 26 153 23 24 157 29 30 158 30 32 168 46 49 168 46 49 159 32 34 168 46 49 158 30 32 183 69 73 190 81 86 188 77 82 172 52 55 153 23 24 147 13 14 147 13 14 147 13 14 147 13 14 147 13 14 150 17 18 150 17 18 150 17 18 150 17 18 158 30 32 169 48 51 157 29 30 157 29 30 158 30 32 157 29 30 155 25 26 155 25 26 159 32 34 157 29 30 150 17 18 147 13 14 151 19 20 155 25 26 168 46 49 168 46 49 158 30 32 155 25 26 147 13 14 146 11 12 146 11 12 146 11 12 146 11 12 146 11 12 151 19 20 153 23 24 153 23 24 155 25 26 151 19 20 153 23 24 151 19 20 147 13 14 147 13 14 145 9 10 147 13 14 150 17 18 
143 7 8 139 0 0 139 0 0 139 0 0 139 0 0 139 0 0 139 0 0 139 0 0 143 7 8 139 0 0 143 7 8 139 0 0 139 0 0 139 0 0 139 0 0 143 7 8 139 0 0 139 0 0 139 0 0 139 0 0 139 0 0 139 0 0 139 0 0 139 0 0 139 0 0 139 0 0 139 0 0 139 0 0 139 0 0 139 0 0 139 0 0 139 0 0 139 0 0 139 0 0 139 0 0 139 0 0 139 0 0 139 0 0 139 0 0 139 0 0 139 0 0 139 0 0 139 0 0 139 0 0 139 0 0 139 0 0 139 0 0 139 0 0 139 0 0 143 7 8 139 0 0 139 0 0 139 0 0 139 0 0 139 0 0 139 0 0 139 0 0 139 0 0 139 0 0 139 0 0 139 0 0 139 0 0 139 0 0 139 0 0 139 0 0 139 0 0 139 0 0 139 0 0 139 0 0 139 0 0 139 0 0 139 0 0 139 0 0 139 0 0 139 0 0 139 0 0 139 0 0 139 0 0 139 0 0 139 0 0 139 0 0 139 0 0 139 0 0 139 0 0 139 0 0 139 0 0 139 0 0 139 0 0 139 0 0 139 0 0 139 0 0 139 0 0 139 0 0 139 0 0 139 0 0 139 0 0 139 0 0 139 0 0 139 0 0 139 0 0 139 0 0 139 0 0 139 0 0 139 0 0 139 0 0 139 0 0 139 0 0 139 0 0 139 0 0 139 0 0 139 0 0 139 0 0 139 0 0 139 0 0 139 0 0 139 0 0 139 0 0 139 0 0 139 0 0 139 0 0 139 0 0 139 0 0 139 0 0 139 0 0 139 0 0 139 0 0 139 0 0 139 0 0 139 0 0 139 0 0 139 0 0 139 0 0 139 0 0 139 0 0 139 0 0 139 0 0 139 0 0 139 0 0 139 0 0 139 0 0 139 0 0 139 0 0 139 0 0 139 0 0 139 0 0 139 0 0 139 0 0 139 0 0 139 0 0 143 7 8 145 9 10 147 13 14 151 19 20 153 23 24 155 25 26 158 30 32 159 32 34 158 30 32 157 29 30 157 29 30 157 29 30 158 30 32 155 25 26 155 25 26 153 23 24 155 25 26 155 25 26 151 19 20 153 23 24 168 46 49 180 65 69 179 63 67 159 32 34 151 19 20 151 19 20 150 17 18 150 17 18 147 13 14 147 13 14 147 13 14 147 13 14 147 13 14 150 17 18 155 25 26 159 32 34 179 63 67 174 56 59 168 46 49 158 30 32 157 29 30 153 23 24 153 23 24 153 23 24 150 17 18 147 13 14 150 17 18 153 23 24 153 23 24 157 29 30 155 25 26 153 23 24 150 17 18 146 11 12 146 11 12 147 13 14 150 17 18 150 17 18 147 13 14 146 11 12 146 11 12 147 13 14 151 19 20 151 19 20 147 13 14 150 17 18 146 11 12 147 13 14 150 17 18 151 19 20 151 19 20 
143 7 8 139 0 0 139 0 0 139 0 0 139 0 0 139 0 0 139 0 0 139 0 0 143 7 8 139 0 0 143 7 8 139 0 0 139 0 0 139 0 0 139 0 0 143 7 8 139 0 0 139 0 0 139 0 0 139 0 0 139 0 0 139 0 0 139 0 0 139 0 0 139 0 0 139 0 0 139 0 0 139 0 0 139 0 0 139 0 0 139 0 0 139 0 0 139 0 0 139 0 0 139 0 0 139 0 0 139 0 0 139 0 0 139 0 0 139 0 0 139 0 0 139 0 0 139 0 0 139 0 0 139 0 0 139 0 0 139 0 0 139 0 0 139 0 0 143 7 8 139 0 0 139 0 0 139 0 0 139 0 0 139 0 0 139 0 0 139 0 0 139 0 0 139 0 0 139 0 0 139 0 0 139 0 0 139 0 0 139 0 0 139 0 0 139 0 0 139 0 0 139 0 0 139 0 0 139 0 0 139 0 0 139 0 0 139 0 0 139 0 0 139 0 0 139 0 0 139 0 0 139 0 0 139 0 0 139 0 0 139 0 0 139 0 0 139 0 0 139 0 0 139 0 0 139 0 0 139 0 0 139 0 0 139 0 0 139 0 0 139 0 0 139 0 0 139 0 0 139 0 0 139 0 0 139 0 0 139 0 0 139 0 0 139 0 0 139 0 0 139 0 0 139 0 0 139 0 0 139 0 0 139 0 0 139 0 0 139 0 0 139 0 0 139 0 0 139 0 0 139 0 0 139 0 0 139 0 0 139 0 0 139 0 0 139 0 0 139 0 0 139 0 0 139 0 0 139 0 0 139 0 0 139 0 0 139 0 0 139 0 0 139 0 0 139 0 0 139 0 0 139 0 0 139 0 0 139 0 0 139 0 0 139 0 0 139 0 0 139 0 0 139 0 0 139 0 0 139 0 0 139 0 0 139 0 0 139 0 0 139 0 0 139 0 0 139 0 0 139 0 0 139 0 0 139 0 0 139 0 0 139 0 0 139 0 0 143 7 8 145 9 10 147 13 14 151 19 20 153 23 24 155 25 26 158 30 32 159 32 34 158 30 32 157 29 30 157 29 30 157 29 30 158 30 32 155 25 26 155 25 26 153 23 24 155 25 26 155 25 26 151 19 20 153 23 24 168 46 49 180 65 69 179 63 67 159 32 34 151 19 20 151 19 20 150 17 18 150 17 18 147 13 14 147 13 14 147 13 14 147 13 14 147 13 14 150 17 18 155 25 26 159 32 34 179 63 67 174 56 59 168 46 49 158 30 32 157 29 30 153 23 24 153 23 24 153 23 24 150 17 18 147 13 14 150 17 18 153 23 24 153 23 24 157 29 30 155 25 26 153 23 24 150 17 18 146 11 12 146 11 12 147 13 14 150 17 18 150 17 18 147 13 14 146 11 12 146 11 12 147 13 14 151 19 20 151 19 20 147 13 14 150 17 18 146 11 12 147 13 14 150 17 18 151 19 20 151 19 20 
143 7 8 139 0 0 139 0 0 139 0 0 139 0 0 139 0 0 139 0 0 139 0 0 139 0 0 139 0 0 139 0 0 139 0 0 139 0 0 139 0 0 139 0 0 139 0 0 139 0 0 139 0 0 139 0 0 139 0 0 139 0 0 139 0 0 139 0 0 139 0 0 139 0 0 139 0 0 139 0 0 139 0 0 139 0 0 139 0 0 139 0 0 139 0 0 139 0 0 139 0 0 139 0 0 139 0 0 139 0 0 139 0 0 139 0 0 139 0 0 139 0 0 139 0 0 139 0 0 139 0 0 139 0 0 139 0 0 139 0 0 139 0 0 139 0 0 139 0 0 139 0 0 139 0 0 139 0 0 139 0 0 139 0 0 139 0 0 139 0 0 139 0 0 139 0 0 139 0 0 139 0 0 139 0 0 139 0 0 139 0 0 139 0 0 139 0 0 139 0 0 139 0 0 139 0 0 139 0 0 139 0 0 139 0 0 139 0 0 139 0 0 139 0 0 139 0 0 139 0 0 139 0 0 139 0 0 139 0 0 139 0 0 139 0 0 139 0 0 139 0 0 139 0 0 139 0 0 139 0 0 139 0 0 139 0 0 139 0 0 139 0 0 139 0 0 139 0 0 139 0 0 139 0 0 139 0 0 139 0 0 139 0 0 139 0 0 139 0 0 139 0 0 139 0 0 139 0 0 139 0 0 139 0 0 139 0 0 139 0 0 139 0 0 139 0 0 139 0 0 139 0 0 139 0 0 139 0 0 139 0 0 139 0 0 139 0 0 139 0 0 139 0 0 139 0 0 139 0 0 139 0 0 139 0 0 139 0 0 139 0 0 139 0 0 139 0 0 139 0 0 139 0 0 139 0 0 139 0 0 139 0 0 139 0 0 139 0 0 139 0 0 139 0 0 139 0 0 139 0 0 139 0 0 139 0 0 139 0 0 139 0 0 139 0 0 139 0 0 139 0 0 139 0 0 139 0 0 139 0 0 139 0 0 143 7 8 145 9 10 147 13 14 151 19 20 153 23 24 153 23 24 153 23 24 153 23 24 155 25 26 155 25 26 155 25 26 155 25 26 157 29 30 155 25 26 153 23 24 151 19 20 151 19 20 151 19 20 151 19 20 150 17 18 151 19 20 150 17 18 153 23 24 151 19 20 151 19 20 151 19 20 153 23 24 155 25 26 153 23 24 151 19 20 151 19 20 151 19 20 151 19 20 155 25 26 180 65 69 198 92 98 200 96 102 200 96 102 203 100 106 194 87 92 194 87 92 187 75 80 172 52 55 159 32 34 158 30 32 157 29 30 153 23 24 150 17 18 147 13 14 147 13 14 147 13 14 147 13 14 147 13 14 146 11 12 146 11 12 146 11 12 147 13 14 150 17 18 150 17 18 147 13 14 147 13 14 150 17 18 151 19 20 153 23 24 153 23 24 147 13 14 151 19 20 153 23 24 147 13 14 146 11 12 147 13 14 151 19 20 
143 7 8 139 0 0 139 0 0 139 0 0 139 0 0 139 0 0 139 0 0 139 0 0 139 0 0 139 0 0 139 0 0 139 0 0 139 0 0 139 0 0 139 0 0 139 0 0 139 0 0 139 0 0 139 0 0 139 0 0 139 0 0 139 0 0 139 0 0 139 0 0 139 0 0 139 0 0 139 0 0 139 0 0 139 0 0 139 0 0 139 0 0 139 0 0 139 0 0 139 0 0 139 0 0 139 0 0 139 0 0 139 0 0 139 0 0 139 0 0 139 0 0 139 0 0 139 0 0 139 0 0 139 0 0 139 0 0 139 0 0 139 0 0 139 0 0 139 0 0 139 0 0 139 0 0 139 0 0 139 0 0 139 0 0 139 0 0 139 0 0 139 0 0 139 0 0 139 0 0 139 0 0 139 0 0 139 0 0 139 0 0 139 0 0 139 0 0 139 0 0 139 0 0 139 0 0 139 0 0 139 0 0 139 0 0 139 0 0 139 0 0 139 0 0 139 0 0 139 0 0 139 0 0 139 0 0 139 0 0 139 0 0 139 0 0 139 0 0 139 0 0 139 0 0 139 0 0 139 0 0 139 0 0 139 0 0 139 0 0 139 0 0 139 0 0 139 0 0 139 0 0 139 0 0 139 0 0 139 0 0 139 0 0 139 0 0 139 0 0 139 0 0 139 0 0 139 0 0 139 0 0 139 0 0 139 0 0 139 0 0 139 0 0 139 0 0 139 0 0 139 0 0 139 0 0 139 0 0 139 0 0 139 0 0 139 0 0 139 0 0 139 0 0 139 0 0 139 0 0 139 0 0 139 0 0 139 0 0 139 0 0 139 0 0 139 0 0 139 0 0 139 0 0 139 0 0 139 0 0 139 0 0 139 0 0 139 0 0 139 0 0 139 0 0 139 0 0 139 0 0 139 0 0 139 0 0 139 0 0 139 0 0 139 0 0 139 0 0 139 0 0 139 0 0 139 0 0 139 0 0 139 0 0 143 7 8 145 9 10 147 13 14 151 19 20 153 23 24 153 23 24 153 23 24 153 23 24 155 25 26 155 25 26 155 25 26 155 25 26 157 29 30 155 25 26 153 23 24 151 19 20 151 19 20 151 19 20 151 19 20 150 17 18 151 19 20 150 17 18 153 23 24 151 19 20 151 19 20 151 19 20 153 23 24 155 25 26 153 23 24 151 19 20 151 19 20 151 19 20 151 19 20 155 25 26 180 65 69 198 92 98 200 96 102 200 96 102 203 100 106 194 87 92 194 87 92 187 75 80 172 52 55 159 32 34 158 30 32 157 29 30 153 23 24 150 17 18 147 13 14 147 13 14 147 13 14 147 13 14 147 13 14 146 11 12 146 11 12 146 11 12 147 13 14 150 17 18 150 17 18 147 13 14 147 13 14 150 17 18 151 19 20 153 23 24 153 23 24 147 13 14 151 19 20 153 23 24 147 13 14 146 11 12 147 13 14 151 19 20 
139 0 0 139 0 0 139 0 0 139 0 0 143 7 8 143 7 8 139 0 0 139 0 0 139 0 0 139 0 0 139 0 0 139 0 0 139 0 0 139 0 0 139 0 0 139 0 0 139 0 0 139 0 0 139 0 0 139 0 0 139 0 0 139 0 0 139 0 0 139 0 0 139 0 0 139 0 0 139 0 0 139 0 0 139 0 0 139 0 0 143 7 8 139 0 0 139 0 0 139 0 0 139 0 0 139 0 0 139 0 0 139 0 0 139 0 0 139 0 0 139 0 0 139 0 0 139 0 0 139 0 0 139 0 0 139 0 0 139 0 0 139 0 0 139 0 0 139 0 0 139 0 0 139 0 0 139 0 0 139 0 0 139 0 0 139 0 0 139 0 0 139 0 0 139 0 0 139 0 0 139 0 0 139 0 0 139 0 0 139 0 0 139 0 0 139 0 0 139 0 0 139 0 0 139 0 0 139 0 0 139 0 0 139 0 0 139 0 0 139 0 0 139 0 0 139 0 0 139 0 0 139 0 0 139 0 0 139 0 0 139 0 0 139 0 0 139 0 0 139 0 0 139 0 0 139 0 0 139 0 0 139 0 0 139 0 0 139 0 0 139 0 0 139 0 0 139 0 0 139 0 0 139 0 0 139 0 0 139 0 0 139 0 0 139 0 0 139 0 0 139 0 0 139 0 0 139 0 0 139 0 0 139 0 0 139 0 0 139 0 0 139 0 0 139 0 0 139 0 0 139 0 0 139 0 0 139 0 0 139 0 0 139 0 0 139 0 0 139 0 0 139 0 0 139 0 0 139 0 0 139 0 0 139 0 0 139 0 0 139 0 0 139 0 0 139 0 0 139 0 0 139 0 0 139 0 0 139 0 0 139 0 0 139 0 0 139 0 0 139 0 0 139 0 0 139 0 0 139 0 0 139 0 0 139 0 0 139 0 0 139 0 0 139 0 0 139 0 0 139 0 0 139 0 0 139 0 0 139 0 0 143 7 8 145 9 10 147 13 14 151 19 20 153 23 24 153 23 24 153 23 24 155 25 26 157 29 30 159 32 34 158 30 32 157 29 30 157 29 30 155 25 26 153 23 24 151 19 20 151 19 20 151 19 20 151 19 20 151 19 20 151 19 20 151 19 20 151 19 20 153 23 24 153 23 24 151 19 20 153 23 24 151 19 20 153 23 24 153 23 24 155 25 26 158 30 32 158 30 32 159 32 34 168 46 49 168 46 49 169 48 51 158 30 32 159 32 34 174 56 59 184 71 75 183 69 73 174 56 59 174 56 59 169 48 51 159 32 34 153 23 24 147 13 14 145 9 10 145 9 10 146 11 12 147 13 14 146 11 12 146 11 12 146 11 12 146 11 12 146 11 12 158 30 32 157 29 30 153 23 24 151 19 20 147 13 14 150 17 18 150 17 18 147 13 14 147 13 14 147 13 14 150 17 18 151 19 20 146 11 12 146 11 12 147 13 14 153 23 24 
139 0 0 139 0 0 139 0 0 139 0 0 143 7 8 143 7 8 139 0 0 139 0 0 139 0 0 139 0 0 139 0 0 139 0 0 139 0 0 139 0 0 139 0 0 139 0 0 139 0 0 139 0 0 139 0 0 139 0 0 139 0 0 139 0 0 139 0 0 139 0 0 139 0 0 139 0 0 139 0 0 139 0 0 139 0 0 139 0 0 143 7 8 139 0 0 139 0 0 139 0 0 139 0 0 139 0 0 139 0 0 139 0 0 139 0 0 139 0 0 139 0 0 139 0 0 139 0 0 139 0 0 139 0 0 139 0 0 139 0 0 139 0 0 139 0 0 139 0 0 139 0 0 139 0 0 139 0 0 139 0 0 139 0 0 139 0 0 139 0 0 139 0 0 139 0 0 139 0 0 139 0 0 139 0 0 139 0 0 139 0 0 139 0 0 139 0 0 139 0 0 139 0 0 139 0 0 139 0 0 139 0 0 139 0 0 139 0 0 139 0 0 139 0 0 139 0 0 139 0 0 139 0 0 139 0 0 139 0 0 139 0 0 139 0 0 139 0 0 139 0 0 139 0 0 139 0 0 139 0 0 139 0 0 139 0 0 139 0 0 139 0 0 139 0 0 139 0 0 139 0 0 139 0 0 139 0 0 139 0 0 139 0 0 139 0 0 139 0 0 139 0 0 139 0 0 139 0 0 139 0 0 139 0 0 139 0 0 139 0 0 139 0 0 139 0 0 139 0 0 139 0 0 139 0 0 139 0 0 139 0 0 139 0 0 139 0 0 139 0 0 139 0 0 139 0 0 139 0 0 139 0 0 139 0 0 139 0 0 139 0 0 139 0 0 139 0 0 139 0 0 139 0 0 139 0 0 139 0 0 139 0 0 139 0 0 139 0 0 139 0 0 139 0 0 139 0 0 139 0 0 139 0 0 139 0 0 139 0 0 139 0 0 139 0 0 139 0 0 139 0 0 139 0 0 139 0 0 139 0 0 143 7 8 145 9 10 147 13 14 151 19 20 153 23 24 153 23 24 153 23 24 155 25 26 157 29 30 159 32 34 158 30 32 157 29 30 157 29 30 155 25 26 153 23 24 151 19 20 151 19 20 151 19 20 151 19 20 151 19 20 151 19 20 151 19 20 151 19 20 153 23 24 153 23 24 151 19 20 153 23 24 151 19 20 153 23 24 153 23 24 155 25 26 158 30 32 158 30 32 159 32 34 168 46 49 168 46 49 169 48 51 158 30 32 159 32 34 174 56 59 184 71 75 183 69 73 174 56 59 174 56 59 169 48 51 159 32 34 153 23 24 147 13 14 145 9 10 145 9 10 146 11 12 147 13 14 146 11 12 146 11 12 146 11 12 146 11 12 146 11 12 158 30 32 157 29 30 153 23 24 151 19 20 147 13 14 150 17 18 150 17 18 147 13 14 147 13 14 147 13 14 150 17 18 151 19 20 146 11 12 146 11 12 147 13 14 153 23 24 
139 0 0 139 0 0 139 0 0 139 0 0 139 0 0 139 0 0 139 0 0 139 0 0 139 0 0 139 0 0 139 0 0 139 0 0 139 0 0 139 0 0 139 0 0 139 0 0 139 0 0 139 0 0 139 0 0 139 0 0 139 0 0 139 0 0 139 0 0 139 0 0 139 0 0 139 0 0 139 0 0 139 0 0 139 0 0 139 0 0 139 0 0 139 0 0 139 0 0 139 0 0 139 0 0 139 0 0 139 0 0 139 0 0 139 0 0 139 0 0 139 0 0 139 0 0 139 0 0 139 0 0 139 0 0 139 0 0 139 0 0 139 0 0 139 0 0 139 0 0 139 0 0 139 0 0 139 0 0 139 0 0 139 0 0 139 0 0 139 0 0 139 0 0 139 0 0 139 0 0 139 0 0 139 0 0 139 0 0 139 0 0 139 0 0 139 0 0 139 0 0 139 0 0 139 0 0 139 0 0 139 0 0 139 0 0 139 0 0 139 0 0 139 0 0 139 0 0 139 0 0 139 0 0 139 0 0 139 0 0 139 0 0 139 0 0 139 0 0 139 0 0 139 0 0 139 0 0 139 0 0 139 0 0 139 0 0 139 0 0 139 0 0 139 0 0 139 0 0 139 0 0 139 0 0 139 0 0 139 0 0 139 0 0 139 0 0 139 0 0 139 0 0 139 0 0 139 0 0 139 0 0 139 0 0 139 0 0 139 0 0 139 0 0 139 0 0 139 0 0 139 0 0 139 0 0 139 0 0 139 0 0 139 0 0 139 0 0 139 0 0 139 0 0 139 0 0 139 0 0 139 0 0 139 0 0 139 0 0 139 0 0 139 0 0 139 0 0 139 0 0 139 0 0 139 0 0 139 0 0 139 0 0 139 0 0 139 0 0 139 0 0 139 0 0 139 0 0 139 0 0 139 0 0 139 0 0 139 0 0 139 0 0 139 0 0 139 0 0 139 0 0 139 0 0 139 0 0 143 7 8 145 9 10 147 13 14 150 17 18 153 23 24 155 25 26 155 25 26 155 25 26 158 30 32 172 52 55 174 56 59 169 48 51 157 29 30 153 23 24 155 25 26 157 29 30 157 29 30 158 30 32 157 29 30 155 25 26 153 23 24 155 25 26 172 52 55 174 56 59 174 56 59 174 56 59 159 32 34 157 29 30 172 52 55 179 63 67 184 71 75 184 71 75 183 69 73 187 75 80 185 73 78 184 71 75 157 29 30 159 32 34 169 48 51 180 65 69 187 75 80 189 79 84 188 77 82 159 32 34 172 52 55 179 63 67 172 52 55 157 29 30 151 19 20 145 9 10 145 9 10 145 9 10 146 11 12 146 11 12 146 11 12 146 11 12 146 11 12 146 11 12 147 13 14 147 13 14 146 11 12 147 13 14 147 13 14 153 23 24 155 25 26 155 25 26 155 25 26 155 25 26 157 29 30 151 19 20 150 17 18 146 11 12 151 19 20 150 17 18 
139 0 0 139 0 0 139 0 0 139 0 0 139 0 0 139 0 0 139 0 0 139 0 0 139 0 0 139 0 0 139 0 0 139 0 0 139 0 0 139 0 0 139 0 0 139 0 0 139 0 0 139 0 0 139 0 0 139 0 0 139 0 0 139 0 0 139 0 0 139 0 0 139 0 0 139 0 0 139 0 0 139 0 0 139 0 0 139 0 0 139 0 0 139 0 0 139 0 0 139 0 0 139 0 0 139 0 0 139 0 0 139 0 0 139 0 0 139 0 0 139 0 0 139 0 0 139 0 0 139 0 0 139 0 0 139 0 0 139 0 0 139 0 0 139 0 0 139 0 0 139 0 0 139 0 0 139 0 0 139 0 0 139 0 0 139 0 0 139 0 0 139 0 0 139 0 0 139 0 0 139 0 0 139 0 0 139 0 0 139 0 0 139 0 0 139 0 0 139 0 0 139 0 0 139 0 0 139 0 0 139 0 0 139 0 0 139 0 0 139 0 0 139 0 0 139 0 0 139 0 0 139 0 0 139 0 0 139 0 0 139 0 0 139 0 0 139 0 0 139 0 0 139 0 0 139 0 0 139 0 0 139 0 0 139 0 0 139 0 0 139 0 0 139 0 0 139 0 0 139 0 0 139 0 0 139 0 0 139 0 0 139 0 0 139 0 0 139 0 0 139 0 0 139 0 0 139 0 0 139 0 0 139 0 0 139 0 0 139 0 0 139 0 0 139 0 0 139 0 0 139 0 0 139 0 0 139 0 0 139 0 0 139 0 0 139 0 0 139 0 0 139 0 0 139 0 0 139 0 0 139 0 0 139 0 0 139 0 0 139 0 0 139 0 0 139 0 0 139 0 0 139 0 0 139 0 0 139 0 0 139 0 0 139 0 0 139 0 0 139 0 0 139 0 0 139 0 0 139 0 0 139 0 0 139 0 0 139 0 0 139 0 0 139 0 0 139 0 0 139 0 0 139 0 0 139 0 0 143 7 8 145 9 10 147 13 14 150 17 18 153 23 24 155 25 26 155 25 26 155 25 26 158 30 32 172 52 55 174 56 59 169 48 51 157 29 30 153 23 24 155 25 26 157 29 30 157 29 30 158 30 32 157 29 30 155 25 26 153 23 24 155 25 26 172 52 55 174 56 59 174 56 59 174 56 59 159 32 34 157 29 30 172 52 55 179 63 67 184 71 75 184 71 75 183 69 73 187 75 80 185 73 78 184 71 75 157 29 30 159 32 34 169 48 51 180 65 69 187 75 80 189 79 84 188 77 82 159 32 34 172 52 55 179 63 67 172 52 55 157 29 30 151 19 20 145 9 10 145 9 10 145 9 10 146 11 12 146 11 12 146 11 12 146 11 12 146 11 12 146 11 12 147 13 14 147 13 14 146 11 12 147 13 14 147 13 14 153 23 24 155 25 26 155 25 26 155 25 26 155 25 26 157 29 30 151 19 20 150 17 18 146 11 12 151 19 20 150 17 18 
139 0 0 139 0 0 139 0 0 139 0 0 143 7 8 139 0 0 139 0 0 139 0 0 139 0 0 143 7 8 139 0 0 139 0 0 139 0 0 139 0 0 139 0 0 139 0 0 139 0 0 139 0 0 139 0 0 139 0 0 139 0 0 139 0 0 139 0 0 139 0 0 139 0 0 139 0 0 139 0 0 139 0 0 139 0 0 139 0 0 139 0 0 139 0 0 139 0 0 139 0 0 139 0 0 139 0 0 139 0 0 139 0 0 139 0 0 139 0 0 139 0 0 139 0 0 139 0 0 139 0 0 139 0 0 139 0 0 139 0 0 139 0 0 139 0 0 139 0 0 139 0 0 139 0 0 139 0 0 139 0 0 139 0 0 139 0 0 139 0 0 139 0 0 139 0 0 139 0 0 139 0 0 139 0 0 139 0 0 139 0 0 139 0 0 139 0 0 139 0 0 139 0 0 139 0 0 139 0 0 139 0 0 139 0 0 139 0 0 139 0 0 139 0 0 139 0 0 139 0 0 139 0 0 139 0 0 139 0 0 139 0 0 139 0 0 139 0 0 139 0 0 139 0 0 139 0 0 139 0 0 139 0 0 139 0 0 139 0 0 139 0 0 139 0 0 139 0 0 139 0 0 139 0 0 139 0 0 139 0 0 139 0 0 139 0 0 139 0 0 139 0 0 139 0 0 139 0 0 139 0 0 139 0 0 139 0 0 139 0 0 139 0 0 139 0 0 139 0 0 139 0 0 139 0 0 139 0 0 139 0 0 139 0 0 139 0 0 139 0 0 139 0 0 139 0 0 139 0 0 139 0 0 139 0 0 139 0 0 139 0 0 139 0 0 139 0 0 139 0 0 139 0 0 139 0 0 139 0 0 139 0 0 139 0 0 139 0 0 139 0 0 139 0 0 139 0 0 139 0 0 139 0 0 139 0 0 139 0 0 139 0 0 139 0 0 139 0 0 139 0 0 139 0 0 143 7 8 145 9 10 146 11 12 150 17 18 151 19 20 153 23 24 153 23 24 157 29 30 168 46 49 169 48 51 168 46 49 168 46 49 159 32 34 180 65 69 187 75 80 188 77 82 190 81 86 190 81 86 187 75 80 172 52 55 168 46 49 179 63 67 192 83 88 198 92 98 198 92 98 172 52 55 169 48 51 172 52 55 190 81 86 194 87 92 187 75 80 187 75 80 192 83 88 195 89 94 198 92 98 190 81 86 203 100 106 168 46 49 172 52 55 185 73 78 187 75 80 187 75 80 188 77 82 184 71 75 183 69 73 185 73 78 188 77 82 174 56 59 155 25 26 146 11 12 146 11 12 146 11 12 146 11 12 146 11 12 146 11 12 146 11 12 146 11 12 146 11 12 146 11 12 146 11 12 150 17 18 158 30 32 168 46 49 169 48 51 169 48 51 174 56 59 172 52 55 169 48 51 169 48 51 169 48 51 169 48 51 159 32 34 155 25 26 172 52 55 159 32 34 
139 0 0 139 0 0 139 0 0 139 0 0 143 7 8 139 0 0 139 0 0 139 0 0 139 0 0 143 7 8 139 0 0 139 0 0 139 0 0 139 0 0 139 0 0 139 0 0 139 0 0 139 0 0 139 0 0 139 0 0 139 0 0 139 0 0 139 0 0 139 0 0 139 0 0 139 0 0 139 0 0 139 0 0 139 0 0 139 0 0 139 0 0 139 0 0 139 0 0 139 0 0 139 0 0 139 0 0 139 0 0 139 0 0 139 0 0 139 0 0 139 0 0 139 0 0 139 0 0 139 0 0 139 0 0 139 0 0 139 0 0 139 0 0 139 0 0 139 0 0 139 0 0 139 0 0 139 0 0 139 0 0 139 0 0 139 0 0 139 0 0 139 0 0 139 0 0 139 0 0 139 0 0 139 0 0 139 0 0 139 0 0 139 0 0 139 0 0 139 0 0 139 0 0 139 0 0 139 0 0 139 0 0 139 0 0 139 0 0 139 0 0 139 0 0 139 0 0 139 0 0 139 0 0 139 0 0 139 0 0 139 0 0 139 0 0 139 0 0 139 0 0 139 0 0 139 0 0 139 0 0 139 0 0 139 0 0 139 0 0 139 0 0 139 0 0 139 0 0 139 0 0 139 0 0 139 0 0 139 0 0 139 0 0 139 0 0 139 0 0 139 0 0 139 0 0 139 0 0 139 0 0 139 0 0 139 0 0 139 0 0 139 0 0 139 0 0 139 0 0 139 0 0 139 0 0 139 0 0 139 0 0 139 0 0 139 0 0 139 0 0 139 0 0 139 0 0 139 0 0 139 0 0 139 0 0 139 0 0 139 0 0 139 0 0 139 0 0 139 0 0 139 0 0 139 0 0 139 0 0 139 0 0 139 0 0 139 0 0 139 0 0 139 0 0 139 0 0 139 0 0 139 0 0 139 0 0 139 0 0 139 0 0 139 0 0 139 0 0 139 0 0 139 0 0 143 7 8 145 9 10 146 11 12 150 17 18 151 19 20 153 23 24 153 23 24 157 29 30 168 46 49 169 48 51 168 46 49 168 46 49 159 32 34 180 65 69 187 75 80 188 77 82 190 81 86 190 81 86 187 75 80 172 52 55 168 46 49 179 63 67 192 83 88 198 92 98 198 92 98 172 52 55 169 48 51 172 52 55 190 81 86 194 87 92 187 75 80 187 75 80 192 83 88 195 89 94 198 92 98 190 81 86 203 100 106 168 46 49 172 52 55 185 73 78 187 75 80 187 75 80 188 77 82 184 71 75 183 69 73 185 73 78 188 77 82 174 56 59 155 25 26 146 11 12 146 11 12 146 11 12 146 11 12 146 11 12 146 11 12 146 11 12 146 11 12 146 11 12 146 11 12 146 11 12 150 17 18 158 30 32 168 46 49 169 48 51 169 48 51 174 56 59 172 52 55 169 48 51 169 48 51 169 48 51 169 48 51 159 32 34 155 25 26 172 52 55 159 32 34 
139 0 0 139 0 0 139 0 0 139 0 0 139 0 0 139 0 0 139 0 0 143 7 8 139 0 0 139 0 0 139 0 0 139 0 0 139 0 0 139 0 0 139 0 0 139 0 0 139 0 0 139 0 0 143 7 8 139 0 0 139 0 0 139 0 0 139 0 0 139 0 0 139 0 0 139 0 0 139 0 0 139 0 0 139 0 0 139 0 0 139 0 0 139 0 0 139 0 0 139 0 0 139 0 0 139 0 0 139 0 0 139 0 0 139 0 0 139 0 0 139 0 0 139 0 0 139 0 0 139 0 0 139 0 0 139 0 0 139 0 0 139 0 0 139 0 0 139 0 0 139 0 0 139 0 0 139 0 0 139 0 0 139 0 0 139 0 0 139 0 0 139 0 0 139 0 0 139 0 0 139 0 0 139 0 0 139 0 0 139 0 0 139 0 0 139 0 0 139 0 0 139 0 0 139 0 0 139 0 0 139 0 0 139 0 0 139 0 0 139 0 0 139 0 0 139 0 0 139 0 0 139 0 0 139 0 0 139 0 0 139 0 0 139 0 0 139 0 0 139 0 0 139 0 0 139 0 0 139 0 0 139 0 0 139 0 0 139 0 0 139 0 0 139 0 0 139 0 0 139 0 0 139 0 0 139 0 0 139 0 0 139 0 0 139 0 0 139 0 0 139 0 0 139 0 0 139 0 0 139 0 0 139 0 0 139 0 0 139 0 0 139 0 0 139 0 0 139 0 0 139 0 0 139 0 0 139 0 0 139 0 0 139 0 0 139 0 0 139 0 0 139 0 0 139 0 0 139 0 0 139 0 0 139 0 0 139 0 0 139 0 0 139 0 0 139 0 0 139 0 0 139 0 0 139 0 0 139 0 0 139 0 0 139 0 0 139 0 0 139 0 0 139 0 0 139 0 0 139 0 0 139 0 0 139 0 0 139 0 0 139 0 0 139 0 0 139 0 0 143 7 8 145 9 10 147 13 14 151 19 20 155 25 26 158 30 32 174 56 59 187 75 80 189 79 84 190 81 86 195 89 94 187 75 80 179 63 67 185 73 78 192 83 88 198 92 98 200 96 102 205 104 110 210 112 119 213 116 123 194 87 92 189 79 84 206 106 112 226 137 145 206 106 112 195 89 94 195 89 94 185 73 78 172 52 55 187 75 80 187 75 80 174 56 59 183 69 73 183 69 73 180 65 69 192 83 88 200 96 102 200 96 102 194 87 92 189 79 84 185 73 78 183 69 73 169 48 51 159 32 34 155 25 26 158 30 32 174 56 59 169 48 51 147 13 14 146 11 12 146 11 12 146 11 12 146 11 12 146 11 12 147 13 14 147 13 14 147 13 14 150 17 18 151 19 20 150 17 18 153 23 24 169 48 51 168 46 49 159 32 34 158 30 32 183 69 73 180 65 69 172 52 55 169 48 51 168 46 49 172 52 55 169 48 51 159 32 34 179 63 67 172 52 55 172 52 55 158 30 32 
139 0 0 139 0 0 139 0 0 139 0 0 139 0 0 139 0 0 139 0 0 143 7 8 139 0 0 139 0 0 139 0 0 139 0 0 139 0 0 139 0 0 139 0 0 139 0 0 139 0 0 139 0 0 143 7 8 139 0 0 139 0 0 139 0 0 139 0 0 139 0 0 139 0 0 139 0 0 139 0 0 139 0 0 139 0 0 139 0 0 139 0 0 139 0 0 139 0 0 139 0 0 139 0 0 139 0 0 139 0 0 139 0 0 139 0 0 139 0 0 139 0 0 139 0 0 139 0 0 139 0 0 139 0 0 139 0 0 139 0 0 139 0 0 139 0 0 139 0 0 139 0 0 139 0 0 139 0 0 139 0 0 139 0 0 139 0 0 139 0 0 139 0 0 139 0 0 139 0 0 139 0 0 139 0 0 139 0 0 139 0 0 139 0 0 139 0 0 139 0 0 139 0 0 139 0 0 139 0 0 139 0 0 139 0 0 139 0 0 139 0 0 139 0 0 139 0 0 139 0 0 139 0 0 139 0 0 139 0 0 139 0 0 139 0 0 139 0 0 139 0 0 139 0 0 139 0 0 139 0 0 139 0 0 139 0 0 139 0 0 139 0 0 139 0 0 139 0 0 139 0 0 139 0 0 139 0 0 139 0 0 139 0 0 139 0 0 139 0 0 139 0 0 139 0 0 139 0 0 139 0 0 139 0 0 139 0 0 139 0 0 139 0 0 139 0 0 139 0 0 139 0 0 139 0 0 139 0 0 139 0 0 139 0 0 139 0 0 139 0 0 139 0 0 139 0 0 139 0 0 139 0 0 139 0 0 139 0 0 139 0 0 139 0 0 139 0 0 139 0 0 139 0 0 139 0 0 139 0 0 139 0 0 139 0 0 139 0 0 139 0 0 139 0 0 139 0 0 139 0 0 139 0 0 139 0 0 139 0 0 139 0 0 139 0 0 139 0 0 143 7 8 145 9 10 147 13 14 151 19 20 155 25 26 158 30 32 174 56 59 187 75 80 189 79 84 190 81 86 195 89 94 187 75 80 179 63 67 185 73 78 192 83 88 198 92 98 200 96 102 205 104 110 210 112 119 213 116 123 194 87 92 189 79 84 206 106 112 226 137 145 206 106 112 195 89 94 195 89 94 185 73 78 172 52 55 187 75 80 187 75 80 174 56 59 183 69 73 183 69 73 180 65 69 192 83 88 200 96 102 200 96 102 194 87 92 189 79 84 185 73 78 183 69 73 169 48 51 159 32 34 155 25 26 158 30 32 174 56 59 169 48 51 147 13 14 146 11 12 146 11 12 146 11 12 146 11 12 146 11 12 147 13 14 147 13 14 147 13 14 150 17 18 151 19 20 150 17 18 153 23 24 169 48 51 168 46 49 159 32 34 158 30 32 183 69 73 180 65 69 172 52 55 169 48 51 168 46 49 172 52 55 169 48 51 159 32 34 179 63 67 172 52 55 172 52 55 158 30 32 
139 0 0 139 0 0 139 0 0 143 7 8 143 7 8 139 0 0 139 0 0 139 0 0 139 0 0 139 0 0 139 0 0 139 0 0 139 0 0 139 0 0 139 0 0 139 0 0 139 0 0 139 0 0 139 0 0 143 7 8 139 0 0 139 0 0 139 0 0 139 0 0 139 0 0 139 0 0 139 0 0 139 0 0 139 0 0 139 0 0 139 0 0 139 0 0 139 0 0 139 0 0 139 0 0 139 0 0 139 0 0 139 0 0 139 0 0 139 0 0 139 0 0 139 0 0 139 0 0 139 0 0 139 0 0 139 0 0 139 0 0 139 0 0 139 0 0 139 0 0 139 0 0 139 0 0 139 0 0 139 0 0 139 0 0 139 0 0 139 0 0 139 0 0 139 0 0 139 0 0 139 0 0 139 0 0 139 0 0 139 0 0 139 0 0 139 0 0 139 0 0 139 0 0 139 0 0 139 0 0 139 0 0 139 0 0 139 0 0 139 0 0 139 0 0 139 0 0 139 0 0 139 0 0 139 0 0 139 0 0 139 0 0 139 0 0 139 0 0 139 0 0 139 0 0 139 0 0 139 0 0 139 0 0 139 0 0 139 0 0 139 0 0 139 0 0 139 0 0 139 0 0 139 0 0 139 0 0 139 0 0 139 0 0 139 0 0 139 0 0 139 0 0 139 0 0 139 0 0 139 0 0 139 0 0 139 0 0 139 0 0 139 0 0 139 0 0 139 0 0 139 0 0 139 0 0 139 0 0 139 0 0 139 0 0 139 0 0 139 0 0 139 0 0 139 0 0 139 0 0 139 0 0 139 0 0 139 0 0 139 0 0 139 0 0 139 0 0 139 0 0 139 0 0 139 0 0 139 0 0 139 0 0 139 0 0 139 0 0 139 0 0 139 0 0 139 0 0 139 0 0 139 0 0 139 0 0 143 7 8 143 7 8 151 19 20 187 75 80 195 89 94 203 100 106 200 96 102 174 56 59 183 69 73 185 73 78 198 92 98 205 104 110 204 102 108 205 104 110 216 121 129 210 112 119 227 139 147 232 147 156 215 120 127 226 137 145 241 160 170 252 178 188 255 181 192 231 145 153 232 147 156 204 102 108 184 71 75 180 65 69 174 56 59 179 63 67 174 56 59 180 65 69 174 56 59 174 56 59 183 69 73 179 63 67 179 63 67 172 52 55 169 48 51 180 65 69 184 71 75 188 77 82 153 23 24 147 13 14 146 11 12 145 9 10 145 9 10 145 9 10 145 9 10 145 9 10 146 11 12 146 11 12 146 11 12 145 9 10 145 9 10 146 11 12 147 13 14 147 13 14 146 11 12 146 11 12 151 19 20 168 46 49 174 56 59 179 63 67 174 56 59 172 52 55 158 30 32 157 29 30 159 32 34 168 46 49 169 48 51 179 63 67 168 46 49 158 30 32 172 52 55 169 48 51 168 46 49 172 52 55 180 65 69 159 32 34 168 46 49 
139 0 0 139 0 0 139 0 0 143 7 8 143 7 8 139 0 0 139 0 0 139 0 0 139 0 0 139 0 0 139 0 0 139 0 0 139 0 0 139 0 0 139 0 0 139 0 0 139 0 0 139 0 0 139 0 0 143 7 8 139 0 0 139 0 0 139 0 0 139 0 0 139 0 0 139 0 0 139 0 0 139 0 0 139 0 0 139 0 0 139 0 0 139 0 0 139 0 0 139 0 0 139 0 0 139 0 0 139 0 0 139 0 0 139 0 0 139 0 0 139 0 0 139 0 0 139 0 0 139 0 0 139 0 0 139 0 0 139 0 0 139 0 0 139 0 0 139 0 0 139 0 0 139 0 0 139 0 0 139 0 0 139 0 0 139 0 0 139 0 0 139 0 0 139 0 0 139 0 0 139 0 0 139 0 0 139 0 0 139 0 0 139 0 0 139 0 0 139 0 0 139 0 0 139 0 0 139 0 0 139 0 0 139 0 0 139 0 0 139 0 0 139 0 0 139 0 0 139 0 0 139 0 0 139 0 0 139 0 0 139 0 0 139 0 0 139 0 0 139 0 0 139 0 0 139 0 0 139 0 0 139 0 0 139 0 0 139 0 0 139 0 0 139 0 0 139 0 0 139 0 0 139 0 0 139 0 0 139 0 0 139 0 0 139 0 0 139 0 0 139 0 0 139 0 0 139 0 0 139 0 0 139 0 0 139 0 0 139 0 0 139 0 0 139 0 0 139 0 0 139 0 0 139 0 0 139 0 0 139 0 0 139 0 0 139 0 0 139 0 0 139 0 0 139 0 0 139 0 0 139 0 0 139 0 0 139 0 0 139 0 0 139 0 0 139 0 0 139 0 0 139 0 0 139 0 0 139 0 0 139 0 0 139 0 0 139 0 0 139 0 0 139 0 0 139 0 0 139 0 0 139 0 0 139 0 0 143 7 8 143 7 8 151 19 20 187 75 80 195 89 94 203 100 106 200 96 102 174 56 59 183 69 73 185 73 78 198 92 98 205 104 110 204 102 108 205 104 110 216 121 129 210 112 119 227 139 147 232 147 156 215 120 127 226 137 145 241 160 170 252 178 188 255 181 192 231 145 153 232 147 156 204 102 108 184 71 75 180 65 69 174 56 59 179 63 67 174 56 59 180 65 69 174 56 59 174 56 59 183 69 73 179 63 67 179 63 67 172 52 55 169 48 51 180 65 69 184 71 75 188 77 82 153 23 24 147 13 14 146 11 12 145 9 10 145 9 10 145 9 10 145 9 10 145 9 10 146 11 12 146 11 12 146 11 12 145 9 10 145 9 10 146 11 12 147 13 14 147 13 14 146 11 12 146 11 12 151 19 20 168 46 49 174 56 59 179 63 67 174 56 59 172 52 55 158 30 32 157 29 30 159 32 34 168 46 49 169 48 51 179 63 67 168 46 49 158 30 32 172 52 55 169 48 51 168 46 49 172 52 55 180 65 69 159 32 34 168 46 49 
139 0 0 139 0 0 139 0 0 139 0 0 139 0 0 139 0 0 139 0 0 139 0 0 139 0 0 139 0 0 139 0 0 139 0 0 139 0 0 139 0 0 139 0 0 139 0 0 139 0 0 139 0 0 139 0 0 139 0 0 139 0 0 139 0 0 139 0 0 139 0 0 139 0 0 143 7 8 139 0 0 139 0 0 139 0 0 139 0 0 143 7 8 139 0 0 139 0 0 139 0 0 139 0 0 139 0 0 139 0 0 139 0 0 139 0 0 139 0 0 139 0 0 139 0 0 139 0 0 139 0 0 139 0 0 139 0 0 139 0 0 139 0 0 139 0 0 143 7 8 139 0 0 139 0 0 139 0 0 139 0 0 139 0 0 139 0 0 139 0 0 139 0 0 139 0 0 139 0 0 139 0 0 139 0 0 139 0 0 139 0 0 139 0 0 139 0 0 139 0 0 139 0 0 139 0 0 139 0 0 139 0 0 139 0 0 139 0 0 139 0 0 139 0 0 139 0 0 139 0 0 139 0 0 139 0 0 139 0 0 139 0 0 139 0 0 139 0 0 139 0 0 139 0 0 139 0 0 139 0 0 139 0 0 139 0 0 139 0 0 139 0 0 139 0 0 139 0 0 139 0 0 139 0 0 139 0 0 139 0 0 139 0 0 139 0 0 139 0 0 139 0 0 139 0 0 139 0 0 139 0 0 139 0 0 139 0 0 139 0 0 139 0 0 139 0 0 139 0 0 139 0 0 139 0 0 139 0 0 139 0 0 139 0 0 139 0 0 139 0 0 139 0 0 139 0 0 139 0 0 139 0 0 139 0 0 139 0 0 139 0 0 139 0 0 139 0 0 139 0 0 139 0 0 139 0 0 139 0 0 139 0 0 139 0 0 139 0 0 139 0 0 139 0 0 139 0 0 143 7 8 153 23 24 169 48 51 183 69 73 184 71 75 205 104 110 210 112 119 209 110 117 209 110 117 194 87 92 192 83 88 194 87 92 203 100 106 209 110 117 206 106 112 204 102 108 195 89 94 205 104 110 204 102 108 198 92 98 195 89 94 187 75 80 184 71 75 184 71 75 187 75 80 184 71 75 184 71 75 184 71 75 179 63 67 180 65 69 185 73 78 185 73 78 183 69 73 174 56 59 174 56 59 174 56 59 180 65 69 185 73 78 174 56 59 179 63 67 180 65 69 188 77 82 192 83 88 209 110 117 209 110 117 194 87 92 147 13 14 146 11 12 145 9 10 143 7 8 143 7 8 143 7 8 143 7 8 143 7 8 143 7 8 143 7 8 143 7 8 145 9 10 145 9 10 146 11 12 146 11 12 146 11 12 147 13 14 158 30 32 180 65 69 183 69 73 184 71 75 185 73 78 180 65 69 172 52 55 157 29 30 172 52 55 183 69 73 185 73 78 180 65 69 169 48 51 174 56 59 174 56 59 184 71 75 183 69 73 169 48 51 174 56 59 158 30 32 168 46 49 
139 0 0 139 0 0 139 0 0 139 0 0 139 0 0 139 0 0 139 0 0 139 0 0 139 0 0 139 0 0 139 0 0 139 0 0 139 0 0 139 0 0 139 0 0 139 0 0 139 0 0 139 0 0 139 0 0 139 0 0 139 0 0 139 0 0 139 0 0 139 0 0 139 0 0 143 7 8 139 0 0 139 0 0 139 0 0 139 0 0 143 7 8 139 0 0 139 0 0 139 0 0 139 0 0 139 0 0 139 0 0 139 0 0 139 0 0 139 0 0 139 0 0 139 0 0 139 0 0 139 0 0 139 0 0 139 0 0 139 0 0 139 0 0 139 0 0 143 7 8 139 0 0 139 0 0 139 0 0 139 0 0 139 0 0 139 0 0 139 0 0 139 0 0 139 0 0 139 0 0 139 0 0 139 0 0 139 0 0 139 0 0 139 0 0 139 0 0 139 0 0 139 0 0 139 0 0 139 0 0 139 0 0 139 0 0 139 0 0 139 0 0 139 0 0 139 0 0 139 0 0 139 0 0 139 0 0 139 0 0 139 0 0 139 0 0 139 0 0 139 0 0 139 0 0 139 0 0 139 0 0 139 0 0 139 0 0 139 0 0 139 0 0 139 0 0 139 0 0 139 0 0 139 0 0 139 0 0 139 0 0 139 0 0 139 0 0 139 0 0 139 0 0 139 0 0 139 0 0 139 0 0 139 0 0 139 0 0 139 0 0 139 0 0 139 0 0 139 0 0 139 0 0 139 0 0 139 0 0 139 0 0 139 0 0 139 0 0 139 0 0 139 0 0 139 0 0 139 0 0 139 0 0 139 0 0 139 0 0 139 0 0 139 0 0 139 0 0 139 0 0 139 0 0 139 0 0 139 0 0 139 0 0 139 0 0 139 0 0 139 0 0 139 0 0 139 0 0 143 7 8 153 23 24 169 48 51 183 69 73 184 71 75 205 104 110 210 112 119 209 110 117 209 110 117 194 87 92 192 83 88 194 87 92 203 100 106 209 110 117 206 106 112 204 102 108 195 89 94 205 104 110 204 102 108 198 92 98 195 89 94 187 75 80 184 71 75 184 71 75 187 75 80 184 71 75 184 71 75 184 71 75 179 63 67 180 65 69 185 73 78 185 73 78 183 69 73 174 56 59 174 56 59 174 56 59 180 65 69 185 73 78 174 56 59 179 63 67 180 65 69 188 77 82 192 83 88 209 110 117 209 110 117 194 87 92 147 13 14 146 11 12 145 9 10 143 7 8 143 7 8 143 7 8 143 7 8 143 7 8 143 7 8 143 7 8 143 7 8 145 9 10 145 9 10 146 11 12 146 11 12 146 11 12 147 13 14 158 30 32 180 65 69 183 69 73 184 71 75 185 73 78 180 65 69 172 52 55 157 29 30 172 52 55 183 69 73 185 73 78 180 65 69 169 48 51 174 56 59 174 56 59 184 71 75 183 69 73 169 48 51 174 56 59 158 30 32 168 46 49 
139 0 0 139 0 0 139 0 0 139 0 0 139 0 0 139 0 0 139 0 0 139 0 0 139 0 0 139 0 0 139 0 0 139 0 0 143 7 8 143 7 8 139 0 0 143 7 8 139 0 0 139 0 0 139 0 0 139 0 0 139 0 0 139 0 0 139 0 0 139 0 0 139 0 0 139 0 0 139 0 0 139 0 0 139 0 0 139 0 0 139 0 0 139 0 0 139 0 0 139 0 0 139 0 0 139 0 0 139 0 0 139 0 0 139 0 0 143 7 8 139 0 0 139 0 0 139 0 0 139 0 0 139 0 0 139 0 0 139 0 0 139 0 0 139 0 0 139 0 0 139 0 0 139 0 0 139 0 0 139 0 0 139 0 0 139 0 0 139 0 0 139 0 0 139 0 0 139 0 0 139 0 0 139 0 0 139 0 0 139 0 0 139 0 0 139 0 0 139 0 0 139 0 0 139 0 0 139 0 0 139 0 0 139 0 0 139 0 0 139 0 0 139 0 0 139 0 0 139 0 0 139 0 0 139 0 0 139 0 0 139 0 0 139 0 0 139 0 0 139 0 0 139 0 0 139 0 0 139 0 0 139 0 0 139 0 0 139 0 0 139 0 0 139 0 0 139 0 0 139 0 0 139 0 0 139 0 0 139 0 0 139 0 0 139 0 0 139 0 0 139 0 0 139 0 0 139 0 0 139 0 0 139 0 0 139 0 0 139 0 0 139 0 0 139 0 0 139 0 0 139 0 0 139 0 0 139 0 0 139 0 0 139 0 0 139 0 0 139 0 0 139 0 0 139 0 0 139 0 0 139 0 0 139 0 0 139 0 0 139 0 0 139 0 0 139 0 0 139 0 0 139 0 0 139 0 0 139 0 0 139 0 0 139 0 0 145 9 10 155 25 26 183 69 73 190 81 86 183 69 73 185 73 78 188 77 82 194 87 92 204 102 108 209 110 117 205 104 110 198 92 98 189 79 84 183 69 73 184 71 75 172 52 55 158 30 32 168 46 49 179 63 67 184 71 75 184 71 75 180 65 69 180 65 69 180 65 69 179 63 67 174 56 59 174 56 59 183 69 73 185 73 78 183 69 73 174 56 59 179 63 67 184 71 75 179 63 67 168 46 49 151 19 20 159 32 34 180 65 69 183 69 73 185 73 78 187 75 80 189 79 84 190 81 86 192 83 88 189 79 84 168 46 49 200 96 102 195 89 94 204 102 108 183 69 73 153 23 24 146 11 12 145 9 10 146 11 12 145 9 10 143 7 8 143 7 8 139 0 0 139 0 0 143 7 8 143 7 8 139 0 0 139 0 0 139 0 0 139 0 0 143 7 8 143 7 8 143 7 8 143 7 8 145 9 10 147 13 14 150 17 18 150 17 18 147 13 14 147 13 14 147 13 14 151 19 20 158 30 32 168 46 49 180 65 69 184 71 75 185 73 78 180 65 69 184 71 75 172 52 55 185 73 78 183 69 73 174 56 59 
139 0 0 139 0 0 139 0 0 139 0 0 139 0 0 139 0 0 139 0 0 139 0 0 139 0 0 139 0 0 139 0 0 139 0 0 143 7 8 143 7 8 139 0 0 143 7 8 139 0 0 139 0 0 139 0 0 139 0 0 139 0 0 139 0 0 139 0 0 139 0 0 139 0 0 139 0 0 139 0 0 139 0 0 139 0 0 139 0 0 139 0 0 139 0 0 139 0 0 139 0 0 139 0 0 139 0 0 139 0 0 139 0 0 139 0 0 143 7 8 139 0 0 139 0 0 139 0 0 139 0 0 139 0 0 139 0 0 139 0 0 139 0 0 139 0 0 139 0 0 139 0 0 139 0 0 139 0 0 139 0 0 139 0 0 139 0 0 139 0 0 139 0 0 139 0 0 139 0 0 139 0 0 139 0 0 139 0 0 139 0 0 139 0 0 139 0 0 139 0 0 139 0 0 139 0 0 139 0 0 139 0 0 139 0 0 139 0 0 139 0 0 139 0 0 139 0 0 139 0 0 139 0 0 139 0 0 139 0 0 139 0 0 139 0 0 139 0 0 139 0 0 139 0 0 139 0 0 139 0 0 139 0 0 139 0 0 139 0 0 139 0 0 139 0 0 139 0 0 139 0 0 139 0 0 139 0 0 139 0 0 139 0 0 139 0 0 139 0 0 139 0 0 139 0 0 139 0 0 139 0 0 139 0 0 139 0 0 139 0 0 139 0 0 139 0 0 139 0 0 139 0 0 139 0 0 139 0 0 139 0 0 139 0 0 139 0 0 139 0 0 139 0 0 139 0 0 139 0 0 139 0 0 139 0 0 139 0 0 139 0 0 139 0 0 139 0 0 139 0 0 139 0 0 139 0 0 139 0 0 139 0 0 139 0 0 145 9 10 155 25 26 183 69 73 190 81 86 183 69 73 185 73 78 188 77 82 194 87 92 204 102 108 209 110 117 205 104 110 198 92 98 189 79 84 183 69 73 184 71 75 172 52 55 158 30 32 168 46 49 179 63 67 184 71 75 184 71 75 180 65 69 180 65 69 180 65 69 179 63 67 174 56 59 174 56 59 183 69 73 185 73 78 183 69 73 174 56 59 179 63 67 184 71 75 179 63 67 168 46 49 151 19 20 159 32 34 180 65 69 183 69 73 185 73 78 187 75 80 189 79 84 190 81 86 192 83 88 189 79 84 168 46 49 200 96 102 195 89 94 204 102 108 183 69 73 153 23 24 146 11 12 145 9 10 146 11 12 145 9 10 143 7 8 143 7 8 139 0 0 139 0 0 143 7 8 143 7 8 139 0 0 139 0 0 139 0 0 139 0 0 143 7 8 143 7 8 143 7 8 143 7 8 145 9 10 147 13 14 150 17 18 150 17 18 147 13 14 147 13 14 147 13 14 151 19 20 158 30 32 168 46 49 180 65 69 184 71 75 185 73 78 180 65 69 184 71 75 172 52 55 185 73 78 183 69 73 174 56 59 
139 0 0 139 0 0 139 0 0 139 0 0 139 0 0 143 7 8 139 0 0 139 0 0 139 0 0 139 0 0 139 0 0 139 0 0 139 0 0 139 0 0 139 0 0 139 0 0 139 0 0 139 0 0 139 0 0 139 0 0 139 0 0 139 0 0 139 0 0 139 0 0 139 0 0 139 0 0 139 0 0 139 0 0 139 0 0 139 0 0 139 0 0 139 0 0 139 0 0 139 0 0 139 0 0 139 0 0 139 0 0 139 0 0 139 0 0 139 0 0 139 0 0 139 0 0 139 0 0 139 0 0 139 0 0 139 0 0 139 0 0 143 7 8 139 0 0 139 0 0 139 0 0 139 0 0 139 0 0 139 0 0 139 0 0 139 0 0 139 0 0 139 0 0 139 0 0 139 0 0 139 0 0 139 0 0 139 0 0 139 0 0 139 0 0 139 0 0 139 0 0 139 0 0 139 0 0 139 0 0 139 0 0 139 0 0 139 0 0 139 0 0 139 0 0 139 0 0 139 0 0 139 0 0 139 0 0 139 0 0 139 0 0 139 0 0 139 0 0 139 0 0 139 0 0 139 0 0 139 0 0 139 0 0 139 0 0 139 0 0 139 0 0 139 0 0 139 0 0 139 0 0 139 0 0 139 0 0 139 0 0 139 0 0 139 0 0 139 0 0 139 0 0 139 0 0 139 0 0 139 0 0 139 0 0 139 0 0 139 0 0 139 0 0 139 0 0 139 0 0 139 0 0 139 0 0 139 0 0 139 0 0 139 0 0 139 0 0 139 0 0 139 0 0 139 0 0 139 0 0 139 0 0 139 0 0 139 0 0 139 0 0 139 0 0 139 0 0 143 7 8 146 11 12 151 19 20 174 56 59 190 81 86 194 87 92 203 100 106 204 102 108 192 83 88 188 77 82 188 77 82 187 75 80 184 71 75 180 65 69 172 52 55 168 46 49 169 48 51 169 48 51 174 56 59 179 63 67 174 56 59 174 56 59 180 65 69 179 63 67 179 63 67 180 65 69 180 65 69 183 69 73 183 69 73 180 65 69 180 65 69 183 69 73 179 63 67 174 56 59 179 63 67 180 65 69 180 65 69 179 63 67 174 56 59 172 52 55 150 17 18 169 48 51 174 56 59 190 81 86 203 100 106 195 89 94 204 102 108 200 96 102 205 104 110 200 96 102 194 87 92 189 79 84 190 81 86 195 89 94 190 81 86 153 23 24 147 13 14 146 11 12 146 11 12 146 11 12 146 11 12 145 9 10 143 7 8 143 7 8 143 7 8 143 7 8 143 7 8 143 7 8 139 0 0 139 0 0 143 7 8 143 7 8 139 0 0 139 0 0 139 0 0 143 7 8 143 7 8 143 7 8 143 7 8 143 7 8 143 7 8 143 7 8 143 7 8 143 7 8 143 7 8 145 9 10 146 11 12 146 11 12 153 23 24 157 29 30 159 32 34 172 52 55 185 73 78 183 69 73 
139 0 0 139 0 0 139 0 0 139 0 0 139 0 0 143 7 8 139 0 0 139 0 0 139 0 0 139 0 0 139 0 0 139 0 0 139 0 0 139 0 0 139 0 0 139 0 0 139 0 0 139 0 0 139 0 0 139 0 0 139 0 0 139 0 0 139 0 0 139 0 0 139 0 0 139 0 0 139 0 0 139 0 0 139 0 0 139 0 0 139 0 0 139 0 0 139 0 0 139 0 0 139 0 0 139 0 0 139 0 0 139 0 0 139 0 0 139 0 0 139 0 0 139 0 0 139 0 0 139 0 0 139 0 0 139 0 0 139 0 0 143 7 8 139 0 0 139 0 0 139 0 0 139 0 0 139 0 0 139 0 0 139 0 0 139 0 0 139 0 0 139 0 0 139 0 0 139 0 0 139 0 0 139 0 0 139 0 0 139 0 0 139 0 0 139 0 0 139 0 0 139 0 0 139 0 0 139 0 0 139 0 0 139 0 0 139 0 0 139 0 0 139 0 0 139 0 0 139 0 0 139 0 0 139 0 0 139 0 0 139 0 0 139 0 0 139 0 0 139 0 0 139 0 0 139 0 0 139 0 0 139 0 0 139 0 0 139 0 0 139 0 0 139 0 0 139 0 0 139 0 0 139 0 0 139 0 0 139 0 0 139 0 0 139 0 0 139 0 0 139 0 0 139 0 0 139 0 0 139 0 0 139 0 0 139 0 0 139 0 0 139 0 0 139 0 0 139 0 0 139 0 0 139 0 0 139 0 0 139 0 0 139 0 0 139 0 0 139 0 0 139 0 0 139 0 0 139 0 0 139 0 0 139 0 0 139 0 0 139 0 0 139 0 0 139 0 0 143 7 8 146 11 12 151 19 20 174 56 59 190 81 86 194 87 92 203 100 106 204 102 108 192 83 88 188 77 82 188 77 82 187 75 80 184 71 75 180 65 69 172 52 55 168 46 49 169 48 51 169 48 51 174 56 59 179 63 67 174 56 59 174 56 59 180 65 69 179 63 67 179 63 67 180 65 69 180 65 69 183 69 73 183 69 73 180 65 69 180 65 69 183 69 73 179 63 67 174 56 59 179 63 67 180 65 69 180 65 69 179 63 67 174 56 59 172 52 55 150 17 18 169 48 51 174 56 59 190 81 86 203 100 106 195 89 94 204 102 108 200 96 102 205 104 110 200 96 102 194 87 92 189 79 84 190 81 86 195 89 94 190 81 86 153 23 24 147 13 14 146 11 12 146 11 12 146 11 12 146 11 12 145 9 10 143 7 8 143 7 8 143 7 8 143 7 8 143 7 8 143 7 8 139 0 0 139 0 0 143 7 8 143 7 8 139 0 0 139 0 0 139 0 0 143 7 8 143 7 8 143 7 8 143 7 8 143 7 8 143 7 8 143 7 8 143 7 8 143 7 8 143 7 8 145 9 10 146 11 12 146 11 12 153 23 24 157 29 30 159 32 34 172 52 55 185 73 78 183 69 73 
139 0 0 139 0 0 139 0 0 139 0 0 139 0 0 139 0 0 143 7 8 139 0 0 139 0 0 139 0 0 139 0 0 139 0 0 139 0 0 139 0 0 139 0 0 139 0 0 139 0 0 139 0 0 139 0 0 139 0 0 139 0 0 139 0 0 143 7 8 139 0 0 139 0 0 139 0 0 139 0 0 139 0 0 139 0 0 139 0 0 139 0 0 139 0 0 139 0 0 139 0 0 139 0 0 139 0 0 139 0 0 139 0 0 139 0 0 139 0 0 139 0 0 139 0 0 139 0 0 139 0 0 139 0 0 139 0 0 139 0 0 139 0 0 139 0 0 139 0 0 139 0 0 139 0 0 139 0 0 139 0 0 139 0 0 139 0 0 139 0 0 139 0 0 139 0 0 139 0 0 139 0 0 139 0 0 139 0 0 139 0 0 139 0 0 139 0 0 139 0 0 139 0 0 139 0 0 139 0 0 139 0 0 139 0 0 139 0 0 139 0 0 139 0 0 139 0 0 139 0 0 139 0 0 139 0 0 139 0 0 139 0 0 139 0 0 139 0 0 139 0 0 139 0 0 139 0 0 139 0 0 139 0 0 139 0 0 139 0 0 139 0 0 139 0 0 139 0 0 139 0 0 139 0 0 139 0 0 139 0 0 139 0 0 139 0 0 139 0 0 139 0 0 139 0 0 139 0 0 139 0 0 139 0 0 139 0 0 139 0 0 139 0 0 139 0 0 139 0 0 139 0 0 139 0 0 139 0 0 139 0 0 139 0 0 139 0 0 139 0 0 139 0 0 139 0 0 139 0 0 139 0 0 139 0 0 139 0 0 139 0 0 143 7 8 155 25 26 185 73 78 190 81 86 200 96 102 209 110 117 200 96 102 194 87 92 179 63 67 158 30 32 155 25 26 153 23 24 172 52 55 172 52 55 172 52 55 172 52 55 179 63 67 172 52 55 174 56 59 180 65 69 180 65 69 180 65 69 183 69 73 183 69 73 184 71 75 184 71 75 179 63 67 172 52 55 180 65 69 189 79 84 188 77 82 185 73 78 184 71 75 183 69 73 183 69 73 184 71 75 189 79 84 195 89 94 198 92 98 188 77 82 188 77 82 187 75 80 185 73 78 190 81 86 190 81 86 189 79 84 192 83 88 200 96 102 195 89 94 198 92 98 198 92 98 188 77 82 188 77 82 194 87 92 194 87 92 189 79 84 172 52 55 153 23 24 150 17 18 147 13 14 146 11 12 146 11 12 146 11 12 143 7 8 143 7 8 143 7 8 143 7 8 143 7 8 143 7 8 143 7 8 143 7 8 143 7 8 143 7 8 143 7 8 143 7 8 143 7 8 143 7 8 143 7 8 143 7 8 143 7 8 143 7 8 143 7 8 143 7 8 143 7 8 143 7 8 143 7 8 143 7 8 143 7 8 143 7 8 143 7 8 143 7 8 143 7 8 143 7 8 143 7 8 145 9 10 147 13 14 
139 0 0 139 0 0 139 0 0 139 0 0 139 0 0 139 0 0 143 7 8 139 0 0 139 0 0 139 0 0 139 0 0 139 0 0 139 0 0 139 0 0 139 0 0 139 0 0 139 0 0 139 0 0 139 0 0 139 0 0 139 0 0 139 0 0 143 7 8 139 0 0 139 0 0 139 0 0 139 0 0 139 0 0 139 0 0 139 0 0 139 0 0 139 0 0 139 0 0 139 0 0 139 0 0 139 0 0 139 0 0 139 0 0 139 0 0 139 0 0 139 0 0 139 0 0 139 0 0 139 0 0 139 0 0 139 0 0 139 0 0 139 0 0 139 0 0 139 0 0 139 0 0 139 0 0 139 0 0 139 0 0 139 0 0 139 0 0 139 0 0 139 0 0 139 0 0 139 0 0 139 0 0 139 0 0 139 0 0 139 0 0 139 0 0 139 0 0 139 0 0 139 0 0 139 0 0 139 0 0 139 0 0 139 0 0 139 0 0 139 0 0 139 0 0 139 0 0 139 0 0 139 0 0 139 0 0 139 0 0 139 0 0 139 0 0 139 0 0 139 0 0 139 0 0 139 0 0 139 0 0 139 0 0 139 0 0 139 0 0 139 0 0 139 0 0 139 0 0 139 0 0 139 0 0 139 0 0 139 0 0 139 0 0 139 0 0 139 0 0 139 0 0 139 0 0 139 0 0 139 0 0 139 0 0 139 0 0 139 0 0 139 0 0 139 0 0 139 0 0 139 0 0 139 0 0 139 0 0 139 0 0 139 0 0 139 0 0 139 0 0 139 0 0 139 0 0 139 0 0 139 0 0 139 0 0 139 0 0 139 0 0 143 7 8 155 25 26 185 73 78 190 81 86 200 96 102 209 110 117 200 96 102 194 87 92 179 63 67 158 30 32 155 25 26 153 23 24 172 52 55 172 52 55 172 52 55 172 52 55 179 63 67 172 52 55 174 56 59 180 65 69 180 65 69 180 65 69 183 69 73 183 69 73 184 71 75 184 71 75 179 63 67 172 52 55 180 65 69 189 79 84 188 77 82 185 73 78 184 71 75 183 69 73 183 69 73 184 71 75 189 79 84 195 89 94 198 92 98 188 77 82 188 77 82 187 75 80 185 73 78 190 81 86 190 81 86 189 79 84 192 83 88 200 96 102 195 89 94 198 92 98 198 92 98 188 77 82 188 77 82 194 87 92 194 87 92 189 79 84 172 52 55 153 23 24 150 17 18 147 13 14 146 11 12 146 11 12 146 11 12 143 7 8 143 7 8 143 7 8 143 7 8 143 7 8 143 7 8 143 7 8 143 7 8 143 7 8 143 7 8 143 7 8 143 7 8 143 7 8 143 7 8 143 7 8 143 7 8 143 7 8 143 7 8 143 7 8 143 7 8 143 7 8 143 7 8 143 7 8 143 7 8 143 7 8 143 7 8 143 7 8 143 7 8 143 7 8 143 7 8 143 7 8 145 9 10 147 13 14 
139 0 0 139 0 0 139 0 0 139 0 0 139 0 0 139 0 0 139 0 0 139 0 0 139 0 0 139 0 0 139 0 0 139 0 0 139 0 0 139 0 0 143 7 8 139 0 0 139 0 0 139 0 0 139 0 0 139 0 0 139 0 0 139 0 0 139 0 0 139 0 0 139 0 0 139 0 0 139 0 0 139 0 0 139 0 0 139 0 0 139 0 0 139 0 0 139 0 0 139 0 0 139 0 0 139 0 0 139 0 0 139 0 0 139 0 0 139 0 0 139 0 0 139 0 0 139 0 0 139 0 0 139 0 0 139 0 0 139 0 0 139 0 0 139 0 0 139 0 0 139 0 0 139 0 0 139 0 0 139 0 0 139 0 0 139 0 0 139 0 0 139 0 0 139 0 0 139 0 0 139 0 0 139 0 0 139 0 0 139 0 0 139 0 0 139 0 0 139 0 0 139 0 0 139 0 0 139 0 0 139 0 0 139 0 0 139 0 0 139 0 0 139 0 0 139 0 0 139 0 0 139 0 0 139 0 0 139 0 0 139 0 0 139 0 0 139 0 0 139 0 0 139 0 0 139 0 0 139 0 0 139 0 0 139 0 0 139 0 0 139 0 0 139 0 0 139 0 0 139 0 0 139 0 0 139 0 0 139 0 0 139 0 0 139 0 0 139 0 0 139 0 0 139 0 0 139 0 0 139 0 0 139 0 0 139 0 0 139 0 0 139 0 0 139 0 0 139 0 0 139 0 0 139 0 0 139 0 0 139 0 0 139 0 0 139 0 0 139 0 0 139 0 0 139 0 0 139 0 0 139 0 0 139 0 0 139 0 0 139 0 0 146 11 12 180 65 69 187 75 80 180 65 69 168 46 49 159 32 34 169 48 51 159 32 34 174 56 59 179 63 67 174 56 59 179 63 67 183 69 73 180 65 69 180 65 69 180 65 69 180 65 69 179 63 67 179 63 67 185 73 78 187 75 80 188 77 82 189 79 84 188 77 82 188 77 82 189 79 84 174 56 59 147 13 14 147 13 14 172 52 55 188 77 82 188 77 82 188 77 82 187 75 80 183 69 73 184 71 75 189 79 84 190 81 86 189 79 84 194 87 92 190 81 86 190 81 86 189 79 84 189 79 84 187 75 80 192 83 88 194 87 92 198 92 98 195 89 94 192 83 88 189 79 84 189 79 84 189 79 84 189 79 84 185 73 78 157 29 30 155 25 26 151 19 20 147 13 14 146 11 12 146 11 12 145 9 10 146 11 12 143 7 8 143 7 8 143 7 8 143 7 8 143 7 8 139 0 0 139 0 0 143 7 8 143 7 8 143 7 8 139 0 0 143 7 8 143 7 8 145 9 10 143 7 8 143 7 8 143 7 8 143 7 8 143 7 8 143 7 8 143 7 8 143 7 8 143 7 8 143 7 8 143 7 8 143 7 8 143 7 8 143 7 8 143 7 8 143 7 8 143 7 8 143 7 8 143 7 8 
139 0 0 139 0 0 139 0 0 139 0 0 139 0 0 139 0 0 139 0 0 139 0 0 139 0 0 139 0 0 139 0 0 139 0 0 139 0 0 139 0 0 143 7 8 139 0 0 139 0 0 139 0 0 139 0 0 139 0 0 139 0 0 139 0 0 139 0 0 139 0 0 139 0 0 139 0 0 139 0 0 139 0 0 139 0 0 139 0 0 139 0 0 139 0 0 139 0 0 139 0 0 139 0 0 139 0 0 139 0 0 139 0 0 139 0 0 139 0 0 139 0 0 139 0 0 139 0 0 139 0 0 139 0 0 139 0 0 139 0 0 139 0 0 139 0 0 139 0 0 139 0 0 139 0 0 139 0 0 139 0 0 139 0 0 139 0 0 139 0 0 139 0 0 139 0 0 139 0 0 139 0 0 139 0 0 139 0 0 139 0 0 139 0 0 139 0 0 139 0 0 139 0 0 139 0 0 139 0 0 139 0 0 139 0 0 139 0 0 139 0 0 139 0 0 139 0 0 139 0 0 139 0 0 139 0 0 139 0 0 139 0 0 139 0 0 139 0 0 139 0 0 139 0 0 139 0 0 139 0 0 139 0 0 139 0 0 139 0 0 139 0 0 139 0 0 139 0 0 139 0 0 139 0 0 139 0 0 139 0 0 139 0 0 139 0 0 139 0 0 139 0 0 139 0 0 139 0 0 139 0 0 139 0 0 139 0 0 139 0 0 139 0 0 139 0 0 139 0 0 139 0 0 139 0 0 139 0 0 139 0 0 139 0 0 139 0 0 139 0 0 139 0 0 139 0 0 139 0 0 139 0 0 139 0 0 139 0 0 139 0 0 146 11 12 180 65 69 187 75 80 180 65 69 168 46 49 159 32 34 169 48 51 159 32 34 174 56 59 179 63 67 174 56 59 179 63 67 183 69 73 180 65 69 180 65 69 180 65 69 180 65 69 179 63 67 179 63 67 185 73 78 187 75 80 188 77 82 189 79 84 188 77 82 188 77 82 189 79 84 174 56 59 147 13 14 147 13 14 172 52 55 188 77 82 188 77 82 188 77 82 187 75 80 183 69 73 184 71 75 189 79 84 190 81 86 189 79 84 194 87 92 190 81 86 190 81 86 189 79 84 189 79 84 187 75 80 192 83 88 194 87 92 198 92 98 195 89 94 192 83 88 189 79 84 189 79 84 189 79 84 189 79 84 185 73 78 157 29 30 155 25 26 151 19 20 147 13 14 146 11 12 146 11 12 145 9 10 146 11 12 143 7 8 143 7 8 143 7 8 143 7 8 143 7 8 139 0 0 139 0 0 143 7 8 143 7 8 143 7 8 139 0 0 143 7 8 143 7 8 145 9 10 143 7 8 143 7 8 143 7 8 143 7 8 143 7 8 143 7 8 143 7 8 143 7 8 143 7 8 143 7 8 143 7 8 143 7 8 143 7 8 143 7 8 143 7 8 143 7 8 143 7 8 143 7 8 143 7 8 
139 0 0 139 0 0 139 0 0 143 7 8 143 7 8 139 0 0 139 0 0 139 0 0 139 0 0 139 0 0 139 0 0 139 0 0 143 7 8 139 0 0 143 7 8 139 0 0 139 0 0 139 0 0 139 0 0 139 0 0 139 0 0 139 0 0 139 0 0 139 0 0 139 0 0 139 0 0 139 0 0 139 0 0 143 7 8 139 0 0 139 0 0 139 0 0 139 0 0 139 0 0 139 0 0 139 0 0 139 0 0 143 7 8 139 0 0 139 0 0 139 0 0 139 0 0 139 0 0 139 0 0 143 7 8 139 0 0 139 0 0 143 7 8 139 0 0 139 0 0 139 0 0 139 0 0 139 0 0 139 0 0 139 0 0 139 0 0 139 0 0 139 0 0 139 0 0 143 7 8 139 0 0 143 7 8 139 0 0 139 0 0 139 0 0 139 0 0 139 0 0 139 0 0 139 0 0 139 0 0 139 0 0 139 0 0 139 0 0 139 0 0 139 0 0 139 0 0 139 0 0 139 0 0 139 0 0 139 0 0 139 0 0 139 0 0 139 0 0 139 0 0 139 0 0 139 0 0 139 0 0 139 0 0 139 0 0 139 0 0 139 0 0 139 0 0 139 0 0 139 0 0 139 0 0 139 0 0 139 0 0 139 0 0 139 0 0 139 0 0 139 0 0 139 0 0 139 0 0 139 0 0 139 0 0 139 0 0 139 0 0 139 0 0 139 0 0 139 0 0 139 0 0 139 0 0 139 0 0 139 0 0 139 0 0 139 0 0 139 0 0 139 0 0 139 0 0 139 0 0 139 0 0 143 7 8 146 11 12 159 32 34 159 32 34 168 46 49 158 30 32 168 46 49 174 56 59 169 48 51 169 48 51 151 19 20 151 19 20 159 32 34 158 30 32 172 52 55 172 52 55 179 63 67 183 69 73 183 69 73 185 73 78 183 69 73 183 69 73 180 65 69 153 23 24 151 19 20 158 30 32 185 73 78 183 69 73 180 65 69 179 63 67 179 63 67 183 69 73 187 75 80 184 71 75 189 79 84 180 65 69 174 56 59 192 83 88 195 89 94 188 77 82 188 77 82 189 79 84 190 81 86 188 77 82 189 79 84 192 83 88 190 81 86 189 79 84 187 75 80 187 75 80 185 73 78 192 83 88 187 75 80 187 75 80 183 69 73 168 46 49 158 30 32 169 48 51 151 19 20 150 17 18 150 17 18 147 13 14 146 11 12 145 9 10 145 9 10 145 9 10 143 7 8 143 7 8 145 9 10 145 9 10 150 17 18 169 48 51 180 65 69 172 52 55 169 48 51 157 29 30 147 13 14 143 7 8 153 23 24 153 23 24 159 32 34 183 69 73 179 63 67 172 52 55 174 56 59 168 46 49 157 29 30 151 19 20 150 17 18 147 13 14 147 13 14 146 11 12 146 11 12 143 7 8 145 9 10 145 9 10 145 9 10 143 7 8 143 7 8 
139 0 0 139 0 0 139 0 0 143 7 8 143 7 8 139 0 0 139 0 0 139 0 0 139 0 0 139 0 0 139 0 0 139 0 0 143 7 8 139 0 0 143 7 8 139 0 0 139 0 0 139 0 0 139 0 0 139 0 0 139 0 0 139 0 0 139 0 0 139 0 0 139 0 0 139 0 0 139 0 0 139 0 0 143 7 8 139 0 0 139 0 0 139 0 0 139 0 0 139 0 0 139 0 0 139 0 0 139 0 0 143 7 8 139 0 0 139 0 0 139 0 0 139 0 0 139 0 0 139 0 0 143 7 8 139 0 0 139 0 0 143 7 8 139 0 0 139 0 0 139 0 0 139 0 0 139 0 0 139 0 0 139 0 0 139 0 0 139 0 0 139 0 0 139 0 0 143 7 8 139 0 0 143 7 8 139 0 0 139 0 0 139 0 0 139 0 0 139 0 0 139 0 0 139 0 0 139 0 0 139 0 0 139 0 0 139 0 0 139 0 0 139 0 0 139 0 0 139 0 0 139 0 0 139 0 0 139 0 0 139 0 0 139 0 0 139 0 0 139 0 0 139 0 0 139 0 0 139 0 0 139 0 0 139 0 0 139 0 0 139 0 0 139 0 0 139 0 0 139 0 0 139 0 0 139 0 0 139 0 0 139 0 0 139 0 0 139 0 0 139 0 0 139 0 0 139 0 0 139 0 0 139 0 0 139 0 0 139 0 0 139 0 0 139 0 0 139 0 0 139 0 0 139 0 0 139 0 0 139 0 0 139 0 0 139 0 0 139 0 0 139 0 0 139 0 0 139 0 0 139 0 0 143 7 8 146 11 12 159 32 34 159 32 34 168 46 49 158 30 32 168 46 49 174 56 59 169 48 51 169 48 51 151 19 20 151 19 20 159 32 34 158 30 32 172 52 55 172 52 55 179 63 67 183 69 73 183 69 73 185 73 78 183 69 73 183 69 73 180 65 69 153 23 24 151 19 20 158 30 32 185 73 78 183 69 73 180 65 69 179 63 67 179 63 67 183 69 73 187 75 80 184 71 75 189 79 84 180 65 69 174 56 59 192 83 88 195 89 94 188 77 82 188 77 82 189 79 84 190 81 86 188 77 82 189 79 84 192 83 88 190 81 86 189 79 84 187 75 80 187 75 80 185 73 78 192 83 88 187 75 80 187 75 80 183 69 73 168 46 49 158 30 32 169 48 51 151 19 20 150 17 18 150 17 18 147 13 14 146 11 12 145 9 10 145 9 10 145 9 10 143 7 8 143 7 8 145 9 10 145 9 10 150 17 18 169 48 51 180 65 69 172 52 55 169 48 51 157 29 30 147 13 14 143 7 8 153 23 24 153 23 24 159 32 34 183 69 73 179 63 67 172 52 55 174 56 59 168 46 49 157 29 30 151 19 20 150 17 18 147 13 14 147 13 14 146 11 12 146 11 12 143 7 8 145 9 10 145 9 10 145 9 10 143 7 8 143 7 8 
139 0 0 143 7 8 139 0 0 139 0 0 139 0 0 139 0 0 139 0 0 139 0 0 139 0 0 139 0 0 143 7 8 139 0 0 143 7 8 139 0 0 139 0 0 139 0 0 139 0 0 139 0 0 139 0 0 139 0 0 139 0 0 139 0 0 139 0 0 139 0 0 139 0 0 139 0 0 139 0 0 139 0 0 139 0 0 139 0 0 139 0 0 139 0 0 139 0 0 139 0 0 139 0 0 139 0 0 139 0 0 139 0 0 139 0 0 139 0 0 139 0 0 139 0 0 139 0 0 139 0 0 139 0 0 139 0 0 139 0 0 139 0 0 139 0 0 139 0 0 139 0 0 139 0 0 139 0 0 139 0 0 139 0 0 139 0 0 139 0 0 139 0 0 139 0 0 139 0 0 139 0 0 139 0 0 139 0 0 139 0 0 139 0 0 139 0 0 139 0 0 139 0 0 139 0 0 139 0 0 139 0 0 139 0 0 139 0 0 139 0 0 139 0 0 139 0 0 139 0 0 139 0 0 139 0 0 139 0 0 139 0 0 139 0 0 139 0 0 139 0 0 139 0 0 139 0 0 139 0 0 139 0 0 139 0 0 139 0 0 139 0 0 139 0 0 139 0 0 139 0 0 139 0 0 139 0 0 139 0 0 139 0 0 139 0 0 139 0 0 139 0 0 139 0 0 139 0 0 139 0 0 139 0 0 139 0 0 139 0 0 139 0 0 139 0 0 139 0 0 139 0 0 139 0 0 139 0 0 139 0 0 139 0 0 139 0 0 139 0 0 139 0 0 143 7 8 151 19 20 168 46 49 169 48 51 168 46 49 168 46 49 174 56 59 180 65 69 179 63 67 184 71 75 180 65 69 183 69 73 183 69 73 187 75 80 188 77 82 147 13 14 150 17 18 147 13 14 147 13 14 147 13 14 147 13 14 147 13 14 146 11 12 145 9 10 146 11 12 151 19 20 158 30 32 180 65 69 174 56 59 174 56 59 172 52 55 185 73 78 192 83 88 180 65 69 168 46 49 192 83 88 190 81 86 192 83 88 198 92 98 188 77 82 179 63 67 174 56 59 180 65 69 180 65 69 184 71 75 189 79 84 185 73 78 187 75 80 187 75 80 184 71 75 187 75 80 188 77 82 180 65 69 172 52 55 169 48 51 147 13 14 169 48 51 153 23 24 168 46 49 157 29 30 151 19 20 153 23 24 147 13 14 150 17 18 147 13 14 153 23 24 157 29 30 155 25 26 157 29 30 150 17 18 147 13 14 168 46 49 172 52 55 158 30 32 158 30 32 172 52 55 174 56 59 169 48 51 172 52 55 158 30 32 151 19 20 146 11 12 143 7 8 143 7 8 155 25 26 169 48 51 179 63 67 180 65 69 155 25 26 168 46 49 179 63 67 185 73 78 187 75 80 180 65 69 189 79 84 180 65 69 188 77 82 179 63 67 159 32 34 187 75 80 184 71 75 184 71 75 
139 0 0 143 7 8 139 0 0 139 0 0 139 0 0 139 0 0 139 0 0 139 0 0 139 0 0 139 0 0 143 7 8 139 0 0 143 7 8 139 0 0 139 0 0 139 0 0 139 0 0 139 0 0 139 0 0 139 0 0 139 0 0 139 0 0 139 0 0 139 0 0 139 0 0 139 0 0 139 0 0 139 0 0 139 0 0 139 0 0 139 0 0 139 0 0 139 0 0 139 0 0 139 0 0 139 0 0 139 0 0 139 0 0 139 0 0 139 0 0 139 0 0 139 0 0 139 0 0 139 0 0 139 0 0 139 0 0 139 0 0 139 0 0 139 0 0 139 0 0 139 0 0 139 0 0 139 0 0 139 0 0 139 0 0 139 0 0 139 0 0 139 0 0 139 0 0 139 0 0 139 0 0 139 0 0 139 0 0 139 0 0 139 0 0 139 0 0 139 0 0 139 0 0 139 0 0 139 0 0 139 0 0 139 0 0 139 0 0 139 0 0 139 0 0 139 0 0 139 0 0 139 0 0 139 0 0 139 0 0 139 0 0 139 0 0 139 0 0 139 0 0 139 0 0 139 0 0 139 0 0 139 0 0 139 0 0 139 0 0 139 0 0 139 0 0 139 0 0 139 0 0 139 0 0 139 0 0 139 0 0 139 0 0 139 0 0 139 0 0 139 0 0 139 0 0 139 0 0 139 0 0 139 0 0 139 0 0 139 0 0 139 0 0 139 0 0 139 0 0 139 0 0 139 0 0 139 0 0 139 0 0 139 0 0 139 0 0 139 0 0 139 0 0 143 7 8 151 19 20 168 46 49 169 48 51 168 46 49 168 46 49 174 56 59 180 65 69 179 63 67 184 71 75 180 65 69 183 69 73 183 69 73 187 75 80 188 77 82 147 13 14 150 17 18 147 13 14 147 13 14 147 13 14 147 13 14 147 13 14 146 11 12 145 9 10 146 11 12 151 19 20 158 30 32 180 65 69 174 56 59 174 56 59 172 52 55 185 73 78 192 83 88 180 65 69 168 46 49 192 83 88 190 81 86 192 83 88 198 92 98 188 77 82 179 63 67 174 56 59 180 65 69 180 65 69 184 71 75 189 79 84 185 73 78 187 75 80 187 75 80 184 71 75 187 75 80 188 77 82 180 65 69 172 52 55 169 48 51 147 13 14 169 48 51 153 23 24 168 46 49 157 29 30 151 19 20 153 23 24 147 13 14 150 17 18 147 13 14 153 23 24 157 29 30 155 25 26 157 29 30 150 17 18 147 13 14 168 46 49 172 52 55 158 30 32 158 30 32 172 52 55 174 56 59 169 48 51 172 52 55 158 30 32 151 19 20 146 11 12 143 7 8 143 7 8 155 25 26 169 48 51 179 63 67 180 65 69 155 25 26 168 46 49 179 63 67 185 73 78 187 75 80 180 65 69 189 79 84 180 65 69 188 77 82 179 63 67 159 32 34 187 75 80 184 71 75 184 71 75 
139 0 0 139 0 0 139 0 0 139 0 0 139 0 0 139 0 0 139 0 0 139 0 0 139 0 0 139 0 0 139 0 0 139 0 0 139 0 0 139 0 0 139 0 0 139 0 0 139 0 0 139 0 0 139 0 0 139 0 0 139 0 0 139 0 0 139 0 0 139 0 0 139 0 0 139 0 0 139 0 0 139 0 0 139 0 0 139 0 0 139 0 0 139 0 0 139 0 0 139 0 0 139 0 0 139 0 0 139 0 0 139 0 0 139 0 0 139 0 0 139 0 0 139 0 0 139 0 0 139 0 0 139 0 0 139 0 0 139 0 0 139 0 0 139 0 0 139 0 0 139 0 0 139 0 0 139 0 0 139 0 0 139 0 0 139 0 0 139 0 0 139 0 0 139 0 0 139 0 0 139 0 0 139 0 0 139 0 0 139 0 0 139 0 0 139 0 0 139 0 0 139 0 0 139 0 0 143 7 8 139 0 0 139 0 0 139 0 0 139 0 0 139 0 0 139 0 0 139 0 0 139 0 0 139 0 0 139 0 0 139 0 0 139 0 0 139 0 0 139 0 0 139 0 0 139 0 0 139 0 0 139 0 0 139 0 0 139 0 0 139 0 0 139 0 0 139 0 0 139 0 0 139 0 0 139 0 0 139 0 0 139 0 0 139 0 0 139 0 0 139 0 0 139 0 0 139 0 0 139 0 0 139 0 0 139 0 0 139 0 0 139 0 0 139 0 0 139 0 0 139 0 0 139 0 0 139 0 0 139 0 0 139 0 0 146 11 12 153 23 24 169 48 51 169 48 51 172 52 55 179 63 67 184 71 75 183 69 73 184 71 75 184 71 75 183 69 73 184 71 75 185 73 78 185 73 78 187 75 80 187 75 80 185 73 78 183 69 73 184 71 75 179 63 67 174 56 59 159 32 34 183 69 73 180 65 69 187 75 80 215 120 127 179 63 67 179 63 67 179 63 67 180 65 69 174 56 59 180 65 69 180 65 69 174 56 59 180 65 69 188 77 82 195 89 94 198 92 98 198 92 98 195 89 94 192 83 88 190 81 86 189 79 84 189 79 84 190 81 86 187 75 80 183 69 73 183 69 73 174 56 59 187 75 80 185 73 78 184 71 75 183 69 73 172 52 55 169 48 51 172 52 55 169 48 51 172 52 55 157 29 30 168 46 49 155 25 26 157 29 30 169 48 51 180 65 69 180 65 69 179 63 67 174 56 59 172 52 55 168 46 49 172 52 55 174 56 59 168 46 49 155 25 26 157 29 30 158 30 32 158 30 32 157 29 30 157 29 30 159 32 34 174 56 59 172 52 55 157 29 30 155 25 26 153 23 24 147 13 14 145 9 10 143 7 8 143 7 8 143 7 8 145 9 10 150 17 18 169 48 51 172 52 55 169 48 51 174 56 59 169 48 51 174 56 59 172 52 55 172 52 55 172 52 55 169 48 51 179 63 67 168 46 49 157 29 30 143 7 8 
139 0 0 139 0 0 139 0 0 139 0 0 139 0 0 139 0 0 139 0 0 139 0 0 139 0 0 139 0 0 139 0 0 139 0 0 139 0 0 139 0 0 139 0 0 139 0 0 139 0 0 139 0 0 139 0 0 139 0 0 139 0 0 139 0 0 139 0 0 139 0 0 139 0 0 139 0 0 139 0 0 139 0 0 139 0 0 139 0 0 139 0 0 139 0 0 139 0 0 139 0 0 139 0 0 139 0 0 139 0 0 139 0 0 139 0 0 139 0 0 139 0 0 139 0 0 139 0 0 139 0 0 139 0 0 139 0 0 139 0 0 139 0 0 139 0 0 139 0 0 139 0 0 139 0 0 139 0 0 139 0 0 139 0 0 139 0 0 139 0 0 139 0 0 139 0 0 139 0 0 139 0 0 139 0 0 139 0 0 139 0 0 139 0 0 139 0 0 139 0 0 139 0 0 139 0 0 143 7 8 139 0 0 139 0 0 139 0 0 139 0 0 139 0 0 139 0 0 139 0 0 139 0 0 139 0 0 139 0 0 139 0 0 139 0 0 139 0 0 139 0 0 139 0 0 139 0 0 139 0 0 139 0 0 139 0 0 139 0 0 139 0 0 139 0 0 139 0 0 139 0 0 139 0 0 139 0 0 139 0 0 139 0 0 139 0 0 139 0 0 139 0 0 139 0 0 139 0 0 139 0 0 139 0 0 139 0 0 139 0 0 139 0 0 139 0 0 139 0 0 139 0 0 139 0 0 139 0 0 139 0 0 139 0 0 146 11 12 153 23 24 169 48 51 169 48 51 172 52 55 179 63 67 184 71 75 183 69 73 184 71 75 184 71 75 183 69 73 184 71 75 185 73 78 185 73 78 187 75 80 187 75 80 185 73 78 183 69 73 184 71 75 179 63 67 174 56 59 159 32 34 183 69 73 180 65 69 187 75 80 215 120 127 179 63 67 179 63 67 179 63 67 180 65 69 174 56 59 180 65 69 180 65 69 174 56 59 180 65 69 188 77 82 195 89 94 198 92 98 198 92 98 195 89 94 192 83 88 190 81 86 189 79 84 189 79 84 190 81 86 187 75 80 183 69 73 183 69 73 174 56 59 187 75 80 185 73 78 184 71 75 183 69 73 172 52 55 169 48 51 172 52 55 169 48 51 172 52 55 157 29 30 168 46 49 155 25 26 157 29 30 169 48 51 180 65 69 180 65 69 179 63 67 174 56 59 172 52 55 168 46 49 172 52 55 174 56 59 168 46 49 155 25 26 157 29 30 158 30 32 158 30 32 157 29 30 157 29 30 159 32 34 174 56 59 172 52 55 157 29 30 155 25 26 153 23 24 147 13 14 145 9 10 143 7 8 143 7 8 143 7 8 145 9 10 150 17 18 169 48 51 172 52 55 169 48 51 174 56 59 169 48 51 174 56 59 172 52 55 172 52 55 172 52 55 169 48 51 179 63 67 168 46 49 157 29 30 143 7 8 
139 0 0 139 0 0 139 0 0 139 0 0 139 0 0 139 0 0 139 0 0 139 0 0 139 0 0 139 0 0 139 0 0 139 0 0 139 0 0 139 0 0 139 0 0 139 0 0 139 0 0 139 0 0 139 0 0 139 0 0 139 0 0 139 0 0 143 7 8 143 7 8 139 0 0 139 0 0 139 0 0 139 0 0 139 0 0 139 0 0 139 0 0 139 0 0 139 0 0 139 0 0 139 0 0 139 0 0 139 0 0 143 7 8 139 0 0 139 0 0 139 0 0 139 0 0 139 0 0 139 0 0 143 7 8 139 0 0 139 0 0 139 0 0 139 0 0 139 0 0 139 0 0 139 0 0 139 0 0 139 0 0 139 0 0 139 0 0 139 0 0 139 0 0 139 0 0 139 0 0 139 0 0 139 0 0 139 0 0 139 0 0 139 0 0 139 0 0 139 0 0 139 0 0 139 0 0 139 0 0 139 0 0 139 0 0 139 0 0 139 0 0 139 0 0 139 0 0 139 0 0 139 0 0 139 0 0 139 0 0 139 0 0 139 0 0 139 0 0 139 0 0 139 0 0 139 0 0 139 0 0 139 0 0 139 0 0 139 0 0 139 0 0 139 0 0 139 0 0 139 0 0 139 0 0 139 0 0 139 0 0 139 0 0 139 0 0 139 0 0 139 0 0 139 0 0 139 0 0 139 0 0 139 0 0 139 0 0 139 0 0 139 0 0 139 0 0 139 0 0 139 0 0 145 9 10 153 23 24 159 32 34 168 46 49 172 52 55 179 63 67 184 71 75 187 75 80 187 75 80 184 71 75 184 71 75 187 75 80 188 77 82 189 79 84 190 81 86 190 81 86 187 75 80 189 79 84 187 75 80 187 75 80 183 69 73 187 75 80 184 71 75 174 56 59 180 65 69 180 65 69 179 63 67 179 63 67 172 52 55 180 65 69 179 63 67 179 63 67 179 63 67 169 48 51 172 52 55 184 71 75 190 81 86 189 79 84 180 65 69 174 56 59 174 56 59 179 63 67 187 75 80 192 83 88 190 81 86 189 79 84 189 79 84 187 75 80 187 75 80 184 71 75 185 73 78 188 77 82 180 65 69 180 65 69 179 63 67 183 69 73 183 69 73 180 65 69 185 73 78 180 65 69 187 75 80 187 75 80 179 63 67 159 32 34 157 29 30 157 29 30 153 23 24 155 25 26 168 46 49 172 52 55 169 48 51 169 48 51 172 52 55 174 56 59 179 63 67 174 56 59 157 29 30 155 25 26 157 29 30 155 25 26 157 29 30 158 30 32 159 32 34 172 52 55 169 48 51 158 30 32 151 19 20 147 13 14 153 23 24 151 19 20 145 9 10 143 7 8 143 7 8 143 7 8 143 7 8 143 7 8 153 23 24 174 56 59 174 56 59 185 73 78 185 73 78 174 56 59 159 32 34 168 46 49 168 46 49 172 52 55 153 23 24 146 11 12 151 19 20 
139 0 0 139 0 0 139 0 0 139 0 0 139 0 0 139 0 0 139 0 0 139 0 0 139 0 0 139 0 0 139 0 0 139 0 0 139 0 0 139 0 0 139 0 0 139 0 0 139 0 0 139 0 0 139 0 0 139 0 0 139 0 0 139 0 0 143 7 8 143 7 8 139 0 0 139 0 0 139 0 0 139 0 0 139 0 0 139 0 0 139 0 0 139 0 0 139 0 0 139 0 0 139 0 0 139 0 0 139 0 0 143 7 8 139 0 0 139 0 0 139 0 0 139 0 0 139 0 0 139 0 0 143 7 8 139 0 0 139 0 0 139 0 0 139 0 0 139 0 0 139 0 0 139 0 0 139 0 0 139 0 0 139 0 0 139 0 0 139 0 0 139 0 0 139 0 0 139 0 0 139 0 0 139 0 0 139 0 0 139 0 0 139 0 0 139 0 0 139 0 0 139 0 0 139 0 0 139 0 0 139 0 0 139 0 0 139 0 0 139 0 0 139 0 0 139 0 0 139 0 0 139 0 0 139 0 0 139 0 0 139 0 0 139 0 0 139 0 0 139 0 0 139 0 0 139 0 0 139 0 0 139 0 0 139 0 0 139 0 0 139 0 0 139 0 0 139 0 0 139 0 0 139 0 0 139 0 0 139 0 0 139 0 0 139 0 0 139 0 0 139 0 0 139 0 0 139 0 0 139 0 0 139 0 0 139 0 0 139 0 0 139 0 0 139 0 0 139 0 0 139 0 0 145 9 10 153 23 24 159 32 34 168 46 49 172 52 55 179 63 67 184 71 75 187 75 80 187 75 80 184 71 75 184 71 75 187 75 80 188 77 82 189 79 84 190 81 86 190 81 86 187 75 80 189 79 84 187 75 80 187 75 80 183 69 73 187 75 80 184 71 75 174 56 59 180 65 69 180 65 69 179 63 67 179 63 67 172 52 55 180 65 69 179 63 67 179 63 67 179 63 67 169 48 51 172 52 55 184 71 75 190 81 86 189 79 84 180 65 69 174 56 59 174 56 59 179 63 67 187 75 80 192 83 88 190 81 86 189 79 84 189 79 84 187 75 80 187 75 80 184 71 75 185 73 78 188 77 82 180 65 69 180 65 69 179 63 67 183 69 73 183 69 73 180 65 69 185 73 78 180 65 69 187 75 80 187 75 80 179 63 67 159 32 34 157 29 30 157 29 30 153 23 24 155 25 26 168 46 49 172 52 55 169 48 51 169 48 51 172 52 55 174 56 59 179 63 67 174 56 59 157 29 30 155 25 26 157 29 30 155 25 26 157 29 30 158 30 32 159 32 34 172 52 55 169 48 51 158 30 32 151 19 20 147 13 14 153 23 24 151 19 20 145 9 10 143 7 8 143 7 8 143 7 8 143 7 8 143 7 8 153 23 24 174 56 59 174 56 59 185 73 78 185 73 78 174 56 59 159 32 34 168 46 49 168 46 49 172 52 55 153 23 24 146 11 12 151 19 20 
139 0 0 139 0 0 139 0 0 143 7 8 139 0 0 139 0 0 139 0 0 139 0 0 139 0 0 139 0 0 143 7 8 139 0 0 139 0 0 139 0 0 139 0 0 143 7 8 143 7 8 139 0 0 139 0 0 139 0 0 139 0 0 139 0 0 139 0 0 143 7 8 139 0 0 139 0 0 139 0 0 139 0 0 139 0 0 139 0 0 139 0 0 139 0 0 139 0 0 139 0 0 139 0 0 139 0 0 139 0 0 139 0 0 139 0 0 139 0 0 139 0 0 139 0 0 143 7 8 139 0 0 139 0 0 143 7 8 139 0 0 139 0 0 139 0 0 139 0 0 139 0 0 139 0 0 139 0 0 139 0 0 139 0 0 139 0 0 139 0 0 139 0 0 139 0 0 139 0 0 139 0 0 139 0 0 139 0 0 139 0 0 139 0 0 139 0 0 139 0 0 139 0 0 139 0 0 139 0 0 139 0 0 139 0 0 139 0 0 139 0 0 139 0 0 139 0 0 139 0 0 139 0 0 139 0 0 139 0 0 139 0 0 139 0 0 139 0 0 139 0 0 139 0 0 139 0 0 139 0 0 139 0 0 139 0 0 139 0 0 139 0 0 139 0 0 139 0 0 139 0 0 139 0 0 139 0 0 139 0 0 139 0 0 139 0 0 139 0 0 139 0 0 139 0 0 139 0 0 139 0 0 139 0 0 139 0 0 139 0 0 139 0 0 139 0 0 146 11 12 158 30 32 174 56 59 174 56 59 179 63 67 180 65 69 184 71 75 188 77 82 187 75 80 187 75 80 188 77 82 187 75 80 185 73 78 187 75 80 189 79 84 188 77 82 190 81 86 185 73 78 183 69 73 185 73 78 187 75 80 184 71 75 159 32 34 168 46 49 183 69 73 180 65 69 184 71 75 174 56 59 183 69 73 184 71 75 187 75 80 183 69 73 183 69 73 180 65 69 185 73 78 180 65 69 183 69 73 190 81 86 195 89 94 195 89 94 195 89 94 194 87 92 189 79 84 183 69 73 169 48 51 183 69 73 188 77 82 187 75 80 185 73 78 184 71 75 184 71 75 183 69 73 174 56 59 168 46 49 168 46 49 174 56 59 179 63 67 180 65 69 189 79 84 185 73 78 188 77 82 183 69 73 183 69 73 187 75 80 180 65 69 174 56 59 153 23 24 153 23 24 153 23 24 151 19 20 155 25 26 169 48 51 184 71 75 180 65 69 174 56 59 168 46 49 159 32 34 169 48 51 159 32 34 157 29 30 155 25 26 151 19 20 151 19 20 153 23 24 159 32 34 172 52 55 158 30 32 153 23 24 153 23 24 147 13 14 147 13 14 146 11 12 143 7 8 143 7 8 143 7 8 139 0 0 146 11 12 155 25 26 172 52 55 180 65 69 179 63 67 174 56 59 172 52 55 174 56 59 172 52 55 168 46 49 168 46 49 158 30 32 155 25 26 174 56 59 159 32 34 
139 0 0 139 0 0 139 0 0 143 7 8 139 0 0 139 0 0 139 0 0 139 0 0 139 0 0 139 0 0 143 7 8 139 0 0 139 0 0 139 0 0 139 0 0 143 7 8 143 7 8 139 0 0 139 0 0 139 0 0 139 0 0 139 0 0 139 0 0 143 7 8 139 0 0 139 0 0 139 0 0 139 0 0 139 0 0 139 0 0 139 0 0 139 0 0 139 0 0 139 0 0 139 0 0 139 0 0 139 0 0 139 0 0 139 0 0 139 0 0 139 0 0 139 0 0 143 7 8 139 0 0 139 0 0 143 7 8 139 0 0 139 0 0 139 0 0 139 0 0 139 0 0 139 0 0 139 0 0 139 0 0 139 0 0 139 0 0 139 0 0 139 0 0 139 0 0 139 0 0 139 0 0 139 0 0 139 0 0 139 0 0 139 0 0 139 0 0 139 0 0 139 0 0 139 0 0 139 0 0 139 0 0 139 0 0 139 0 0 139 0 0 139 0 0 139 0 0 139 0 0 139 0 0 139 0 0 139 0 0 139 0 0 139 0 0 139 0 0 139 0 0 139 0 0 139 0 0 139 0 0 139 0 0 139 0 0 139 0 0 139 0 0 139 0 0 139 0 0 139 0 0 139 0 0 139 0 0 139 0 0 139 0 0 139 0 0 139 0 0 139 0 0 139 0 0 139 0 0 139 0 0 139 0 0 139 0 0 139 0 0 139 0 0 139 0 0 146 11 12 158 30 32 174 56 59 174 56 59 179 63 67 180 65 69 184 71 75 188 77 82 187 75 80 187 75 80 188 77 82 187 75 80 185 73 78 187 75 80 189 79 84 188 77 82 190 81 86 185 73 78 183 69 73 185 73 78 187 75 80 184 71 75 159 32 34 168 46 49 183 69 73 180 65 69 184 71 75 174 56 59 183 69 73 184 71 75 187 75 80 183 69 73 183 69 73 180 65 69 185 73 78 180 65 69 183 69 73 190 81 86 195 89 94 195 89 94 195 89 94 194 87 92 189 79 84 183 69 73 169 48 51 183 69 73 188 77 82 187 75 80 185 73 78 184 71 75 184 71 75 183 69 73 174 56 59 168 46 49 168 46 49 174 56 59 179 63 67 180 65 69 189 79 84 185 73 78 188 77 82 183 69 73 183 69 73 187 75 80 180 65 69 174 56 59 153 23 24 153 23 24 153 23 24 151 19 20 155 25 26 169 48 51 184 71 75 180 65 69 174 56 59 168 46 49 159 32 34 169 48 51 159 32 34 157 29 30 155 25 26 151 19 20 151 19 20 153 23 24 159 32 34 172 52 55 158 30 32 153 23 24 153 23 24 147 13 14 147 13 14 146 11 12 143 7 8 143 7 8 143 7 8 139 0 0 146 11 12 155 25 26 172 52 55 180 65 69 179 63 67 174 56 59 172 52 55 174 56 59 172 52 55 168 46 49 168 46 49 158 30 32 155 25 26 174 56 59 159 32 34 
139 0 0 139 0 0 139 0 0 139 0 0 143 7 8 143 7 8 139 0 0 139 0 0 143 7 8 139 0 0 139 0 0 139 0 0 139 0 0 139 0 0 139 0 0 139 0 0 139 0 0 139 0 0 139 0 0 139 0 0 139 0 0 139 0 0 139 0 0 139 0 0 139 0 0 139 0 0 139 0 0 139 0 0 139 0 0 139 0 0 139 0 0 139 0 0 139 0 0 139 0 0 139 0 0 139 0 0 139 0 0 143 7 8 139 0 0 139 0 0 139 0 0 139 0 0 139 0 0 139 0 0 139 0 0 139 0 0 139 0 0 139 0 0 139 0 0 139 0 0 139 0 0 139 0 0 139 0 0 139 0 0 139 0 0 139 0 0 139 0 0 139 0 0 139 0 0 139 0 0 139 0 0 139 0 0 139 0 0 139 0 0 139 0 0 139 0 0 139 0 0 139 0 0 139 0 0 139 0 0 139 0 0 139 0 0 139 0 0 139 0 0 139 0 0 139 0 0 139 0 0 139 0 0 139 0 0 139 0 0 139 0 0 139 0 0 139 0 0 139 0 0 139 0 0 139 0 0 139 0 0 139 0 0 139 0 0 139 0 0 139 0 0 139 0 0 139 0 0 139 0 0 139 0 0 139 0 0 139 0 0 139 0 0 139 0 0 139 0 0 139 0 0 139 0 0 139 0 0 139 0 0 139 0 0 143 7 8 147 13 14 155 25 26 168 46 49 179 63 67 184 71 75 185 73 78 187 75 80 187 75 80 187 75 80 187 75 80 188 77 82 188 77 82 190 81 86 204 102 108 210 112 119 192 83 88 188 77 82 189 79 84 187 75 80 187 75 80 187 75 80 184 71 75 190 81 86 184 71 75 183 69 73 183 69 73 180 65 69 183 69 73 184 71 75 183 69 73 187 75 80 187 75 80 185 73 78 187 75 80 187 75 80 185 73 78 190 81 86 192 83 88 198 92 98 200 96 102 203 100 106 203 100 106 198 92 98 195 89 94 192 83 88 190 81 86 180 65 69 172 52 55 172 52 55 183 69 73 189 79 84 188 77 82 190 81 86 192 83 88 190 81 86 185 73 78 180 65 69 168 46 49 158 30 32 157 29 30 158 30 32 180 65 69 180 65 69 180 65 69 174 56 59 172 52 55 179 63 67 183 69 73 174 56 59 179 63 67 158 30 32 157 29 30 153 23 24 155 25 26 153 23 24 157 29 30 158 30 32 159 32 34 157 29 30 153 23 24 151 19 20 151 19 20 151 19 20 150 17 18 147 13 14 151 19 20 159 32 34 169 48 51 155 25 26 150 17 18 147 13 14 147 13 14 150 17 18 147 13 14 145 9 10 139 0 0 139 0 0 143 7 8 145 9 10 147 13 14 150 17 18 158 30 32 169 48 51 169 48 51 159 32 34 159 32 34 168 46 49 169 48 51 168 46 49 180 65 69 169 48 51 158 30 32 155 25 26 155 25 26 
139 0 0 139 0 0 139 0 0 139 0 0 143 7 8 143 7 8 139 0 0 139 0 0 143 7 8 139 0 0 139 0 0 139 0 0 139 0 0 139 0 0 139 0 0 139 0 0 139 0 0 139 0 0 139 0 0 139 0 0 139 0 0 139 0 0 139 0 0 139 0 0 139 0 0 139 0 0 139 0 0 139 0 0 139 0 0 139 0 0 139 0 0 139 0 0 139 0 0 139 0 0 139 0 0 139 0 0 139 0 0 143 7 8 139 0 0 139 0 0 139 0 0 139 0 0 139 0 0 139 0 0 139 0 0 139 0 0 139 0 0 139 0 0 139 0 0 139 0 0 139 0 0 139 0 0 139 0 0 139 0 0 139 0 0 139 0 0 139 0 0 139 0 0 139 0 0 139 0 0 139 0 0 139 0 0 139 0 0 139 0 0 139 0 0 139 0 0 139 0 0 139 0 0 139 0 0 139 0 0 139 0 0 139 0 0 139 0 0 139 0 0 139 0 0 139 0 0 139 0 0 139 0 0 139 0 0 139 0 0 139 0 0 139 0 0 139 0 0 139 0 0 139 0 0 139 0 0 139 0 0 139 0 0 139 0 0 139 0 0 139 0 0 139 0 0 139 0 0 139 0 0 139 0 0 139 0 0 139 0 0 139 0 0 139 0 0 139 0 0 139 0 0 139 0 0 139 0 0 139 0 0 139 0 0 143 7 8 147 13 14 155 25 26 168 46 49 179 63 67 184 71 75 185 73 78 187 75 80 187 75 80 187 75 80 187 75 80 188 77 82 188 77 82 190 81 86 204 102 108 210 112 119 192 83 88 188 77 82 189 79 84 187 75 80 187 75 80 187 75 80 184 71 75 190 81 86 184 71 75 183 69 73 183 69 73 180 65 69 183 69 73 184 71 75 183 69 73 187 75 80 187 75 80 185 73 78 187 75 80 187 75 80 185 73 78 190 81 86 192 83 88 198 92 98 200 96 102 203 100 106 203 100 106 198 92 98 195 89 94 192 83 88 190 81 86 180 65 69 172 52 55 172 52 55 183 69 73 189 79 84 188 77 82 190 81 86 192 83 88 190 81 86 185 73 78 180 65 69 168 46 49 158 30 32 157 29 30 158 30 32 180 65 69 180 65 69 180 65 69 174 56 59 172 52 55 179 63 67 183 69 73 174 56 59 179 63 67 158 30 32 157 29 30 153 23 24 155 25 26 153 23 24 157 29 30 158 30 32 159 32 34 157 29 30 153 23 24 151 19 20 151 19 20 151 19 20 150 17 18 147 13 14 151 19 20 159 32 34 169 48 51 155 25 26 150 17 18 147 13 14 147 13 14 150 17 18 147 13 14 145 9 10 139 0 0 139 0 0 143 7 8 145 9 10 147 13 14 150 17 18 158 30 32 169 48 51 169 48 51 159 32 34 159 32 34 168 46 49 169 48 51 168 46 49 180 65 69 169 48 51 158 30 32 155 25 26 155 25 26 
143 7 8 139 0 0 143 7 8 139 0 0 139 0 0 143 7 8 139 0 0 139 0 0 139 0 0 139 0 0 143 7 8 143 7 8 139 0 0 139 0 0 139 0 0 139 0 0 139 0 0 139 0 0 139 0 0 139 0 0 139 0 0 139 0 0 139 0 0 139 0 0 139 0 0 139 0 0 139 0 0 139 0 0 139 0 0 143 7 8 143 7 8 139 0 0 139 0 0 139 0 0 139 0 0 139 0 0 139 0 0 139 0 0 143 7 8 139 0 0 139 0 0 139 0 0 139 0 0 139 0 0 139 0 0 139 0 0 139 0 0 139 0 0 139 0 0 139 0 0 139 0 0 139 0 0 139 0 0 139 0 0 139 0 0 139 0 0 139 0 0 139 0 0 139 0 0 139 0 0 139 0 0 139 0 0 139 0 0 139 0 0 139 0 0 139 0 0 139 0 0 139 0 0 139 0 0 139 0 0 139 0 0 139 0 0 139 0 0 139 0 0 139 0 0 139 0 0 139 0 0 139 0 0 139 0 0 139 0 0 139 0 0 139 0 0 139 0 0 139 0 0 139 0 0 139 0 0 139 0 0 139 0 0 139 0 0 139 0 0 139 0 0 139 0 0 139 0 0 139 0 0 139 0 0 139 0 0 139 0 0 139 0 0 139 0 0 139 0 0 139 0 0 143 7 8 146 11 12 155 25 26 174 56 59 179 63 67 180 65 69 179 63 67 180 65 69 184 71 75 188 77 82 189 79 84 189 79 84 190 81 86 192 83 88 190 81 86 189 79 84 188 77 82 189 79 84 190 81 86 206 106 112 200 96 102 204 102 108 192 83 88 190 81 86 180 65 69 150 17 18 146 11 12 147 13 14 169 48 51 185 73 78 183 69 73 184 71 75 187 75 80 183 69 73 187 75 80 189 79 84 188 77 82 188 77 82 180 65 69 179 63 67 184 71 75 195 89 94 203 100 106 203 100 106 203 100 106 198 92 98 192 83 88 192 83 88 188 77 82 188 77 82 190 81 86 192 83 88 189 79 84 188 77 82 184 71 75 184 71 75 183 69 73 184 71 75 188 77 82 188 77 82 189 79 84 174 56 59 159 32 34 157 29 30 155 25 26 153 23 24 155 25 26 184 71 75 185 73 78 185 73 78 184 71 75 172 52 55 183 69 73 179 63 67 183 69 73 159 32 34 155 25 26 151 19 20 155 25 26 147 13 14 147 13 14 147 13 14 150 17 18 150 17 18 147 13 14 146 11 12 147 13 14 146 11 12 145 9 10 145 9 10 146 11 12 145 9 10 145 9 10 145 9 10 146 11 12 146 11 12 146 11 12 146 11 12 145 9 10 145 9 10 146 11 12 151 19 20 157 29 30 158 30 32 151 19 20 147 13 14 150 17 18 150 17 18 147 13 14 146 11 12 151 19 20 151 19 20 147 13 14 150 17 18 146 11 12 145 9 10 146 11 12 147 13 14 157 29 30 
143 7 8 139 0 0 143 7 8 139 0 0 139 0 0 143 7 8 139 0 0 139 0 0 139 0 0 139 0 0 143 7 8 143 7 8 139 0 0 139 0 0 139 0 0 139 0 0 139 0 0 139 0 0 139 0 0 139 0 0 139 0 0 139 0 0 139 0 0 139 0 0 139 0 0 139 0 0 139 0 0 139 0 0 139 0 0 143 7 8 143 7 8 139 0 0 139 0 0 139 0 0 139 0 0 139 0 0 139 0 0 139 0 0 143 7 8 139 0 0 139 0 0 139 0 0 139 0 0 139 0 0 139 0 0 139 0 0 139 0 0 139 0 0 139 0 0 139 0 0 139 0 0 139 0 0 139 0 0 139 0 0 139 0 0 139 0 0 139 0 0 139 0 0 139 0 0 139 0 0 139 0 0 139 0 0 139 0 0 139 0 0 139 0 0 139 0 0 139 0 0 139 0 0 139 0 0 139 0 0 139 0 0 139 0 0 139 0 0 139 0 0 139 0 0 139 0 0 139 0 0 139 0 0 139 0 0 139 0 0 139 0 0 139 0 0 139 0 0 139 0 0 139 0 0 139 0 0 139 0 0 139 0 0 139 0 0 139 0 0 139 0 0 139 0 0 139 0 0 139 0 0 139 0 0 139 0 0 139 0 0 139 0 0 139 0 0 139 0 0 139 0 0 143 7 8 146 11 12 155 25 26 174 56 59 179 63 67 180 65 69 179 63 67 180 65 69 184 71 75 188 77 82 189 79 84 189 79 84 190 81 86 192 83 88 190 81 86 189 79 84 188 77 82 189 79 84 190 81 86 206 106 112 200 96 102 204 102 108 192 83 88 190 81 86 180 65 69 150 17 18 146 11 12 147 13 14 169 48 51 185 73 78 183 69 73 184 71 75 187 75 80 183 69 73 187 75 80 189 79 84 188 77 82 188 77 82 180 65 69 179 63 67 184 71 75 195 89 94 203 100 106 203 100 106 203 100 106 198 92 98 192 83 88 192 83 88 188 77 82 188 77 82 190 81 86 192 83 88 189 79 84 188 77 82 184 71 75 184 71 75 183 69 73 184 71 75 188 77 82 188 77 82 189 79 84 174 56 59 159 32 34 157 29 30 155 25 26 153 23 24 155 25 26 184 71 75 185 73 78 185 73 78 184 71 75 172 52 55 183 69 73 179 63 67 183 69 73 159 32 34 155 25 26 151 19 20 155 25 26 147 13 14 147 13 14 147 13 14 150 17 18 150 17 18 147 13 14 146 11 12 147 13 14 146 11 12 145 9 10 145 9 10 146 11 12 145 9 10 145 9 10 145 9 10 146 11 12 146 11 12 146 11 12 146 11 12 145 9 10 145 9 10 146 11 12 151 19 20 157 29 30 158 30 32 151 19 20 147 13 14 150 17 18 150 17 18 147 13 14 146 11 12 151 19 20 151 19 20 147 13 14 150 17 18 146 11 12 145 9 10 146 11 12 147 13 14 157 29 30 
143 7 8 139 0 0 139 0 0 139 0 0 143 7 8 143 7 8 143 7 8 139 0 0 143 7 8 139 0 0 139 0 0 143 7 8 139 0 0 139 0 0 143 7 8 143 7 8 139 0 0 139 0 0 143 7 8 139 0 0 139 0 0 139 0 0 139 0 0 139 0 0 143 7 8 143 7 8 139 0 0 139 0 0 143 7 8 139 0 0 139 0 0 139 0 0 139 0 0 139 0 0 139 0 0 139 0 0 139 0 0 143 7 8 139 0 0 139 0 0 139 0 0 139 0 0 139 0 0 139 0 0 139 0 0 143 7 8 139 0 0 139 0 0 139 0 0 139 0 0 139 0 0 139 0 0 139 0 0 139 0 0 139 0 0 139 0 0 139 0 0 139 0 0 139 0 0 139 0 0 139 0 0 139 0 0 143 7 8 139 0 0 139 0 0 139 0 0 139 0 0 139 0 0 139 0 0 139 0 0 139 0 0 139 0 0 139 0 0 139 0 0 139 0 0 139 0 0 139 0 0 139 0 0 139 0 0 139 0 0 139 0 0 139 0 0 139 0 0 139 0 0 139 0 0 139 0 0 139 0 0 139 0 0 139 0 0 139 0 0 139 0 0 139 0 0 139 0 0 139 0 0 139 0 0 139 0 0 139 0 0 139 0 0 143 7 8 146 11 12 155 25 26 180 65 69 189 79 84 187 75 80 189 79 84 190 81 86 190 81 86 189 79 84 189 79 84 188 77 82 189 79 84 192 83 88 192 83 88 190 81 86 189 79 84 190 81 86 190 81 86 190 81 86 188 77 82 213 116 123 204 102 108 190 81 86 235 151 160 209 110 117 190 81 86 189 79 84 155 25 26 147 13 14 146 11 12 147 13 14 147 13 14 183 69 73 187 75 80 187 75 80 185 73 78 187 75 80 185 73 78 192 83 88 198 92 98 200 96 102 205 104 110 183 69 73 188 77 82 192 83 88 194 87 92 190 81 86 185 73 78 174 56 59 172 52 55 172 52 55 179 63 67 185 73 78 192 83 88 195 89 94 192 83 88 188 77 82 188 77 82 185 73 78 183 69 73 183 69 73 179 63 67 179 63 67 159 32 34 158 30 32 158 30 32 158 30 32 158 30 32 158 30 32 188 77 82 184 71 75 184 71 75 179 63 67 179 63 67 169 48 51 157 29 30 159 32 34 151 19 20 151 19 20 150 17 18 147 13 14 147 13 14 146 11 12 146 11 12 145 9 10 145 9 10 145 9 10 145 9 10 145 9 10 146 11 12 147 13 14 150 17 18 158 30 32 174 56 59 146 11 12 145 9 10 146 11 12 146 11 12 146 11 12 157 29 30 158 30 32 153 23 24 150 17 18 150 17 18 147 13 14 145 9 10 143 7 8 143 7 8 143 7 8 145 9 10 143 7 8 143 7 8 155 25 26 157 29 30 157 29 30 159 32 34 150 17 18 146 11 12 151 19 20 146 11 12 146 11 12 
143 7 8 139 0 0 139 0 0 139 0 0 143 7 8 143 7 8 143 7 8 139 0 0 143 7 8 139 0 0 139 0 0 143 7 8 139 0 0 139 0 0 143 7 8 143 7 8 139 0 0 139 0 0 143 7 8 139 0 0 139 0 0 139 0 0 139 0 0 139 0 0 143 7 8 143 7 8 139 0 0 139 0 0 143 7 8 139 0 0 139 0 0 139 0 0 139 0 0 139 0 0 139 0 0 139 0 0 139 0 0 143 7 8 139 0 0 139 0 0 139 0 0 139 0 0 139 0 0 139 0 0 139 0 0 143 7 8 139 0 0 139 0 0 139 0 0 139 0 0 139 0 0 139 0 0 139 0 0 139 0 0 139 0 0 139 0 0 139 0 0 139 0 0 139 0 0 139 0 0 139 0 0 139 0 0 143 7 8 139 0 0 139 0 0 139 0 0 139 0 0 139 0 0 139 0 0 139 0 0 139 0 0 139 0 0 139 0 0 139 0 0 139 0 0 139 0 0 139 0 0 139 0 0 139 0 0 139 0 0 139 0 0 139 0 0 139 0 0 139 0 0 139 0 0 139 0 0 139 0 0 139 0 0 139 0 0 139 0 0 139 0 0 139 0 0 139 0 0 139 0 0 139 0 0 139 0 0 139 0 0 139 0 0 143 7 8 146 11 12 155 25 26 180 65 69 189 79 84 187 75 80 189 79 84 190 81 86 190 81 86 189 79 84 189 79 84 188 77 82 189 79 84 192 83 88 192 83 88 190 81 86 189 79 84 190 81 86 190 81 86 190 81 86 188 77 82 213 116 123 204 102 108 190 81 86 235 151 160 209 110 117 190 81 86 189 79 84 155 25 26 147 13 14 146 11 12 147 13 14 147 13 14 183 69 73 187 75 80 187 75 80 185 73 78 187 75 80 185 73 78 192 83 88 198 92 98 200 96 102 205 104 110 183 69 73 188 77 82 192 83 88 194 87 92 190 81 86 185 73 78 174 56 59 172 52 55 172 52 55 179 63 67 185 73 78 192 83 88 195 89 94 192 83 88 188 77 82 188 77 82 185 73 78 183 69 73 183 69 73 179 63 67 179 63 67 159 32 34 158 30 32 158 30 32 158 30 32 158 30 32 158 30 32 188 77 82 184 71 75 184 71 75 179 63 67 179 63 67 169 48 51 157 29 30 159 32 34 151 19 20 151 19 20 150 17 18 147 13 14 147 13 14 146 11 12 146 11 12 145 9 10 145 9 10 145 9 10 145 9 10 145 9 10 146 11 12 147 13 14 150 17 18 158 30 32 174 56 59 146 11 12 145 9 10 146 11 12 146 11 12 146 11 12 157 29 30 158 30 32 153 23 24 150 17 18 150 17 18 147 13 14 145 9 10 143 7 8 143 7 8 143 7 8 145 9 10 143 7 8 143 7 8 155 25 26 157 29 30 157 29 30 159 32 34 150 17 18 146 11 12 151 19 20 146 11 12 146 11 12 
139 0 0 139 0 0 139 0 0 139 0 0 139 0 0 139 0 0 139 0 0 143 7 8 139 0 0 139 0 0 139 0 0 139 0 0 139 0 0 139 0 0 139 0 0 143 7 8 143 7 8 143 7 8 139 0 0 139 0 0 143 7 8 139 0 0 139 0 0 143 7 8 143 7 8 139 0 0 139 0 0 143 7 8 139 0 0 139 0 0 139 0 0 139 0 0 139 0 0 139 0 0 139 0 0 139 0 0 139 0 0 139 0 0 139 0 0 139 0 0 139 0 0 143 7 8 139 0 0 139 0 0 139 0 0 139 0 0 139 0 0 143 7 8 139 0 0 143 7 8 139 0 0 139 0 0 139 0 0 139 0 0 139 0 0 139 0 0 139 0 0 139 0 0 139 0 0 139 0 0 139 0 0 139 0 0 139 0 0 139 0 0 139 0 0 139 0 0 139 0 0 139 0 0 139 0 0 139 0 0 139 0 0 139 0 0 143 7 8 139 0 0 139 0 0 143 7 8 139 0 0 139 0 0 139 0 0 139 0 0 139 0 0 139 0 0 139 0 0 143 7 8 139 0 0 139 0 0 139 0 0 139 0 0 139 0 0 139 0 0 139 0 0 139 0 0 139 0 0 139 0 0 139 0 0 143 7 8 153 23 24 184 71 75 189 79 84 192 83 88 194 87 92 192 83 88 192 83 88 192 83 88 194 87 92 190 81 86 190 81 86 195 89 94 200 96 102 194 87 92 190 81 86 190 81 86 215 120 127 245 166 176 229 141 149 209 110 117 200 96 102 192 83 88 189 79 84 229 141 149 209 110 117 189 79 84 217 123 131 200 96 102 189 79 84 188 77 82 187 75 80 150 17 18 146 11 12 146 11 12 146 11 12 184 71 75 189 79 84 188 77 82 187 75 80 190 81 86 204 102 108 200 96 102 195 89 94 200 96 102 195 89 94 194 87 92 194 87 92 192 83 88 194 87 92 198 92 98 195 89 94 180 65 69 169 48 51 172 52 55 168 46 49 168 46 49 168 46 49 184 71 75 190 81 86 184 71 75 180 65 69 185 73 78 183 69 73 180 65 69 180 65 69 190 81 86 185 73 78 169 48 51 168 46 49 168 46 49 157 29 30 157 29 30 151 19 20 153 23 24 169 48 51 159 32 34 153 23 24 150 17 18 158 30 32 147 13 14 147 13 14 147 13 14 146 11 12 145 9 10 145 9 10 145 9 10 145 9 10 143 7 8 145 9 10 145 9 10 147 13 14 151 19 20 151 19 20 147 13 14 146 11 12 145 9 10 145 9 10 145 9 10 143 7 8 139 0 0 139 0 0 139 0 0 139 0 0 139 0 0 139 0 0 139 0 0 143 7 8 139 0 0 143 7 8 143 7 8 139 0 0 139 0 0 143 7 8 143 7 8 139 0 0 139 0 0 139 0 0 139 0 0 143 7 8 139 0 0 139 0 0 139 0 0 145 9 10 146 11 12 
139 0 0 139 0 0 139 0 0 139 0 0 139 0 0 139 0 0 139 0 0 143 7 8 139 0 0 139 0 0 139 0 0 139 0 0 139 0 0 139 0 0 139 0 0 143 7 8 143 7 8 143 7 8 139 0 0 139 0 0 143 7 8 139 0 0 139 0 0 143 7 8 143 7 8 139 0 0 139 0 0 143 7 8 139 0 0 139 0 0 139 0 0 139 0 0 139 0 0 139 0 0 139 0 0 139 0 0 139 0 0 139 0 0 139 0 0 139 0 0 139 0 0 143 7 8 139 0 0 139 0 0 139 0 0 139 0 0 139 0 0 143 7 8 139 0 0 143 7 8 139 0 0 139 0 0 139 0 0 139 0 0 139 0 0 139 0 0 139 0 0 139 0 0 139 0 0 139 0 0 139 0 0 139 0 0 139 0 0 139 0 0 139 0 0 139 0 0 139 0 0 139 0 0 139 0 0 139 0 0 139 0 0 139 0 0 143 7 8 139 0 0 139 0 0 143 7 8 139 0 0 139 0 0 139 0 0 139 0 0 139 0 0 139 0 0 139 0 0 143 7 8 139 0 0 139 0 0 139 0 0 139 0 0 139 0 0 139 0 0 139 0 0 139 0 0 139 0 0 139 0 0 139 0 0 143 7 8 153 23 24 184 71 75 189 79 84 192 83 88 194 87 92 192 83 88 192 83 88 192 83 88 194 87 92 190 81 86 190 81 86 195 89 94 200 96 102 194 87 92 190 81 86 190 81 86 215 120 127 245 166 176 229 141 149 209 110 117 200 96 102 192 83 88 189 79 84 229 141 149 209 110 117 189 79 84 217 123 131 200 96 102 189 79 84 188 77 82 187 75 80 150 17 18 146 11 12 146 11 12 146 11 12 184 71 75 189 79 84 188 77 82 187 75 80 190 81 86 204 102 108 200 96 102 195 89 94 200 96 102 195 89 94 194 87 92 194 87 92 192 83 88 194 87 92 198 92 98 195 89 94 180 65 69 169 48 51 172 52 55 168 46 49 168 46 49 168 46 49 184 71 75 190 81 86 184 71 75 180 65 69 185 73 78 183 69 73 180 65 69 180 65 69 190 81 86 185 73 78 169 48 51 168 46 49 168 46 49 157 29 30 157 29 30 151 19 20 153 23 24 169 48 51 159 32 34 153 23 24 150 17 18 158 30 32 147 13 14 147 13 14 147 13 14 146 11 12 145 9 10 145 9 10 145 9 10 145 9 10 143 7 8 145 9 10 145 9 10 147 13 14 151 19 20 151 19 20 147 13 14 146 11 12 145 9 10 145 9 10 145 9 10 143 7 8 139 0 0 139 0 0 139 0 0 139 0 0 139 0 0 139 0 0 139 0 0 143 7 8 139 0 0 143 7 8 143 7 8 139 0 0 139 0 0 143 7 8 143 7 8 139 0 0 139 0 0 139 0 0 139 0 0 143 7 8 139 0 0 139 0 0 139 0 0 145 9 10 146 11 12 
139 0 0 143 7 8 139 0 0 139 0 0 139 0 0 143 7 8 139 0 0 139 0 0 139 0 0 139 0 0 143 7 8 139 0 0 139 0 0 139 0 0 139 0 0 143 7 8 139 0 0 139 0 0 139 0 0 139 0 0 139 0 0 139 0 0 139 0 0 139 0 0 143 7 8 139 0 0 139 0 0 139 0 0 139 0 0 139 0 0 139 0 0 139 0 0 139 0 0 139 0 0 139 0 0 143 7 8 139 0 0 143 7 8 139 0 0 143 7 8 139 0 0 139 0 0 139 0 0 139 0 0 143 7 8 139 0 0 139 0 0 139 0 0 139 0 0 139 0 0 139 0 0 139 0 0 139 0 0 139 0 0 139 0 0 139 0 0 139 0 0 139 0 0 139 0 0 139 0 0 139 0 0 139 0 0 139 0 0 139 0 0 139 0 0 139 0 0 139 0 0 139 0 0 139 0 0 139 0 0 139 0 0 139 0 0 139 0 0 139 0 0 139 0 0 143 7 8 139 0 0 139 0 0 139 0 0 139 0 0 139 0 0 139 0 0 139 0 0 139 0 0 139 0 0 139 0 0 139 0 0 139 0 0 139 0 0 143 7 8 139 0 0 139 0 0 146 11 12 172 52 55 187 75 80 188 77 82 195 89 94 194 87 92 195 89 94 195 89 94 190 81 86 194 87 92 195 89 94 195 89 94 190 81 86 190 81 86 192 83 88 194 87 92 198 92 98 198 92 98 194 87 92 194 87 92 190 81 86 192 83 88 227 139 147 251 176 186 227 139 147 209 110 117 227 139 147 206 106 112 190 81 86 194 87 92 190 81 86 190 81 86 189 79 84 187 75 80 185 73 78 188 77 82 179 63 67 183 69 73 185 73 78 189 79 84 190 81 86 195 89 94 180 65 69 187 75 80 188 77 82 192 83 88 192 83 88 189 79 84 183 69 73 183 69 73 188 77 82 203 100 106 203 100 106 206 106 112 205 104 110 194 87 92 174 56 59 168 46 49 168 46 49 158 30 32 157 29 30 168 46 49 187 75 80 189 79 84 195 89 94 204 102 108 184 71 75 184 71 75 192 83 88 189 79 84 189 79 84 180 65 69 158 30 32 158 30 32 155 25 26 151 19 20 150 17 18 147 13 14 153 23 24 151 19 20 150 17 18 151 19 20 146 11 12 146 11 12 145 9 10 145 9 10 145 9 10 145 9 10 146 11 12 146 11 12 146 11 12 146 11 12 153 23 24 147 13 14 147 13 14 150 17 18 147 13 14 145 9 10 145 9 10 145 9 10 143 7 8 143 7 8 143 7 8 143 7 8 139 0 0 139 0 0 139 0 0 139 0 0 139 0 0 143 7 8 143 7 8 143 7 8 143 7 8 143 7 8 139 0 0 143 7 8 139 0 0 139 0 0 143 7 8 139 0 0 143 7 8 143 7 8 139 0 0 139 0 0 139 0 0 139 0 0 143 7 8 139 0 0 
139 0 0 143 7 8 139 0 0 139 0 0 139 0 0 143 7 8 139 0 0 139 0 0 139 0 0 139 0 0 143 7 8 139 0 0 139 0 0 139 0 0 139 0 0 143 7 8 139 0 0 139 0 0 139 0 0 139 0 0 139 0 0 139 0 0 139 0 0 139 0 0 143 7 8 139 0 0 139 0 0 139 0 0 139 0 0 139 0 0 139 0 0 139 0 0 139 0 0 139 0 0 139 0 0 143 7 8 139 0 0 143 7 8 139 0 0 143 7 8 139 0 0 139 0 0 139 0 0 139 0 0 143 7 8 139 0 0 139 0 0 139 0 0 139 0 0 139 0 0 139 0 0 139 0 0 139 0 0 139 0 0 139 0 0 139 0 0 139 0 0 139 0 0 139 0 0 139 0 0 139 0 0 139 0 0 139 0 0 139 0 0 139 0 0 139 0 0 139 0 0 139 0 0 139 0 0 139 0 0 139 0 0 139 0 0 139 0 0 139 0 0 139 0 0 143 7 8 139 0 0 139 0 0 139 0 0 139 0 0 139 0 0 139 0 0 139 0 0 139 0 0 139 0 0 139 0 0 139 0 0 139 0 0 139 0 0 143 7 8 139 0 0 139 0 0 146 11 12 172 52 55 187 75 80 188 77 82 195 89 94 194 87 92 195 89 94 195 89 94 190 81 86 194 87 92 195 89 94 195 89 94 190 81 86 190 81 86 192 83 88 194 87 92 198 92 98 198 92 98 194 87 92 194 87 92 190 81 86 192 83 88 227 139 147 251 176 186 227 139 147 209 110 117 227 139 147 206 106 112 190 81 86 194 87 92 190 81 86 190 81 86 189 79 84 187 75 80 185 73 78 188 77 82 179 63 67 183 69 73 185 73 78 189 79 84 190 81 86 195 89 94 180 65 69 187 75 80 188 77 82 192 83 88 192 83 88 189 79 84 183 69 73 183 69 73 188 77 82 203 100 106 203 100 106 206 106 112 205 104 110 194 87 92 174 56 59 168 46 49 168 46 49 158 30 32 157 29 30 168 46 49 187 75 80 189 79 84 195 89 94 204 102 108 184 71 75 184 71 75 192 83 88 189 79 84 189 79 84 180 65 69 158 30 32 158 30 32 155 25 26 151 19 20 150 17 18 147 13 14 153 23 24 151 19 20 150 17 18 151 19 20 146 11 12 146 11 12 145 9 10 145 9 10 145 9 10 145 9 10 146 11 12 146 11 12 146 11 12 146 11 12 153 23 24 147 13 14 147 13 14 150 17 18 147 13 14 145 9 10 145 9 10 145 9 10 143 7 8 143 7 8 143 7 8 143 7 8 139 0 0 139 0 0 139 0 0 139 0 0 139 0 0 143 7 8 143 7 8 143 7 8 143 7 8 143 7 8 139 0 0 143 7 8 139 0 0 139 0 0 143 7 8 139 0 0 143 7 8 143 7 8 139 0 0 139 0 0 139 0 0 139 0 0 143 7 8 139 0 0 
139 0 0 143 7 8 139 0 0 139 0 0 139 0 0 139 0 0 139 0 0 143 7 8 143 7 8 139 0 0 139 0 0 139 0 0 139 0 0 143 7 8 143 7 8 143 7 8 139 0 0 139 0 0 139 0 0 139 0 0 139 0 0 139 0 0 139 0 0 139 0 0 139 0 0 139 0 0 139 0 0 139 0 0 139 0 0 139 0 0 139 0 0 143 7 8 139 0 0 143 7 8 139 0 0 139 0 0 139 0 0 139 0 0 139 0 0 139 0 0 139 0 0 139 0 0 139 0 0 139 0 0 139 0 0 139 0 0 139 0 0 139 0 0 139 0 0 139 0 0 139 0 0 139 0 0 139 0 0 139 0 0 139 0 0 139 0 0 139 0 0 139 0 0 139 0 0 139 0 0 139 0 0 139 0 0 139 0 0 139 0 0 139 0 0 139 0 0 139 0 0 139 0 0 139 0 0 139 0 0 139 0 0 139 0 0 139 0 0 139 0 0 139 0 0 139 0 0 139 0 0 139 0 0 139 0 0 139 0 0 139 0 0 139 0 0 139 0 0 139 0 0 139 0 0 139 0 0 139 0 0 139 0 0 139 0 0 146 11 12 168 46 49 159 32 34 169 48 51 188 77 82 190 81 86 194 87 92 194 87 92 192 83 88 195 89 94 198 92 98 194 87 92 192 83 88 194 87 92 195 89 94 194 87 92 204 102 108 206 106 112 190 81 86 192 83 88 195 89 94 204 102 108 226 137 145 217 123 131 194 87 92 192 83 88 194 87 92 198 92 98 200 96 102 195 89 94 194 87 92 194 87 92 215 120 127 203 100 106 189 79 84 192 83 88 189 79 84 188 77 82 187 75 80 179 63 67 188 77 82 192 83 88 194 87 92 205 104 110 200 96 102 203 100 106 188 77 82 192 83 88 194 87 92 192 83 88 174 56 59 179 63 67 183 69 73 183 69 73 198 92 98 198 92 98 194 87 92 198 92 98 188 77 82 169 48 51 158 30 32 159 32 34 159 32 34 158 30 32 168 46 49 188 77 82 195 89 94 192 83 88 192 83 88 184 71 75 172 52 55 180 65 69 184 71 75 185 73 78 172 52 55 151 19 20 147 13 14 153 23 24 147 13 14 151 19 20 147 13 14 147 13 14 146 11 12 146 11 12 145 9 10 143 7 8 143 7 8 146 11 12 150 17 18 146 11 12 153 23 24 147 13 14 146 11 12 147 13 14 146 11 12 146 11 12 145 9 10 146 11 12 145 9 10 145 9 10 143 7 8 143 7 8 139 0 0 143 7 8 143 7 8 143 7 8 139 0 0 139 0 0 143 7 8 143 7 8 139 0 0 139 0 0 139 0 0 139 0 0 139 0 0 139 0 0 139 0 0 143 7 8 143 7 8 143 7 8 139 0 0 139 0 0 139 0 0 139 0 0 143 7 8 139 0 0 143 7 8 139 0 0 139 0 0 139 0 0 139 0 0 
139 0 0 143 7 8 139 0 0 139 0 0 139 0 0 139 0 0 139 0 0 143 7 8 143 7 8 139 0 0 139 0 0 139 0 0 139 0 0 143 7 8 143 7 8 143 7 8 139 0 0 139 0 0 139 0 0 139 0 0 139 0 0 139 0 0 139 0 0 139 0 0 139 0 0 139 0 0 139 0 0 139 0 0 139 0 0 139 0 0 139 0 0 143 7 8 139 0 0 143 7 8 139 0 0 139 0 0 139 0 0 139 0 0 139 0 0 139 0 0 139 0 0 139 0 0 139 0 0 139 0 0 139 0 0 139 0 0 139 0 0 139 0 0 139 0 0 139 0 0 139 0 0 139 0 0 139 0 0 139 0 0 139 0 0 139 0 0 139 0 0 139 0 0 139 0 0 139 0 0 139 0 0 139 0 0 139 0 0 139 0 0 139 0 0 139 0 0 139 0 0 139 0 0 139 0 0 139 0 0 139 0 0 139 0 0 139 0 0 139 0 0 139 0 0 139 0 0 139 0 0 139 0 0 139 0 0 139 0 0 139 0 0 139 0 0 139 0 0 139 0 0 139 0 0 139 0 0 139 0 0 139 0 0 139 0 0 146 11 12 168 46 49 159 32 34 169 48 51 188 77 82 190 81 86 194 87 92 194 87 92 192 83 88 195 89 94 198 92 98 194 87 92 192 83 88 194 87 92 195 89 94 194 87 92 204 102 108 206 106 112 190 81 86 192 83 88 195 89 94 204 102 108 226 137 145 217 123 131 194 87 92 192 83 88 194 87 92 198 92 98 200 96 102 195 89 94 194 87 92 194 87 92 215 120 127 203 100 106 189 79 84 192 83 88 189 79 84 188 77 82 187 75 80 179 63 67 188 77 82 192 83 88 194 87 92 205 104 110 200 96 102 203 100 106 188 77 82 192 83 88 194 87 92 192 83 88 174 56 59 179 63 67 183 69 73 183 69 73 198 92 98 198 92 98 194 87 92 198 92 98 188 77 82 169 48 51 158 30 32 159 32 34 159 32 34 158 30 32 168 46 49 188 77 82 195 89 94 192 83 88 192 83 88 184 71 75 172 52 55 180 65 69 184 71 75 185 73 78 172 52 55 151 19 20 147 13 14 153 23 24 147 13 14 151 19 20 147 13 14 147 13 14 146 11 12 146 11 12 145 9 10 143 7 8 143 7 8 146 11 12 150 17 18 146 11 12 153 23 24 147 13 14 146 11 12 147 13 14 146 11 12 146 11 12 145 9 10 146 11 12 145 9 10 145 9 10 143 7 8 143 7 8 139 0 0 143 7 8 143 7 8 143 7 8 139 0 0 139 0 0 143 7 8 143 7 8 139 0 0 139 0 0 139 0 0 139 0 0 139 0 0 139 0 0 139 0 0 143 7 8 143 7 8 143 7 8 139 0 0 139 0 0 139 0 0 139 0 0 143 7 8 139 0 0 143 7 8 139 0 0 139 0 0 139 0 0 139 0 0 
139 0 0 143 7 8 139 0 0 139 0 0 143 7 8 139 0 0 139 0 0 143 7 8 143 7 8 139 0 0 139 0 0 139 0 0 139 0 0 143 7 8 143 7 8 139 0 0 139 0 0 139 0 0 139 0 0 139 0 0 139 0 0 143 7 8 143 7 8 143 7 8 139 0 0 139 0 0 139 0 0 139 0 0 139 0 0 139 0 0 139 0 0 139 0 0 139 0 0 139 0 0 139 0 0 139 0 0 139 0 0 143 7 8 139 0 0 139 0 0 139 0 0 139 0 0 139 0 0 139 0 0 143 7 8 143 7 8 139 0 0 139 0 0 139 0 0 139 0 0 139 0 0 139 0 0 139 0 0 139 0 0 139 0 0 139 0 0 139 0 0 139 0 0 139 0 0 139 0 0 139 0 0 139 0 0 139 0 0 139 0 0 139 0 0 139 0 0 139 0 0 139 0 0 139 0 0 139 0 0 139 0 0 139 0 0 139 0 0 139 0 0 139 0 0 139 0 0 139 0 0 139 0 0 139 0 0 139 0 0 139 0 0 139 0 0 139 0 0 139 0 0 139 0 0 139 0 0 145 9 10 159 32 34 183 69 73 190 81 86 192 83 88 203 100 106 159 32 34 190 81 86 195 89 94 198 92 98 194 87 92 198 92 98 198 92 98 195 89 94 194 87 92 192 83 88 195 89 94 194 87 92 190 81 86 190 81 86 205 104 110 225 135 143 225 135 143 215 120 127 217 123 131 217 123 131 236 152 162 232 147 156 205 104 110 190 81 86 188 77 82 192 83 88 194 87 92 190 81 86 189 79 84 192 83 88 192 83 88 192 83 88 190 81 86 189 79 84 179 63 67 188 77 82 195 89 94 198 92 98 200 96 102 187 75 80 192 83 88 189 79 84 192 83 88 200 96 102 203 100 106 195 89 94 192 83 88 174 56 59 174 56 59 168 46 49 169 48 51 183 69 73 192 83 88 189 79 84 192 83 88 190 81 86 184 71 75 168 46 49 169 48 51 169 48 51 169 48 51 169 48 51 185 73 78 192 83 88 187 75 80 185 73 78 185 73 78 169 48 51 157 29 30 158 30 32 157 29 30 151 19 20 151 19 20 155 25 26 150 17 18 147 13 14 146 11 12 145 9 10 143 7 8 145 9 10 145 9 10 145 9 10 145 9 10 145 9 10 146 11 12 155 25 26 150 17 18 159 32 34 147 13 14 146 11 12 146 11 12 145 9 10 146 11 12 146 11 12 145 9 10 143 7 8 143 7 8 139 0 0 143 7 8 143 7 8 139 0 0 139 0 0 139 0 0 139 0 0 139 0 0 139 0 0 139 0 0 139 0 0 139 0 0 139 0 0 143 7 8 143 7 8 143 7 8 145 9 10 145 9 10 145 9 10 146 11 12 145 9 10 143 7 8 143 7 8 143 7 8 139 0 0 139 0 0 139 0 0 143 7 8 143 7 8 139 0 0 143 7 8 
139 0 0 143 7 8 139 0 0 139 0 0 143 7 8 139 0 0 139 0 0 143 7 8 143 7 8 139 0 0 139 0 0 139 0 0 139 0 0 143 7 8 143 7 8 139 0 0 139 0 0 139 0 0 139 0 0 139 0 0 139 0 0 143 7 8 143 7 8 143 7 8 139 0 0 139 0 0 139 0 0 139 0 0 139 0 0 139 0 0 139 0 0 139 0 0 139 0 0 139 0 0 139 0 0 139 0 0 139 0 0 143 7 8 139 0 0 139 0 0 139 0 0 139 0 0 139 0 0 139 0 0 143 7 8 143 7 8 139 0 0 139 0 0 139 0 0 139 0 0 139 0 0 139 0 0 139 0 0 139 0 0 139 0 0 139 0 0 139 0 0 139 0 0 139 0 0 139 0 0 139 0 0 139 0 0 139 0 0 139 0 0 139 0 0 139 0 0 139 0 0 139 0 0 139 0 0 139 0 0 139 0 0 139 0 0 139 0 0 139 0 0 139 0 0 139 0 0 139 0 0 139 0 0 139 0 0 139 0 0 139 0 0 139 0 0 139 0 0 139 0 0 139 0 0 139 0 0 145 9 10 159 32 34 183 69 73 190 81 86 192 83 88 203 100 106 159 32 34 190 81 86 195 89 94 198 92 98 194 87 92 198 92 98 198 92 98 195 89 94 194 87 92 192 83 88 195 89 94 194 87 92 190 81 86 190 81 86 205 104 110 225 135 143 225 135 143 215 120 127 217 123 131 217 123 131 236 152 162 232 147 156 205 104 110 190 81 86 188 77 82 192 83 88 194 87 92 190 81 86 189 79 84 192 83 88 192 83 88 192 83 88 190 81 86 189 79 84 179 63 67 188 77 82 195 89 94 198 92 98 200 96 102 187 75 80 192 83 88 189 79 84 192 83 88 200 96 102 203 100 106 195 89 94 192 83 88 174 56 59 174 56 59 168 46 49 169 48 51 183 69 73 192 83 88 189 79 84 192 83 88 190 81 86 184 71 75 168 46 49 169 48 51 169 48 51 169 48 51 169 48 51 185 73 78 192 83 88 187 75 80 185 73 78 185 73 78 169 48 51 157 29 30 158 30 32 157 29 30 151 19 20 151 19 20 155 25 26 150 17 18 147 13 14 146 11 12 145 9 10 143 7 8 145 9 10 145 9 10 145 9 10 145 9 10 145 9 10 146 11 12 155 25 26 150 17 18 159 32 34 147 13 14 146 11 12 146 11 12 145 9 10 146 11 12 146 11 12 145 9 10 143 7 8 143 7 8 139 0 0 143 7 8 143 7 8 139 0 0 139 0 0 139 0 0 139 0 0 139 0 0 139 0 0 139 0 0 139 0 0 139 0 0 139 0 0 143 7 8 143 7 8 143 7 8 145 9 10 145 9 10 145 9 10 146 11 12 145 9 10 143 7 8 143 7 8 143 7 8 139 0 0 139 0 0 139 0 0 143 7 8 143 7 8 139 0 0 143 7 8 
143 7 8 139 0 0 139 0 0 139 0 0 139 0 0 139 0 0 139 0 0 139 0 0 139 0 0 139 0 0 139 0 0 143 7 8 143 7 8 139 0 0 139 0 0 143 7 8 139 0 0 139 0 0 139 0 0 139 0 0 143 7 8 139 0 0 139 0 0 139 0 0 139 0 0 139 0 0 139 0 0 139 0 0 139 0 0 139 0 0 139 0 0 143 7 8 139 0 0 139 0 0 139 0 0 139 0 0 139 0 0 143 7 8 139 0 0 139 0 0 139 0 0 139 0 0 139 0 0 139 0 0 139 0 0 139 0 0 143 7 8 139 0 0 139 0 0 139 0 0 139 0 0 139 0 0 139 0 0 139 0 0 139 0 0 139 0 0 139 0 0 139 0 0 139 0 0 139 0 0 143 7 8 139 0 0 139 0 0 139 0 0 139 0 0 139 0 0 139 0 0 139 0 0 139 0 0 139 0 0 139 0 0 139 0 0 139 0 0 139 0 0 139 0 0 139 0 0 139 0 0 139 0 0 139 0 0 139 0 0 139 0 0 139 0 0 139 0 0 146 11 12 158 30 32 183 69 73 185 73 78 187 75 80 190 81 86 187 75 80 187 75 80 180 65 69 187 75 80 185 73 78 204 102 108 219 125 133 205 104 110 205 104 110 219 125 133 200 96 102 194 87 92 203 100 106 214 118 125 209 110 117 192 83 88 190 81 86 189 79 84 188 77 82 195 89 94 217 123 131 229 141 149 216 121 129 214 118 125 222 131 139 206 106 112 189 79 84 190 81 86 189 79 84 189 79 84 189 79 84 189 79 84 188 77 82 190 81 86 188 77 82 188 77 82 179 63 67 187 75 80 192 83 88 198 92 98 195 89 94 195 89 94 187 75 80 189 79 84 192 83 88 190 81 86 194 87 92 192 83 88 195 89 94 200 96 102 169 48 51 169 48 51 169 48 51 174 56 59 189 79 84 192 83 88 198 92 98 200 96 102 194 87 92 187 75 80 172 52 55 169 48 51 168 46 49 159 32 34 158 30 32 183 69 73 185 73 78 179 63 67 174 56 59 159 32 34 157 29 30 150 17 18 147 13 14 150 17 18 147 13 14 146 11 12 146 11 12 145 9 10 146 11 12 147 13 14 146 11 12 147 13 14 145 9 10 145 9 10 150 17 18 146 11 12 147 13 14 150 17 18 147 13 14 146 11 12 145 9 10 146 11 12 146 11 12 145 9 10 143 7 8 143 7 8 143 7 8 139 0 0 143 7 8 139 0 0 139 0 0 143 7 8 145 9 10 145 9 10 150 17 18 153 23 24 150 17 18 146 11 12 146 11 12 145 9 10 146 11 12 146 11 12 146 11 12 146 11 12 147 13 14 146 11 12 150 17 18 155 25 26 150 17 18 147 13 14 147 13 14 151 19 20 151 19 20 146 11 12 151 19 20 147 13 14 145 9 10 147 13 14 146 11 12 146 11 12 145 9 10 
143 7 8 139 0 0 139 0 0 139 0 0 139 0 0 139 0 0 139 0 0 139 0 0 139 0 0 139 0 0 139 0 0 143 7 8 143 7 8 139 0 0 139 0 0 143 7 8 139 0 0 139 0 0 139 0 0 139 0 0 143 7 8 139 0 0 139 0 0 139 0 0 139 0 0 139 0 0 139 0 0 139 0 0 139 0 0 139 0 0 139 0 0 143 7 8 139 0 0 139 0 0 139 0 0 139 0 0 139 0 0 143 7 8 139 0 0 139 0 0 139 0 0 139 0 0 139 0 0 139 0 0 139 0 0 139 0 0 143 7 8 139 0 0 139 0 0 139 0 0 139 0 0 139 0 0 139 0 0 139 0 0 139 0 0 139 0 0 139 0 0 139 0 0 139 0 0 139 0 0 143 7 8 139 0 0 139 0 0 139 0 0 139 0 0 139 0 0 139 0 0 139 0 0 139 0 0 139 0 0 139 0 0 139 0 0 139 0 0 139 0 0 139 0 0 139 0 0 139 0 0 139 0 0 139 0 0 139 0 0 139 0 0 139 0 0 139 0 0 146 11 12 158 30 32 183 69 73 185 73 78 187 75 80 190 81 86 187 75 80 187 75 80 180 65 69 187 75 80 185 73 78 204 102 108 219 125 133 205 104 110 205 104 110 219 125 133 200 96 102 194 87 92 203 100 106 214 118 125 209 110 117 192 83 88 190 81 86 189 79 84 188 77 82 195 89 94 217 123 131 229 141 149 216 121 129 214 118 125 222 131 139 206 106 112 189 79 84 190 81 86 189 79 84 189 79 84 189 79 84 189 79 84 188 77 82 190 81 86 188 77 82 188 77 82 179 63 67 187 75 80 192 83 88 198 92 98 195 89 94 195 89 94 187 75 80 189 79 84 192 83 88 190 81 86 194 87 92 192 83 88 195 89 94 200 96 102 169 48 51 169 48 51 169 48 51 174 56 59 189 79 84 192 83 88 198 92 98 200 96 102 194 87 92 187 75 80 172 52 55 169 48 51 168 46 49 159 32 34 158 30 32 183 69 73 185 73 78 179 63 67 174 56 59 159 32 34 157 29 30 150 17 18 147 13 14 150 17 18 147 13 14 146 11 12 146 11 12 145 9 10 146 11 12 147 13 14 146 11 12 147 13 14 145 9 10 145 9 10 150 17 18 146 11 12 147 13 14 150 17 18 147 13 14 146 11 12 145 9 10 146 11 12 146 11 12 145 9 10 143 7 8 143 7 8 143 7 8 139 0 0 143 7 8 139 0 0 139 0 0 143 7 8 145 9 10 145 9 10 150 17 18 153 23 24 150 17 18 146 11 12 146 11 12 145 9 10 146 11 12 146 11 12 146 11 12 146 11 12 147 13 14 146 11 12 150 17 18 155 25 26 150 17 18 147 13 14 147 13 14 151 19 20 151 19 20 146 11 12 151 19 20 147 13 14 145 9 10 147 13 14 146 11 12 146 11 12 145 9 10 
143 7 8 139 0 0 139 0 0 139 0 0 139 0 0 143 7 8 143 7 8 139 0 0 139 0 0 139 0 0 139 0 0 143 7 8 139 0 0 139 0 0 139 0 0 143 7 8 143 7 8 139 0 0 139 0 0 143 7 8 139 0 0 139 0 0 143 7 8 143 7 8 139 0 0 139 0 0 143 7 8 139 0 0 139 0 0 143 7 8 139 0 0 143 7 8 139 0 0 139 0 0 139 0 0 143 7 8 139 0 0 143 7 8 139 0 0 143 7 8 139 0 0 139 0 0 139 0 0 139 0 0 139 0 0 139 0 0 143 7 8 143 7 8 139 0 0 139 0 0 139 0 0 139 0 0 139 0 0 139 0 0 139 0 0 139 0 0 139 0 0 139 0 0 139 0 0 139 0 0 139 0 0 139 0 0 139 0 0 139 0 0 139 0 0 139 0 0 139 0 0 139 0 0 143 7 8 139 0 0 139 0 0 139 0 0 139 0 0 139 0 0 139 0 0 139 0 0 139 0 0 139 0 0 143 7 8 145 9 10 150 17 18 155 25 26 180 65 69 183 69 73 184 71 75 183 69 73 187 75 80 184 71 75 188 77 82 189 79 84 189 79 84 190 81 86 190 81 86 188 77 82 183 69 73 188 77 82 198 92 98 225 135 143 206 106 112 209 110 117 214 118 125 210 112 119 198 92 98 189 79 84 190 81 86 189 79 84 190 81 86 194 87 92 198 92 98 195 89 94 194 87 92 198 92 98 200 96 102 195 89 94 192 83 88 192 83 88 192 83 88 192 83 88 189 79 84 189 79 84 188 77 82 188 77 82 189 79 84 194 87 92 189 79 84 184 71 75 184 71 75 187 75 80 187 75 80 187 75 80 187 75 80 187 75 80 190 81 86 194 87 92 189 79 84 192 83 88 192 83 88 198 92 98 184 71 75 172 52 55 179 63 67 183 69 73 188 77 82 206 106 112 203 100 106 194 87 92 190 81 86 187 75 80 187 75 80 172 52 55 158 30 32 155 25 26 155 25 26 157 29 30 169 48 51 169 48 51 157 29 30 155 25 26 153 23 24 151 19 20 151 19 20 153 23 24 150 17 18 151 19 20 168 46 49 169 48 51 190 81 86 158 30 32 147 13 14 151 19 20 150 17 18 155 25 26 150 17 18 147 13 14 147 13 14 146 11 12 146 11 12 145 9 10 147 13 14 145 9 10 143 7 8 139 0 0 143 7 8 143 7 8 143 7 8 145 9 10 146 11 12 147 13 14 150 17 18 150 17 18 151 19 20 155 25 26 158 30 32 168 46 49 174 56 59 159 32 34 150 17 18 146 11 12 146 11 12 146 11 12 146 11 12 146 11 12 146 11 12 146 11 12 145 9 10 145 9 10 146 11 12 147 13 14 150 17 18 147 13 14 146 11 12 147 13 14 147 13 14 146 11 12 146 11 12 146 11 12 146 11 12 146 11 12 146 11 12 145 9 10 
143 7 8 139 0 0 139 0 0 139 0 0 139 0 0 143 7 8 143 7 8 139 0 0 139 0 0 139 0 0 139 0 0 143 7 8 139 0 0 139 0 0 139 0 0 143 7 8 143 7 8 139 0 0 139 0 0 143 7 8 139 0 0 139 0 0 143 7 8 143 7 8 139 0 0 139 0 0 143 7 8 139 0 0 139 0 0 143 7 8 139 0 0 143 7 8 139 0 0 139 0 0 139 0 0 143 7 8 139 0 0 143 7 8 139 0 0 143 7 8 139 0 0 139 0 0 139 0 0 139 0 0 139 0 0 139 0 0 143 7 8 143 7 8 139 0 0 139 0 0 139 0 0 139 0 0 139 0 0 139 0 0 139 0 0 139 0 0 139 0 0 139 0 0 139 0 0 139 0 0 139 0 0 139 0 0 139 0 0 139 0 0 139 0 0 139 0 0 139 0 0 139 0 0 143 7 8 139 0 0 139 0 0 139 0 0 139 0 0 139 0 0 139 0 0 139 0 0 139 0 0 139 0 0 143 7 8 145 9 10 150 17 18 155 25 26 180 65 69 183 69 73 184 71 75 183 69 73 187 75 80 184 71 75 188 77 82 189 79 84 189 79 84 190 81 86 190 81 86 188 77 82 183 69 73 188 77 82 198 92 98 225 135 143 206 106 112 209 110 117 214 118 125 210 112 119 198 92 98 189 79 84 190 81 86 189 79 84 190 81 86 194 87 92 198 92 98 195 89 94 194 87 92 198 92 98 200 96 102 195 89 94 192 83 88 192 83 88 192 83 88 192 83 88 189 79 84 189 79 84 188 77 82 188 77 82 189 79 84 194 87 92 189 79 84 184 71 75 184 71 75 187 75 80 187 75 80 187 75 80 187 75 80 187 75 80 190 81 86 194 87 92 189 79 84 192 83 88 192 83 88 198 92 98 184 71 75 172 52 55 179 63 67 183 69 73 188 77 82 206 106 112 203 100 106 194 87 92 190 81 86 187 75 80 187 75 80 172 52 55 158 30 32 155 25 26 155 25 26 157 29 30 169 48 51 169 48 51 157 29 30 155 25 26 153 23 24 151 19 20 151 19 20 153 23 24 150 17 18 151 19 20 168 46 49 169 48 51 190 81 86 158 30 32 147 13 14 151 19 20 150 17 18 155 25 26 150 17 18 147 13 14 147 13 14 146 11 12 146 11 12 145 9 10 147 13 14 145 9 10 143 7 8 139 0 0 143 7 8 143 7 8 143 7 8 145 9 10 146 11 12 147 13 14 150 17 18 150 17 18 151 19 20 155 25 26 158 30 32 168 46 49 174 56 59 159 32 34 150 17 18 146 11 12 146 11 12 146 11 12 146 11 12 146 11 12 146 11 12 146 11 12 145 9 10 145 9 10 146 11 12 147 13 14 150 17 18 147 13 14 146 11 12 147 13 14 147 13 14 146 11 12 146 11 12 146 11 12 146 11 12 146 11 12 146 11 12 145 9 10 
139 0 0 139 0 0 143 7 8 143 7 8 139 0 0 139 0 0 139 0 0 143 7 8 139 0 0 139 0 0 139 0 0 143 7 8 139 0 0 139 0 0 139 0 0 139 0 0 143 7 8 139 0 0 139 0 0 143 7 8 139 0 0 139 0 0 139 0 0 139 0 0 139 0 0 139 0 0 139 0 0 139 0 0 143 7 8 139 0 0 143 7 8 139 0 0 139 0 0 139 0 0 139 0 0 139 0 0 139 0 0 139 0 0 143 7 8 143 7 8 139 0 0 143 7 8 139 0 0 139 0 0 143 7 8 139 0 0 143 7 8 143 7 8 139 0 0 143 7 8 139 0 0 139 0 0 139 0 0 143 7 8 139 0 0 139 0 0 139 0 0 139 0 0 143 7 8 139 0 0 139 0 0 139 0 0 139 0 0 139 0 0 139 0 0 145 9 10 147 13 14 155 25 26 172 52 55 179 63 67 174 56 59 168 46 49 155 25 26 150 17 18 155 25 26 180 65 69 190 81 86 192 83 88 198 92 98 200 96 102 195 89 94 187 75 80 185 73 78 184 71 75 180 65 69 187 75 80 190 81 86 189 79 84 192 83 88 190 81 86 195 89 94 194 87 92 200 96 102 198 92 98 195 89 94 203 100 106 204 102 108 200 96 102 194 87 92 216 121 129 204 102 108 198 92 98 200 96 102 195 89 94 190 81 86 187 75 80 188 77 82 189 79 84 194 87 92 194 87 92 195 89 94 203 100 106 200 96 102 194 87 92 189 79 84 187 75 80 188 77 82 189 79 84 190 81 86 190 81 86 188 77 82 222 131 139 206 106 112 194 87 92 232 147 156 195 89 94 183 69 73 184 71 75 184 71 75 185 73 78 189 79 84 190 81 86 189 79 84 192 83 88 192 83 88 190 81 86 194 87 92 188 77 82 174 56 59 183 69 73 180 65 69 187 75 80 205 104 110 198 92 98 188 77 82 189 79 84 188 77 82 183 69 73 183 69 73 168 46 49 153 23 24 153 23 24 150 17 18 153 23 24 155 25 26 157 29 30 158 30 32 157 29 30 151 19 20 168 46 49 190 81 86 184 71 75 185 73 78 198 92 98 185 73 78 157 29 30 155 25 26 150 17 18 147 13 14 145 9 10 146 11 12 147 13 14 146 11 12 145 9 10 146 11 12 145 9 10 143 7 8 139 0 0 145 9 10 145 9 10 145 9 10 146 11 12 153 23 24 153 23 24 168 46 49 153 23 24 150 17 18 151 19 20 153 23 24 158 30 32 168 46 49 172 52 55 169 48 51 157 29 30 153 23 24 157 29 30 151 19 20 146 11 12 147 13 14 147 13 14 147 13 14 146 11 12 146 11 12 146 11 12 146 11 12 147 13 14 147 13 14 146 11 12 147 13 14 146 11 12 147 13 14 146 11 12 147 13 14 147 13 14 146 11 12 146 11 12 151 19 20 146 11 12 145 9 10 145 9 10 
139 0 0 139 0 0 143 7 8 143 7 8 139 0 0 139 0 0 139 0 0 143 7 8 139 0 0 139 0 0 139 0 0 143 7 8 139 0 0 139 0 0 139 0 0 139 0 0 143 7 8 139 0 0 139 0 0 143 7 8 139 0 0 139 0 0 139 0 0 139 0 0 139 0 0 139 0 0 139 0 0 139 0 0 143 7 8 139 0 0 143 7 8 139 0 0 139 0 0 139 0 0 139 0 0 139 0 0 139 0 0 139 0 0 143 7 8 143 7 8 139 0 0 143 7 8 139 0 0 139 0 0 143 7 8 139 0 0 143 7 8 143 7 8 139 0 0 143 7 8 139 0 0 139 0 0 139 0 0 143 7 8 139 0 0 139 0 0 139 0 0 139 0 0 143 7 8 139 0 0 139 0 0 139 0 0 139 0 0 139 0 0 139 0 0 145 9 10 147 13 14 155 25 26 172 52 55 179 63 67 174 56 59 168 46 49 155 25 26 150 17 18 155 25 26 180 65 69 190 81 86 192 83 88 198 92 98 200 96 102 195 89 94 187 75 80 185 73 78 184 71 75 180 65 69 187 75 80 190 81 86 189 79 84 192 83 88 190 81 86 195 89 94 194 87 92 200 96 102 198 92 98 195 89 94 203 100 106 204 102 108 200 96 102 194 87 92 216 121 129 204 102 108 198 92 98 200 96 102 195 89 94 190 81 86 187 75 80 188 77 82 189 79 84 194 87 92 194 87 92 195 89 94 203 100 106 200 96 102 194 87 92 189 79 84 187 75 80 188 77 82 189 79 84 190 81 86 190 81 86 188 77 82 222 131 139 206 106 112 194 87 92 232 147 156 195 89 94 183 69 73 184 71 75 184 71 75 185 73 78 189 79 84 190 81 86 189 79 84 192 83 88 192 83 88 190 81 86 194 87 92 188 77 82 174 56 59 183 69 73 180 65 69 187 75 80 205 104 110 198 92 98 188 77 82 189 79 84 188 77 82 183 69 73 183 69 73 168 46 49 153 23 24 153 23 24 150 17 18 153 23 24 155 25 26 157 29 30 158 30 32 157 29 30 151 19 20 168 46 49 190 81 86 184 71 75 185 73 78 198 92 98 185 73 78 157 29 30 155 25 26 150 17 18 147 13 14 145 9 10 146 11 12 147 13 14 146 11 12 145 9 10 146 11 12 145 9 10 143 7 8 139 0 0 145 9 10 145 9 10 145 9 10 146 11 12 153 23 24 153 23 24 168 46 49 153 23 24 150 17 18 151 19 20 153 23 24 158 30 32 168 46 49 172 52 55 169 48 51 157 29 30 153 23 24 157 29 30 151 19 20 146 11 12 147 13 14 147 13 14 147 13 14 146 11 12 146 11 12 146 11 12 146 11 12 147 13 14 147 13 14 146 11 12 147 13 14 146 11 12 147 13 14 146 11 12 147 13 14 147 13 14 146 11 12 146 11 12 151 19 20 146 11 12 145 9 10 145 9 10 
139 0 0 139 0 0 139 0 0 139 0 0 143 7 8 139 0 0 139 0 0 139 0 0 139 0 0 143 7 8 139 0 0 139 0 0 143 7 8 139 0 0 143 7 8 143 7 8 143 7 8 139 0 0 139 0 0 139 0 0 143 7 8 143 7 8 143 7 8 139 0 0 139 0 0 143 7 8 139 0 0 143 7 8 139 0 0 143 7 8 139 0 0 139 0 0 139 0 0 139 0 0 139 0 0 139 0 0 139 0 0 139 0 0 143 7 8 143 7 8 139 0 0 139 0 0 139 0 0 139 0 0 139 0 0 143 7 8 139 0 0 139 0 0 139 0 0 139 0 0 139 0 0 139 0 0 139 0 0 143 7 8 139 0 0 143 7 8 139 0 0 143 7 8 139 0 0 139 0 0 139 0 0 139 0 0 139 0 0 146 11 12 172 52 55 194 87 92 195 89 94 195 89 94 194 87 92 194 87 92 192 83 88 190 81 86 200 96 102 232 147 156 236 152 162 226 137 145 204 102 108 185 73 78 210 112 119 231 145 153 236 152 162 226 137 145 217 123 131 189 79 84 183 69 73 187 75 80 194 87 92 198 92 98 200 96 102 204 102 108 210 112 119 180 65 69 179 63 67 150 17 18 146 11 12 146 11 12 150 17 18 147 13 14 158 30 32 187 75 80 147 13 14 158 30 32 185 73 78 209 110 117 234 149 158 192 83 88 174 56 59 180 65 69 185 73 78 190 81 86 195 89 94 198 92 98 195 89 94 194 87 92 194 87 92 192 83 88 190 81 86 192 83 88 195 89 94 227 139 147 240 158 168 195 89 94 209 110 117 204 102 108 188 77 82 189 79 84 187 75 80 183 69 73 189 79 84 184 71 75 192 83 88 195 89 94 189 79 84 184 71 75 190 81 86 210 112 119 206 106 112 194 87 92 183 69 73 188 77 82 183 69 73 185 73 78 190 81 86 184 71 75 187 75 80 180 65 69 159 32 34 158 30 32 158 30 32 155 25 26 157 29 30 158 30 32 158 30 32 159 32 34 158 30 32 150 17 18 155 25 26 184 71 75 189 79 84 198 92 98 189 79 84 159 32 34 150 17 18 150 17 18 150 17 18 146 11 12 146 11 12 146 11 12 145 9 10 145 9 10 145 9 10 143 7 8 139 0 0 139 0 0 143 7 8 145 9 10 150 17 18 147 13 14 153 23 24 155 25 26 172 52 55 159 32 34 153 23 24 153 23 24 158 30 32 151 19 20 150 17 18 150 17 18 150 17 18 151 19 20 155 25 26 158 30 32 159 32 34 153 23 24 168 46 49 172 52 55 155 25 26 150 17 18 146 11 12 146 11 12 146 11 12 146 11 12 146 11 12 146 11 12 145 9 10 146 11 12 146 11 12 146 11 12 146 11 12 146 11 12 146 11 12 146 11 12 146 11 12 146 11 12 145 9 10 146 11 12 145 9 10 147 13 14 145 9 10 147 13 14 
139 0 0 139 0 0 139 0 0 139 0 0 143 7 8 139 0 0 139 0 0 139 0 0 139 0 0 143 7 8 139 0 0 139 0 0 143 7 8 139 0 0 143 7 8 143 7 8 143 7 8 139 0 0 139 0 0 139 0 0 143 7 8 143 7 8 143 7 8 139 0 0 139 0 0 143 7 8 139 0 0 143 7 8 139 0 0 143 7 8 139 0 0 139 0 0 139 0 0 139 0 0 139 0 0 139 0 0 139 0 0 139 0 0 143 7 8 143 7 8 139 0 0 139 0 0 139 0 0 139 0 0 139 0 0 143 7 8 139 0 0 139 0 0 139 0 0 139 0 0 139 0 0 139 0 0 139 0 0 143 7 8 139 0 0 143 7 8 139 0 0 143 7 8 139 0 0 139 0 0 139 0 0 139 0 0 139 0 0 146 11 12 172 52 55 194 87 92 195 89 94 195 89 94 194 87 92 194 87 92 192 83 88 190 81 86 200 96 102 232 147 156 236 152 162 226 137 145 204 102 108 185 73 78 210 112 119 231 145 153 236 152 162 226 137 145 217 123 131 189 79 84 183 69 73 187 75 80 194 87 92 198 92 98 200 96 102 204 102 108 210 112 119 180 65 69 179 63 67 150 17 18 146 11 12 146 11 12 150 17 18 147 13 14 158 30 32 187 75 80 147 13 14 158 30 32 185 73 78 209 110 117 234 149 158 192 83 88 174 56 59 180 65 69 185 73 78 190 81 86 195 89 94 198 92 98 195 89 94 194 87 92 194 87 92 192 83 88 190 81 86 192 83 88 195 89 94 227 139 147 240 158 168 195 89 94 209 110 117 204 102 108 188 77 82 189 79 84 187 75 80 183 69 73 189 79 84 184 71 75 192 83 88 195 89 94 189 79 84 184 71 75 190 81 86 210 112 119 206 106 112 194 87 92 183 69 73 188 77 82 183 69 73 185 73 78 190 81 86 184 71 75 187 75 80 180 65 69 159 32 34 158 30 32 158 30 32 155 25 26 157 29 30 158 30 32 158 30 32 159 32 34 158 30 32 150 17 18 155 25 26 184 71 75 189 79 84 198 92 98 189 79 84 159 32 34 150 17 18 150 17 18 150 17 18 146 11 12 146 11 12 146 11 12 145 9 10 145 9 10 145 9 10 143 7 8 139 0 0 139 0 0 143 7 8 145 9 10 150 17 18 147 13 14 153 23 24 155 25 26 172 52 55 159 32 34 153 23 24 153 23 24 158 30 32 151 19 20 150 17 18 150 17 18 150 17 18 151 19 20 155 25 26 158 30 32 159 32 34 153 23 24 168 46 49 172 52 55 155 25 26 150 17 18 146 11 12 146 11 12 146 11 12 146 11 12 146 11 12 146 11 12 145 9 10 146 11 12 146 11 12 146 11 12 146 11 12 146 11 12 146 11 12 146 11 12 146 11 12 146 11 12 145 9 10 146 11 12 145 9 10 147 13 14 145 9 10 147 13 14 
139 0 0 139 0 0 139 0 0 139 0 0 139 0 0 139 0 0 143 7 8 139 0 0 139 0 0 139 0 0 143 7 8 139 0 0 139 0 0 139 0 0 143 7 8 143 7 8 139 0 0 139 0 0 139 0 0 143 7 8 139 0 0 139 0 0 139 0 0 143 7 8 139 0 0 139 0 0 143 7 8 139 0 0 139 0 0 139 0 0 143 7 8 139 0 0 139 0 0 139 0 0 143 7 8 139 0 0 143 7 8 139 0 0 143 7 8 139 0 0 143 7 8 139 0 0 139 0 0 139 0 0 139 0 0 139 0 0 143 7 8 143 7 8 143 7 8 139 0 0 139 0 0 139 0 0 139 0 0 139 0 0 143 7 8 143 7 8 139 0 0 139 0 0 139 0 0 139 0 0 139 0 0 143 7 8 150 17 18 180 65 69 198 92 98 203 100 106 203 100 106 198 92 98 194 87 92 194 87 92 198 92 98 210 112 119 204 102 108 185 73 78 174 56 59 195 89 94 204 102 108 192 83 88 188 77 82 187 75 80 169 48 51 147 13 14 198 92 98 185 73 78 159 32 34 155 25 26 183 69 73 187 75 80 183 69 73 155 25 26 151 19 20 150 17 18 153 23 24 157 29 30 151 19 20 150 17 18 151 19 20 151 19 20 155 25 26 155 25 26 155 25 26 157 29 30 150 17 18 147 13 14 174 56 59 198 92 98 188 77 82 183 69 73 190 81 86 195 89 94 194 87 92 200 96 102 203 100 106 203 100 106 203 100 106 200 96 102 198 92 98 209 110 117 215 120 127 215 120 127 219 125 133 232 147 156 220 127 135 204 102 108 209 110 117 209 110 117 211 114 121 210 112 119 203 100 106 192 83 88 190 81 86 195 89 94 198 92 98 203 100 106 204 102 108 194 87 92 184 71 75 192 83 88 189 79 84 180 65 69 189 79 84 195 89 94 183 69 73 174 56 59 172 52 55 169 48 51 174 56 59 180 65 69 180 65 69 179 63 67 169 48 51 158 30 32 157 29 30 188 77 82 206 106 112 209 110 117 211 114 121 205 104 110 189 79 84 183 69 73 168 46 49 155 25 26 150 17 18 147 13 14 146 11 12 143 7 8 143 7 8 143 7 8 143 7 8 143 7 8 146 11 12 147 13 14 147 13 14 147 13 14 147 13 14 168 46 49 190 81 86 174 56 59 169 48 51 157 29 30 153 23 24 158 30 32 159 32 34 158 30 32 157 29 30 151 19 20 151 19 20 153 23 24 147 13 14 147 13 14 147 13 14 150 17 18 150 17 18 147 13 14 147 13 14 146 11 12 146 11 12 146 11 12 146 11 12 146 11 12 146 11 12 146 11 12 146 11 12 147 13 14 147 13 14 150 17 18 146 11 12 146 11 12 145 9 10 146 11 12 147 13 14 147 13 14 145 9 10 145 9 10 145 9 10 143 7 8 145 9 10 145 9 10 145 9 10 146 11 12 
139 0 0 139 0 0 139 0 0 139 0 0 139 0 0 139 0 0 143 7 8 139 0 0 139 0 0 139 0 0 143 7 8 139 0 0 139 0 0 139 0 0 143 7 8 143 7 8 139 0 0 139 0 0 139 0 0 143 7 8 139 0 0 139 0 0 139 0 0 143 7 8 139 0 0 139 0 0 143 7 8 139 0 0 139 0 0 139 0 0 143 7 8 139 0 0 139 0 0 139 0 0 143 7 8 139 0 0 143 7 8 139 0 0 143 7 8 139 0 0 143 7 8 139 0 0 139 0 0 139 0 0 139 0 0 139 0 0 143 7 8 143 7 8 143 7 8 139 0 0 139 0 0 139 0 0 139 0 0 139 0 0 143 7 8 143 7 8 139 0 0 139 0 0 139 0 0 139 0 0 139 0 0 143 7 8 150 17 18 180 65 69 198 92 98 203 100 106 203 100 106 198 92 98 194 87 92 194 87 92 198 92 98 210 112 119 204 102 108 185 73 78 174 56 59 195 89 94 204 102 108 192 83 88 188 77 82 187 75 80 169 48 51 147 13 14 198 92 98 185 73 78 159 32 34 155 25 26 183 69 73 187 75 80 183 69 73 155 25 26 151 19 20 150 17 18 153 23 24 157 29 30 151 19 20 150 17 18 151 19 20 151 19 20 155 25 26 155 25 26 155 25 26 157 29 30 150 17 18 147 13 14 174 56 59 198 92 98 188 77 82 183 69 73 190 81 86 195 89 94 194 87 92 200 96 102 203 100 106 203 100 106 203 100 106 200 96 102 198 92 98 209 110 117 215 120 127 215 120 127 219 125 133 232 147 156 220 127 135 204 102 108 209 110 117 209 110 117 211 114 121 210 112 119 203 100 106 192 83 88 190 81 86 195 89 94 198 92 98 203 100 106 204 102 108 194 87 92 184 71 75 192 83 88 189 79 84 180 65 69 189 79 84 195 89 94 183 69 73 174 56 59 172 52 55 169 48 51 174 56 59 180 65 69 180 65 69 179 63 67 169 48 51 158 30 32 157 29 30 188 77 82 206 106 112 209 110 117 211 114 121 205 104 110 189 79 84 183 69 73 168 46 49 155 25 26 150 17 18 147 13 14 146 11 12 143 7 8 143 7 8 143 7 8 143 7 8 143 7 8 146 11 12 147 13 14 147 13 14 147 13 14 147 13 14 168 46 49 190 81 86 174 56 59 169 48 51 157 29 30 153 23 24 158 30 32 159 32 34 158 30 32 157 29 30 151 19 20 151 19 20 153 23 24 147 13 14 147 13 14 147 13 14 150 17 18 150 17 18 147 13 14 147 13 14 146 11 12 146 11 12 146 11 12 146 11 12 146 11 12 146 11 12 146 11 12 146 11 12 147 13 14 147 13 14 150 17 18 146 11 12 146 11 12 145 9 10 146 11 12 147 13 14 147 13 14 145 9 10 145 9 10 145 9 10 143 7 8 145 9 10 145 9 10 145 9 10 146 11 12 
143 7 8 139 0 0 143 7 8 139 0 0 143 7 8 143 7 8 143 7 8 143 7 8 139 0 0 139 0 0 139 0 0 143 7 8 143 7 8 143 7 8 139 0 0 143 7 8 143 7 8 143 7 8 143 7 8 143 7 8 139 0 0 143 7 8 143 7 8 143 7 8 143 7 8 139 0 0 139 0 0 139 0 0 139 0 0 139 0 0 143 7 8 143 7 8 139 0 0 139 0 0 139 0 0 139 0 0 143 7 8 143 7 8 143 7 8 143 7 8 139 0 0 139 0 0 139 0 0 139 0 0 143 7 8 143 7 8 139 0 0 143 7 8 139 0 0 143 7 8 139 0 0 139 0 0 143 7 8 139 0 0 143 7 8 139 0 0 139 0 0 139 0 0 139 0 0 139 0 0 139 0 0 143 7 8 172 52 55 210 112 119 225 135 143 236 152 162 235 151 160 220 127 135 206 106 112 206 106 112 203 100 106 210 112 119 224 133 141 232 147 156 229 141 149 227 139 147 214 118 125 194 87 92 190 81 86 192 83 88 184 71 75 153 23 24 146 11 12 153 23 24 168 46 49 169 48 51 159 32 34 169 48 51 168 46 49 179 63 67 151 19 20 155 25 26 155 25 26 153 23 24 151 19 20 150 17 18 151 19 20 153 23 24 155 25 26 157 29 30 180 65 69 190 81 86 169 48 51 155 25 26 151 19 20 157 29 30 159 32 34 157 29 30 188 77 82 214 118 125 211 114 121 203 100 106 206 106 112 209 110 117 209 110 117 214 118 125 217 123 131 216 121 129 215 120 127 222 131 139 226 137 145 241 160 170 217 123 131 210 112 119 205 104 110 213 116 123 204 102 108 190 81 86 190 81 86 198 92 98 192 83 88 200 96 102 195 89 94 210 112 119 200 96 102 190 81 86 200 96 102 200 96 102 195 89 94 180 65 69 183 69 73 180 65 69 184 71 75 180 65 69 168 46 49 168 46 49 158 30 32 155 25 26 155 25 26 169 48 51 194 87 92 205 104 110 203 100 106 203 100 106 203 100 106 189 79 84 174 56 59 159 32 34 159 32 34 155 25 26 147 13 14 145 9 10 143 7 8 143 7 8 143 7 8 145 9 10 146 11 12 147 13 14 150 17 18 150 17 18 150 17 18 151 19 20 151 19 20 150 17 18 150 17 18 153 23 24 159 32 34 180 65 69 174 56 59 155 25 26 151 19 20 153 23 24 159 32 34 183 69 73 180 65 69 157 29 30 150 17 18 153 23 24 157 29 30 147 13 14 146 11 12 147 13 14 147 13 14 146 11 12 146 11 12 146 11 12 146 11 12 146 11 12 146 11 12 146 11 12 146 11 12 146 11 12 146 11 12 146 11 12 146 11 12 146 11 12 146 11 12 146 11 12 146 11 12 146 11 12 146 11 12 146 11 12 146 11 12 146 11 12 146 11 12 145 9 10 146 11 12 145 9 10 146 11 12 145 9 10 
143 7 8 139 0 0 143 7 8 139 0 0 143 7 8 143 7 8 143 7 8 143 7 8 139 0 0 139 0 0 139 0 0 143 7 8 143 7 8 143 7 8 139 0 0 143 7 8 143 7 8 143 7 8 143 7 8 143 7 8 139 0 0 143 7 8 143 7 8 143 7 8 143 7 8 139 0 0 139 0 0 139 0 0 139 0 0 139 0 0 143 7 8 143 7 8 139 0 0 139 0 0 139 0 0 139 0 0 143 7 8 143 7 8 143 7 8 143 7 8 139 0 0 139 0 0 139 0 0 139 0 0 143 7 8 143 7 8 139 0 0 143 7 8 139 0 0 143 7 8 139 0 0 139 0 0 143 7 8 139 0 0 143 7 8 139 0 0 139 0 0 139 0 0 139 0 0 139 0 0 139 0 0 143 7 8 172 52 55 210 112 119 225 135 143 236 152 162 235 151 160 220 127 135 206 106 112 206 106 112 203 100 106 210 112 119 224 133 141 232 147 156 229 141 149 227 139 147 214 118 125 194 87 92 190 81 86 192 83 88 184 71 75 153 23 24 146 11 12 153 23 24 168 46 49 169 48 51 159 32 34 169 48 51 168 46 49 179 63 67 151 19 20 155 25 26 155 25 26 153 23 24 151 19 20 150 17 18 151 19 20 153 23 24 155 25 26 157 29 30 180 65 69 190 81 86 169 48 51 155 25 26 151 19 20 157 29 30 159 32 34 157 29 30 188 77 82 214 118 125 211 114 121 203 100 106 206 106 112 209 110 117 209 110 117 214 118 125 217 123 131 216 121 129 215 120 127 222 131 139 226 137 145 241 160 170 217 123 131 210 112 119 205 104 110 213 116 123 204 102 108 190 81 86 190 81 86 198 92 98 192 83 88 200 96 102 195 89 94 210 112 119 200 96 102 190 81 86 200 96 102 200 96 102 195 89 94 180 65 69 183 69 73 180 65 69 184 71 75 180 65 69 168 46 49 168 46 49 158 30 32 155 25 26 155 25 26 169 48 51 194 87 92 205 104 110 203 100 106 203 100 106 203 100 106 189 79 84 174 56 59 159 32 34 159 32 34 155 25 26 147 13 14 145 9 10 143 7 8 143 7 8 143 7 8 145 9 10 146 11 12 147 13 14 150 17 18 150 17 18 150 17 18 151 19 20 151 19 20 150 17 18 150 17 18 153 23 24 159 32 34 180 65 69 174 56 59 155 25 26 151 19 20 153 23 24 159 32 34 183 69 73 180 65 69 157 29 30 150 17 18 153 23 24 157 29 30 147 13 14 146 11 12 147 13 14 147 13 14 146 11 12 146 11 12 146 11 12 146 11 12 146 11 12 146 11 12 146 11 12 146 11 12 146 11 12 146 11 12 146 11 12 146 11 12 146 11 12 146 11 12 146 11 12 146 11 12 146 11 12 146 11 12 146 11 12 146 11 12 146 11 12 146 11 12 145 9 10 146 11 12 145 9 10 146 11 12 145 9 10 
143 7 8 139 0 0 139 0 0 139 0 0 139 0 0 139 0 0 143 7 8 143 7 8 143 7 8 143 7 8 139 0 0 143 7 8 143 7 8 143 7 8 143 7 8 143 7 8 143 7 8 139 0 0 139 0 0 139 0 0 139 0 0 139 0 0 139 0 0 139 0 0 139 0 0 143 7 8 139 0 0 143 7 8 139 0 0 139 0 0 143 7 8 143 7 8 143 7 8 143 7 8 139 0 0 139 0 0 139 0 0 143 7 8 139 0 0 143 7 8 143 7 8 139 0 0 139 0 0 143 7 8 143 7 8 143 7 8 143 7 8 139 0 0 139 0 0 139 0 0 139 0 0 139 0 0 139 0 0 139 0 0 139 0 0 139 0 0 139 0 0 139 0 0 139 0 0 139 0 0 139 0 0 147 13 14 187 75 80 215 120 127 227 139 147 245 166 176 235 151 160 211 114 121 203 100 106 214 118 125 211 114 121 216 121 129 211 114 121 198 92 98 189 79 84 155 25 26 145 9 10 145 9 10 145 9 10 146 11 12 146 11 12 150 17 18 147 13 14 146 11 12 179 63 67 174 56 59 174 56 59 174 56 59 174 56 59 179 63 67 179 63 67 157 29 30 155 25 26 157 29 30 155 25 26 153 23 24 153 23 24 157 29 30 158 30 32 172 52 55 187 75 80 188 77 82 183 69 73 168 46 49 153 23 24 155 25 26 169 48 51 180 65 69 183 69 73 172 52 55 155 25 26 169 48 51 210 112 119 226 137 145 222 131 139 215 120 127 222 131 139 217 123 131 216 121 129 220 127 135 230 143 151 230 143 151 214 118 125 219 125 133 217 123 131 219 125 133 214 118 125 210 112 119 215 120 127 209 110 117 198 92 98 215 120 127 205 104 110 203 100 106 190 81 86 174 56 59 184 71 75 190 81 86 183 69 73 183 69 73 172 52 55 158 30 32 153 23 24 155 25 26 153 23 24 151 19 20 157 29 30 185 73 78 205 104 110 216 121 129 217 123 131 206 106 112 184 71 75 159 32 34 159 32 34 159 32 34 157 29 30 150 17 18 146 11 12 145 9 10 143 7 8 145 9 10 146 11 12 147 13 14 150 17 18 147 13 14 150 17 18 147 13 14 147 13 14 150 17 18 151 19 20 151 19 20 150 17 18 150 17 18 150 17 18 155 25 26 158 30 32 168 46 49 159 32 34 157 29 30 151 19 20 155 25 26 157 29 30 158 30 32 157 29 30 155 25 26 153 23 24 157 29 30 151 19 20 147 13 14 151 19 20 157 29 30 157 29 30 159 32 34 157 29 30 155 25 26 158 30 32 155 25 26 150 17 18 146 11 12 146 11 12 146 11 12 146 11 12 146 11 12 146 11 12 145 9 10 145 9 10 146 11 12 145 9 10 146 11 12 146 11 12 146 11 12 146 11 12 146 11 12 145 9 10 145 9 10 145 9 10 145 9 10 145 9 10 145 9 10 
143 7 8 139 0 0 139 0 0 139 0 0 139 0 0 139 0 0 143 7 8 143 7 8 143 7 8 143 7 8 139 0 0 143 7 8 143 7 8 143 7 8 143 7 8 143 7 8 143 7 8 139 0 0 139 0 0 139 0 0 139 0 0 139 0 0 139 0 0 139 0 0 139 0 0 143 7 8 139 0 0 143 7 8 139 0 0 139 0 0 143 7 8 143 7 8 143 7 8 143 7 8 139 0 0 139 0 0 139 0 0 143 7 8 139 0 0 143 7 8 143 7 8 139 0 0 139 0 0 143 7 8 143 7 8 143 7 8 143 7 8 139 0 0 139 0 0 139 0 0 139 0 0 139 0 0 139 0 0 139 0 0 139 0 0 139 0 0 139 0 0 139 0 0 139 0 0 139 0 0 139 0 0 147 13 14 187 75 80 215 120 127 227 139 147 245 166 176 235 151 160 211 114 121 203 100 106 214 118 125 211 114 121 216 121 129 211 114 121 198 92 98 189 79 84 155 25 26 145 9 10 145 9 10 145 9 10 146 11 12 146 11 12 150 17 18 147 13 14 146 11 12 179 63 67 174 56 59 174 56 59 174 56 59 174 56 59 179 63 67 179 63 67 157 29 30 155 25 26 157 29 30 155 25 26 153 23 24 153 23 24 157 29 30 158 30 32 172 52 55 187 75 80 188 77 82 183 69 73 168 46 49 153 23 24 155 25 26 169 48 51 180 65 69 183 69 73 172 52 55 155 25 26 169 48 51 210 112 119 226 137 145 222 131 139 215 120 127 222 131 139 217 123 131 216 121 129 220 127 135 230 143 151 230 143 151 214 118 125 219 125 133 217 123 131 219 125 133 214 118 125 210 112 119 215 120 127 209 110 117 198 92 98 215 120 127 205 104 110 203 100 106 190 81 86 174 56 59 184 71 75 190 81 86 183 69 73 183 69 73 172 52 55 158 30 32 153 23 24 155 25 26 153 23 24 151 19 20 157 29 30 185 73 78 205 104 110 216 121 129 217 123 131 206 106 112 184 71 75 159 32 34 159 32 34 159 32 34 157 29 30 150 17 18 146 11 12 145 9 10 143 7 8 145 9 10 146 11 12 147 13 14 150 17 18 147 13 14 150 17 18 147 13 14 147 13 14 150 17 18 151 19 20 151 19 20 150 17 18 150 17 18 150 17 18 155 25 26 158 30 32 168 46 49 159 32 34 157 29 30 151 19 20 155 25 26 157 29 30 158 30 32 157 29 30 155 25 26 153 23 24 157 29 30 151 19 20 147 13 14 151 19 20 157 29 30 157 29 30 159 32 34 157 29 30 155 25 26 158 30 32 155 25 26 150 17 18 146 11 12 146 11 12 146 11 12 146 11 12 146 11 12 146 11 12 145 9 10 145 9 10 146 11 12 145 9 10 146 11 12 146 11 12 146 11 12 146 11 12 146 11 12 145 9 10 145 9 10 145 9 10 145 9 10 145 9 10 145 9 10 
139 0 0 143 7 8 143 7 8 139 0 0 139 0 0 139 0 0 139 0 0 143 7 8 139 0 0 139 0 0 139 0 0 139 0 0 139 0 0 139 0 0 139 0 0 143 7 8 139 0 0 139 0 0 139 0 0 143 7 8 143 7 8 139 0 0 139 0 0 139 0 0 139 0 0 139 0 0 139 0 0 139 0 0 139 0 0 139 0 0 139 0 0 143 7 8 139 0 0 143 7 8 139 0 0 139 0 0 139 0 0 143 7 8 143 7 8 139 0 0 139 0 0 143 7 8 139 0 0 139 0 0 139 0 0 139 0 0 139 0 0 139 0 0 139 0 0 139 0 0 143 7 8 139 0 0 143 7 8 139 0 0 139 0 0 139 0 0 139 0 0 139 0 0 139 0 0 139 0 0 143 7 8 153 23 24 192 83 88 214 118 125 216 121 129 222 131 139 215 120 127 205 104 110 203 100 106 211 114 121 204 102 108 188 77 82 158 30 32 145 9 10 143 7 8 145 9 10 145 9 10 189 79 84 157 29 30 145 9 10 147 13 14 172 52 55 174 56 59 150 17 18 153 23 24 183 69 73 184 71 75 183 69 73 174 56 59 184 71 75 195 89 94 190 81 86 179 63 67 172 52 55 168 46 49 159 32 34 168 46 49 172 52 55 195 89 94 216 121 129 220 127 135 235 151 160 231 145 153 222 131 139 215 120 127 213 116 123 213 116 123 190 81 86 185 73 78 185 73 78 203 100 106 229 141 149 232 147 156 225 135 143 220 127 135 217 123 131 216 121 129 220 127 135 222 131 139 220 127 135 232 147 156 222 131 139 200 96 102 194 87 92 200 96 102 203 100 106 200 96 102 203 100 106 203 100 106 210 112 119 192 83 88 187 75 80 179 63 67 174 56 59 172 52 55 158 30 32 169 48 51 169 48 51 180 65 69 172 52 55 151 19 20 155 25 26 150 17 18 151 19 20 172 52 55 195 89 94 205 104 110 195 89 94 192 83 88 198 92 98 190 81 86 179 63 67 159 32 34 158 30 32 151 19 20 146 11 12 145 9 10 145 9 10 157 29 30 157 29 30 155 25 26 153 23 24 151 19 20 151 19 20 151 19 20 151 19 20 151 19 20 150 17 18 150 17 18 151 19 20 151 19 20 151 19 20 150 17 18 147 13 14 147 13 14 147 13 14 150 17 18 159 32 34 151 19 20 150 17 18 151 19 20 151 19 20 151 19 20 151 19 20 150 17 18 151 19 20 155 25 26 153 23 24 151 19 20 158 30 32 158 30 32 153 23 24 155 25 26 158 30 32 158 30 32 153 23 24 147 13 14 153 23 24 153 23 24 150 17 18 147 13 14 146 11 12 146 11 12 146 11 12 146 11 12 146 11 12 146 11 12 146 11 12 146 11 12 145 9 10 146 11 12 147 13 14 147 13 14 147 13 14 146 11 12 147 13 14 146 11 12 145 9 10 145 9 10 145 9 10 
139 0 0 143 7 8 143 7 8 139 0 0 139 0 0 139 0 0 139 0 0 143 7 8 139 0 0 139 0 0 139 0 0 139 0 0 139 0 0 139 0 0 139 0 0 143 7 8 139 0 0 139 0 0 139 0 0 143 7 8 143 7 8 139 0 0 139 0 0 139 0 0 139 0 0 139 0 0 139 0 0 139 0 0 139 0 0 139 0 0 139 0 0 143 7 8 139 0 0 143 7 8 139 0 0 139 0 0 139 0 0 143 7 8 143 7 8 139 0 0 139 0 0 143 7 8 139 0 0 139 0 0 139 0 0 139 0 0 139 0 0 139 0 0 139 0 0 139 0 0 143 7 8 139 0 0 143 7 8 139 0 0 139 0 0 139 0 0 139 0 0 139 0 0 139 0 0 139 0 0 143 7 8 153 23 24 192 83 88 214 118 125 216 121 129 222 131 139 215 120 127 205 104 110 203 100 106 211 114 121 204 102 108 188 77 82 158 30 32 145 9 10 143 7 8 145 9 10 145 9 10 189 79 84 157 29 30 145 9 10 147 13 14 172 52 55 174 56 59 150 17 18 153 23 24 183 69 73 184 71 75 183 69 73 174 56 59 184 71 75 195 89 94 190 81 86 179 63 67 172 52 55 168 46 49 159 32 34 168 46 49 172 52 55 195 89 94 216 121 129 220 127 135 235 151 160 231 145 153 222 131 139 215 120 127 213 116 123 213 116 123 190 81 86 185 73 78 185 73 78 203 100 106 229 141 149 232 147 156 225 135 143 220 127 135 217 123 131 216 121 129 220 127 135 222 131 139 220 127 135 232 147 156 222 131 139 200 96 102 194 87 92 200 96 102 203 100 106 200 96 102 203 100 106 203 100 106 210 112 119 192 83 88 187 75 80 179 63 67 174 56 59 172 52 55 158 30 32 169 48 51 169 48 51 180 65 69 172 52 55 151 19 20 155 25 26 150 17 18 151 19 20 172 52 55 195 89 94 205 104 110 195 89 94 192 83 88 198 92 98 190 81 86 179 63 67 159 32 34 158 30 32 151 19 20 146 11 12 145 9 10 145 9 10 157 29 30 157 29 30 155 25 26 153 23 24 151 19 20 151 19 20 151 19 20 151 19 20 151 19 20 150 17 18 150 17 18 151 19 20 151 19 20 151 19 20 150 17 18 147 13 14 147 13 14 147 13 14 150 17 18 159 32 34 151 19 20 150 17 18 151 19 20 151 19 20 151 19 20 151 19 20 150 17 18 151 19 20 155 25 26 153 23 24 151 19 20 158 30 32 158 30 32 153 23 24 155 25 26 158 30 32 158 30 32 153 23 24 147 13 14 153 23 24 153 23 24 150 17 18 147 13 14 146 11 12 146 11 12 146 11 12 146 11 12 146 11 12 146 11 12 146 11 12 146 11 12 145 9 10 146 11 12 147 13 14 147 13 14 147 13 14 146 11 12 147 13 14 146 11 12 145 9 10 145 9 10 145 9 10 
143 7 8 139 0 0 139 0 0 139 0 0 143 7 8 139 0 0 139 0 0 139 0 0 143 7 8 139 0 0 139 0 0 139 0 0 143 7 8 143 7 8 143 7 8 143 7 8 139 0 0 139 0 0 139 0 0 139 0 0 139 0 0 143 7 8 143 7 8 143 7 8 143 7 8 139 0 0 139 0 0 139 0 0 139 0 0 143 7 8 143 7 8 143 7 8 143 7 8 143 7 8 143 7 8 139 0 0 143 7 8 143 7 8 139 0 0 139 0 0 139 0 0 143 7 8 139 0 0 143 7 8 143 7 8 143 7 8 143 7 8 143 7 8 139 0 0 143 7 8 139 0 0 143 7 8 139 0 0 139 0 0 139 0 0 139 0 0 139 0 0 139 0 0 143 7 8 139 0 0 139 0 0 146 11 12 180 65 69 206 106 112 206 106 112 204 102 108 203 100 106 203 100 106 203 100 106 194 87 92 169 48 51 147 13 14 145 9 10 143 7 8 143 7 8 143 7 8 145 9 10 145 9 10 145 9 10 147 13 14 147 13 14 151 19 20 153 23 24 150 17 18 158 30 32 157 29 30 179 63 67 172 52 55 185 73 78 180 65 69 195 89 94 190 81 86 195 89 94 194 87 92 198 92 98 204 102 108 236 152 162 245 166 176 237 154 164 222 131 139 214 118 125 219 125 133 211 114 121 210 112 119 206 106 112 195 89 94 213 116 123 225 135 143 232 147 156 235 151 160 235 151 160 238 156 166 234 149 158 226 137 145 220 127 135 217 123 131 217 123 131 216 121 129 216 121 129 220 127 135 236 152 162 206 106 112 192 83 88 190 81 86 188 77 82 188 77 82 180 65 69 183 69 73 180 65 69 179 63 67 183 69 73 180 65 69 158 30 32 172 52 55 155 25 26 168 46 49 179 63 67 206 106 112 190 81 86 174 56 59 172 52 55 168 46 49 183 69 73 206 106 112 216 121 129 209 110 117 203 100 106 192 83 88 180 65 69 179 63 67 174 56 59 169 48 51 153 23 24 147 13 14 145 9 10 147 13 14 151 19 20 153 23 24 153 23 24 151 19 20 153 23 24 150 17 18 151 19 20 151 19 20 150 17 18 150 17 18 147 13 14 150 17 18 150 17 18 150 17 18 150 17 18 147 13 14 150 17 18 147 13 14 147 13 14 147 13 14 150 17 18 147 13 14 147 13 14 147 13 14 150 17 18 147 13 14 147 13 14 150 17 18 147 13 14 150 17 18 150 17 18 150 17 18 150 17 18 153 23 24 155 25 26 155 25 26 158 30 32 169 48 51 157 29 30 151 19 20 151 19 20 153 23 24 153 23 24 155 25 26 158 30 32 153 23 24 147 13 14 146 11 12 146 11 12 145 9 10 146 11 12 146 11 12 146 11 12 147 13 14 147 13 14 146 11 12 147 13 14 147 13 14 153 23 24 147 13 14 145 9 10 145 9 10 145 9 10 145 9 10 
143 7 8 139 0 0 139 0 0 139 0 0 143 7 8 139 0 0 139 0 0 139 0 0 143 7 8 139 0 0 139 0 0 139 0 0 143 7 8 143 7 8 143 7 8 143 7 8 139 0 0 139 0 0 139 0 0 139 0 0 139 0 0 143 7 8 143 7 8 143 7 8 143 7 8 139 0 0 139 0 0 139 0 0 139 0 0 143 7 8 143 7 8 143 7 8 143 7 8 143 7 8 143 7 8 139 0 0 143 7 8 143 7 8 139 0 0 139 0 0 139 0 0 143 7 8 139 0 0 143 7 8 143 7 8 143 7 8 143 7 8 143 7 8 139 0 0 143 7 8 139 0 0 143 7 8 139 0 0 139 0 0 139 0 0 139 0 0 139 0 0 139 0 0 143 7 8 139 0 0 139 0 0 146 11 12 180 65 69 206 106 112 206 106 112 204 102 108 203 100 106 203 100 106 203 100 106 194 87 92 169 48 51 147 13 14 145 9 10 143 7 8 143 7 8 143 7 8 145 9 10 145 9 10 145 9 10 147 13 14 147 13 14 151 19 20 153 23 24 150 17 18 158 30 32 157 29 30 179 63 67 172 52 55 185 73 78 180 65 69 195 89 94 190 81 86 195 89 94 194 87 92 198 92 98 204 102 108 236 152 162 245 166 176 237 154 164 222 131 139 214 118 125 219 125 133 211 114 121 210 112 119 206 106 112 195 89 94 213 116 123 225 135 143 232 147 156 235 151 160 235 151 160 238 156 166 234 149 158 226 137 145 220 127 135 217 123 131 217 123 131 216 121 129 216 121 129 220 127 135 236 152 162 206 106 112 192 83 88 190 81 86 188 77 82 188 77 82 180 65 69 183 69 73 180 65 69 179 63 67 183 69 73 180 65 69 158 30 32 172 52 55 155 25 26 168 46 49 179 63 67 206 106 112 190 81 86 174 56 59 172 52 55 168 46 49 183 69 73 206 106 112 216 121 129 209 110 117 203 100 106 192 83 88 180 65 69 179 63 67 174 56 59 169 48 51 153 23 24 147 13 14 145 9 10 147 13 14 151 19 20 153 23 24 153 23 24 151 19 20 153 23 24 150 17 18 151 19 20 151 19 20 150 17 18 150 17 18 147 13 14 150 17 18 150 17 18 150 17 18 150 17 18 147 13 14 150 17 18 147 13 14 147 13 14 147 13 14 150 17 18 147 13 14 147 13 14 147 13 14 150 17 18 147 13 14 147 13 14 150 17 18 147 13 14 150 17 18 150 17 18 150 17 18 150 17 18 153 23 24 155 25 26 155 25 26 158 30 32 169 48 51 157 29 30 151 19 20 151 19 20 153 23 24 153 23 24 155 25 26 158 30 32 153 23 24 147 13 14 146 11 12 146 11 12 145 9 10 146 11 12 146 11 12 146 11 12 147 13 14 147 13 14 146 11 12 147 13 14 147 13 14 153 23 24 147 13 14 145 9 10 145 9 10 145 9 10 145 9 10 
139 0 0 139 0 0 143 7 8 139 0 0 143 7 8 139 0 0 143 7 8 139 0 0 143 7 8 139 0 0 139 0 0 143 7 8 139 0 0 143 7 8 143 7 8 143 7 8 143 7 8 139 0 0 143 7 8 143 7 8 143 7 8 143 7 8 139 0 0 143 7 8 139 0 0 143 7 8 139 0 0 139 0 0 143 7 8 139 0 0 139 0 0 139 0 0 139 0 0 139 0 0 139 0 0 139 0 0 143 7 8 139 0 0 139 0 0 143 7 8 139 0 0 139 0 0 143 7 8 139 0 0 139 0 0 139 0 0 139 0 0 139 0 0 139 0 0 139 0 0 139 0 0 139 0 0 139 0 0 139 0 0 143 7 8 139 0 0 143 7 8 143 7 8 139 0 0 143 7 8 143 7 8 143 7 8 150 17 18 183 69 73 195 89 94 198 92 98 200 96 102 198 92 98 195 89 94 205 104 110 184 71 75 150 17 18 146 11 12 143 7 8 143 7 8 145 9 10 145 9 10 143 7 8 184 71 75 153 23 24 153 23 24 150 17 18 147 13 14 145 9 10 157 29 30 220 127 135 185 73 78 231 145 153 232 147 156 234 149 158 250 174 184 250 174 184 250 174 184 250 174 184 248 172 182 240 158 168 226 137 145 213 116 123 187 75 80 194 87 92 204 102 108 192 83 88 195 89 94 200 96 102 192 83 88 192 83 88 200 96 102 206 106 112 215 120 127 220 127 135 227 139 147 232 147 156 224 133 141 214 118 125 211 114 121 211 114 121 216 121 129 219 125 133 222 131 139 230 143 151 232 147 156 205 104 110 195 89 94 190 81 86 192 83 88 189 79 84 169 48 51 174 56 59 174 56 59 180 65 69 180 65 69 172 52 55 174 56 59 184 71 75 187 75 80 157 29 30 172 52 55 174 56 59 159 32 34 172 52 55 179 63 67 213 116 123 229 141 149 224 133 141 198 92 98 183 69 73 172 52 55 179 63 67 169 48 51 157 29 30 150 17 18 147 13 14 155 25 26 158 30 32 157 29 30 155 25 26 153 23 24 157 29 30 174 56 59 172 52 55 155 25 26 151 19 20 153 23 24 151 19 20 150 17 18 150 17 18 150 17 18 150 17 18 147 13 14 150 17 18 150 17 18 147 13 14 150 17 18 151 19 20 147 13 14 150 17 18 147 13 14 147 13 14 150 17 18 151 19 20 150 17 18 147 13 14 146 11 12 147 13 14 155 25 26 155 25 26 150 17 18 147 13 14 147 13 14 147 13 14 150 17 18 150 17 18 153 23 24 155 25 26 153 23 24 153 23 24 151 19 20 153 23 24 155 25 26 157 29 30 168 46 49 168 46 49 168 46 49 155 25 26 146 11 12 146 11 12 146 11 12 147 13 14 147 13 14 147 13 14 147 13 14 150 17 18 147 13 14 147 13 14 147 13 14 147 13 14 146 11 12 146 11 12 143 7 8 145 9 10 
139 0 0 139 0 0 143 7 8 139 0 0 143 7 8 139 0 0 143 7 8 139 0 0 143 7 8 139 0 0 139 0 0 143 7 8 139 0 0 143 7 8 143 7 8 143 7 8 143 7 8 139 0 0 143 7 8 143 7 8 143 7 8 143 7 8 139 0 0 143 7 8 139 0 0 143 7 8 139 0 0 139 0 0 143 7 8 139 0 0 139 0 0 139 0 0 139 0 0 139 0 0 139 0 0 139 0 0 143 7 8 139 0 0 139 0 0 143 7 8 139 0 0 139 0 0 143 7 8 139 0 0 139 0 0 139 0 0 139 0 0 139 0 0 139 0 0 139 0 0 139 0 0 139 0 0 139 0 0 139 0 0 143 7 8 139 0 0 143 7 8 143 7 8 139 0 0 143 7 8 143 7 8 143 7 8 150 17 18 183 69 73 195 89 94 198 92 98 200 96 102 198 92 98 195 89 94 205 104 110 184 71 75 150 17 18 146 11 12 143 7 8 143 7 8 145 9 10 145 9 10 143 7 8 184 71 75 153 23 24 153 23 24 150 17 18 147 13 14 145 9 10 157 29 30 220 127 135 185 73 78 231 145 153 232 147 156 234 149 158 250 174 184 250 174 184 250 174 184 250 174 184 248 172 182 240 158 168 226 137 145 213 116 123 187 75 80 194 87 92 204 102 108 192 83 88 195 89 94 200 96 102 192 83 88 192 83 88 200 96 102 206 106 112 215 120 127 220 127 135 227 139 147 232 147 156 224 133 141 214 118 125 211 114 121 211 114 121 216 121 129 219 125 133 222 131 139 230 143 151 232 147 156 205 104 110 195 89 94 190 81 86 192 83 88 189 79 84 169 48 51 174 56 59 174 56 59 180 65 69 180 65 69 172 52 55 174 56 59 184 71 75 187 75 80 157 29 30 172 52 55 174 56 59 159 32 34 172 52 55 179 63 67 213 116 123 229 141 149 224 133 141 198 92 98 183 69 73 172 52 55 179 63 67 169 48 51 157 29 30 150 17 18 147 13 14 155 25 26 158 30 32 157 29 30 155 25 26 153 23 24 157 29 30 174 56 59 172 52 55 155 25 26 151 19 20 153 23 24 151 19 20 150 17 18 150 17 18 150 17 18 150 17 18 147 13 14 150 17 18 150 17 18 147 13 14 150 17 18 151 19 20 147 13 14 150 17 18 147 13 14 147 13 14 150 17 18 151 19 20 150 17 18 147 13 14 146 11 12 147 13 14 155 25 26 155 25 26 150 17 18 147 13 14 147 13 14 147 13 14 150 17 18 150 17 18 153 23 24 155 25 26 153 23 24 153 23 24 151 19 20 153 23 24 155 25 26 157 29 30 168 46 49 168 46 49 168 46 49 155 25 26 146 11 12 146 11 12 146 11 12 147 13 14 147 13 14 147 13 14 147 13 14 150 17 18 147 13 14 147 13 14 147 13 14 147 13 14 146 11 12 146 11 12 143 7 8 145 9 10 
139 0 0 143 7 8 139 0 0 139 0 0 139 0 0 139 0 0 139 0 0 139 0 0 139 0 0 143 7 8 143 7 8 139 0 0 139 0 0 139 0 0 139 0 0 143 7 8 143 7 8 143 7 8 143 7 8 143 7 8 143 7 8 143 7 8 143 7 8 143 7 8 139 0 0 139 0 0 139 0 0 143 7 8 139 0 0 139 0 0 139 0 0 139 0 0 139 0 0 143 7 8 143 7 8 139 0 0 139 0 0 139 0 0 143 7 8 139 0 0 139 0 0 143 7 8 139 0 0 139 0 0 139 0 0 139 0 0 139 0 0 139 0 0 139 0 0 143 7 8 139 0 0 143 7 8 139 0 0 143 7 8 139 0 0 143 7 8 139 0 0 139 0 0 139 0 0 139 0 0 139 0 0 139 0 0 153 23 24 185 73 78 195 89 94 192 83 88 195 89 94 198 92 98 204 102 108 189 79 84 174 56 59 172 52 55 158 30 32 158 30 32 155 25 26 151 19 20 155 25 26 151 19 20 151 19 20 150 17 18 155 25 26 157 29 30 150 17 18 151 19 20 215 120 127 188 77 82 216 121 129 189 79 84 211 114 121 251 176 186 251 176 186 251 176 186 247 170 180 222 131 139 183 69 73 190 81 86 194 87 92 194 87 92 200 96 102 209 110 117 205 104 110 206 106 112 195 89 94 198 92 98 200 96 102 217 123 131 245 166 176 224 133 141 194 87 92 213 116 123 234 149 158 236 152 162 229 141 149 222 131 139 222 131 139 224 133 141 224 133 141 224 133 141 227 139 147 237 154 164 226 137 145 194 87 92 190 81 86 188 77 82 189 79 84 184 71 75 153 23 24 158 30 32 183 69 73 157 29 30 180 65 69 192 83 88 180 65 69 179 63 67 145 9 10 150 17 18 172 52 55 172 52 55 195 89 94 204 102 108 214 118 125 225 135 143 209 110 117 190 81 86 184 71 75 179 63 67 158 30 32 146 11 12 155 25 26 172 52 55 153 23 24 151 19 20 157 29 30 159 32 34 169 48 51 180 65 69 180 65 69 187 75 80 185 73 78 169 48 51 158 30 32 153 23 24 169 48 51 155 25 26 150 17 18 147 13 14 146 11 12 147 13 14 150 17 18 151 19 20 150 17 18 147 13 14 147 13 14 150 17 18 150 17 18 151 19 20 151 19 20 147 13 14 150 17 18 157 29 30 151 19 20 146 11 12 146 11 12 146 11 12 146 11 12 146 11 12 146 11 12 145 9 10 145 9 10 146 11 12 147 13 14 157 29 30 172 52 55 179 63 67 168 46 49 157 29 30 157 29 30 153 23 24 150 17 18 157 29 30 158 30 32 157 29 30 158 30 32 158 30 32 150 17 18 146 11 12 146 11 12 147 13 14 147 13 14 146 11 12 146 11 12 147 13 14 147 13 14 147 13 14 147 13 14 146 11 12 146 11 12 145 9 10 145 9 10 145 9 10 
139 0 0 143 7 8 139 0 0 139 0 0 139 0 0 139 0 0 139 0 0 139 0 0 139 0 0 143 7 8 143 7 8 139 0 0 139 0 0 139 0 0 139 0 0 143 7 8 143 7 8 143 7 8 143 7 8 143 7 8 143 7 8 143 7 8 143 7 8 143 7 8 139 0 0 139 0 0 139 0 0 143 7 8 139 0 0 139 0 0 139 0 0 139 0 0 139 0 0 143 7 8 143 7 8 139 0 0 139 0 0 139 0 0 143 7 8 139 0 0 139 0 0 143 7 8 139 0 0 139 0 0 139 0 0 139 0 0 139 0 0 139 0 0 139 0 0 143 7 8 139 0 0 143 7 8 139 0 0 143 7 8 139 0 0 143 7 8 139 0 0 139 0 0 139 0 0 139 0 0 139 0 0 139 0 0 153 23 24 185 73 78 195 89 94 192 83 88 195 89 94 198 92 98 204 102 108 189 79 84 174 56 59 172 52 55 158 30 32 158 30 32 155 25 26 151 19 20 155 25 26 151 19 20 151 19 20 150 17 18 155 25 26 157 29 30 150 17 18 151 19 20 215 120 127 188 77 82 216 121 129 189 79 84 211 114 121 251 176 186 251 176 186 251 176 186 247 170 180 222 131 139 183 69 73 190 81 86 194 87 92 194 87 92 200 96 102 209 110 117 205 104 110 206 106 112 195 89 94 198 92 98 200 96 102 217 123 131 245 166 176 224 133 141 194 87 92 213 116 123 234 149 158 236 152 162 229 141 149 222 131 139 222 131 139 224 133 141 224 133 141 224 133 141 227 139 147 237 154 164 226 137 145 194 87 92 190 81 86 188 77 82 189 79 84 184 71 75 153 23 24 158 30 32 183 69 73 157 29 30 180 65 69 192 83 88 180 65 69 179 63 67 145 9 10 150 17 18 172 52 55 172 52 55 195 89 94 204 102 108 214 118 125 225 135 143 209 110 117 190 81 86 184 71 75 179 63 67 158 30 32 146 11 12 155 25 26 172 52 55 153 23 24 151 19 20 157 29 30 159 32 34 169 48 51 180 65 69 180 65 69 187 75 80 185 73 78 169 48 51 158 30 32 153 23 24 169 48 51 155 25 26 150 17 18 147 13 14 146 11 12 147 13 14 150 17 18 151 19 20 150 17 18 147 13 14 147 13 14 150 17 18 150 17 18 151 19 20 151 19 20 147 13 14 150 17 18 157 29 30 151 19 20 146 11 12 146 11 12 146 11 12 146 11 12 146 11 12 146 11 12 145 9 10 145 9 10 146 11 12 147 13 14 157 29 30 172 52 55 179 63 67 168 46 49 157 29 30 157 29 30 153 23 24 150 17 18 157 29 30 158 30 32 157 29 30 158 30 32 158 30 32 150 17 18 146 11 12 146 11 12 147 13 14 147 13 14 146 11 12 146 11 12 147 13 14 147 13 14 147 13 14 147 13 14 146 11 12 146 11 12 145 9 10 145 9 10 145 9 10 
143 7 8 139 0 0 139 0 0 143 7 8 139 0 0 139 0 0 143 7 8 143 7 8 139 0 0 139 0 0 139 0 0 143 7 8 139 0 0 139 0 0 139 0 0 139 0 0 139 0 0 143 7 8 139 0 0 139 0 0 143 7 8 143 7 8 139 0 0 139 0 0 143 7 8 143 7 8 143 7 8 143 7 8 143 7 8 143 7 8 139 0 0 139 0 0 139 0 0 139 0 0 139 0 0 139 0 0 139 0 0 139 0 0 139 0 0 139 0 0 139 0 0 139 0 0 139 0 0 143 7 8 143 7 8 139 0 0 139 0 0 139 0 0 139 0 0 139 0 0 143 7 8 139 0 0 139 0 0 139 0 0 139 0 0 139 0 0 139 0 0 143 7 8 143 7 8 139 0 0 139 0 0 157 29 30 190 81 86 194 87 92 200 96 102 206 106 112 211 114 121 204 102 108 184 71 75 168 46 49 172 52 55 198 92 98 210 112 119 192 83 88 174 56 59 169 48 51 169 48 51 159 32 34 151 19 20 146 11 12 150 17 18 198 92 98 209 110 117 215 120 127 200 96 102 206 106 112 226 137 145 245 166 176 250 174 184 245 166 176 214 118 125 190 81 86 185 73 78 189 79 84 192 83 88 192 83 88 200 96 102 194 87 92 198 92 98 198 92 98 190 81 86 192 83 88 192 83 88 190 81 86 187 75 80 187 75 80 189 79 84 195 89 94 195 89 94 217 123 131 235 151 160 231 145 153 226 137 145 225 135 143 219 125 133 219 125 133 220 127 135 225 135 143 232 147 156 241 160 170 222 131 139 198 92 98 189 79 84 198 92 98 189 79 84 185 73 78 155 25 26 179 63 67 183 69 73 157 29 30 150 17 18 145 9 10 151 19 20 210 112 119 231 145 153 214 118 125 219 125 133 224 133 141 210 112 119 185 73 78 204 102 108 203 100 106 195 89 94 169 48 51 147 13 14 147 13 14 153 23 24 155 25 26 155 25 26 153 23 24 153 23 24 155 25 26 153 23 24 151 19 20 151 19 20 153 23 24 151 19 20 153 23 24 157 29 30 155 25 26 153 23 24 155 25 26 151 19 20 155 25 26 151 19 20 151 19 20 151 19 20 151 19 20 151 19 20 147 13 14 150 17 18 147 13 14 151 19 20 150 17 18 150 17 18 150 17 18 147 13 14 150 17 18 146 11 12 147 13 14 146 11 12 146 11 12 146 11 12 146 11 12 146 11 12 146 11 12 146 11 12 146 11 12 146 11 12 146 11 12 146 11 12 146 11 12 147 13 14 147 13 14 150 17 18 151 19 20 151 19 20 150 17 18 150 17 18 147 13 14 146 11 12 146 11 12 147 13 14 146 11 12 146 11 12 146 11 12 146 11 12 145 9 10 146 11 12 146 11 12 146 11 12 145 9 10 146 11 12 147 13 14 146 11 12 146 11 12 146 11 12 147 13 14 145 9 10 143 7 8 
143 7 8 139 0 0 139 0 0 143 7 8 139 0 0 139 0 0 143 7 8 143 7 8 139 0 0 139 0 0 139 0 0 143 7 8 139 0 0 139 0 0 139 0 0 139 0 0 139 0 0 143 7 8 139 0 0 139 0 0 143 7 8 143 7 8 139 0 0 139 0 0 143 7 8 143 7 8 143 7 8 143 7 8 143 7 8 143 7 8 139 0 0 139 0 0 139 0 0 139 0 0 139 0 0 139 0 0 139 0 0 139 0 0 139 0 0 139 0 0 139 0 0 139 0 0 139 0 0 143 7 8 143 7 8 139 0 0 139 0 0 139 0 0 139 0 0 139 0 0 143 7 8 139 0 0 139 0 0 139 0 0 139 0 0 139 0 0 139 0 0 143 7 8 143 7 8 139 0 0 139 0 0 157 29 30 190 81 86 194 87 92 200 96 102 206 106 112 211 114 121 204 102 108 184 71 75 168 46 49 172 52 55 198 92 98 210 112 119 192 83 88 174 56 59 169 48 51 169 48 51 159 32 34 151 19 20 146 11 12 150 17 18 198 92 98 209 110 117 215 120 127 200 96 102 206 106 112 226 137 145 245 166 176 250 174 184 245 166 176 214 118 125 190 81 86 185 73 78 189 79 84 192 83 88 192 83 88 200 96 102 194 87 92 198 92 98 198 92 98 190 81 86 192 83 88 192 83 88 190 81 86 187 75 80 187 75 80 189 79 84 195 89 94 195 89 94 217 123 131 235 151 160 231 145 153 226 137 145 225 135 143 219 125 133 219 125 133 220 127 135 225 135 143 232 147 156 241 160 170 222 131 139 198 92 98 189 79 84 198 92 98 189 79 84 185 73 78 155 25 26 179 63 67 183 69 73 157 29 30 150 17 18 145 9 10 151 19 20 210 112 119 231 145 153 214 118 125 219 125 133 224 133 141 210 112 119 185 73 78 204 102 108 203 100 106 195 89 94 169 48 51 147 13 14 147 13 14 153 23 24 155 25 26 155 25 26 153 23 24 153 23 24 155 25 26 153 23 24 151 19 20 151 19 20 153 23 24 151 19 20 153 23 24 157 29 30 155 25 26 153 23 24 155 25 26 151 19 20 155 25 26 151 19 20 151 19 20 151 19 20 151 19 20 151 19 20 147 13 14 150 17 18 147 13 14 151 19 20 150 17 18 150 17 18 150 17 18 147 13 14 150 17 18 146 11 12 147 13 14 146 11 12 146 11 12 146 11 12 146 11 12 146 11 12 146 11 12 146 11 12 146 11 12 146 11 12 146 11 12 146 11 12 146 11 12 147 13 14 147 13 14 150 17 18 151 19 20 151 19 20 150 17 18 150 17 18 147 13 14 146 11 12 146 11 12 147 13 14 146 11 12 146 11 12 146 11 12 146 11 12 145 9 10 146 11 12 146 11 12 146 11 12 145 9 10 146 11 12 147 13 14 146 11 12 146 11 12 146 11 12 147 13 14 145 9 10 143 7 8 
143 7 8 139 0 0 139 0 0 139 0 0 139 0 0 139 0 0 143 7 8 143 7 8 139 0 0 139 0 0 143 7 8 139 0 0 143 7 8 139 0 0 143 7 8 139 0 0 143 7 8 143 7 8 143 7 8 143 7 8 139 0 0 139 0 0 139 0 0 143 7 8 143 7 8 139 0 0 139 0 0 139 0 0 139 0 0 143 7 8 143 7 8 143 7 8 139 0 0 139 0 0 139 0 0 143 7 8 139 0 0 143 7 8 143 7 8 143 7 8 139 0 0 139 0 0 143 7 8 139 0 0 139 0 0 143 7 8 143 7 8 143 7 8 139 0 0 139 0 0 139 0 0 139 0 0 139 0 0 143 7 8 139 0 0 143 7 8 139 0 0 139 0 0 139 0 0 143 7 8 157 29 30 190 81 86 203 100 106 215 120 127 210 112 119 188 77 82 183 69 73 172 52 55 172 52 55 194 87 92 213 116 123 219 125 133 214 118 125 213 116 123 214 118 125 230 143 151 219 125 133 214 118 125 213 116 123 206 106 112 235 151 160 225 135 143 220 127 135 231 145 153 238 156 166 250 174 184 248 172 182 215 120 127 198 92 98 187 75 80 188 77 82 192 83 88 192 83 88 188 77 82 189 79 84 192 83 88 190 81 86 195 89 94 198 92 98 192 83 88 190 81 86 194 87 92 192 83 88 190 81 86 189 79 84 189 79 84 190 81 86 189 79 84 198 92 98 219 125 133 230 143 151 224 133 141 217 123 131 215 120 127 214 118 125 215 120 127 200 96 102 216 121 129 231 145 153 229 141 149 198 92 98 189 79 84 188 77 82 185 73 78 184 71 75 179 63 67 174 56 59 180 65 69 200 96 102 203 100 106 216 121 129 222 131 139 224 133 141 230 143 151 241 160 170 232 147 156 217 123 131 205 104 110 216 121 129 216 121 129 203 100 106 172 52 55 151 19 20 157 29 30 159 32 34 168 46 49 159 32 34 157 29 30 155 25 26 159 32 34 172 52 55 179 63 67 184 71 75 198 92 98 195 89 94 183 69 73 174 56 59 189 79 84 187 75 80 172 52 55 195 89 94 188 77 82 184 71 75 169 48 51 157 29 30 168 46 49 183 69 73 169 48 51 168 46 49 155 25 26 150 17 18 151 19 20 157 29 30 153 23 24 151 19 20 150 17 18 151 19 20 151 19 20 150 17 18 150 17 18 155 25 26 147 13 14 150 17 18 147 13 14 150 17 18 147 13 14 147 13 14 146 11 12 147 13 14 146 11 12 146 11 12 146 11 12 146 11 12 146 11 12 146 11 12 146 11 12 146 11 12 146 11 12 150 17 18 155 25 26 155 25 26 157 29 30 157 29 30 155 25 26 151 19 20 147 13 14 146 11 12 146 11 12 147 13 14 147 13 14 150 17 18 146 11 12 147 13 14 147 13 14 146 11 12 146 11 12 145 9 10 146 11 12 146 11 12 145 9 10 
143 7 8 139 0 0 139 0 0 139 0 0 139 0 0 139 0 0 143 7 8 143 7 8 139 0 0 139 0 0 143 7 8 139 0 0 143 7 8 139 0 0 143 7 8 139 0 0 143 7 8 143 7 8 143 7 8 143 7 8 139 0 0 139 0 0 139 0 0 143 7 8 143 7 8 139 0 0 139 0 0 139 0 0 139 0 0 143 7 8 143 7 8 143 7 8 139 0 0 139 0 0 139 0 0 143 7 8 139 0 0 143 7 8 143 7 8 143 7 8 139 0 0 139 0 0 143 7 8 139 0 0 139 0 0 143 7 8 143 7 8 143 7 8 139 0 0 139 0 0 139 0 0 139 0 0 139 0 0 143 7 8 139 0 0 143 7 8 139 0 0 139 0 0 139 0 0 143 7 8 157 29 30 190 81 86 203 100 106 215 120 127 210 112 119 188 77 82 183 69 73 172 52 55 172 52 55 194 87 92 213 116 123 219 125 133 214 118 125 213 116 123 214 118 125 230 143 151 219 125 133 214 118 125 213 116 123 206 106 112 235 151 160 225 135 143 220 127 135 231 145 153 238 156 166 250 174 184 248 172 182 215 120 127 198 92 98 187 75 80 188 77 82 192 83 88 192 83 88 188 77 82 189 79 84 192 83 88 190 81 86 195 89 94 198 92 98 192 83 88 190 81 86 194 87 92 192 83 88 190 81 86 189 79 84 189 79 84 190 81 86 189 79 84 198 92 98 219 125 133 230 143 151 224 133 141 217 123 131 215 120 127 214 118 125 215 120 127 200 96 102 216 121 129 231 145 153 229 141 149 198 92 98 189 79 84 188 77 82 185 73 78 184 71 75 179 63 67 174 56 59 180 65 69 200 96 102 203 100 106 216 121 129 222 131 139 224 133 141 230 143 151 241 160 170 232 147 156 217 123 131 205 104 110 216 121 129 216 121 129 203 100 106 172 52 55 151 19 20 157 29 30 159 32 34 168 46 49 159 32 34 157 29 30 155 25 26 159 32 34 172 52 55 179 63 67 184 71 75 198 92 98 195 89 94 183 69 73 174 56 59 189 79 84 187 75 80 172 52 55 195 89 94 188 77 82 184 71 75 169 48 51 157 29 30 168 46 49 183 69 73 169 48 51 168 46 49 155 25 26 150 17 18 151 19 20 157 29 30 153 23 24 151 19 20 150 17 18 151 19 20 151 19 20 150 17 18 150 17 18 155 25 26 147 13 14 150 17 18 147 13 14 150 17 18 147 13 14 147 13 14 146 11 12 147 13 14 146 11 12 146 11 12 146 11 12 146 11 12 146 11 12 146 11 12 146 11 12 146 11 12 146 11 12 150 17 18 155 25 26 155 25 26 157 29 30 157 29 30 155 25 26 151 19 20 147 13 14 146 11 12 146 11 12 147 13 14 147 13 14 150 17 18 146 11 12 147 13 14 147 13 14 146 11 12 146 11 12 145 9 10 146 11 12 146 11 12 145 9 10 
143 7 8 139 0 0 143 7 8 143 7 8 139 0 0 143 7 8 143 7 8 143 7 8 139 0 0 139 0 0 139 0 0 139 0 0 143 7 8 143 7 8 143 7 8 143 7 8 139 0 0 143 7 8 143 7 8 139 0 0 143 7 8 143 7 8 143 7 8 139 0 0 139 0 0 139 0 0 143 7 8 143 7 8 143 7 8 139 0 0 139 0 0 143 7 8 143 7 8 139 0 0 143 7 8 143 7 8 143 7 8 143 7 8 143 7 8 143 7 8 143 7 8 139 0 0 139 0 0 139 0 0 143 7 8 139 0 0 143 7 8 143 7 8 139 0 0 139 0 0 139 0 0 139 0 0 139 0 0 139 0 0 143 7 8 143 7 8 139 0 0 143 7 8 151 19 20 185 73 78 200 96 102 210 112 119 217 123 131 213 116 123 216 121 129 205 104 110 190 81 86 215 120 127 219 125 133 215 120 127 215 120 127 219 125 133 216 121 129 222 131 139 217 123 131 227 139 147 226 137 145 231 145 153 237 154 164 235 151 160 247 170 180 248 172 182 247 170 180 247 170 180 227 139 147 214 118 125 187 75 80 189 79 84 194 87 92 190 81 86 185 73 78 189 79 84 194 87 92 200 96 102 190 81 86 198 92 98 190 81 86 192 83 88 194 87 92 194 87 92 194 87 92 190 81 86 188 77 82 189 79 84 190 81 86 192 83 88 190 81 86 189 79 84 190 81 86 198 92 98 205 104 110 209 110 117 209 110 117 213 116 123 217 123 131 219 125 133 219 125 133 230 143 151 240 158 168 226 137 145 195 89 94 188 77 82 200 96 102 206 106 112 205 104 110 195 89 94 194 87 92 210 112 119 219 125 133 217 123 131 224 133 141 235 151 160 234 149 158 246 168 178 220 127 135 224 133 141 236 152 162 220 127 135 205 104 110 179 63 67 155 25 26 158 30 32 172 52 55 179 63 67 179 63 67 187 75 80 213 116 123 214 118 125 215 120 127 205 104 110 198 92 98 203 100 106 192 83 88 172 52 55 155 25 26 153 23 24 150 17 18 150 17 18 153 23 24 153 23 24 150 17 18 146 11 12 146 11 12 145 9 10 145 9 10 145 9 10 146 11 12 146 11 12 145 9 10 143 7 8 143 7 8 143 7 8 143 7 8 143 7 8 143 7 8 143 7 8 145 9 10 143 7 8 145 9 10 145 9 10 143 7 8 143 7 8 145 9 10 146 11 12 146 11 12 146 11 12 147 13 14 147 13 14 146 11 12 150 17 18 147 13 14 146 11 12 146 11 12 146 11 12 146 11 12 146 11 12 146 11 12 146 11 12 151 19 20 158 30 32 158 30 32 158 30 32 155 25 26 158 30 32 158 30 32 155 25 26 151 19 20 146 11 12 146 11 12 146 11 12 146 11 12 146 11 12 146 11 12 150 17 18 147 13 14 145 9 10 145 9 10 145 9 10 146 11 12 146 11 12 
143 7 8 139 0 0 143 7 8 143 7 8 139 0 0 143 7 8 143 7 8 143 7 8 139 0 0 139 0 0 139 0 0 139 0 0 143 7 8 143 7 8 143 7 8 143 7 8 139 0 0 143 7 8 143 7 8 139 0 0 143 7 8 143 7 8 143 7 8 139 0 0 139 0 0 139 0 0 143 7 8 143 7 8 143 7 8 139 0 0 139 0 0 143 7 8 143 7 8 139 0 0 143 7 8 143 7 8 143 7 8 143 7 8 143 7 8 143 7 8 143 7 8 139 0 0 139 0 0 139 0 0 143 7 8 139 0 0 143 7 8 143 7 8 139 0 0 139 0 0 139 0 0 139 0 0 139 0 0 139 0 0 143 7 8 143 7 8 139 0 0 143 7 8 151 19 20 185 73 78 200 96 102 210 112 119 217 123 131 213 116 123 216 121 129 205 104 110 190 81 86 215 120 127 219 125 133 215 120 127 215 120 127 219 125 133 216 121 129 222 131 139 217 123 131 227 139 147 226 137 145 231 145 153 237 154 164 235 151 160 247 170 180 248 172 182 247 170 180 247 170 180 227 139 147 214 118 125 187 75 80 189 79 84 194 87 92 190 81 86 185 73 78 189 79 84 194 87 92 200 96 102 190 81 86 198 92 98 190 81 86 192 83 88 194 87 92 194 87 92 194 87 92 190 81 86 188 77 82 189 79 84 190 81 86 192 83 88 190 81 86 189 79 84 190 81 86 198 92 98 205 104 110 209 110 117 209 110 117 213 116 123 217 123 131 219 125 133 219 125 133 230 143 151 240 158 168 226 137 145 195 89 94 188 77 82 200 96 102 206 106 112 205 104 110 195 89 94 194 87 92 210 112 119 219 125 133 217 123 131 224 133 141 235 151 160 234 149 158 246 168 178 220 127 135 224 133 141 236 152 162 220 127 135 205 104 110 179 63 67 155 25 26 158 30 32 172 52 55 179 63 67 179 63 67 187 75 80 213 116 123 214 118 125 215 120 127 205 104 110 198 92 98 203 100 106 192 83 88 172 52 55 155 25 26 153 23 24 150 17 18 150 17 18 153 23 24 153 23 24 150 17 18 146 11 12 146 11 12 145 9 10 145 9 10 145 9 10 146 11 12 146 11 12 145 9 10 143 7 8 143 7 8 143 7 8 143 7 8 143 7 8 143 7 8 143 7 8 145 9 10 143 7 8 145 9 10 145 9 10 143 7 8 143 7 8 145 9 10 146 11 12 146 11 12 146 11 12 147 13 14 147 13 14 146 11 12 150 17 18 147 13 14 146 11 12 146 11 12 146 11 12 146 11 12 146 11 12 146 11 12 146 11 12 151 19 20 158 30 32 158 30 32 158 30 32 155 25 26 158 30 32 158 30 32 155 25 26 151 19 20 146 11 12 146 11 12 146 11 12 146 11 12 146 11 12 146 11 12 150 17 18 147 13 14 145 9 10 145 9 10 145 9 10 146 11 12 146 11 12 
139 0 0 139 0 0 143 7 8 139 0 0 139 0 0 139 0 0 139 0 0 139 0 0 143 7 8 143 7 8 143 7 8 139 0 0 143 7 8 143 7 8 143 7 8 139 0 0 139 0 0 139 0 0 139 0 0 143 7 8 139 0 0 143 7 8 143 7 8 143 7 8 143 7 8 139 0 0 139 0 0 139 0 0 143 7 8 143 7 8 143 7 8 139 0 0 139 0 0 139 0 0 143 7 8 143 7 8 139 0 0 139 0 0 139 0 0 139 0 0 139 0 0 143 7 8 143 7 8 139 0 0 139 0 0 143 7 8 139 0 0 139 0 0 139 0 0 139 0 0 139 0 0 143 7 8 139 0 0 139 0 0 143 7 8 139 0 0 139 0 0 151 19 20 188 77 82 195 89 94 189 79 84 185 73 78 189 79 84 206 106 112 219 125 133 227 139 147 236 152 162 227 139 147 220 127 135 217 123 131 214 118 125 213 116 123 213 116 123 224 133 141 232 147 156 232 147 156 238 156 166 238 156 166 240 158 168 243 164 174 234 149 158 219 125 133 190 81 86 187 75 80 192 83 88 190 81 86 190 81 86 188 77 82 187 75 80 189 79 84 190 81 86 195 89 94 194 87 92 195 89 94 200 96 102 198 92 98 194 87 92 192 83 88 192 83 88 189 79 84 188 77 82 189 79 84 190 81 86 194 87 92 190 81 86 189 79 84 189 79 84 188 77 82 189 79 84 190 81 86 194 87 92 206 106 112 210 112 119 214 118 125 219 125 133 219 125 133 226 137 145 235 151 160 235 151 160 206 106 112 188 77 82 184 71 75 195 89 94 200 96 102 200 96 102 192 83 88 189 79 84 192 83 88 213 116 123 235 151 160 241 160 170 231 145 153 236 152 162 224 133 141 225 135 143 222 131 139 205 104 110 183 69 73 169 48 51 179 63 67 194 87 92 213 116 123 209 110 117 189 79 84 192 83 88 204 102 108 189 79 84 151 19 20 150 17 18 150 17 18 146 11 12 146 11 12 145 9 10 145 9 10 145 9 10 147 13 14 147 13 14 146 11 12 145 9 10 145 9 10 145 9 10 143 7 8 143 7 8 143 7 8 143 7 8 139 0 0 143 7 8 143 7 8 143 7 8 143 7 8 139 0 0 143 7 8 143 7 8 143 7 8 139 0 0 139 0 0 139 0 0 143 7 8 139 0 0 139 0 0 139 0 0 143 7 8 143 7 8 145 9 10 145 9 10 143 7 8 145 9 10 145 9 10 146 11 12 146 11 12 146 11 12 146 11 12 145 9 10 145 9 10 145 9 10 146 11 12 146 11 12 145 9 10 146 11 12 146 11 12 147 13 14 147 13 14 147 13 14 150 17 18 151 19 20 147 13 14 146 11 12 146 11 12 145 9 10 145 9 10 145 9 10 146 11 12 146 11 12 145 9 10 145 9 10 145 9 10 145 9 10 146 11 12 147 13 14 151 19 20 
139 0 0 139 0 0 143 7 8 139 0 0 139 0 0 139 0 0 139 0 0 139 0 0 143 7 8 143 7 8 143 7 8 139 0 0 143 7 8 143 7 8 143 7 8 139 0 0 139 0 0 139 0 0 139 0 0 143 7 8 139 0 0 143 7 8 143 7 8 143 7 8 143 7 8 139 0 0 139 0 0 139 0 0 143 7 8 143 7 8 143 7 8 139 0 0 139 0 0 139 0 0 143 7 8 143 7 8 139 0 0 139 0 0 139 0 0 139 0 0 139 0 0 143 7 8 143 7 8 139 0 0 139 0 0 143 7 8 139 0 0 139 0 0 139 0 0 139 0 0 139 0 0 143 7 8 139 0 0 139 0 0 143 7 8 139 0 0 139 0 0 151 19 20 188 77 82 195 89 94 189 79 84 185 73 78 189 79 84 206 106 112 219 125 133 227 139 147 236 152 162 227 139 147 220 127 135 217 123 131 214 118 125 213 116 123 213 116 123 224 133 141 232 147 156 232 147 156 238 156 166 238 156 166 240 158 168 243 164 174 234 149 158 219 125 133 190 81 86 187 75 80 192 83 88 190 81 86 190 81 86 188 77 82 187 75 80 189 79 84 190 81 86 195 89 94 194 87 92 195 89 94 200 96 102 198 92 98 194 87 92 192 83 88 192 83 88 189 79 84 188 77 82 189 79 84 190 81 86 194 87 92 190 81 86 189 79 84 189 79 84 188 77 82 189 79 84 190 81 86 194 87 92 206 106 112 210 112 119 214 118 125 219 125 133 219 125 133 226 137 145 235 151 160 235 151 160 206 106 112 188 77 82 184 71 75 195 89 94 200 96 102 200 96 102 192 83 88 189 79 84 192 83 88 213 116 123 235 151 160 241 160 170 231 145 153 236 152 162 224 133 141 225 135 143 222 131 139 205 104 110 183 69 73 169 48 51 179 63 67 194 87 92 213 116 123 209 110 117 189 79 84 192 83 88 204 102 108 189 79 84 151 19 20 150 17 18 150 17 18 146 11 12 146 11 12 145 9 10 145 9 10 145 9 10 147 13 14 147 13 14 146 11 12 145 9 10 145 9 10 145 9 10 143 7 8 143 7 8 143 7 8 143 7 8 139 0 0 143 7 8 143 7 8 143 7 8 143 7 8 139 0 0 143 7 8 143 7 8 143 7 8 139 0 0 139 0 0 139 0 0 143 7 8 139 0 0 139 0 0 139 0 0 143 7 8 143 7 8 145 9 10 145 9 10 143 7 8 145 9 10 145 9 10 146 11 12 146 11 12 146 11 12 146 11 12 145 9 10 145 9 10 145 9 10 146 11 12 146 11 12 145 9 10 146 11 12 146 11 12 147 13 14 147 13 14 147 13 14 150 17 18 151 19 20 147 13 14 146 11 12 146 11 12 145 9 10 145 9 10 145 9 10 146 11 12 146 11 12 145 9 10 145 9 10 145 9 10 145 9 10 146 11 12 147 13 14 151 19 20 
143 7 8 139 0 0 143 7 8 139 0 0 139 0 0 139 0 0 139 0 0 143 7 8 139 0 0 143 7 8 143 7 8 139 0 0 139 0 0 139 0 0 143 7 8 139 0 0 139 0 0 139 0 0 139 0 0 139 0 0 139 0 0 139 0 0 139 0 0 143 7 8 143 7 8 143 7 8 139 0 0 139 0 0 139 0 0 143 7 8 139 0 0 139 0 0 143 7 8 143 7 8 139 0 0 139 0 0 143 7 8 139 0 0 143 7 8 139 0 0 139 0 0 143 7 8 139 0 0 139 0 0 139 0 0 139 0 0 139 0 0 139 0 0 139 0 0 143 7 8 139 0 0 139 0 0 139 0 0 143 7 8 139 0 0 139 0 0 139 0 0 151 19 20 187 75 80 192 83 88 174 56 59 172 52 55 200 96 102 237 154 164 235 151 160 222 131 139 220 127 135 216 121 129 217 123 131 224 133 141 231 145 153 231 145 153 225 135 143 220 127 135 226 137 145 234 149 158 230 143 151 211 114 121 187 75 80 187 75 80 189 79 84 194 87 92 192 83 88 184 71 75 192 83 88 192 83 88 192 83 88 192 83 88 192 83 88 192 83 88 194 87 92 190 81 86 190 81 86 190 81 86 192 83 88 195 89 94 195 89 94 192 83 88 192 83 88 192 83 88 192 83 88 195 89 94 195 89 94 190 81 86 190 81 86 189 79 84 188 77 82 188 77 82 190 81 86 188 77 82 192 83 88 209 110 117 214 118 125 213 116 123 198 92 98 205 104 110 225 135 143 232 147 156 222 131 139 204 102 108 192 83 88 188 77 82 187 75 80 185 73 78 184 71 75 184 71 75 200 96 102 229 141 149 241 160 170 232 147 156 227 139 147 220 127 135 230 143 151 222 131 139 188 77 82 169 48 51 188 77 82 187 75 80 206 106 112 153 23 24 150 17 18 147 13 14 146 11 12 145 9 10 143 7 8 143 7 8 145 9 10 145 9 10 143 7 8 145 9 10 143 7 8 143 7 8 143 7 8 145 9 10 143 7 8 143 7 8 143 7 8 143 7 8 143 7 8 143 7 8 143 7 8 143 7 8 139 0 0 143 7 8 139 0 0 139 0 0 139 0 0 143 7 8 139 0 0 139 0 0 139 0 0 139 0 0 139 0 0 139 0 0 139 0 0 139 0 0 139 0 0 139 0 0 139 0 0 143 7 8 139 0 0 139 0 0 139 0 0 139 0 0 139 0 0 139 0 0 143 7 8 143 7 8 143 7 8 143 7 8 143 7 8 143 7 8 143 7 8 145 9 10 145 9 10 145 9 10 145 9 10 146 11 12 146 11 12 146 11 12 146 11 12 145 9 10 145 9 10 145 9 10 145 9 10 145 9 10 145 9 10 145 9 10 145 9 10 145 9 10 145 9 10 145 9 10 146 11 12 146 11 12 145 9 10 143 7 8 143 7 8 145 9 10 146 11 12 151 19 20 
143 7 8 139 0 0 143 7 8 139 0 0 139 0 0 139 0 0 139 0 0 143 7 8 139 0 0 143 7 8 143 7 8 139 0 0 139 0 0 139 0 0 143 7 8 139 0 0 139 0 0 139 0 0 139 0 0 139 0 0 139 0 0 139 0 0 139 0 0 143 7 8 143 7 8 143 7 8 139 0 0 139 0 0 139 0 0 143 7 8 139 0 0 139 0 0 143 7 8 143 7 8 139 0 0 139 0 0 143 7 8 139 0 0 143 7 8 139 0 0 139 0 0 143 7 8 139 0 0 139 0 0 139 0 0 139 0 0 139 0 0 139 0 0 139 0 0 143 7 8 139 0 0 139 0 0 139 0 0 143 7 8 139 0 0 139 0 0 139 0 0 151 19 20 187 75 80 192 83 88 174 56 59 172 52 55 200 96 102 237 154 164 235 151 160 222 131 139 220 127 135 216 121 129 217 123 131 224 133 141 231 145 153 231 145 153 225 135 143 220 127 135 226 137 145 234 149 158 230 143 151 211 114 121 187 75 80 187 75 80 189 79 84 194 87 92 192 83 88 184 71 75 192 83 88 192 83 88 192 83 88 192 83 88 192 83 88 192 83 88 194 87 92 190 81 86 190 81 86 190 81 86 192 83 88 195 89 94 195 89 94 192 83 88 192 83 88 192 83 88 192 83 88 195 89 94 195 89 94 190 81 86 190 81 86 189 79 84 188 77 82 188 77 82 190 81 86 188 77 82 192 83 88 209 110 117 214 118 125 213 116 123 198 92 98 205 104 110 225 135 143 232 147 156 222 131 139 204 102 108 192 83 88 188 77 82 187 75 80 185 73 78 184 71 75 184 71 75 200 96 102 229 141 149 241 160 170 232 147 156 227 139 147 220 127 135 230 143 151 222 131 139 188 77 82 169 48 51 188 77 82 187 75 80 206 106 112 153 23 24 150 17 18 147 13 14 146 11 12 145 9 10 143 7 8 143 7 8 145 9 10 145 9 10 143 7 8 145 9 10 143 7 8 143 7 8 143 7 8 145 9 10 143 7 8 143 7 8 143 7 8 143 7 8 143 7 8 143 7 8 143 7 8 143 7 8 139 0 0 143 7 8 139 0 0 139 0 0 139 0 0 143 7 8 139 0 0 139 0 0 139 0 0 139 0 0 139 0 0 139 0 0 139 0 0 139 0 0 139 0 0 139 0 0 139 0 0 143 7 8 139 0 0 139 0 0 139 0 0 139 0 0 139 0 0 139 0 0 143 7 8 143 7 8 143 7 8 143 7 8 143 7 8 143 7 8 143 7 8 145 9 10 145 9 10 145 9 10 145 9 10 146 11 12 146 11 12 146 11 12 146 11 12 145 9 10 145 9 10 145 9 10 145 9 10 145 9 10 145 9 10 145 9 10 145 9 10 145 9 10 145 9 10 145 9 10 146 11 12 146 11 12 145 9 10 143 7 8 143 7 8 145 9 10 146 11 12 151 19 20 
143 7 8 139 0 0 139 0 0 139 0 0 139 0 0 139 0 0 143 7 8 139 0 0 139 0 0 139 0 0 143 7 8 139 0 0 139 0 0 139 0 0 143 7 8 143 7 8 139 0 0 139 0 0 139 0 0 139 0 0 143 7 8 139 0 0 143 7 8 143 7 8 139 0 0 139 0 0 139 0 0 139 0 0 139 0 0 139 0 0 139 0 0 139 0 0 139 0 0 139 0 0 143 7 8 139 0 0 143 7 8 139 0 0 139 0 0 143 7 8 139 0 0 143 7 8 139 0 0 139 0 0 139 0 0 139 0 0 139 0 0 139 0 0 139 0 0 143 7 8 139 0 0 139 0 0 139 0 0 143 7 8 143 7 8 139 0 0 139 0 0 151 19 20 189 79 84 198 92 98 174 56 59 180 65 69 203 100 106 219 125 133 222 131 139 226 137 145 224 133 141 220 127 135 219 125 133 220 127 135 229 141 149 238 156 166 238 156 166 230 143 151 209 110 117 190 81 86 187 75 80 188 77 82 194 87 92 190 81 86 194 87 92 194 87 92 190 81 86 190 81 86 190 81 86 189 79 84 190 81 86 187 75 80 194 87 92 189 79 84 194 87 92 195 89 94 189 79 84 189 79 84 194 87 92 189 79 84 188 77 82 189 79 84 190 81 86 194 87 92 190 81 86 189 79 84 188 77 82 187 75 80 187 75 80 184 71 75 183 69 73 179 63 67 169 48 51 174 56 59 192 83 88 209 110 117 214 118 125 219 125 133 219 125 133 217 123 131 231 145 153 231 145 153 209 110 117 187 75 80 187 75 80 188 77 82 180 65 69 169 48 51 168 46 49 225 135 143 248 172 182 234 149 158 215 120 127 215 120 127 234 149 158 226 137 145 224 133 141 172 52 55 147 13 14 157 29 30 147 13 14 151 19 20 147 13 14 150 17 18 147 13 14 145 9 10 146 11 12 146 11 12 145 9 10 145 9 10 143 7 8 145 9 10 143 7 8 145 9 10 145 9 10 145 9 10 145 9 10 145 9 10 145 9 10 145 9 10 143 7 8 143 7 8 143 7 8 143 7 8 143 7 8 143 7 8 143 7 8 143 7 8 143 7 8 139 0 0 139 0 0 139 0 0 139 0 0 139 0 0 139 0 0 143 7 8 143 7 8 139 0 0 139 0 0 139 0 0 139 0 0 139 0 0 139 0 0 139 0 0 139 0 0 139 0 0 139 0 0 139 0 0 139 0 0 139 0 0 139 0 0 139 0 0 139 0 0 139 0 0 139 0 0 143 7 8 143 7 8 145 9 10 145 9 10 145 9 10 145 9 10 145 9 10 146 11 12 146 11 12 145 9 10 145 9 10 145 9 10 146 11 12 145 9 10 145 9 10 145 9 10 145 9 10 145 9 10 146 11 12 145 9 10 146 11 12 145 9 10 146 11 12 146 11 12 145 9 10 145 9 10 145 9 10 143 7 8 145 9 10 
143 7 8 139 0 0 139 0 0 139 0 0 139 0 0 139 0 0 143 7 8 139 0 0 139 0 0 139 0 0 143 7 8 139 0 0 139 0 0 139 0 0 143 7 8 143 7 8 139 0 0 139 0 0 139 0 0 139 0 0 143 7 8 139 0 0 143 7 8 143 7 8 139 0 0 139 0 0 139 0 0 139 0 0 139 0 0 139 0 0 139 0 0 139 0 0 139 0 0 139 0 0 143 7 8 139 0 0 143 7 8 139 0 0 139 0 0 143 7 8 139 0 0 143 7 8 139 0 0 139 0 0 139 0 0 139 0 0 139 0 0 139 0 0 139 0 0 143 7 8 139 0 0 139 0 0 139 0 0 143 7 8 143 7 8 139 0 0 139 0 0 151 19 20 189 79 84 198 92 98 174 56 59 180 65 69 203 100 106 219 125 133 222 131 139 226 137 145 224 133 141 220 127 135 219 125 133 220 127 135 229 141 149 238 156 166 238 156 166 230 143 151 209 110 117 190 81 86 187 75 80 188 77 82 194 87 92 190 81 86 194 87 92 194 87 92 190 81 86 190 81 86 190 81 86 189 79 84 190 81 86 187 75 80 194 87 92 189 79 84 194 87 92 195 89 94 189 79 84 189 79 84 194 87 92 189 79 84 188 77 82 189 79 84 190 81 86 194 87 92 190 81 86 189 79 84 188 77 82 187 75 80 187 75 80 184 71 75 183 69 73 179 63 67 169 48 51 174 56 59 192 83 88 209 110 117 214 118 125 219 125 133 219 125 133 217 123 131 231 145 153 231 145 153 209 110 117 187 75 80 187 75 80 188 77 82 180 65 69 169 48 51 168 46 49 225 135 143 248 172 182 234 149 158 215 120 127 215 120 127 234 149 158 226 137 145 224 133 141 172 52 55 147 13 14 157 29 30 147 13 14 151 19 20 147 13 14 150 17 18 147 13 14 145 9 10 146 11 12 146 11 12 145 9 10 145 9 10 143 7 8 145 9 10 143 7 8 145 9 10 145 9 10 145 9 10 145 9 10 145 9 10 145 9 10 145 9 10 143 7 8 143 7 8 143 7 8 143 7 8 143 7 8 143 7 8 143 7 8 143 7 8 143 7 8 139 0 0 139 0 0 139 0 0 139 0 0 139 0 0 139 0 0 143 7 8 143 7 8 139 0 0 139 0 0 139 0 0 139 0 0 139 0 0 139 0 0 139 0 0 139 0 0 139 0 0 139 0 0 139 0 0 139 0 0 139 0 0 139 0 0 139 0 0 139 0 0 139 0 0 139 0 0 143 7 8 143 7 8 145 9 10 145 9 10 145 9 10 145 9 10 145 9 10 146 11 12 146 11 12 145 9 10 145 9 10 145 9 10 146 11 12 145 9 10 145 9 10 145 9 10 145 9 10 145 9 10 146 11 12 145 9 10 146 11 12 145 9 10 146 11 12 146 11 12 145 9 10 145 9 10 145 9 10 143 7 8 145 9 10 
143 7 8 139 0 0 139 0 0 139 0 0 143 7 8 139 0 0 143 7 8 139 0 0 139 0 0 139 0 0 139 0 0 139 0 0 139 0 0 139 0 0 143 7 8 143 7 8 139 0 0 139 0 0 139 0 0 139 0 0 139 0 0 139 0 0 139 0 0 139 0 0 139 0 0 139 0 0 139 0 0 139 0 0 143 7 8 143 7 8 143 7 8 139 0 0 143 7 8 139 0 0 143 7 8 139 0 0 139 0 0 143 7 8 139 0 0 143 7 8 143 7 8 139 0 0 139 0 0 139 0 0 139 0 0 139 0 0 143 7 8 139 0 0 139 0 0 139 0 0 139 0 0 139 0 0 139 0 0 139 0 0 139 0 0 139 0 0 139 0 0 145 9 10 157 29 30 189 79 84 192 83 88 195 89 94 220 127 135 224 133 141 225 135 143 227 139 147 232 147 156 240 158 168 243 164 174 227 139 147 195 89 94 184 71 75 185 73 78 190 81 86 192 83 88 194 87 92 198 92 98 194 87 92 192 83 88 188 77 82 185 73 78 188 77 82 188 77 82 188 77 82 185 73 78 183 69 73 187 75 80 190 81 86 195 89 94 183 69 73 189 79 84 183 69 73 192 83 88 190 81 86 185 73 78 190 81 86 188 77 82 187 75 80 187 75 80 187 75 80 183 69 73 183 69 73 183 69 73 184 71 75 183 69 73 174 56 59 150 17 18 145 9 10 157 29 30 194 87 92 210 112 119 215 120 127 217 123 131 216 121 129 213 116 123 219 125 133 232 147 156 204 102 108 188 77 82 190 81 86 188 77 82 187 75 80 184 71 75 236 152 162 245 166 176 229 141 149 222 131 139 220 127 135 222 131 139 220 127 135 203 100 106 200 96 102 179 63 67 146 11 12 143 7 8 146 11 12 145 9 10 146 11 12 146 11 12 145 9 10 145 9 10 143 7 8 145 9 10 145 9 10 146 11 12 146 11 12 146 11 12 146 11 12 145 9 10 145 9 10 145 9 10 145 9 10 145 9 10 145 9 10 143 7 8 143 7 8 143 7 8 143 7 8 143 7 8 143 7 8 143 7 8 143 7 8 143 7 8 143 7 8 139 0 0 139 0 0 139 0 0 139 0 0 139 0 0 139 0 0 139 0 0 139 0 0 139 0 0 139 0 0 139 0 0 139 0 0 139 0 0 139 0 0 143 7 8 139 0 0 139 0 0 139 0 0 139 0 0 139 0 0 139 0 0 139 0 0 139 0 0 139 0 0 143 7 8 139 0 0 139 0 0 139 0 0 139 0 0 139 0 0 139 0 0 143 7 8 143 7 8 145 9 10 145 9 10 146 11 12 146 11 12 147 13 14 147 13 14 145 9 10 146 11 12 146 11 12 145 9 10 145 9 10 145 9 10 145 9 10 145 9 10 145 9 10 145 9 10 145 9 10 146 11 12 146 11 12 145 9 10 145 9 10 145 9 10 143 7 8 
143 7 8 139 0 0 139 0 0 139 0 0 143 7 8 139 0 0 143 7 8 139 0 0 139 0 0 139 0 0 139 0 0 139 0 0 139 0 0 139 0 0 143 7 8 143 7 8 139 0 0 139 0 0 139 0 0 139 0 0 139 0 0 139 0 0 139 0 0 139 0 0 139 0 0 139 0 0 139 0 0 139 0 0 143 7 8 143 7 8 143 7 8 139 0 0 143 7 8 139 0 0 143 7 8 139 0 0 139 0 0 143 7 8 139 0 0 143 7 8 143 7 8 139 0 0 139 0 0 139 0 0 139 0 0 139 0 0 143 7 8 139 0 0 139 0 0 139 0 0 139 0 0 139 0 0 139 0 0 139 0 0 139 0 0 139 0 0 139 0 0 145 9 10 157 29 30 189 79 84 192 83 88 195 89 94 220 127 135 224 133 141 225 135 143 227 139 147 232 147 156 240 158 168 243 164 174 227 139 147 195 89 94 184 71 75 185 73 78 190 81 86 192 83 88 194 87 92 198 92 98 194 87 92 192 83 88 188 77 82 185 73 78 188 77 82 188 77 82 188 77 82 185 73 78 183 69 73 187 75 80 190 81 86 195 89 94 183 69 73 189 79 84 183 69 73 192 83 88 190 81 86 185 73 78 190 81 86 188 77 82 187 75 80 187 75 80 187 75 80 183 69 73 183 69 73 183 69 73 184 71 75 183 69 73 174 56 59 150 17 18 145 9 10 157 29 30 194 87 92 210 112 119 215 120 127 217 123 131 216 121 129 213 116 123 219 125 133 232 147 156 204 102 108 188 77 82 190 81 86 188 77 82 187 75 80 184 71 75 236 152 162 245 166 176 229 141 149 222 131 139 220 127 135 222 131 139 220 127 135 203 100 106 200 96 102 179 63 67 146 11 12 143 7 8 146 11 12 145 9 10 146 11 12 146 11 12 145 9 10 145 9 10 143 7 8 145 9 10 145 9 10 146 11 12 146 11 12 146 11 12 146 11 12 145 9 10 145 9 10 145 9 10 145 9 10 145 9 10 145 9 10 143 7 8 143 7 8 143 7 8 143 7 8 143 7 8 143 7 8 143 7 8 143 7 8 143 7 8 143 7 8 139 0 0 139 0 0 139 0 0 139 0 0 139 0 0 139 0 0 139 0 0 139 0 0 139 0 0 139 0 0 139 0 0 139 0 0 139 0 0 139 0 0 143 7 8 139 0 0 139 0 0 139 0 0 139 0 0 139 0 0 139 0 0 139 0 0 139 0 0 139 0 0 143 7 8 139 0 0 139 0 0 139 0 0 139 0 0 139 0 0 139 0 0 143 7 8 143 7 8 145 9 10 145 9 10 146 11 12 146 11 12 147 13 14 147 13 14 145 9 10 146 11 12 146 11 12 145 9 10 145 9 10 145 9 10 145 9 10 145 9 10 145 9 10 145 9 10 145 9 10 146 11 12 146 11 12 145 9 10 145 9 10 145 9 10 143 7 8 
143 7 8 139 0 0 139 0 0 139 0 0 139 0 0 143 7 8 139 0 0 143 7 8 139 0 0 143 7 8 143 7 8 139 0 0 139 0 0 143 7 8 139 0 0 139 0 0 139 0 0 143 7 8 139 0 0 139 0 0 143 7 8 143 7 8 143 7 8 139 0 0 139 0 0 139 0 0 139 0 0 139 0 0 143 7 8 143 7 8 139 0 0 139 0 0 139 0 0 139 0 0 143 7 8 139 0 0 143 7 8 143 7 8 143 7 8 143 7 8 139 0 0 139 0 0 139 0 0 143 7 8 143 7 8 143 7 8 139 0 0 139 0 0 139 0 0 143 7 8 139 0 0 139 0 0 143 7 8 139 0 0 143 7 8 143 7 8 143 7 8 143 7 8 159 32 34 209 110 117 227 139 147 231 145 153 236 152 162 238 156 166 235 151 160 216 121 129 198 92 98 198 92 98 194 87 92 194 87 92 195 89 94 190 81 86 190 81 86 194 87 92 192 83 88 189 79 84 187 75 80 187 75 80 184 71 75 184 71 75 184 71 75 187 75 80 187 75 80 184 71 75 185 73 78 183 69 73 183 69 73 183 69 73 187 75 80 184 71 75 189 79 84 188 77 82 184 71 75 183 69 73 185 73 78 184 71 75 185 73 78 187 75 80 184 71 75 183 69 73 179 63 67 169 48 51 147 13 14 145 9 10 143 7 8 139 0 0 139 0 0 139 0 0 146 11 12 179 63 67 214 118 125 224 133 141 219 125 133 220 127 135 220 127 135 222 131 139 232 147 156 209 110 117 190 81 86 198 92 98 225 135 143 229 141 149 232 147 156 247 170 180 238 156 166 210 112 119 198 92 98 206 106 112 210 112 119 188 77 82 155 25 26 145 9 10 147 13 14 145 9 10 145 9 10 145 9 10 145 9 10 145 9 10 145 9 10 143 7 8 143 7 8 145 9 10 145 9 10 145 9 10 145 9 10 146 11 12 146 11 12 145 9 10 145 9 10 145 9 10 145 9 10 145 9 10 145 9 10 143 7 8 143 7 8 145 9 10 143 7 8 143 7 8 145 9 10 143 7 8 143 7 8 143 7 8 143 7 8 139 0 0 143 7 8 139 0 0 143 7 8 139 0 0 139 0 0 139 0 0 139 0 0 139 0 0 143 7 8 139 0 0 139 0 0 139 0 0 143 7 8 139 0 0 139 0 0 139 0 0 139 0 0 139 0 0 139 0 0 139 0 0 139 0 0 143 7 8 139 0 0 139 0 0 139 0 0 139 0 0 139 0 0 139 0 0 143 7 8 139 0 0 139 0 0 139 0 0 139 0 0 139 0 0 143 7 8 143 7 8 146 11 12 153 23 24 150 17 18 146 11 12 145 9 10 145 9 10 145 9 10 145 9 10 145 9 10 145 9 10 145 9 10 145 9 10 145 9 10 145 9 10 145 9 10 145 9 10 145 9 10 145 9 10 145 9 10 145 9 10 
143 7 8 139 0 0 139 0 0 139 0 0 139 0 0 143 7 8 139 0 0 143 7 8 139 0 0 143 7 8 143 7 8 139 0 0 139 0 0 143 7 8 139 0 0 139 0 0 139 0 0 143 7 8 139 0 0 139 0 0 143 7 8 143 7 8 143 7 8 139 0 0 139 0 0 139 0 0 139 0 0 139 0 0 143 7 8 143 7 8 139 0 0 139 0 0 139 0 0 139 0 0 143 7 8 139 0 0 143 7 8 143 7 8 143 7 8 143 7 8 139 0 0 139 0 0 139 0 0 143 7 8 143 7 8 143 7 8 139 0 0 139 0 0 139 0 0 143 7 8 139 0 0 139 0 0 143 7 8 139 0 0 143 7 8 143 7 8 143 7 8 143 7 8 159 32 34 209 110 117 227 139 147 231 145 153 236 152 162 238 156 166 235 151 160 216 121 129 198 92 98 198 92 98 194 87 92 194 87 92 195 89 94 190 81 86 190 81 86 194 87 92 192 83 88 189 79 84 187 75 80 187 75 80 184 71 75 184 71 75 184 71 75 187 75 80 187 75 80 184 71 75 185 73 78 183 69 73 183 69 73 183 69 73 187 75 80 184 71 75 189 79 84 188 77 82 184 71 75 183 69 73 185 73 78 184 71 75 185 73 78 187 75 80 184 71 75 183 69 73 179 63 67 169 48 51 147 13 14 145 9 10 143 7 8 139 0 0 139 0 0 139 0 0 146 11 12 179 63 67 214 118 125 224 133 141 219 125 133 220 127 135 220 127 135 222 131 139 232 147 156 209 110 117 190 81 86 198 92 98 225 135 143 229 141 149 232 147 156 247 170 180 238 156 166 210 112 119 198 92 98 206 106 112 210 112 119 188 77 82 155 25 26 145 9 10 147 13 14 145 9 10 145 9 10 145 9 10 145 9 10 145 9 10 145 9 10 143 7 8 143 7 8 145 9 10 145 9 10 145 9 10 145 9 10 146 11 12 146 11 12 145 9 10 145 9 10 145 9 10 145 9 10 145 9 10 145 9 10 143 7 8 143 7 8 145 9 10 143 7 8 143 7 8 145 9 10 143 7 8 143 7 8 143 7 8 143 7 8 139 0 0 143 7 8 139 0 0 143 7 8 139 0 0 139 0 0 139 0 0 139 0 0 139 0 0 143 7 8 139 0 0 139 0 0 139 0 0 143 7 8 139 0 0 139 0 0 139 0 0 139 0 0 139 0 0 139 0 0 139 0 0 139 0 0 143 7 8 139 0 0 139 0 0 139 0 0 139 0 0 139 0 0 139 0 0 143 7 8 139 0 0 139 0 0 139 0 0 139 0 0 139 0 0 143 7 8 143 7 8 146 11 12 153 23 24 150 17 18 146 11 12 145 9 10 145 9 10 145 9 10 145 9 10 145 9 10 145 9 10 145 9 10 145 9 10 145 9 10 145 9 10 145 9 10 145 9 10 145 9 10 145 9 10 145 9 10 145 9 10 
139 0 0 139 0 0 143 7 8 139 0 0 143 7 8 143 7 8 143 7 8 139 0 0 139 0 0 139 0 0 139 0 0 139 0 0 139 0 0 143 7 8 139 0 0 139 0 0 139 0 0 139 0 0 143 7 8 139 0 0 139 0 0 143 7 8 143 7 8 143 7 8 143 7 8 139 0 0 139 0 0 139 0 0 139 0 0 139 0 0 139 0 0 139 0 0 139 0 0 143 7 8 143 7 8 143 7 8 143 7 8 139 0 0 143 7 8 139 0 0 139 0 0 143 7 8 139 0 0 139 0 0 139 0 0 143 7 8 139 0 0 139 0 0 143 7 8 143 7 8 139 0 0 139 0 0 143 7 8 139 0 0 139 0 0 139 0 0 139 0 0 139 0 0 145 9 10 158 30 32 180 65 69 185 73 78 184 71 75 180 65 69 184 71 75 188 77 82 188 77 82 185 73 78 172 52 55 155 25 26 151 19 20 150 17 18 151 19 20 150 17 18 145 9 10 143 7 8 143 7 8 143 7 8 143 7 8 143 7 8 143 7 8 145 9 10 145 9 10 145 9 10 145 9 10 145 9 10 146 11 12 143 7 8 146 11 12 146 11 12 145 9 10 147 13 14 147 13 14 146 11 12 147 13 14 150 17 18 150 17 18 150 17 18 147 13 14 143 7 8 143 7 8 139 0 0 139 0 0 139 0 0 139 0 0 139 0 0 139 0 0 139 0 0 143 7 8 174 56 59 203 100 106 209 110 117 209 110 117 213 116 123 217 123 131 227 139 147 232 147 156 217 123 131 213 116 123 227 139 147 232 147 156 236 152 162 234 149 158 206 106 112 204 102 108 180 65 69 183 69 73 155 25 26 150 17 18 147 13 14 147 13 14 143 7 8 146 11 12 146 11 12 146 11 12 145 9 10 145 9 10 145 9 10 145 9 10 143 7 8 145 9 10 143 7 8 145 9 10 145 9 10 145 9 10 145 9 10 146 11 12 145 9 10 146 11 12 146 11 12 145 9 10 145 9 10 145 9 10 145 9 10 143 7 8 143 7 8 143 7 8 143 7 8 143 7 8 143 7 8 143 7 8 143 7 8 139 0 0 143 7 8 143 7 8 143 7 8 143 7 8 139 0 0 139 0 0 139 0 0 139 0 0 139 0 0 139 0 0 139 0 0 139 0 0 139 0 0 139 0 0 139 0 0 139 0 0 139 0 0 139 0 0 139 0 0 143 7 8 139 0 0 139 0 0 139 0 0 139 0 0 139 0 0 139 0 0 139 0 0 139 0 0 139 0 0 139 0 0 139 0 0 139 0 0 139 0 0 139 0 0 139 0 0 139 0 0 143 7 8 143 7 8 143 7 8 145 9 10 145 9 10 146 11 12 146 11 12 145 9 10 146 11 12 145 9 10 145 9 10 145 9 10 145 9 10 145 9 10 145 9 10 145 9 10 145 9 10 145 9 10 145 9 10 143 7 8 145 9 10 
139 0 0 139 0 0 143 7 8 139 0 0 143 7 8 143 7 8 143 7 8 139 0 0 139 0 0 139 0 0 139 0 0 139 0 0 139 0 0 143 7 8 139 0 0 139 0 0 139 0 0 139 0 0 143 7 8 139 0 0 139 0 0 143 7 8 143 7 8 143 7 8 143 7 8 139 0 0 139 0 0 139 0 0 139 0 0 139 0 0 139 0 0 139 0 0 139 0 0 143 7 8 143 7 8 143 7 8 143 7 8 139 0 0 143 7 8 139 0 0 139 0 0 143 7 8 139 0 0 139 0 0 139 0 0 143 7 8 139 0 0 139 0 0 143 7 8 143 7 8 139 0 0 139 0 0 143 7 8 139 0 0 139 0 0 139 0 0 139 0 0 139 0 0 145 9 10 158 30 32 180 65 69 185 73 78 184 71 75 180 65 69 184 71 75 188 77 82 188 77 82 185 73 78 172 52 55 155 25 26 151 19 20 150 17 18 151 19 20 150 17 18 145 9 10 143 7 8 143 7 8 143 7 8 143 7 8 143 7 8 143 7 8 145 9 10 145 9 10 145 9 10 145 9 10 145 9 10 146 11 12 143 7 8 146 11 12 146 11 12 145 9 10 147 13 14 147 13 14 146 11 12 147 13 14 150 17 18 150 17 18 150 17 18 147 13 14 143 7 8 143 7 8 139 0 0 139 0 0 139 0 0 139 0 0 139 0 0 139 0 0 139 0 0 143 7 8 174 56 59 203 100 106 209 110 117 209 110 117 213 116 123 217 123 131 227 139 147 232 147 156 217 123 131 213 116 123 227 139 147 232 147 156 236 152 162 234 149 158 206 106 112 204 102 108 180 65 69 183 69 73 155 25 26 150 17 18 147 13 14 147 13 14 143 7 8 146 11 12 146 11 12 146 11 12 145 9 10 145 9 10 145 9 10 145 9 10 143 7 8 145 9 10 143 7 8 145 9 10 145 9 10 145 9 10 145 9 10 146 11 12 145 9 10 146 11 12 146 11 12 145 9 10 145 9 10 145 9 10 145 9 10 143 7 8 143 7 8 143 7 8 143 7 8 143 7 8 143 7 8 143 7 8 143 7 8 139 0 0 143 7 8 143 7 8 143 7 8 143 7 8 139 0 0 139 0 0 139 0 0 139 0 0 139 0 0 139 0 0 139 0 0 139 0 0 139 0 0 139 0 0 139 0 0 139 0 0 139 0 0 139 0 0 139 0 0 143 7 8 139 0 0 139 0 0 139 0 0 139 0 0 139 0 0 139 0 0 139 0 0 139 0 0 139 0 0 139 0 0 139 0 0 139 0 0 139 0 0 139 0 0 139 0 0 139 0 0 143 7 8 143 7 8 143 7 8 145 9 10 145 9 10 146 11 12 146 11 12 145 9 10 146 11 12 145 9 10 145 9 10 145 9 10 145 9 10 145 9 10 145 9 10 145 9 10 145 9 10 145 9 10 145 9 10 143 7 8 145 9 10 
139 0 0 139 0 0 139 0 0 139 0 0 139 0 0 143 7 8 139 0 0 139 0 0 139 0 0 139 0 0 139 0 0 139 0 0 139 0 0 143 7 8 139 0 0 143 7 8 139 0 0 139 0 0 139 0 0 143 7 8 143 7 8 143 7 8 143 7 8 143 7 8 143 7 8 139 0 0 139 0 0 139 0 0 139 0 0 139 0 0 143 7 8 139 0 0 139 0 0 139 0 0 139 0 0 139 0 0 139 0 0 139 0 0 139 0 0 139 0 0 143 7 8 139 0 0 143 7 8 139 0 0 139 0 0 139 0 0 139 0 0 139 0 0 139 0 0 139 0 0 139 0 0 139 0 0 139 0 0 139 0 0 139 0 0 139 0 0 139 0 0 139 0 0 143 7 8 139 0 0 139 0 0 139 0 0 143 7 8 143 7 8 143 7 8 145 9 10 143 7 8 143 7 8 143 7 8 143 7 8 139 0 0 139 0 0 139 0 0 139 0 0 139 0 0 139 0 0 139 0 0 139 0 0 139 0 0 139 0 0 143 7 8 139 0 0 139 0 0 139 0 0 139 0 0 139 0 0 139 0 0 139 0 0 139 0 0 139 0 0 139 0 0 139 0 0 139 0 0 139 0 0 139 0 0 139 0 0 139 0 0 139 0 0 139 0 0 139 0 0 139 0 0 139 0 0 139 0 0 139 0 0 139 0 0 139 0 0 139 0 0 139 0 0 139 0 0 151 19 20 195 89 94 220 127 135 230 143 151 227 139 147 220 127 135 219 125 133 219 125 133 220 127 135 222 131 139 224 133 141 230 143 151 216 121 129 179 63 67 155 25 26 153 23 24 155 25 26 150 17 18 147 13 14 151 19 20 155 25 26 146 11 12 145 9 10 145 9 10 145 9 10 145 9 10 145 9 10 145 9 10 145 9 10 145 9 10 145 9 10 145 9 10 145 9 10 143 7 8 143 7 8 145 9 10 145 9 10 146 11 12 145 9 10 145 9 10 145 9 10 145 9 10 145 9 10 145 9 10 145 9 10 145 9 10 143 7 8 143 7 8 143 7 8 143 7 8 143 7 8 143 7 8 143 7 8 143 7 8 143 7 8 143 7 8 143 7 8 143 7 8 143 7 8 139 0 0 139 0 0 139 0 0 139 0 0 139 0 0 139 0 0 143 7 8 139 0 0 139 0 0 139 0 0 139 0 0 139 0 0 143 7 8 139 0 0 139 0 0 139 0 0 139 0 0 139 0 0 143 7 8 139 0 0 139 0 0 139 0 0 139 0 0 139 0 0 139 0 0 139 0 0 139 0 0 139 0 0 139 0 0 139 0 0 139 0 0 139 0 0 139 0 0 139 0 0 139 0 0 143 7 8 145 9 10 146 11 12 146 11 12 146 11 12 146 11 12 146 11 12 145 9 10 145 9 10 145 9 10 145 9 10 145 9 10 145 9 10 145 9 10 145 9 10 143 7 8 143 7 8 
139 0 0 139 0 0 139 0 0 139 0 0 139 0 0 143 7 8 139 0 0 139 0 0 139 0 0 139 0 0 139 0 0 139 0 0 139 0 0 143 7 8 139 0 0 143 7 8 139 0 0 139 0 0 139 0 0 143 7 8 143 7 8 143 7 8 143 7 8 143 7 8 143 7 8 139 0 0 139 0 0 139 0 0 139 0 0 139 0 0 143 7 8 139 0 0 139 0 0 139 0 0 139 0 0 139 0 0 139 0 0 139 0 0 139 0 0 139 0 0 143 7 8 139 0 0 143 7 8 139 0 0 139 0 0 139 0 0 139 0 0 139 0 0 139 0 0 139 0 0 139 0 0 139 0 0 139 0 0 139 0 0 139 0 0 139 0 0 139 0 0 139 0 0 143 7 8 139 0 0 139 0 0 139 0 0 143 7 8 143 7 8 143 7 8 145 9 10 143 7 8 143 7 8 143 7 8 143 7 8 139 0 0 139 0 0 139 0 0 139 0 0 139 0 0 139 0 0 139 0 0 139 0 0 139 0 0 139 0 0 143 7 8 139 0 0 139 0 0 139 0 0 139 0 0 139 0 0 139 0 0 139 0 0 139 0 0 139 0 0 139 0 0 139 0 0 139 0 0 139 0 0 139 0 0 139 0 0 139 0 0 139 0 0 139 0 0 139 0 0 139 0 0 139 0 0 139 0 0 139 0 0 139 0 0 139 0 0 139 0 0 139 0 0 139 0 0 151 19 20 195 89 94 220 127 135 230 143 151 227 139 147 220 127 135 219 125 133 219 125 133 220 127 135 222 131 139 224 133 141 230 143 151 216 121 129 179 63 67 155 25 26 153 23 24 155 25 26 150 17 18 147 13 14 151 19 20 155 25 26 146 11 12 145 9 10 145 9 10 145 9 10 145 9 10 145 9 10 145 9 10 145 9 10 145 9 10 145 9 10 145 9 10 145 9 10 143 7 8 143 7 8 145 9 10 145 9 10 146 11 12 145 9 10 145 9 10 145 9 10 145 9 10 145 9 10 145 9 10 145 9 10 145 9 10 143 7 8 143 7 8 143 7 8 143 7 8 143 7 8 143 7 8 143 7 8 143 7 8 143 7 8 143 7 8 143 7 8 143 7 8 143 7 8 139 0 0 139 0 0 139 0 0 139 0 0 139 0 0 139 0 0 143 7 8 139 0 0 139 0 0 139 0 0 139 0 0 139 0 0 143 7 8 139 0 0 139 0 0 139 0 0 139 0 0 139 0 0 143 7 8 139 0 0 139 0 0 139 0 0 139 0 0 139 0 0 139 0 0 139 0 0 139 0 0 139 0 0 139 0 0 139 0 0 139 0 0 139 0 0 139 0 0 139 0 0 139 0 0 143 7 8 145 9 10 146 11 12 146 11 12 146 11 12 146 11 12 146 11 12 145 9 10 145 9 10 145 9 10 145 9 10 145 9 10 145 9 10 145 9 10 145 9 10 143 7 8 143 7 8 
139 0 0 139 0 0 139 0 0 139 0 0 143 7 8 139 0 0 139 0 0 143 7 8 143 7 8 139 0 0 139 0 0 139 0 0 139 0 0 143 7 8 143 7 8 143 7 8 143 7 8 143 7 8 143 7 8 139 0 0 139 0 0 139 0 0 143 7 8 143 7 8 143 7 8 143 7 8 143 7 8 143 7 8 139 0 0 139 0 0 143 7 8 143 7 8 143 7 8 143 7 8 139 0 0 143 7 8 143 7 8 143 7 8 143 7 8 139 0 0 139 0 0 139 0 0 143 7 8 139 0 0 139 0 0 143 7 8 143 7 8 139 0 0 139 0 0 143 7 8 139 0 0 139 0 0 139 0 0 139 0 0 139 0 0 139 0 0 139 0 0 139 0 0 139 0 0 139 0 0 139 0 0 139 0 0 139 0 0 139 0 0 139 0 0 139 0 0 139 0 0 139 0 0 139 0 0 139 0 0 139 0 0 139 0 0 139 0 0 139 0 0 139 0 0 139 0 0 139 0 0 139 0 0 139 0 0 139 0 0 139 0 0 139 0 0 139 0 0 139 0 0 143 7 8 139 0 0 139 0 0 139 0 0 139 0 0 139 0 0 139 0 0 139 0 0 139 0 0 143 7 8 143 7 8 139 0 0 139 0 0 139 0 0 139 0 0 139 0 0 139 0 0 139 0 0 139 0 0 139 0 0 139 0 0 139 0 0 139 0 0 139 0 0 143 7 8 179 63 67 213 116 123 222 131 139 222 131 139 224 133 141 219 125 133 227 139 147 224 133 141 213 116 123 215 120 127 211 114 121 183 69 73 150 17 18 145 9 10 151 19 20 150 17 18 146 11 12 146 11 12 145 9 10 145 9 10 146 11 12 145 9 10 143 7 8 145 9 10 143 7 8 145 9 10 143 7 8 145 9 10 145 9 10 145 9 10 145 9 10 145 9 10 143 7 8 143 7 8 145 9 10 145 9 10 145 9 10 145 9 10 143 7 8 145 9 10 145 9 10 145 9 10 145 9 10 145 9 10 143 7 8 143 7 8 145 9 10 143 7 8 143 7 8 143 7 8 143 7 8 143 7 8 143 7 8 143 7 8 143 7 8 143 7 8 143 7 8 143 7 8 143 7 8 139 0 0 139 0 0 143 7 8 143 7 8 139 0 0 139 0 0 139 0 0 143 7 8 139 0 0 139 0 0 143 7 8 139 0 0 139 0 0 139 0 0 139 0 0 139 0 0 139 0 0 139 0 0 139 0 0 139 0 0 139 0 0 139 0 0 139 0 0 139 0 0 139 0 0 139 0 0 139 0 0 139 0 0 139 0 0 139 0 0 143 7 8 139 0 0 139 0 0 139 0 0 139 0 0 139 0 0 139 0 0 143 7 8 143 7 8 145 9 10 146 11 12 146 11 12 145 9 10 143 7 8 145 9 10 145 9 10 145 9 10 145 9 10 145 9 10 145 9 10 143 7 8 143 7 8 
139 0 0 139 0 0 139 0 0 139 0 0 143 7 8 139 0 0 139 0 0 143 7 8 143 7 8 139 0 0 139 0 0 139 0 0 139 0 0 143 7 8 143 7 8 143 7 8 143 7 8 143 7 8 143 7 8 139 0 0 139 0 0 139 0 0 143 7 8 143 7 8 143 7 8 143 7 8 143 7 8 143 7 8 139 0 0 139 0 0 143 7 8 143 7 8 143 7 8 143 7 8 139 0 0 143 7 8 143 7 8 143 7 8 143 7 8 139 0 0 139 0 0 139 0 0 143 7 8 139 0 0 139 0 0 143 7 8 143 7 8 139 0 0 139 0 0 143 7 8 139 0 0 139 0 0 139 0 0 139 0 0 139 0 0 139 0 0 139 0 0 139 0 0 139 0 0 139 0 0 139 0 0 139 0 0 139 0 0 139 0 0 139 0 0 139 0 0 139 0 0 139 0 0 139 0 0 139 0 0 139 0 0 139 0 0 139 0 0 139 0 0 139 0 0 139 0 0 139 0 0 139 0 0 139 0 0 139 0 0 139 0 0 139 0 0 139 0 0 139 0 0 143 7 8 139 0 0 139 0 0 139 0 0 139 0 0 139 0 0 139 0 0 139 0 0 139 0 0 143 7 8 143 7 8 139 0 0 139 0 0 139 0 0 139 0 0 139 0 0 139 0 0 139 0 0 139 0 0 139 0 0 139 0 0 139 0 0 139 0 0 139 0 0 143 7 8 179 63 67 213 116 123 222 131 139 222 131 139 224 133 141 219 125 133 227 139 147 224 133 141 213 116 123 215 120 127 211 114 121 183 69 73 150 17 18 145 9 10 151 19 20 150 17 18 146 11 12 146 11 12 145 9 10 145 9 10 146 11 12 145 9 10 143 7 8 145 9 10 143 7 8 145 9 10 143 7 8 145 9 10 145 9 10 145 9 10 145 9 10 145 9 10 143 7 8 143 7 8 145 9 10 145 9 10 145 9 10 145 9 10 143 7 8 145 9 10 145 9 10 145 9 10 145 9 10 145 9 10 143 7 8 143 7 8 145 9 10 143 7 8 143 7 8 143 7 8 143 7 8 143 7 8 143 7 8 143 7 8 143 7 8 143 7 8 143 7 8 143 7 8 143 7 8 139 0 0 139 0 0 143 7 8 143 7 8 139 0 0 139 0 0 139 0 0 143 7 8 139 0 0 139 0 0 143 7 8 139 0 0 139 0 0 139 0 0 139 0 0 139 0 0 139 0 0 139 0 0 139 0 0 139 0 0 139 0 0 139 0 0 139 0 0 139 0 0 139 0 0 139 0 0 139 0 0 139 0 0 139 0 0 139 0 0 143 7 8 139 0 0 139 0 0 139 0 0 139 0 0 139 0 0 139 0 0 143 7 8 143 7 8 145 9 10 146 11 12 146 11 12 145 9 10 143 7 8 145 9 10 145 9 10 145 9 10 145 9 10 145 9 10 145 9 10 143 7 8 143 7 8 
143 7 8 139 0 0 143 7 8 139 0 0 139 0 0 139 0 0 139 0 0 139 0 0 143 7 8 139 0 0 139 0 0 139 0 0 139 0 0 143 7 8 139 0 0 139 0 0 143 7 8 139 0 0 139 0 0 139 0 0 143 7 8 143 7 8 143 7 8 143 7 8 139 0 0 139 0 0 139 0 0 143 7 8 143 7 8 139 0 0 143 7 8 143 7 8 139 0 0 143 7 8 143 7 8 139 0 0 139 0 0 139 0 0 143 7 8 139 0 0 139 0 0 143 7 8 139 0 0 143 7 8 139 0 0 143 7 8 139 0 0 139 0 0 139 0 0 139 0 0 139 0 0 139 0 0 143 7 8 143 7 8 139 0 0 139 0 0 139 0 0 139 0 0 139 0 0 139 0 0 143 7 8 139 0 0 139 0 0 139 0 0 139 0 0 139 0 0 139 0 0 139 0 0 139 0 0 139 0 0 139 0 0 139 0 0 139 0 0 143 7 8 139 0 0 139 0 0 139 0 0 139 0 0 139 0 0 139 0 0 143 7 8 139 0 0 139 0 0 139 0 0 139 0 0 139 0 0 139 0 0 139 0 0 143 7 8 139 0 0 139 0 0 139 0 0 139 0 0 139 0 0 139 0 0 143 7 8 139 0 0 139 0 0 139 0 0 139 0 0 139 0 0 139 0 0 139 0 0 139 0 0 139 0 0 139 0 0 139 0 0 143 7 8 179 63 67 214 118 125 232 147 156 237 154 164 229 141 149 234 149 158 216 121 129 194 87 92 188 77 82 189 79 84 159 32 34 147 13 14 145 9 10 145 9 10 145 9 10 146 11 12 147 13 14 145 9 10 145 9 10 143 7 8 143 7 8 143 7 8 145 9 10 145 9 10 145 9 10 145 9 10 145 9 10 145 9 10 145 9 10 143 7 8 145 9 10 143 7 8 143 7 8 143 7 8 143 7 8 143 7 8 143 7 8 145 9 10 145 9 10 145 9 10 145 9 10 145 9 10 145 9 10 145 9 10 145 9 10 145 9 10 145 9 10 145 9 10 143 7 8 143 7 8 143 7 8 143 7 8 143 7 8 143 7 8 143 7 8 143 7 8 143 7 8 139 0 0 139 0 0 139 0 0 139 0 0 139 0 0 139 0 0 143 7 8 143 7 8 139 0 0 139 0 0 143 7 8 139 0 0 139 0 0 139 0 0 139 0 0 143 7 8 143 7 8 139 0 0 139 0 0 139 0 0 139 0 0 139 0 0 139 0 0 139 0 0 139 0 0 139 0 0 139 0 0 139 0 0 143 7 8 139 0 0 139 0 0 139 0 0 139 0 0 139 0 0 139 0 0 139 0 0 139 0 0 139 0 0 139 0 0 139 0 0 139 0 0 139 0 0 143 7 8 143 7 8 143 7 8 143 7 8 143 7 8 143 7 8 143 7 8 143 7 8 143 7 8 143 7 8 143 7 8 145 9 10 145 9 10 
143 7 8 139 0 0 143 7 8 139 0 0 139 0 0 139 0 0 139 0 0 139 0 0 143 7 8 139 0 0 139 0 0 139 0 0 139 0 0 143 7 8 139 0 0 139 0 0 143 7 8 139 0 0 139 0 0 139 0 0 143 7 8 143 7 8 143 7 8 143 7 8 139 0 0 139 0 0 139 0 0 143 7 8 143 7 8 139 0 0 143 7 8 143 7 8 139 0 0 143 7 8 143 7 8 139 0 0 139 0 0 139 0 0 143 7 8 139 0 0 139 0 0 143 7 8 139 0 0 143 7 8 139 0 0 143 7 8 139 0 0 139 0 0 139 0 0 139 0 0 139 0 0 139 0 0 143 7 8 143 7 8 139 0 0 139 0 0 139 0 0 139 0 0 139 0 0 139 0 0 143 7 8 139 0 0 139 0 0 139 0 0 139 0 0 139 0 0 139 0 0 139 0 0 139 0 0 139 0 0 139 0 0 139 0 0 139 0 0 143 7 8 139 0 0 139 0 0 139 0 0 139 0 0 139 0 0 139 0 0 143 7 8 139 0 0 139 0 0 139 0 0 139 0 0 139 0 0 139 0 0 139 0 0 143 7 8 139 0 0 139 0 0 139 0 0 139 0 0 139 0 0 139 0 0 143 7 8 139 0 0 139 0 0 139 0 0 139 0 0 139 0 0 139 0 0 139 0 0 139 0 0 139 0 0 139 0 0 139 0 0 143 7 8 179 63 67 214 118 125 232 147 156 237 154 164 229 141 149 234 149 158 216 121 129 194 87 92 188 77 82 189 79 84 159 32 34 147 13 14 145 9 10 145 9 10 145 9 10 146 11 12 147 13 14 145 9 10 145 9 10 143 7 8 143 7 8 143 7 8 145 9 10 145 9 10 145 9 10 145 9 10 145 9 10 145 9 10 145 9 10 143 7 8 145 9 10 143 7 8 143 7 8 143 7 8 143 7 8 143 7 8 143 7 8 145 9 10 145 9 10 145 9 10 145 9 10 145 9 10 145 9 10 145 9 10 145 9 10 145 9 10 145 9 10 145 9 10 143 7 8 143 7 8 143 7 8 143 7 8 143 7 8 143 7 8 143 7 8 143 7 8 143 7 8 139 0 0 139 0 0 139 0 0 139 0 0 139 0 0 139 0 0 143 7 8 143 7 8 139 0 0 139 0 0 143 7 8 139 0 0 139 0 0 139 0 0 139 0 0 143 7 8 143 7 8 139 0 0 139 0 0 139 0 0 139 0 0 139 0 0 139 0 0 139 0 0 139 0 0 139 0 0 139 0 0 139 0 0 143 7 8 139 0 0 139 0 0 139 0 0 139 0 0 139 0 0 139 0 0 139 0 0 139 0 0 139 0 0 139 0 0 139 0 0 139 0 0 139 0 0 143 7 8 143 7 8 143 7 8 143 7 8 143 7 8 143 7 8 143 7 8 143 7 8 143 7 8 143 7 8 143 7 8 145 9 10 145 9 10 
139 0 0 139 0 0 143 7 8 139 0 0 139 0 0 139 0 0 139 0 0 139 0 0 139 0 0 139 0 0 139 0 0 139 0 0 139 0 0 139 0 0 139 0 0 139 0 0 139 0 0 139 0 0 139 0 0 143 7 8 139 0 0 139 0 0 139 0 0 139 0 0 139 0 0 143 7 8 143 7 8 139 0 0 143 7 8 143 7 8 143 7 8 139 0 0 139 0 0 143 7 8 139 0 0 139 0 0 143 7 8 143 7 8 139 0 0 139 0 0 139 0 0 143 7 8 139 0 0 139 0 0 139 0 0 139 0 0 139 0 0 139 0 0 139 0 0 139 0 0 139 0 0 139 0 0 139 0 0 139 0 0 139 0 0 139 0 0 139 0 0 139 0 0 139 0 0 139 0 0 139 0 0 139 0 0 143 7 8 143 7 8 139 0 0 139 0 0 139 0 0 139 0 0 139 0 0 139 0 0 143 7 8 139 0 0 139 0 0 139 0 0 139 0 0 139 0 0 143 7 8 139 0 0 139 0 0 139 0 0 139 0 0 139 0 0 139 0 0 139 0 0 139 0 0 139 0 0 139 0 0 139 0 0 139 0 0 139 0 0 139 0 0 139 0 0 139 0 0 139 0 0 139 0 0 139 0 0 143 7 8 139 0 0 139 0 0 139 0 0 139 0 0 139 0 0 139 0 0 139 0 0 139 0 0 139 0 0 146 11 12 188 77 82 224 133 141 232 147 156 243 164 174 243 164 174 237 154 164 227 139 147 206 106 112 179 63 67 169 48 51 159 32 34 187 75 80 159 32 34 150 17 18 147 13 14 145 9 10 143 7 8 145 9 10 145 9 10 145 9 10 145 9 10 145 9 10 145 9 10 146 11 12 146 11 12 145 9 10 145 9 10 143 7 8 145 9 10 145 9 10 145 9 10 145 9 10 145 9 10 143 7 8 145 9 10 143 7 8 143 7 8 145 9 10 145 9 10 145 9 10 145 9 10 145 9 10 145 9 10 145 9 10 145 9 10 143 7 8 145 9 10 145 9 10 143 7 8 143 7 8 143 7 8 143 7 8 143 7 8 143 7 8 143 7 8 143 7 8 143 7 8 139 0 0 143 7 8 143 7 8 139 0 0 143 7 8 139 0 0 139 0 0 143 7 8 139 0 0 139 0 0 139 0 0 139 0 0 139 0 0 139 0 0 139 0 0 139 0 0 139 0 0 139 0 0 139 0 0 139 0 0 143 7 8 139 0 0 139 0 0 139 0 0 139 0 0 139 0 0 139 0 0 139 0 0 139 0 0 143 7 8 139 0 0 139 0 0 139 0 0 139 0 0 139 0 0 139 0 0 139 0 0 143 7 8 139 0 0 139 0 0 139 0 0 139 0 0 139 0 0 143 7 8 139 0 0 139 0 0 139 0 0 139 0 0 143 7 8 139 0 0 143 7 8 143 7 8 143 7 8 145 9 10 145 9 10 143 7 8 
139 0 0 139 0 0 143 7 8 139 0 0 139 0 0 139 0 0 139 0 0 139 0 0 139 0 0 139 0 0 139 0 0 139 0 0 139 0 0 139 0 0 139 0 0 139 0 0 139 0 0 139 0 0 139 0 0 143 7 8 139 0 0 139 0 0 139 0 0 139 0 0 139 0 0 143 7 8 143 7 8 139 0 0 143 7 8 143 7 8 143 7 8 139 0 0 139 0 0 143 7 8 139 0 0 139 0 0 143 7 8 143 7 8 139 0 0 139 0 0 139 0 0 143 7 8 139 0 0 139 0 0 139 0 0 139 0 0 139 0 0 139 0 0 139 0 0 139 0 0 139 0 0 139 0 0 139 0 0 139 0 0 139 0 0 139 0 0 139 0 0 139 0 0 139 0 0 139 0 0 139 0 0 139 0 0 143 7 8 143 7 8 139 0 0 139 0 0 139 0 0 139 0 0 139 0 0 139 0 0 143 7 8 139 0 0 139 0 0 139 0 0 139 0 0 139 0 0 143 7 8 139 0 0 139 0 0 139 0 0 139 0 0 139 0 0 139 0 0 139 0 0 139 0 0 139 0 0 139 0 0 139 0 0 139 0 0 139 0 0 139 0 0 139 0 0 139 0 0 139 0 0 139 0 0 139 0 0 143 7 8 139 0 0 139 0 0 139 0 0 139 0 0 139 0 0 139 0 0 139 0 0 139 0 0 139 0 0 146 11 12 188 77 82 224 133 141 232 147 156 243 164 174 243 164 174 237 154 164 227 139 147 206 106 112 179 63 67 169 48 51 159 32 34 187 75 80 159 32 34 150 17 18 147 13 14 145 9 10 143 7 8 145 9 10 145 9 10 145 9 10 145 9 10 145 9 10 145 9 10 146 11 12 146 11 12 145 9 10 145 9 10 143 7 8 145 9 10 145 9 10 145 9 10 145 9 10 145 9 10 143 7 8 145 9 10 143 7 8 143 7 8 145 9 10 145 9 10 145 9 10 145 9 10 145 9 10 145 9 10 145 9 10 145 9 10 143 7 8 145 9 10 145 9 10 143 7 8 143 7 8 143 7 8 143 7 8 143 7 8 143 7 8 143 7 8 143 7 8 143 7 8 139 0 0 143 7 8 143 7 8 139 0 0 143 7 8 139 0 0 139 0 0 143 7 8 139 0 0 139 0 0 139 0 0 139 0 0 139 0 0 139 0 0 139 0 0 139 0 0 139 0 0 139 0 0 139 0 0 139 0 0 143 7 8 139 0 0 139 0 0 139 0 0 139 0 0 139 0 0 139 0 0 139 0 0 139 0 0 143 7 8 139 0 0 139 0 0 139 0 0 139 0 0 139 0 0 139 0 0 139 0 0 143 7 8 139 0 0 139 0 0 139 0 0 139 0 0 139 0 0 143 7 8 139 0 0 139 0 0 139 0 0 139 0 0 143 7 8 139 0 0 143 7 8 143 7 8 143 7 8 145 9 10 145 9 10 143 7 8 
139 0 0 139 0 0 139 0 0 139 0 0 139 0 0 139 0 0 139 0 0 143 7 8 139 0 0 139 0 0 139 0 0 143 7 8 139 0 0 139 0 0 143 7 8 139 0 0 139 0 0 139 0 0 139 0 0 143 7 8 143 7 8 143 7 8 143 7 8 139 0 0 139 0 0 139 0 0 139 0 0 139 0 0 139 0 0 143 7 8 139 0 0 139 0 0 139 0 0 139 0 0 139 0 0 139 0 0 139 0 0 143 7 8 143 7 8 139 0 0 139 0 0 139 0 0 139 0 0 143 7 8 139 0 0 139 0 0 139 0 0 139 0 0 139 0 0 139 0 0 139 0 0 139 0 0 139 0 0 139 0 0 139 0 0 139 0 0 139 0 0 139 0 0 139 0 0 139 0 0 139 0 0 139 0 0 139 0 0 139 0 0 139 0 0 139 0 0 139 0 0 139 0 0 139 0 0 139 0 0 139 0 0 143 7 8 139 0 0 139 0 0 139 0 0 139 0 0 139 0 0 139 0 0 139 0 0 139 0 0 139 0 0 139 0 0 139 0 0 139 0 0 139 0 0 139 0 0 139 0 0 139 0 0 139 0 0 139 0 0 139 0 0 139 0 0 139 0 0 139 0 0 139 0 0 139 0 0 139 0 0 139 0 0 139 0 0 139 0 0 139 0 0 139 0 0 139 0 0 139 0 0 139 0 0 153 23 24 205 104 110 232 147 156 231 145 153 236 152 162 238 156 166 238 156 166 232 147 156 214 118 125 189 79 84 169 48 51 158 30 32 157 29 30 157 29 30 147 13 14 145 9 10 145 9 10 145 9 10 146 11 12 146 11 12 146 11 12 145 9 10 145 9 10 145 9 10 145 9 10 146 11 12 145 9 10 146 11 12 145 9 10 143 7 8 143 7 8 145 9 10 145 9 10 145 9 10 145 9 10 143 7 8 143 7 8 145 9 10 143 7 8 143 7 8 143 7 8 145 9 10 145 9 10 145 9 10 145 9 10 145 9 10 145 9 10 143 7 8 143 7 8 143 7 8 143 7 8 143 7 8 143 7 8 143 7 8 143 7 8 143 7 8 139 0 0 143 7 8 143 7 8 143 7 8 139 0 0 139 0 0 139 0 0 139 0 0 139 0 0 139 0 0 143 7 8 139 0 0 139 0 0 143 7 8 139 0 0 139 0 0 139 0 0 139 0 0 139 0 0 139 0 0 139 0 0 139 0 0 139 0 0 143 7 8 139 0 0 139 0 0 143 7 8 139 0 0 139 0 0 139 0 0 139 0 0 139 0 0 143 7 8 139 0 0 139 0 0 139 0 0 139 0 0 139 0 0 139 0 0 139 0 0 139 0 0 139 0 0 139 0 0 139 0 0 139 0 0 139 0 0 139 0 0 139 0 0 139 0 0 139 0 0 139 0 0 139 0 0 139 0 0 139 0 0 139 0 0 139 0 0 139 0 0 143 7 8 143 7 8 
139 0 0 139 0 0 139 0 0 139 0 0 139 0 0 139 0 0 139 0 0 143 7 8 139 0 0 139 0 0 139 0 0 143 7 8 139 0 0 139 0 0 143 7 8 139 0 0 139 0 0 139 0 0 139 0 0 143 7 8 143 7 8 143 7 8 143 7 8 139 0 0 139 0 0 139 0 0 139 0 0 139 0 0 139 0 0 143 7 8 139 0 0 139 0 0 139 0 0 139 0 0 139 0 0 139 0 0 139 0 0 143 7 8 143 7 8 139 0 0 139 0 0 139 0 0 139 0 0 143 7 8 139 0 0 139 0 0 139 0 0 139 0 0 139 0 0 139 0 0 139 0 0 139 0 0 139 0 0 139 0 0 139 0 0 139 0 0 139 0 0 139 0 0 139 0 0 139 0 0 139 0 0 139 0 0 139 0 0 139 0 0 139 0 0 139 0 0 139 0 0 139 0 0 139 0 0 139 0 0 139 0 0 143 7 8 139 0 0 139 0 0 139 0 0 139 0 0 139 0 0 139 0 0 139 0 0 139 0 0 139 0 0 139 0 0 139 0 0 139 0 0 139 0 0 139 0 0 139 0 0 139 0 0 139 0 0 139 0 0 139 0 0 139 0 0 139 0 0 139 0 0 139 0 0 139 0 0 139 0 0 139 0 0 139 0 0 139 0 0 139 0 0 139 0 0 139 0 0 139 0 0 139 0 0 153 23 24 205 104 110 232 147 156 231 145 153 236 152 162 238 156 166 238 156 166 232 147 156 214 118 125 189 79 84 169 48 51 158 30 32 157 29 30 157 29 30 147 13 14 145 9 10 145 9 10 145 9 10 146 11 12 146 11 12 146 11 12 145 9 10 145 9 10 145 9 10 145 9 10 146 11 12 145 9 10 146 11 12 145 9 10 143 7 8 143 7 8 145 9 10 145 9 10 145 9 10 145 9 10 143 7 8 143 7 8 145 9 10 143 7 8 143 7 8 143 7 8 145 9 10 145 9 10 145 9 10 145 9 10 145 9 10 145 9 10 143 7 8 143 7 8 143 7 8 143 7 8 143 7 8 143 7 8 143 7 8 143 7 8 143 7 8 139 0 0 143 7 8 143 7 8 143 7 8 139 0 0 139 0 0 139 0 0 139 0 0 139 0 0 139 0 0 143 7 8 139 0 0 139 0 0 143 7 8 139 0 0 139 0 0 139 0 0 139 0 0 139 0 0 139 0 0 139 0 0 139 0 0 139 0 0 143 7 8 139 0 0 139 0 0 143 7 8 139 0 0 139 0 0 139 0 0 139 0 0 139 0 0 143 7 8 139 0 0 139 0 0 139 0 0 139 0 0 139 0 0 139 0 0 139 0 0 139 0 0 139 0 0 139 0 0 139 0 0 139 0 0 139 0 0 139 0 0 139 0 0 139 0 0 139 0 0 139 0 0 139 0 0 139 0 0 139 0 0 139 0 0 139 0 0 139 0 0 143 7 8 143 7 8 
143 7 8 139 0 0 139 0 0 139 0 0 139 0 0 139 0 0 143 7 8 139 0 0 139 0 0 139 0 0 139 0 0 139 0 0 139 0 0 139 0 0 139 0 0 139 0 0 139 0 0 139 0 0 139 0 0 139 0 0 139 0 0 139 0 0 139 0 0 139 0 0 143 7 8 139 0 0 143 7 8 139 0 0 139 0 0 139 0 0 139 0 0 139 0 0 139 0 0 139 0 0 143 7 8 143 7 8 139 0 0 139 0 0 139 0 0 139 0 0 139 0 0 143 7 8 143 7 8 139 0 0 139 0 0 143 7 8 139 0 0 143 7 8 139 0 0 139 0 0 139 0 0 143 7 8 139 0 0 143 7 8 139 0 0 139 0 0 139 0 0 139 0 0 139 0 0 139 0 0 139 0 0 139 0 0 139 0 0 139 0 0 139 0 0 139 0 0 139 0 0 139 0 0 143 7 8 139 0 0 143 7 8 139 0 0 139 0 0 139 0 0 143 7 8 139 0 0 139 0 0 143 7 8 139 0 0 139 0 0 139 0 0 139 0 0 139 0 0 139 0 0 139 0 0 143 7 8 139 0 0 143 7 8 139 0 0 143 7 8 139 0 0 139 0 0 139 0 0 139 0 0 139 0 0 139 0 0 139 0 0 139 0 0 139 0 0 139 0 0 139 0 0 139 0 0 143 7 8 139 0 0 172 52 55 219 125 133 234 149 158 234 149 158 237 154 164 240 158 168 232 147 156 231 145 153 219 125 133 184 71 75 150 17 18 157 29 30 157 29 30 146 11 12 143 7 8 145 9 10 145 9 10 145 9 10 146 11 12 146 11 12 146 11 12 145 9 10 145 9 10 146 11 12 145 9 10 145 9 10 145 9 10 145 9 10 145 9 10 143 7 8 145 9 10 145 9 10 145 9 10 143 7 8 143 7 8 143 7 8 145 9 10 143 7 8 145 9 10 143 7 8 145 9 10 143 7 8 143 7 8 145 9 10 145 9 10 145 9 10 145 9 10 145 9 10 145 9 10 145 9 10 145 9 10 143 7 8 143 7 8 145 9 10 143 7 8 143 7 8 143 7 8 143 7 8 143 7 8 143 7 8 143 7 8 139 0 0 139 0 0 139 0 0 143 7 8 143 7 8 143 7 8 143 7 8 139 0 0 139 0 0 139 0 0 139 0 0 139 0 0 139 0 0 139 0 0 139 0 0 139 0 0 139 0 0 139 0 0 139 0 0 139 0 0 139 0 0 139 0 0 139 0 0 139 0 0 139 0 0 139 0 0 139 0 0 139 0 0 139 0 0 139 0 0 139 0 0 139 0 0 139 0 0 139 0 0 139 0 0 139 0 0 139 0 0 139 0 0 139 0 0 143 7 8 139 0 0 139 0 0 139 0 0 139 0 0 139 0 0 139 0 0 139 0 0 139 0 0 139 0 0 139 0 0 139 0 0 139 0 0 139 0 0 143 7 8 143 7 8 
143 7 8 139 0 0 139 0 0 139 0 0 139 0 0 139 0 0 143 7 8 139 0 0 139 0 0 139 0 0 139 0 0 139 0 0 139 0 0 139 0 0 139 0 0 139 0 0 139 0 0 139 0 0 139 0 0 139 0 0 139 0 0 139 0 0 139 0 0 139 0 0 143 7 8 139 0 0 143 7 8 139 0 0 139 0 0 139 0 0 139 0 0 139 0 0 139 0 0 139 0 0 143 7 8 143 7 8 139 0 0 139 0 0 139 0 0 139 0 0 139 0 0 143 7 8 143 7 8 139 0 0 139 0 0 143 7 8 139 0 0 143 7 8 139 0 0 139 0 0 139 0 0 143 7 8 139 0 0 143 7 8 139 0 0 139 0 0 139 0 0 139 0 0 139 0 0 139 0 0 139 0 0 139 0 0 139 0 0 139 0 0 139 0 0 139 0 0 139 0 0 139 0 0 143 7 8 139 0 0 143 7 8 139 0 0 139 0 0 139 0 0 143 7 8 139 0 0 139 0 0 143 7 8 139 0 0 139 0 0 139 0 0 139 0 0 139 0 0 139 0 0 139 0 0 143 7 8 139 0 0 143 7 8 139 0 0 143 7 8 139 0 0 139 0 0 139 0 0 139 0 0 139 0 0 139 0 0 139 0 0 139 0 0 139 0 0 139 0 0 139 0 0 139 0 0 143 7 8 139 0 0 172 52 55 219 125 133 234 149 158 234 149 158 237 154 164 240 158 168 232 147 156 231 145 153 219 125 133 184 71 75 150 17 18 157 29 30 157 29 30 146 11 12 143 7 8 145 9 10 145 9 10 145 9 10 146 11 12 146 11 12 146 11 12 145 9 10 145 9 10 146 11 12 145 9 10 145 9 10 145 9 10 145 9 10 145 9 10 143 7 8 145 9 10 145 9 10 145 9 10 143 7 8 143 7 8 143 7 8 145 9 10 143 7 8 145 9 10 143 7 8 145 9 10 143 7 8 143 7 8 145 9 10 145 9 10 145 9 10 145 9 10 145 9 10 145 9 10 145 9 10 145 9 10 143 7 8 143 7 8 145 9 10 143 7 8 143 7 8 143 7 8 143 7 8 143 7 8 143 7 8 143 7 8 139 0 0 139 0 0 139 0 0 143 7 8 143 7 8 143 7 8 143 7 8 139 0 0 139 0 0 139 0 0 139 0 0 139 0 0 139 0 0 139 0 0 139 0 0 139 0 0 139 0 0 139 0 0 139 0 0 139 0 0 139 0 0 139 0 0 139 0 0 139 0 0 139 0 0 139 0 0 139 0 0 139 0 0 139 0 0 139 0 0 139 0 0 139 0 0 139 0 0 139 0 0 139 0 0 139 0 0 139 0 0 139 0 0 139 0 0 143 7 8 139 0 0 139 0 0 139 0 0 139 0 0 139 0 0 139 0 0 139 0 0 139 0 0 139 0 0 139 0 0 139 0 0 139 0 0 139 0 0 143 7 8 143 7 8 
139 0 0 139 0 0 139 0 0 139 0 0 139 0 0 139 0 0 139 0 0 143 7 8 139 0 0 139 0 0 143 7 8 139 0 0 139 0 0 139 0 0 139 0 0 139 0 0 139 0 0 139 0 0 139 0 0 139 0 0 139 0 0 139 0 0 139 0 0 139 0 0 139 0 0 139 0 0 139 0 0 139 0 0 139 0 0 139 0 0 143 7 8 143 7 8 143 7 8 143 7 8 139 0 0 143 7 8 139 0 0 139 0 0 143 7 8 139 0 0 143 7 8 143 7 8 139 0 0 139 0 0 143 7 8 139 0 0 143 7 8 139 0 0 139 0 0 139 0 0 139 0 0 139 0 0 139 0 0 139 0 0 139 0 0 143 7 8 139 0 0 139 0 0 139 0 0 139 0 0 139 0 0 139 0 0 139 0 0 139 0 0 139 0 0 139 0 0 139 0 0 139 0 0 139 0 0 139 0 0 139 0 0 139 0 0 139 0 0 139 0 0 139 0 0 143 7 8 139 0 0 139 0 0 139 0 0 139 0 0 139 0 0 139 0 0 139 0 0 139 0 0 139 0 0 139 0 0 139 0 0 139 0 0 139 0 0 139 0 0 139 0 0 143 7 8 139 0 0 139 0 0 139 0 0 143 7 8 139 0 0 139 0 0 139 0 0 143 7 8 139 0 0 139 0 0 143 7 8 143 7 8 185 73 78 232 147 156 231 145 153 226 137 145 222 131 139 224 133 141 227 139 147 231 145 153 227 139 147 200 96 102 159 32 34 155 25 26 151 19 20 147 13 14 145 9 10 146 11 12 146 11 12 147 13 14 153 23 24 155 25 26 153 23 24 150 17 18 147 13 14 146 11 12 145 9 10 143 7 8 143 7 8 143 7 8 145 9 10 145 9 10 145 9 10 145 9 10 143 7 8 145 9 10 145 9 10 143 7 8 145 9 10 145 9 10 143 7 8 143 7 8 143 7 8 143 7 8 143 7 8 145 9 10 145 9 10 145 9 10 146 11 12 146 11 12 146 11 12 145 9 10 145 9 10 145 9 10 143 7 8 143 7 8 143 7 8 143 7 8 143 7 8 143 7 8 143 7 8 139 0 0 143 7 8 143 7 8 143 7 8 139 0 0 139 0 0 139 0 0 139 0 0 139 0 0 139 0 0 139 0 0 143 7 8 139 0 0 139 0 0 139 0 0 139 0 0 139 0 0 139 0 0 139 0 0 139 0 0 139 0 0 143 7 8 139 0 0 139 0 0 139 0 0 143 7 8 139 0 0 139 0 0 139 0 0 139 0 0 139 0 0 139 0 0 139 0 0 139 0 0 139 0 0 139 0 0 139 0 0 139 0 0 139 0 0 139 0 0 139 0 0 139 0 0 143 7 8 139 0 0 143 7 8 139 0 0 139 0 0 139 0 0 139 0 0 139 0 0 139 0 0 139 0 0 139 0 0 139 0 0 139 0 0 139 0 0 139 0 0 
139 0 0 139 0 0 139 0 0 139 0 0 139 0 0 139 0 0 139 0 0 143 7 8 139 0 0 139 0 0 143 7 8 139 0 0 139 0 0 139 0 0 139 0 0 139 0 0 139 0 0 139 0 0 139 0 0 139 0 0 139 0 0 139 0 0 139 0 0 139 0 0 139 0 0 139 0 0 139 0 0 139 0 0 139 0 0 139 0 0 143 7 8 143 7 8 143 7 8 143 7 8 139 0 0 143 7 8 139 0 0 139 0 0 143 7 8 139 0 0 143 7 8 143 7 8 139 0 0 139 0 0 143 7 8 139 0 0 143 7 8 139 0 0 139 0 0 139 0 0 139 0 0 139 0 0 139 0 0 139 0 0 139 0 0 143 7 8 139 0 0 139 0 0 139 0 0 139 0 0 139 0 0 139 0 0 139 0 0 139 0 0 139 0 0 139 0 0 139 0 0 139 0 0 139 0 0 139 0 0 139 0 0 139 0 0 139 0 0 139 0 0 139 0 0 143 7 8 139 0 0 139 0 0 139 0 0 139 0 0 139 0 0 139 0 0 139 0 0 139 0 0 139 0 0 139 0 0 139 0 0 139 0 0 139 0 0 139 0 0 139 0 0 143 7 8 139 0 0 139 0 0 139 0 0 143 7 8 139 0 0 139 0 0 139 0 0 143 7 8 139 0 0 139 0 0 143 7 8 143 7 8 185 73 78 232 147 156 231 145 153 226 137 145 222 131 139 224 133 141 227 139 147 231 145 153 227 139 147 200 96 102 159 32 34 155 25 26 151 19 20 147 13 14 145 9 10 146 11 12 146 11 12 147 13 14 153 23 24 155 25 26 153 23 24 150 17 18 147 13 14 146 11 12 145 9 10 143 7 8 143 7 8 143 7 8 145 9 10 145 9 10 145 9 10 145 9 10 143 7 8 145 9 10 145 9 10 143 7 8 145 9 10 145 9 10 143 7 8 143 7 8 143 7 8 143 7 8 143 7 8 145 9 10 145 9 10 145 9 10 146 11 12 146 11 12 146 11 12 145 9 10 145 9 10 145 9 10 143 7 8 143 7 8 143 7 8 143 7 8 143 7 8 143 7 8 143 7 8 139 0 0 143 7 8 143 7 8 143 7 8 139 0 0 139 0 0 139 0 0 139 0 0 139 0 0 139 0 0 139 0 0 143 7 8 139 0 0 139 0 0 139 0 0 139 0 0 139 0 0 139 0 0 139 0 0 139 0 0 139 0 0 143 7 8 139 0 0 139 0 0 139 0 0 143 7 8 139 0 0 139 0 0 139 0 0 139 0 0 139 0 0 139 0 0 139 0 0 139 0 0 139 0 0 139 0 0 139 0 0 139 0 0 139 0 0 139 0 0 139 0 0 139 0 0 143 7 8 139 0 0 143 7 8 139 0 0 139 0 0 139 0 0 139 0 0 139 0 0 139 0 0 139 0 0 139 0 0 139 0 0 139 0 0 139 0 0 139 0 0 
139 0 0 139 0 0 139 0 0 139 0 0 139 0 0 139 0 0 139 0 0 139 0 0 139 0 0 139 0 0 139 0 0 139 0 0 139 0 0 143 7 8 139 0 0 139 0 0 139 0 0 139 0 0 139 0 0 139 0 0 143 7 8 139 0 0 139 0 0 143 7 8 139 0 0 139 0 0 139 0 0 139 0 0 139 0 0 139 0 0 143 7 8 139 0 0 139 0 0 139 0 0 139 0 0 139 0 0 143 7 8 139 0 0 143 7 8 143 7 8 143 7 8 143 7 8 139 0 0 143 7 8 143 7 8 139 0 0 143 7 8 143 7 8 139 0 0 143 7 8 139 0 0 143 7 8 139 0 0 139 0 0 139 0 0 139 0 0 139 0 0 139 0 0 139 0 0 139 0 0 143 7 8 139 0 0 139 0 0 139 0 0 139 0 0 139 0 0 139 0 0 139 0 0 139 0 0 139 0 0 139 0 0 139 0 0 139 0 0 139 0 0 139 0 0 139 0 0 139 0 0 139 0 0 139 0 0 139 0 0 139 0 0 139 0 0 139 0 0 139 0 0 139 0 0 139 0 0 139 0 0 139 0 0 139 0 0 139 0 0 139 0 0 139 0 0 139 0 0 139 0 0 139 0 0 143 7 8 139 0 0 139 0 0 139 0 0 139 0 0 139 0 0 139 0 0 139 0 0 146 11 12 189 79 84 230 143 151 227 139 147 225 135 143 217 123 131 211 114 121 205 104 110 206 106 112 215 120 127 226 137 145 219 125 133 205 104 110 195 89 94 187 75 80 189 79 84 194 87 92 190 81 86 189 79 84 180 65 69 174 56 59 174 56 59 168 46 49 157 29 30 153 23 24 145 9 10 145 9 10 145 9 10 143 7 8 145 9 10 145 9 10 145 9 10 146 11 12 143 7 8 145 9 10 145 9 10 143 7 8 143 7 8 143 7 8 145 9 10 145 9 10 143 7 8 145 9 10 143 7 8 143 7 8 143 7 8 145 9 10 146 11 12 146 11 12 146 11 12 145 9 10 145 9 10 145 9 10 145 9 10 143 7 8 143 7 8 143 7 8 143 7 8 143 7 8 143 7 8 143 7 8 139 0 0 139 0 0 139 0 0 139 0 0 143 7 8 143 7 8 139 0 0 139 0 0 139 0 0 139 0 0 139 0 0 139 0 0 139 0 0 139 0 0 139 0 0 143 7 8 139 0 0 143 7 8 139 0 0 139 0 0 139 0 0 139 0 0 139 0 0 139 0 0 139 0 0 139 0 0 139 0 0 139 0 0 139 0 0 139 0 0 139 0 0 139 0 0 139 0 0 139 0 0 139 0 0 139 0 0 139 0 0 139 0 0 139 0 0 139 0 0 139 0 0 139 0 0 139 0 0 139 0 0 139 0 0 139 0 0 139 0 0 139 0 0 139 0 0 139 0 0 143 7 8 139 0 0 139 0 0 139 0 0 139 0 0 139 0 0 
139 0 0 139 0 0 139 0 0 139 0 0 139 0 0 139 0 0 139 0 0 139 0 0 139 0 0 139 0 0 139 0 0 139 0 0 139 0 0 143 7 8 139 0 0 139 0 0 139 0 0 139 0 0 139 0 0 139 0 0 143 7 8 139 0 0 139 0 0 143 7 8 139 0 0 139 0 0 139 0 0 139 0 0 139 0 0 139 0 0 143 7 8 139 0 0 139 0 0 139 0 0 139 0 0 139 0 0 143 7 8 139 0 0 143 7 8 143 7 8 143 7 8 143 7 8 139 0 0 143 7 8 143 7 8 139 0 0 143 7 8 143 7 8 139 0 0 143 7 8 139 0 0 143 7 8 139 0 0 139 0 0 139 0 0 139 0 0 139 0 0 139 0 0 139 0 0 139 0 0 143 7 8 139 0 0 139 0 0 139 0 0 139 0 0 139 0 0 139 0 0 139 0 0 139 0 0 139 0 0 139 0 0 139 0 0 139 0 0 139 0 0 139 0 0 139 0 0 139 0 0 139 0 0 139 0 0 139 0 0 139 0 0 139 0 0 139 0 0 139 0 0 139 0 0 139 0 0 139 0 0 139 0 0 139 0 0 139 0 0 139 0 0 139 0 0 139 0 0 139 0 0 139 0 0 143 7 8 139 0 0 139 0 0 139 0 0 139 0 0 139 0 0 139 0 0 139 0 0 146 11 12 189 79 84 230 143 151 227 139 147 225 135 143 217 123 131 211 114 121 205 104 110 206 106 112 215 120 127 226 137 145 219 125 133 205 104 110 195 89 94 187 75 80 189 79 84 194 87 92 190 81 86 189 79 84 180 65 69 174 56 59 174 56 59 168 46 49 157 29 30 153 23 24 145 9 10 145 9 10 145 9 10 143 7 8 145 9 10 145 9 10 145 9 10 146 11 12 143 7 8 145 9 10 145 9 10 143 7 8 143 7 8 143 7 8 145 9 10 145 9 10 143 7 8 145 9 10 143 7 8 143 7 8 143 7 8 145 9 10 146 11 12 146 11 12 146 11 12 145 9 10 145 9 10 145 9 10 145 9 10 143 7 8 143 7 8 143 7 8 143 7 8 143 7 8 143 7 8 143 7 8 139 0 0 139 0 0 139 0 0 139 0 0 143 7 8 143 7 8 139 0 0 139 0 0 139 0 0 139 0 0 139 0 0 139 0 0 139 0 0 139 0 0 139 0 0 143 7 8 139 0 0 143 7 8 139 0 0 139 0 0 139 0 0 139 0 0 139 0 0 139 0 0 139 0 0 139 0 0 139 0 0 139 0 0 139 0 0 139 0 0 139 0 0 139 0 0 139 0 0 139 0 0 139 0 0 139 0 0 139 0 0 139 0 0 139 0 0 139 0 0 139 0 0 139 0 0 139 0 0 139 0 0 139 0 0 139 0 0 139 0 0 139 0 0 139 0 0 139 0 0 143 7 8 139 0 0 139 0 0 139 0 0 139 0 0 139 0 0 
139 0 0 139 0 0 139 0 0 139 0 0 139 0 0 139 0 0 139 0 0 139 0 0 139 0 0 139 0 0 139 0 0 139 0 0 139 0 0 139 0 0 139 0 0 139 0 0 139 0 0 139 0 0 139 0 0 139 0 0 143 7 8 143 7 8 139 0 0 139 0 0 139 0 0 143 7 8 139 0 0 139 0 0 139 0 0 139 0 0 139 0 0 139 0 0 139 0 0 143 7 8 139 0 0 139 0 0 139 0 0 143 7 8 139 0 0 143 7 8 143 7 8 143 7 8 139 0 0 139 0 0 139 0 0 139 0 0 139 0 0 139 0 0 139 0 0 139 0 0 139 0 0 139 0 0 139 0 0 139 0 0 139 0 0 139 0 0 139 0 0 139 0 0 139 0 0 139 0 0 139 0 0 139 0 0 139 0 0 139 0 0 139 0 0 139 0 0 139 0 0 139 0 0 139 0 0 139 0 0 139 0 0 139 0 0 139 0 0 139 0 0 139 0 0 139 0 0 139 0 0 139 0 0 139 0 0 139 0 0 139 0 0 139 0 0 139 0 0 139 0 0 139 0 0 139 0 0 139 0 0 139 0 0 139 0 0 139 0 0 139 0 0 139 0 0 139 0 0 139 0 0 139 0 0 139 0 0 139 0 0 139 0 0 139 0 0 139 0 0 139 0 0 139 0 0 139 0 0 180 65 69 229 141 149 230 143 151 225 135 143 220 127 135 216 121 129 206 106 112 194 87 92 194 87 92 190 81 86 190 81 86 192 83 88 190 81 86 190 81 86 189 79 84 188 77 82 184 71 75 184 71 75 183 69 73 169 48 51 157 29 30 158 30 32 153 23 24 150 17 18 146 11 12 145 9 10 145 9 10 143 7 8 143 7 8 145 9 10 145 9 10 145 9 10 145 9 10 146 11 12 146 11 12 145 9 10 145 9 10 145 9 10 145 9 10 145 9 10 145 9 10 145 9 10 143 7 8 143 7 8 143 7 8 143 7 8 143 7 8 143 7 8 145 9 10 145 9 10 145 9 10 145 9 10 145 9 10 145 9 10 145 9 10 145 9 10 143 7 8 143 7 8 143 7 8 143 7 8 143 7 8 143 7 8 143 7 8 143 7 8 143 7 8 143 7 8 139 0 0 139 0 0 139 0 0 139 0 0 143 7 8 139 0 0 139 0 0 139 0 0 139 0 0 139 0 0 139 0 0 139 0 0 139 0 0 139 0 0 139 0 0 139 0 0 139 0 0 139 0 0 139 0 0 139 0 0 139 0 0 139 0 0 139 0 0 139 0 0 139 0 0 139 0 0 139 0 0 139 0 0 139 0 0 139 0 0 139 0 0 139 0 0 139 0 0 139 0 0 139 0 0 139 0 0 139 0 0 139 0 0 139 0 0 139 0 0 139 0 0 139 0 0 139 0 0 139 0 0 139 0 0 143 7 8 139 0 0 139 0 0 139 0 0 139 0 0 139 0 0 
139 0 0 139 0 0 139 0 0 139 0 0 139 0 0 139 0 0 139 0 0 139 0 0 139 0 0 139 0 0 139 0 0 139 0 0 139 0 0 139 0 0 139 0 0 139 0 0 139 0 0 139 0 0 139 0 0 139 0 0 143 7 8 143 7 8 139 0 0 139 0 0 139 0 0 143 7 8 139 0 0 139 0 0 139 0 0 139 0 0 139 0 0 139 0 0 139 0 0 143 7 8 139 0 0 139 0 0 139 0 0 143 7 8 139 0 0 143 7 8 143 7 8 143 7 8 139 0 0 139 0 0 139 0 0 139 0 0 139 0 0 139 0 0 139 0 0 139 0 0 139 0 0 139 0 0 139 0 0 139 0 0 139 0 0 139 0 0 139 0 0 139 0 0 139 0 0 139 0 0 139 0 0 139 0 0 139 0 0 139 0 0 139 0 0 139 0 0 139 0 0 139 0 0 139 0 0 139 0 0 139 0 0 139 0 0 139 0 0 139 0 0 139 0 0 139 0 0 139 0 0 139 0 0 139 0 0 139 0 0 139 0 0 139 0 0 139 0 0 139 0 0 139 0 0 139 0 0 139 0 0 139 0 0 139 0 0 139 0 0 139 0 0 139 0 0 139 0 0 139 0 0 139 0 0 139 0 0 139 0 0 139 0 0 139 0 0 139 0 0 139 0 0 139 0 0 139 0 0 180 65 69 229 141 149 230 143 151 225 135 143 220 127 135 216 121 129 206 106 112 194 87 92 194 87 92 190 81 86 190 81 86 192 83 88 190 81 86 190 81 86 189 79 84 188 77 82 184 71 75 184 71 75 183 69 73 169 48 51 157 29 30 158 30 32 153 23 24 150 17 18 146 11 12 145 9 10 145 9 10 143 7 8 143 7 8 145 9 10 145 9 10 145 9 10 145 9 10 146 11 12 146 11 12 145 9 10 145 9 10 145 9 10 145 9 10 145 9 10 145 9 10 145 9 10 143 7 8 143 7 8 143 7 8 143 7 8 143 7 8 143 7 8 145 9 10 145 9 10 145 9 10 145 9 10 145 9 10 145 9 10 145 9 10 145 9 10 143 7 8 143 7 8 143 7 8 143 7 8 143 7 8 143 7 8 143 7 8 143 7 8 143 7 8 143 7 8 139 0 0 139 0 0 139 0 0 139 0 0 143 7 8 139 0 0 139 0 0 139 0 0 139 0 0 139 0 0 139 0 0 139 0 0 139 0 0 139 0 0 139 0 0 139 0 0 139 0 0 139 0 0 139 0 0 139 0 0 139 0 0 139 0 0 139 0 0 139 0 0 139 0 0 139 0 0 139 0 0 139 0 0 139 0 0 139 0 0 139 0 0 139 0 0 139 0 0 139 0 0 139 0 0 139 0 0 139 0 0 139 0 0 139 0 0 139 0 0 139 0 0 139 0 0 139 0 0 139 0 0 139 0 0 143 7 8 139 0 0 139 0 0 139 0 0 139 0 0 139 0 0 
139 0 0 139 0 0 139 0 0 139 0 0 139 0 0 139 0 0 139 0 0 139 0 0 139 0 0 139 0 0 139 0 0 139 0 0 139 0 0 139 0 0 143 7 8 139 0 0 139 0 0 139 0 0 139 0 0 139 0 0 139 0 0 139 0 0 139 0 0 139 0 0 139 0 0 139 0 0 139 0 0 139 0 0 139 0 0 139 0 0 139 0 0 143 7 8 143 7 8 139 0 0 139 0 0 139 0 0 139 0 0 139 0 0 139 0 0 139 0 0 139 0 0 139 0 0 139 0 0 139 0 0 143 7 8 139 0 0 143 7 8 139 0 0 139 0 0 143 7 8 139 0 0 139 0 0 139 0 0 139 0 0 139 0 0 139 0 0 139 0 0 139 0 0 139 0 0 139 0 0 139 0 0 143 7 8 139 0 0 139 0 0 139 0 0 139 0 0 139 0 0 139 0 0 143 7 8 139 0 0 139 0 0 139 0 0 139 0 0 139 0 0 139 0 0 139 0 0 139 0 0 139 0 0 139 0 0 139 0 0 139 0 0 139 0 0 139 0 0 139 0 0 143 7 8 139 0 0 139 0 0 139 0 0 139 0 0 139 0 0 139 0 0 139 0 0 139 0 0 139 0 0 139 0 0 139 0 0 139 0 0 139 0 0 139 0 0 139 0 0 139 0 0 139 0 0 143 7 8 185 73 78 235 151 160 230 143 151 227 139 147 209 110 117 180 65 69 159 32 34 153 23 24 150 17 18 146 11 12 151 19 20 153 23 24 158 30 32 168 46 49 168 46 49 157 29 30 155 25 26 153 23 24 150 17 18 147 13 14 147 13 14 147 13 14 147 13 14 147 13 14 146 11 12 145 9 10 145 9 10 145 9 10 145 9 10 145 9 10 145 9 10 145 9 10 145 9 10 145 9 10 145 9 10 146 11 12 145 9 10 143 7 8 143 7 8 145 9 10 145 9 10 145 9 10 143 7 8 145 9 10 143 7 8 143 7 8 143 7 8 143 7 8 143 7 8 143 7 8 143 7 8 143 7 8 143 7 8 143 7 8 143 7 8 143 7 8 143 7 8 143 7 8 139 0 0 143 7 8 143 7 8 143 7 8 143 7 8 139 0 0 139 0 0 139 0 0 139 0 0 139 0 0 139 0 0 139 0 0 139 0 0 143 7 8 139 0 0 143 7 8 139 0 0 139 0 0 139 0 0 139 0 0 139 0 0 139 0 0 139 0 0 143 7 8 143 7 8 143 7 8 139 0 0 139 0 0 139 0 0 139 0 0 139 0 0 139 0 0 139 0 0 139 0 0 139 0 0 139 0 0 139 0 0 139 0 0 139 0 0 139 0 0 139 0 0 139 0 0 139 0 0 139 0 0 139 0 0 139 0 0 139 0 0 143 7 8 139 0 0 143 7 8 139 0 0 139 0 0 139 0 0 139 0 0 139 0 0 139 0 0 139 0 0 139 0 0 139 0 0 
139 0 0 139 0 0 139 0 0 139 0 0 139 0 0 139 0 0 139 0 0 139 0 0 139 0 0 139 0 0 139 0 0 139 0 0 139 0 0 139 0 0 143 7 8 139 0 0 139 0 0 139 0 0 139 0 0 139 0 0 139 0 0 139 0 0 139 0 0 139 0 0 139 0 0 139 0 0 139 0 0 139 0 0 139 0 0 139 0 0 139 0 0 143 7 8 143 7 8 139 0 0 139 0 0 139 0 0 139 0 0 139 0 0 139 0 0 139 0 0 139 0 0 139 0 0 139 0 0 139 0 0 143 7 8 139 0 0 143 7 8 139 0 0 139 0 0 143 7 8 139 0 0 139 0 0 139 0 0 139 0 0 139 0 0 139 0 0 139 0 0 139 0 0 139 0 0 139 0 0 139 0 0 143 7 8 139 0 0 139 0 0 139 0 0 139 0 0 139 0 0 139 0 0 143 7 8 139 0 0 139 0 0 139 0 0 139 0 0 139 0 0 139 0 0 139 0 0 139 0 0 139 0 0 139 0 0 139 0 0 139 0 0 139 0 0 139 0 0 139 0 0 143 7 8 139 0 0 139 0 0 139 0 0 139 0 0 139 0 0 139 0 0 139 0 0 139 0 0 139 0 0 139 0 0 139 0 0 139 0 0 139 0 0 139 0 0 139 0 0 139 0 0 139 0 0 143 7 8 185 73 78 235 151 160 230 143 151 227 139 147 209 110 117 180 65 69 159 32 34 153 23 24 150 17 18 146 11 12 151 19 20 153 23 24 158 30 32 168 46 49 168 46 49 157 29 30 155 25 26 153 23 24 150 17 18 147 13 14 147 13 14 147 13 14 147 13 14 147 13 14 146 11 12 145 9 10 145 9 10 145 9 10 145 9 10 145 9 10 145 9 10 145 9 10 145 9 10 145 9 10 145 9 10 146 11 12 145 9 10 143 7 8 143 7 8 145 9 10 145 9 10 145 9 10 143 7 8 145 9 10 143 7 8 143 7 8 143 7 8 143 7 8 143 7 8 143 7 8 143 7 8 143 7 8 143 7 8 143 7 8 143 7 8 143 7 8 143 7 8 143 7 8 139 0 0 143 7 8 143 7 8 143 7 8 143 7 8 139 0 0 139 0 0 139 0 0 139 0 0 139 0 0 139 0 0 139 0 0 139 0 0 143 7 8 139 0 0 143 7 8 139 0 0 139 0 0 139 0 0 139 0 0 139 0 0 139 0 0 139 0 0 143 7 8 143 7 8 143 7 8 139 0 0 139 0 0 139 0 0 139 0 0 139 0 0 139 0 0 139 0 0 139 0 0 139 0 0 139 0 0 139 0 0 139 0 0 139 0 0 139 0 0 139 0 0 139 0 0 139 0 0 139 0 0 139 0 0 139 0 0 139 0 0 143 7 8 139 0 0 143 7 8 139 0 0 139 0 0 139 0 0 139 0 0 139 0 0 139 0 0 139 0 0 139 0 0 139 0 0 
139 0 0 139 0 0 139 0 0 139 0 0 139 0 0 139 0 0 139 0 0 143 7 8 139 0 0 139 0 0 139 0 0 139 0 0 139 0 0 139 0 0 143 7 8 139 0 0 139 0 0 139 0 0 139 0 0 139 0 0 139 0 0 139 0 0 139 0 0 139 0 0 139 0 0 139 0 0 143 7 8 139 0 0 139 0 0 139 0 0 139 0 0 139 0 0 139 0 0 139 0 0 139 0 0 139 0 0 143 7 8 139 0 0 139 0 0 139 0 0 139 0 0 139 0 0 139 0 0 139 0 0 139 0 0 139 0 0 139 0 0 143 7 8 139 0 0 139 0 0 139 0 0 139 0 0 139 0 0 143 7 8 139 0 0 143 7 8 139 0 0 139 0 0 139 0 0 139 0 0 139 0 0 143 7 8 139 0 0 139 0 0 139 0 0 139 0 0 139 0 0 139 0 0 139 0 0 139 0 0 139 0 0 139 0 0 139 0 0 139 0 0 139 0 0 139 0 0 143 7 8 143 7 8 139 0 0 139 0 0 139 0 0 139 0 0 139 0 0 139 0 0 139 0 0 139 0 0 139 0 0 139 0 0 139 0 0 139 0 0 139 0 0 139 0 0 139 0 0 139 0 0 139 0 0 139 0 0 139 0 0 139 0 0 139 0 0 139 0 0 143 7 8 139 0 0 169 48 51 224 133 141 234 149 158 227 139 147 198 92 98 157 29 30 158 30 32 158 30 32 153 23 24 147 13 14 146 11 12 145 9 10 146 11 12 157 29 30 169 48 51 158 30 32 150 17 18 146 11 12 145 9 10 146 11 12 146 11 12 146 11 12 147 13 14 151 19 20 150 17 18 147 13 14 146 11 12 145 9 10 145 9 10 145 9 10 145 9 10 143 7 8 145 9 10 145 9 10 145 9 10 145 9 10 145 9 10 145 9 10 145 9 10 143 7 8 145 9 10 143 7 8 143 7 8 143 7 8 143 7 8 143 7 8 143 7 8 143 7 8 143 7 8 143 7 8 143 7 8 143 7 8 143 7 8 143 7 8 143 7 8 143 7 8 143 7 8 143 7 8 143 7 8 143 7 8 143 7 8 143 7 8 139 0 0 143 7 8 139 0 0 139 0 0 139 0 0 139 0 0 143 7 8 143 7 8 139 0 0 139 0 0 139 0 0 139 0 0 139 0 0 139 0 0 139 0 0 139 0 0 139 0 0 139 0 0 139 0 0 143 7 8 139 0 0 139 0 0 139 0 0 139 0 0 139 0 0 139 0 0 139 0 0 139 0 0 139 0 0 139 0 0 139 0 0 139 0 0 139 0 0 139 0 0 139 0 0 139 0 0 139 0 0 139 0 0 139 0 0 139 0 0 139 0 0 139 0 0 139 0 0 139 0 0 139 0 0 139 0 0 139 0 0 139 0 0 139 0 0 139 0 0 139 0 0 139 0 0 139 0 0 139 0 0 139 0 0 139 0 0 
139 0 0 139 0 0 139 0 0 139 0 0 139 0 0 139 0 0 139 0 0 143 7 8 139 0 0 139 0 0 139 0 0 139 0 0 139 0 0 139 0 0 143 7 8 139 0 0 139 0 0 139 0 0 139 0 0 139 0 0 139 0 0 139 0 0 139 0 0 139 0 0 139 0 0 139 0 0 143 7 8 139 0 0 139 0 0 139 0 0 139 0 0 139 0 0 139 0 0 139 0 0 139 0 0 139 0 0 143 7 8 139 0 0 139 0 0 139 0 0 139 0 0 139 0 0 139 0 0 139 0 0 139 0 0 139 0 0 139 0 0 143 7 8 139 0 0 139 0 0 139 0 0 139 0 0 139 0 0 143 7 8 139 0 0 143 7 8 139 0 0 139 0 0 139 0 0 139 0 0 139 0 0 143 7 8 139 0 0 139 0 0 139 0 0 139 0 0 139 0 0 139 0 0 139 0 0 139 0 0 139 0 0 139 0 0 139 0 0 139 0 0 139 0 0 139 0 0 143 7 8 143 7 8 139 0 0 139 0 0 139 0 0 139 0 0 139 0 0 139 0 0 139 0 0 139 0 0 139 0 0 139 0 0 139 0 0 139 0 0 139 0 0 139 0 0 139 0 0 139 0 0 139 0 0 139 0 0 139 0 0 139 0 0 139 0 0 139 0 0 143 7 8 139 0 0 169 48 51 224 133 141 234 149 158 227 139 147 198 92 98 157 29 30 158 30 32 158 30 32 153 23 24 147 13 14 146 11 12 145 9 10 146 11 12 157 29 30 169 48 51 158 30 32 150 17 18 146 11 12 145 9 10 146 11 12 146 11 12 146 11 12 147 13 14 151 19 20 150 17 18 147 13 14 146 11 12 145 9 10 145 9 10 145 9 10 145 9 10 143 7 8 145 9 10 145 9 10 145 9 10 145 9 10 145 9 10 145 9 10 145 9 10 143 7 8 145 9 10 143 7 8 143 7 8 143 7 8 143 7 8 143 7 8 143 7 8 143 7 8 143 7 8 143 7 8 143 7 8 143 7 8 143 7 8 143 7 8 143 7 8 143 7 8 143 7 8 143 7 8 143 7 8 143 7 8 143 7 8 143 7 8 139 0 0 143 7 8 139 0 0 139 0 0 139 0 0 139 0 0 143 7 8 143 7 8 139 0 0 139 0 0 139 0 0 139 0 0 139 0 0 139 0 0 139 0 0 139 0 0 139 0 0 139 0 0 139 0 0 143 7 8 139 0 0 139 0 0 139 0 0 139 0 0 139 0 0 139 0 0 139 0 0 139 0 0 139 0 0 139 0 0 139 0 0 139 0 0 139 0 0 139 0 0 139 0 0 139 0 0 139 0 0 139 0 0 139 0 0 139 0 0 139 0 0 139 0 0 139 0 0 139 0 0 139 0 0 139 0 0 139 0 0 139 0 0 139 0 0 139 0 0 139 0 0 139 0 0 139 0 0 139 0 0 139 0 0 139 0 0 
143 7 8 139 0 0 139 0 0 139 0 0 139 0 0 139 0 0 139 0 0 139 0 0 139 0 0 139 0 0 139 0 0 139 0 0 143 7 8 139 0 0 139 0 0 143 7 8 139 0 0 139 0 0 139 0 0 139 0 0 139 0 0 143 7 8 143 7 8 139 0 0 139 0 0 139 0 0 139 0 0 139 0 0 139 0 0 139 0 0 143 7 8 143 7 8 139 0 0 139 0 0 139 0 0 139 0 0 143 7 8 139 0 0 139 0 0 143 7 8 139 0 0 139 0 0 139 0 0 139 0 0 139 0 0 143 7 8 139 0 0 143 7 8 139 0 0 139 0 0 139 0 0 139 0 0 143 7 8 143 7 8 143 7 8 139 0 0 139 0 0 139 0 0 143 7 8 139 0 0 139 0 0 143 7 8 143 7 8 139 0 0 139 0 0 139 0 0 139 0 0 139 0 0 139 0 0 143 7 8 139 0 0 139 0 0 139 0 0 139 0 0 139 0 0 139 0 0 139 0 0 139 0 0 143 7 8 139 0 0 139 0 0 139 0 0 139 0 0 139 0 0 139 0 0 139 0 0 139 0 0 139 0 0 139 0 0 139 0 0 139 0 0 139 0 0 139 0 0 139 0 0 139 0 0 139 0 0 139 0 0 139 0 0 143 7 8 143 7 8 139 0 0 155 25 26 211 114 121 235 151 160 229 141 149 211 114 121 174 56 59 168 46 49 174 56 59 168 46 49 151 19 20 146 11 12 145 9 10 150 17 18 158 30 32 159 32 34 158 30 32 153 23 24 150 17 18 147 13 14 147 13 14 147 13 14 146 11 12 146 11 12 147 13 14 145 9 10 146 11 12 145 9 10 145 9 10 146 11 12 145 9 10 145 9 10 145 9 10 145 9 10 145 9 10 145 9 10 146 11 12 145 9 10 145 9 10 145 9 10 146 11 12 145 9 10 145 9 10 143 7 8 143 7 8 143 7 8 145 9 10 143 7 8 143 7 8 143 7 8 143 7 8 143 7 8 139 0 0 143 7 8 143 7 8 143 7 8 143 7 8 143 7 8 143 7 8 139 0 0 143 7 8 143 7 8 139 0 0 139 0 0 143 7 8 139 0 0 139 0 0 139 0 0 139 0 0 139 0 0 139 0 0 139 0 0 139 0 0 143 7 8 143 7 8 139 0 0 139 0 0 139 0 0 139 0 0 139 0 0 139 0 0 139 0 0 139 0 0 139 0 0 139 0 0 139 0 0 143 7 8 139 0 0 143 7 8 139 0 0 139 0 0 139 0 0 139 0 0 139 0 0 143 7 8 143 7 8 139 0 0 139 0 0 139 0 0 139 0 0 139 0 0 139 0 0 139 0 0 139 0 0 143 7 8 139 0 0 139 0 0 139 0 0 139 0 0 143 7 8 139 0 0 143 7 8 139 0 0 143 7 8 139 0 0 139 0 0 139 0 0 143 7 8 139 0 0 139 0 0 
143 7 8 139 0 0 139 0 0 139 0 0 139 0 0 139 0 0 139 0 0 139 0 0 139 0 0 139 0 0 139 0 0 139 0 0 143 7 8 139 0 0 139 0 0 143 7 8 139 0 0 139 0 0 139 0 0 139 0 0 139 0 0 143 7 8 143 7 8 139 0 0 139 0 0 139 0 0 139 0 0 139 0 0 139 0 0 139 0 0 143 7 8 143 7 8 139 0 0 139 0 0 139 0 0 139 0 0 143 7 8 139 0 0 139 0 0 143 7 8 139 0 0 139 0 0 139 0 0 139 0 0 139 0 0 143 7 8 139 0 0 143 7 8 139 0 0 139 0 0 139 0 0 139 0 0 143 7 8 143 7 8 143 7 8 139 0 0 139 0 0 139 0 0 143 7 8 139 0 0 139 0 0 143 7 8 143 7 8 139 0 0 139 0 0 139 0 0 139 0 0 139 0 0 139 0 0 143 7 8 139 0 0 139 0 0 139 0 0 139 0 0 139 0 0 139 0 0 139 0 0 139 0 0 143 7 8 139 0 0 139 0 0 139 0 0 139 0 0 139 0 0 139 0 0 139 0 0 139 0 0 139 0 0 139 0 0 139 0 0 139 0 0 139 0 0 139 0 0 139 0 0 139 0 0 139 0 0 139 0 0 139 0 0 143 7 8 143 7 8 139 0 0 155 25 26 211 114 121 235 151 160 229 141 149 211 114 121 174 56 59 168 46 49 174 56 59 168 46 49 151 19 20 146 11 12 145 9 10 150 17 18 158 30 32 159 32 34 158 30 32 153 23 24 150 17 18 147 13 14 147 13 14 147 13 14 146 11 12 146 11 12 147 13 14 145 9 10 146 11 12 145 9 10 145 9 10 146 11 12 145 9 10 145 9 10 145 9 10 145 9 10 145 9 10 145 9 10 146 11 12 145 9 10 145 9 10 145 9 10 146 11 12 145 9 10 145 9 10 143 7 8 143 7 8 143 7 8 145 9 10 143 7 8 143 7 8 143 7 8 143 7 8 143 7 8 139 0 0 143 7 8 143 7 8 143 7 8 143 7 8 143 7 8 143 7 8 139 0 0 143 7 8 143 7 8 139 0 0 139 0 0 143 7 8 139 0 0 139 0 0 139 0 0 139 0 0 139 0 0 139 0 0 139 0 0 139 0 0 143 7 8 143 7 8 139 0 0 139 0 0 139 0 0 139 0 0 139 0 0 139 0 0 139 0 0 139 0 0 139 0 0 139 0 0 139 0 0 143 7 8 139 0 0 143 7 8 139 0 0 139 0 0 139 0 0 139 0 0 139 0 0 143 7 8 143 7 8 139 0 0 139 0 0 139 0 0 139 0 0 139 0 0 139 0 0 139 0 0 139 0 0 143 7 8 139 0 0 139 0 0 139 0 0 139 0 0 143 7 8 139 0 0 143 7 8 139 0 0 143 7 8 139 0 0 139 0 0 139 0 0 143 7 8 139 0 0 139 0 0 
139 0 0 139 0 0 139 0 0 139 0 0 139 0 0 139 0 0 139 0 0 139 0 0 139 0 0 139 0 0 139 0 0 139 0 0 139 0 0 139 0 0 139 0 0 139 0 0 139 0 0 139 0 0 143 7 8 139 0 0 139 0 0 139 0 0 139 0 0 143 7 8 143 7 8 139 0 0 139 0 0 139 0 0 143 7 8 139 0 0 139 0 0 139 0 0 139 0 0 139 0 0 139 0 0 143 7 8 143 7 8 139 0 0 139 0 0 143 7 8 139 0 0 139 0 0 139 0 0 139 0 0 143 7 8 139 0 0 139 0 0 139 0 0 139 0 0 143 7 8 139 0 0 139 0 0 139 0 0 143 7 8 143 7 8 139 0 0 139 0 0 143 7 8 143 7 8 139 0 0 143 7 8 143 7 8 139 0 0 139 0 0 139 0 0 139 0 0 139 0 0 139 0 0 139 0 0 139 0 0 139 0 0 139 0 0 143 7 8 139 0 0 139 0 0 139 0 0 139 0 0 139 0 0 139 0 0 139 0 0 139 0 0 139 0 0 139 0 0 139 0 0 139 0 0 139 0 0 139 0 0 139 0 0 143 7 8 143 7 8 139 0 0 143 7 8 139 0 0 143 7 8 139 0 0 139 0 0 139 0 0 139 0 0 143 7 8 143 7 8 179 63 67 235 151 160 237 154 164 232 147 156 217 123 131 185 73 78 169 48 51 168 46 49 155 25 26 147 13 14 145 9 10 146 11 12 145 9 10 151 19 20 169 48 51 172 52 55 158 30 32 153 23 24 151 19 20 151 19 20 147 13 14 146 11 12 146 11 12 146 11 12 146 11 12 146 11 12 146 11 12 147 13 14 145 9 10 145 9 10 145 9 10 145 9 10 145 9 10 145 9 10 145 9 10 145 9 10 145 9 10 145 9 10 145 9 10 145 9 10 145 9 10 145 9 10 145 9 10 145 9 10 145 9 10 143 7 8 145 9 10 143 7 8 143 7 8 143 7 8 143 7 8 143 7 8 143 7 8 143 7 8 143 7 8 143 7 8 139 0 0 139 0 0 143 7 8 143 7 8 143 7 8 143 7 8 139 0 0 139 0 0 143 7 8 139 0 0 143 7 8 139 0 0 139 0 0 139 0 0 139 0 0 139 0 0 143 7 8 139 0 0 139 0 0 139 0 0 139 0 0 139 0 0 139 0 0 139 0 0 139 0 0 139 0 0 139 0 0 143 7 8 139 0 0 139 0 0 139 0 0 139 0 0 139 0 0 139 0 0 139 0 0 139 0 0 139 0 0 139 0 0 139 0 0 139 0 0 139 0 0 139 0 0 139 0 0 139 0 0 139 0 0 139 0 0 139 0 0 139 0 0 139 0 0 139 0 0 139 0 0 139 0 0 139 0 0 139 0 0 139 0 0 139 0 0 139 0 0 139 0 0 139 0 0 139 0 0 139 0 0 139 0 0 139 0 0 139 0 0 
139 0 0 139 0 0 139 0 0 139 0 0 139 0 0 139 0 0 139 0 0 139 0 0 139 0 0 139 0 0 139 0 0 139 0 0 139 0 0 139 0 0 139 0 0 139 0 0 139 0 0 139 0 0 143 7 8 139 0 0 139 0 0 139 0 0 139 0 0 143 7 8 143 7 8 139 0 0 139 0 0 139 0 0 143 7 8 139 0 0 139 0 0 139 0 0 139 0 0 139 0 0 139 0 0 143 7 8 143 7 8 139 0 0 139 0 0 143 7 8 139 0 0 139 0 0 139 0 0 139 0 0 143 7 8 139 0 0 139 0 0 139 0 0 139 0 0 143 7 8 139 0 0 139 0 0 139 0 0 143 7 8 143 7 8 139 0 0 139 0 0 143 7 8 143 7 8 139 0 0 143 7 8 143 7 8 139 0 0 139 0 0 139 0 0 139 0 0 139 0 0 139 0 0 139 0 0 139 0 0 139 0 0 139 0 0 143 7 8 139 0 0 139 0 0 139 0 0 139 0 0 139 0 0 139 0 0 139 0 0 139 0 0 139 0 0 139 0 0 139 0 0 139 0 0 139 0 0 139 0 0 139 0 0 143 7 8 143 7 8 139 0 0 143 7 8 139 0 0 143 7 8 139 0 0 139 0 0 139 0 0 139 0 0 143 7 8 143 7 8 179 63 67 235 151 160 237 154 164 232 147 156 217 123 131 185 73 78 169 48 51 168 46 49 155 25 26 147 13 14 145 9 10 146 11 12 145 9 10 151 19 20 169 48 51 172 52 55 158 30 32 153 23 24 151 19 20 151 19 20 147 13 14 146 11 12 146 11 12 146 11 12 146 11 12 146 11 12 146 11 12 147 13 14 145 9 10 145 9 10 145 9 10 145 9 10 145 9 10 145 9 10 145 9 10 145 9 10 145 9 10 145 9 10 145 9 10 145 9 10 145 9 10 145 9 10 145 9 10 145 9 10 145 9 10 143 7 8 145 9 10 143 7 8 143 7 8 143 7 8 143 7 8 143 7 8 143 7 8 143 7 8 143 7 8 143 7 8 139 0 0 139 0 0 143 7 8 143 7 8 143 7 8 143 7 8 139 0 0 139 0 0 143 7 8 139 0 0 143 7 8 139 0 0 139 0 0 139 0 0 139 0 0 139 0 0 143 7 8 139 0 0 139 0 0 139 0 0 139 0 0 139 0 0 139 0 0 139 0 0 139 0 0 139 0 0 139 0 0 143 7 8 139 0 0 139 0 0 139 0 0 139 0 0 139 0 0 139 0 0 139 0 0 139 0 0 139 0 0 139 0 0 139 0 0 139 0 0 139 0 0 139 0 0 139 0 0 139 0 0 139 0 0 139 0 0 139 0 0 139 0 0 139 0 0 139 0 0 139 0 0 139 0 0 139 0 0 139 0 0 139 0 0 139 0 0 139 0 0 139 0 0 139 0 0 139 0 0 139 0 0 139 0 0 139 0 0 139 0 0 
139 0 0 139 0 0 139 0 0 139 0 0 139 0 0 139 0 0 139 0 0 139 0 0 139 0 0 139 0 0 139 0 0 139 0 0 143 7 8 139 0 0 139 0 0 139 0 0 139 0 0 139 0 0 139 0 0 139 0 0 139 0 0 139 0 0 143 7 8 139 0 0 139 0 0 139 0 0 139 0 0 139 0 0 139 0 0 143 7 8 139 0 0 139 0 0 139 0 0 139 0 0 139 0 0 143 7 8 139 0 0 143 7 8 139 0 0 139 0 0 139 0 0 143 7 8 139 0 0 139 0 0 139 0 0 139 0 0 139 0 0 139 0 0 139 0 0 139 0 0 139 0 0 139 0 0 139 0 0 139 0 0 139 0 0 143 7 8 139 0 0 139 0 0 139 0 0 139 0 0 143 7 8 143 7 8 139 0 0 139 0 0 139 0 0 139 0 0 139 0 0 139 0 0 139 0 0 139 0 0 139 0 0 139 0 0 139 0 0 139 0 0 139 0 0 139 0 0 139 0 0 139 0 0 139 0 0 139 0 0 139 0 0 139 0 0 139 0 0 139 0 0 139 0 0 139 0 0 143 7 8 139 0 0 139 0 0 143 7 8 139 0 0 139 0 0 143 7 8 139 0 0 139 0 0 139 0 0 139 0 0 139 0 0 151 19 20 205 104 110 241 160 170 241 160 170 237 154 164 219 125 133 169 48 51 168 46 49 172 52 55 157 29 30 153 23 24 147 13 14 145 9 10 145 9 10 155 25 26 159 32 34 168 46 49 174 56 59 172 52 55 158 30 32 153 23 24 151 19 20 147 13 14 146 11 12 145 9 10 146 11 12 147 13 14 146 11 12 145 9 10 146 11 12 146 11 12 145 9 10 143 7 8 145 9 10 145 9 10 145 9 10 145 9 10 145 9 10 145 9 10 145 9 10 145 9 10 145 9 10 145 9 10 143 7 8 145 9 10 145 9 10 143 7 8 145 9 10 145 9 10 143 7 8 143 7 8 143 7 8 143 7 8 143 7 8 143 7 8 143 7 8 143 7 8 143 7 8 143 7 8 143 7 8 139 0 0 139 0 0 139 0 0 143 7 8 139 0 0 143 7 8 139 0 0 139 0 0 143 7 8 143 7 8 139 0 0 139 0 0 139 0 0 143 7 8 139 0 0 139 0 0 139 0 0 143 7 8 139 0 0 139 0 0 139 0 0 139 0 0 143 7 8 139 0 0 139 0 0 139 0 0 139 0 0 139 0 0 139 0 0 139 0 0 139 0 0 139 0 0 139 0 0 139 0 0 139 0 0 139 0 0 139 0 0 139 0 0 139 0 0 139 0 0 139 0 0 139 0 0 139 0 0 139 0 0 139 0 0 139 0 0 139 0 0 139 0 0 143 7 8 139 0 0 139 0 0 143 7 8 139 0 0 139 0 0 139 0 0 139 0 0 139 0 0 139 0 0 139 0 0 139 0 0 139 0 0 139 0 0 
139 0 0 139 0 0 139 0 0 139 0 0 139 0 0 139 0 0 139 0 0 139 0 0 139 0 0 139 0 0 139 0 0 139 0 0 143 7 8 139 0 0 139 0 0 139 0 0 139 0 0 139 0 0 139 0 0 139 0 0 139 0 0 139 0 0 143 7 8 139 0 0 139 0 0 139 0 0 139 0 0 139 0 0 139 0 0 143 7 8 139 0 0 139 0 0 139 0 0 139 0 0 139 0 0 143 7 8 139 0 0 143 7 8 139 0 0 139 0 0 139 0 0 143 7 8 139 0 0 139 0 0 139 0 0 139 0 0 139 0 0 139 0 0 139 0 0 139 0 0 139 0 0 139 0 0 139 0 0 139 0 0 139 0 0 143 7 8 139 0 0 139 0 0 139 0 0 139 0 0 143 7 8 143 7 8 139 0 0 139 0 0 139 0 0 139 0 0 139 0 0 139 0 0 139 0 0 139 0 0 139 0 0 139 0 0 139 0 0 139 0 0 139 0 0 139 0 0 139 0 0 139 0 0 139 0 0 139 0 0 139 0 0 139 0 0 139 0 0 139 0 0 139 0 0 139 0 0 143 7 8 139 0 0 139 0 0 143 7 8 139 0 0 139 0 0 143 7 8 139 0 0 139 0 0 139 0 0 139 0 0 139 0 0 151 19 20 205 104 110 241 160 170 241 160 170 237 154 164 219 125 133 169 48 51 168 46 49 172 52 55 157 29 30 153 23 24 147 13 14 145 9 10 145 9 10 155 25 26 159 32 34 168 46 49 174 56 59 172 52 55 158 30 32 153 23 24 151 19 20 147 13 14 146 11 12 145 9 10 146 11 12 147 13 14 146 11 12 145 9 10 146 11 12 146 11 12 145 9 10 143 7 8 145 9 10 145 9 10 145 9 10 145 9 10 145 9 10 145 9 10 145 9 10 145 9 10 145 9 10 145 9 10 143 7 8 145 9 10 145 9 10 143 7 8 145 9 10 145 9 10 143 7 8 143 7 8 143 7 8 143 7 8 143 7 8 143 7 8 143 7 8 143 7 8 143 7 8 143 7 8 143 7 8 139 0 0 139 0 0 139 0 0 143 7 8 139 0 0 143 7 8 139 0 0 139 0 0 143 7 8 143 7 8 139 0 0 139 0 0 139 0 0 143 7 8 139 0 0 139 0 0 139 0 0 143 7 8 139 0 0 139 0 0 139 0 0 139 0 0 143 7 8 139 0 0 139 0 0 139 0 0 139 0 0 139 0 0 139 0 0 139 0 0 139 0 0 139 0 0 139 0 0 139 0 0 139 0 0 139 0 0 139 0 0 139 0 0 139 0 0 139 0 0 139 0 0 139 0 0 139 0 0 139 0 0 139 0 0 139 0 0 139 0 0 139 0 0 143 7 8 139 0 0 139 0 0 143 7 8 139 0 0 139 0 0 139 0 0 139 0 0 139 0 0 139 0 0 139 0 0 139 0 0 139 0 0 139 0 0 
139 0 0 139 0 0 139 0 0 139 0 0 139 0 0 139 0 0 139 0 0 139 0 0 139 0 0 139 0 0 139 0 0 139 0 0 139 0 0 139 0 0 139 0 0 139 0 0 139 0 0 139 0 0 139 0 0 139 0 0 139 0 0 139 0 0 139 0 0 139 0 0 139 0 0 139 0 0 139 0 0 139 0 0 139 0 0 143 7 8 143 7 8 139 0 0 139 0 0 139 0 0 139 0 0 139 0 0 139 0 0 139 0 0 143 7 8 139 0 0 139 0 0 139 0 0 139 0 0 139 0 0 139 0 0 139 0 0 139 0 0 139 0 0 139 0 0 139 0 0 139 0 0 139 0 0 143 7 8 143 7 8 139 0 0 139 0 0 139 0 0 139 0 0 139 0 0 139 0 0 139 0 0 139 0 0 139 0 0 139 0 0 139 0 0 139 0 0 139 0 0 139 0 0 139 0 0 143 7 8 139 0 0 139 0 0 139 0 0 139 0 0 139 0 0 143 7 8 139 0 0 139 0 0 139 0 0 139 0 0 139 0 0 139 0 0 139 0 0 139 0 0 143 7 8 139 0 0 139 0 0 139 0 0 139 0 0 139 0 0 143 7 8 139 0 0 139 0 0 139 0 0 139 0 0 139 0 0 139 0 0 139 0 0 147 13 14 194 87 92 234 149 158 235 151 160 234 149 158 213 116 123 172 52 55 158 30 32 188 77 82 188 77 82 155 25 26 145 9 10 145 9 10 150 17 18 158 30 32 159 32 34 159 32 34 172 52 55 174 56 59 168 46 49 155 25 26 150 17 18 150 17 18 147 13 14 147 13 14 150 17 18 147 13 14 147 13 14 146 11 12 146 11 12 143 7 8 145 9 10 145 9 10 143 7 8 145 9 10 145 9 10 143 7 8 145 9 10 143 7 8 145 9 10 143 7 8 143 7 8 145 9 10 145 9 10 145 9 10 146 11 12 145 9 10 143 7 8 143 7 8 143 7 8 143 7 8 143 7 8 143 7 8 143 7 8 143 7 8 143 7 8 143 7 8 143 7 8 143 7 8 143 7 8 143 7 8 139 0 0 139 0 0 143 7 8 139 0 0 139 0 0 139 0 0 139 0 0 139 0 0 139 0 0 139 0 0 139 0 0 143 7 8 143 7 8 143 7 8 139 0 0 143 7 8 139 0 0 139 0 0 139 0 0 143 7 8 139 0 0 139 0 0 139 0 0 139 0 0 139 0 0 139 0 0 139 0 0 143 7 8 139 0 0 139 0 0 139 0 0 139 0 0 139 0 0 139 0 0 139 0 0 143 7 8 139 0 0 139 0 0 143 7 8 143 7 8 139 0 0 139 0 0 139 0 0 139 0 0 139 0 0 139 0 0 139 0 0 139 0 0 139 0 0 139 0 0 139 0 0 139 0 0 139 0 0 139 0 0 139 0 0 139 0 0 139 0 0 139 0 0 143 7 8 139 0 0 139 0 0 
139 0 0 139 0 0 139 0 0 139 0 0 139 0 0 139 0 0 139 0 0 139 0 0 139 0 0 139 0 0 139 0 0 139 0 0 139 0 0 139 0 0 139 0 0 139 0 0 139 0 0 139 0 0 139 0 0 139 0 0 139 0 0 139 0 0 139 0 0 139 0 0 139 0 0 139 0 0 139 0 0 139 0 0 139 0 0 143 7 8 143 7 8 139 0 0 139 0 0 139 0 0 139 0 0 139 0 0 139 0 0 139 0 0 143 7 8 139 0 0 139 0 0 139 0 0 139 0 0 139 0 0 139 0 0 139 0 0 139 0 0 139 0 0 139 0 0 139 0 0 139 0 0 139 0 0 143 7 8 143 7 8 139 0 0 139 0 0 139 0 0 139 0 0 139 0 0 139 0 0 139 0 0 139 0 0 139 0 0 139 0 0 139 0 0 139 0 0 139 0 0 139 0 0 139 0 0 143 7 8 139 0 0 139 0 0 139 0 0 139 0 0 139 0 0 143 7 8 139 0 0 139 0 0 139 0 0 139 0 0 139 0 0 139 0 0 139 0 0 139 0 0 143 7 8 139 0 0 139 0 0 139 0 0 139 0 0 139 0 0 143 7 8 139 0 0 139 0 0 139 0 0 139 0 0 139 0 0 139 0 0 139 0 0 147 13 14 194 87 92 234 149 158 235 151 160 234 149 158 213 116 123 172 52 55 158 30 32 188 77 82 188 77 82 155 25 26 145 9 10 145 9 10 150 17 18 158 30 32 159 32 34 159 32 34 172 52 55 174 56 59 168 46 49 155 25 26 150 17 18 150 17 18 147 13 14 147 13 14 150 17 18 147 13 14 147 13 14 146 11 12 146 11 12 143 7 8 145 9 10 145 9 10 143 7 8 145 9 10 145 9 10 143 7 8 145 9 10 143 7 8 145 9 10 143 7 8 143 7 8 145 9 10 145 9 10 145 9 10 146 11 12 145 9 10 143 7 8 143 7 8 143 7 8 143 7 8 143 7 8 143 7 8 143 7 8 143 7 8 143 7 8 143 7 8 143 7 8 143 7 8 143 7 8 143 7 8 139 0 0 139 0 0 143 7 8 139 0 0 139 0 0 139 0 0 139 0 0 139 0 0 139 0 0 139 0 0 139 0 0 143 7 8 143 7 8 143 7 8 139 0 0 143 7 8 139 0 0 139 0 0 139 0 0 143 7 8 139 0 0 139 0 0 139 0 0 139 0 0 139 0 0 139 0 0 139 0 0 143 7 8 139 0 0 139 0 0 139 0 0 139 0 0 139 0 0 139 0 0 139 0 0 143 7 8 139 0 0 139 0 0 143 7 8 143 7 8 139 0 0 139 0 0 139 0 0 139 0 0 139 0 0 139 0 0 139 0 0 139 0 0 139 0 0 139 0 0 139 0 0 139 0 0 139 0 0 139 0 0 139 0 0 139 0 0 139 0 0 139 0 0 143 7 8 139 0 0 139 0 0 
139 0 0 139 0 0 139 0 0 143 7 8 139 0 0 139 0 0 139 0 0 139 0 0 139 0 0 139 0 0 139 0 0 139 0 0 139 0 0 139 0 0 139 0 0 139 0 0 139 0 0 139 0 0 139 0 0 139 0 0 139 0 0 143 7 8 139 0 0 139 0 0 139 0 0 139 0 0 139 0 0 139 0 0 139 0 0 143 7 8 139 0 0 139 0 0 139 0 0 139 0 0 139 0 0 139 0 0 143 7 8 143 7 8 139 0 0 143 7 8 139 0 0 139 0 0 139 0 0 139 0 0 143 7 8 139 0 0 139 0 0 139 0 0 139 0 0 143 7 8 139 0 0 139 0 0 143 7 8 139 0 0 139 0 0 143 7 8 139 0 0 143 7 8 139 0 0 139 0 0 139 0 0 139 0 0 139 0 0 139 0 0 139 0 0 143 7 8 139 0 0 139 0 0 143 7 8 143 7 8 143 7 8 139 0 0 139 0 0 139 0 0 139 0 0 139 0 0 139 0 0 139 0 0 139 0 0 139 0 0 139 0 0 143 7 8 139 0 0 139 0 0 139 0 0 139 0 0 139 0 0 139 0 0 143 7 8 139 0 0 139 0 0 139 0 0 139 0 0 139 0 0 139 0 0 139 0 0 139 0 0 139 0 0 143 7 8 172 52 55 230 143 151 232 147 156 230 143 151 219 125 133 185 73 78 153 23 24 157 29 30 151 19 20 147 13 14 146 11 12 146 11 12 157 29 30 168 46 49 157 29 30 158 30 32 174 56 59 172 52 55 169 48 51 157 29 30 157 29 30 157 29 30 151 19 20 147 13 14 146 11 12 146 11 12 146 11 12 146 11 12 146 11 12 145 9 10 145 9 10 145 9 10 145 9 10 145 9 10 145 9 10 145 9 10 145 9 10 145 9 10 145 9 10 145 9 10 145 9 10 145 9 10 145 9 10 145 9 10 145 9 10 143 7 8 143 7 8 143 7 8 143 7 8 143 7 8 143 7 8 143 7 8 143 7 8 143 7 8 143 7 8 143 7 8 143 7 8 143 7 8 143 7 8 143 7 8 139 0 0 143 7 8 143 7 8 139 0 0 139 0 0 139 0 0 143 7 8 139 0 0 139 0 0 139 0 0 139 0 0 139 0 0 139 0 0 139 0 0 139 0 0 139 0 0 139 0 0 139 0 0 139 0 0 139 0 0 139 0 0 143 7 8 139 0 0 139 0 0 143 7 8 139 0 0 139 0 0 139 0 0 139 0 0 139 0 0 139 0 0 139 0 0 139 0 0 139 0 0 139 0 0 139 0 0 139 0 0 139 0 0 139 0 0 139 0 0 139 0 0 139 0 0 143 7 8 139 0 0 139 0 0 139 0 0 139 0 0 139 0 0 139 0 0 139 0 0 139 0 0 139 0 0 139 0 0 139 0 0 139 0 0 139 0 0 139 0 0 139 0 0 139 0 0 139 0 0 139 0 0 
139 0 0 139 0 0 139 0 0 143 7 8 139 0 0 139 0 0 139 0 0 139 0 0 139 0 0 139 0 0 139 0 0 139 0 0 139 0 0 139 0 0 139 0 0 139 0 0 139 0 0 139 0 0 139 0 0 139 0 0 139 0 0 143 7 8 139 0 0 139 0 0 139 0 0 139 0 0 139 0 0 139 0 0 139 0 0 143 7 8 139 0 0 139 0 0 139 0 0 139 0 0 139 0 0 139 0 0 143 7 8 143 7 8 139 0 0 143 7 8 139 0 0 139 0 0 139 0 0 139 0 0 143 7 8 139 0 0 139 0 0 139 0 0 139 0 0 143 7 8 139 0 0 139 0 0 143 7 8 139 0 0 139 0 0 143 7 8 139 0 0 143 7 8 139 0 0 139 0 0 139 0 0 139 0 0 139 0 0 139 0 0 139 0 0 143 7 8 139 0 0 139 0 0 143 7 8 143 7 8 143 7 8 139 0 0 139 0 0 139 0 0 139 0 0 139 0 0 139 0 0 139 0 0 139 0 0 139 0 0 139 0 0 143 7 8 139 0 0 139 0 0 139 0 0 139 0 0 139 0 0 139 0 0 143 7 8 139 0 0 139 0 0 139 0 0 139 0 0 139 0 0 139 0 0 139 0 0 139 0 0 139 0 0 143 7 8 172 52 55 230 143 151 232 147 156 230 143 151 219 125 133 185 73 78 153 23 24 157 29 30 151 19 20 147 13 14 146 11 12 146 11 12 157 29 30 168 46 49 157 29 30 158 30 32 174 56 59 172 52 55 169 48 51 157 29 30 157 29 30 157 29 30 151 19 20 147 13 14 146 11 12 146 11 12 146 11 12 146 11 12 146 11 12 145 9 10 145 9 10 145 9 10 145 9 10 145 9 10 145 9 10 145 9 10 145 9 10 145 9 10 145 9 10 145 9 10 145 9 10 145 9 10 145 9 10 145 9 10 145 9 10 143 7 8 143 7 8 143 7 8 143 7 8 143 7 8 143 7 8 143 7 8 143 7 8 143 7 8 143 7 8 143 7 8 143 7 8 143 7 8 143 7 8 143 7 8 139 0 0 143 7 8 143 7 8 139 0 0 139 0 0 139 0 0 143 7 8 139 0 0 139 0 0 139 0 0 139 0 0 139 0 0 139 0 0 139 0 0 139 0 0 139 0 0 139 0 0 139 0 0 139 0 0 139 0 0 139 0 0 143 7 8 139 0 0 139 0 0 143 7 8 139 0 0 139 0 0 139 0 0 139 0 0 139 0 0 139 0 0 139 0 0 139 0 0 139 0 0 139 0 0 139 0 0 139 0 0 139 0 0 139 0 0 139 0 0 139 0 0 139 0 0 143 7 8 139 0 0 139 0 0 139 0 0 139 0 0 139 0 0 139 0 0 139 0 0 139 0 0 139 0 0 139 0 0 139 0 0 139 0 0 139 0 0 139 0 0 139 0 0 139 0 0 139 0 0 139 0 0 
143 7 8 139 0 0 139 0 0 139 0 0 139 0 0 139 0 0 139 0 0 139 0 0 139 0 0 139 0 0 139 0 0 139 0 0 139 0 0 143 7 8 139 0 0 139 0 0 139 0 0 139 0 0 139 0 0 139 0 0 139 0 0 139 0 0 139 0 0 139 0 0 139 0 0 139 0 0 139 0 0 139 0 0 139 0 0 139 0 0 139 0 0 139 0 0 139 0 0 139 0 0 139 0 0 139 0 0 139 0 0 139 0 0 143 7 8 139 0 0 139 0 0 139 0 0 139 0 0 139 0 0 139 0 0 139 0 0 139 0 0 139 0 0 143 7 8 139 0 0 139 0 0 139 0 0 139 0 0 139 0 0 139 0 0 143 7 8 139 0 0 139 0 0 139 0 0 139 0 0 139 0 0 139 0 0 139 0 0 139 0 0 143 7 8 139 0 0 139 0 0 139 0 0 139 0 0 139 0 0 139 0 0 139 0 0 139 0 0 139 0 0 143 7 8 139 0 0 139 0 0 139 0 0 139 0 0 139 0 0 143 7 8 139 0 0 139 0 0 139 0 0 139 0 0 139 0 0 139 0 0 139 0 0 143 7 8 139 0 0 139 0 0 139 0 0 139 0 0 139 0 0 139 0 0 139 0 0 139 0 0 139 0 0 139 0 0 158 30 32 214 118 125 219 125 133 217 123 131 205 104 110 185 73 78 150 17 18 147 13 14 153 23 24 150 17 18 145 9 10 151 19 20 159 32 34 168 46 49 155 25 26 158 30 32 172 52 55 169 48 51 158 30 32 158 30 32 153 23 24 153 23 24 155 25 26 147 13 14 146 11 12 146 11 12 146 11 12 146 11 12 146 11 12 145 9 10 143 7 8 145 9 10 145 9 10 146 11 12 146 11 12 146 11 12 146 11 12 146 11 12 146 11 12 145 9 10 143 7 8 143 7 8 145 9 10 145 9 10 145 9 10 145 9 10 145 9 10 143 7 8 143 7 8 143 7 8 143 7 8 143 7 8 143 7 8 143 7 8 143 7 8 143 7 8 143 7 8 143 7 8 143 7 8 143 7 8 143 7 8 139 0 0 143 7 8 139 0 0 139 0 0 143 7 8 139 0 0 143 7 8 143 7 8 143 7 8 139 0 0 139 0 0 139 0 0 139 0 0 139 0 0 139 0 0 139 0 0 139 0 0 143 7 8 139 0 0 139 0 0 139 0 0 139 0 0 139 0 0 143 7 8 143 7 8 139 0 0 139 0 0 139 0 0 143 7 8 139 0 0 139 0 0 139 0 0 139 0 0 139 0 0 139 0 0 139 0 0 143 7 8 139 0 0 139 0 0 139 0 0 139 0 0 139 0 0 139 0 0 139 0 0 139 0 0 139 0 0 139 0 0 139 0 0 139 0 0 139 0 0 139 0 0 139 0 0 139 0 0 139 0 0 139 0 0 139 0 0 143 7 8 139 0 0 139 0 0 139 0 0 
143 7 8 139 0 0 139 0 0 139 0 0 139 0 0 139 0 0 139 0 0 139 0 0 139 0 0 139 0 0 139 0 0 139 0 0 139 0 0 143 7 8 139 0 0 139 0 0 139 0 0 139 0 0 139 0 0 139 0 0 139 0 0 139 0 0 139 0 0 139 0 0 139 0 0 139 0 0 139 0 0 139 0 0 139 0 0 139 0 0 139 0 0 139 0 0 139 0 0 139 0 0 139 0 0 139 0 0 139 0 0 139 0 0 143 7 8 139 0 0 139 0 0 139 0 0 139 0 0 139 0 0 139 0 0 139 0 0 139 0 0 139 0 0 143 7 8 139 0 0 139 0 0 139 0 0 139 0 0 139 0 0 139 0 0 143 7 8 139 0 0 139 0 0 139 0 0 139 0 0 139 0 0 139 0 0 139 0 0 139 0 0 143 7 8 139 0 0 139 0 0 139 0 0 139 0 0 139 0 0 139 0 0 139 0 0 139 0 0 139 0 0 143 7 8 139 0 0 139 0 0 139 0 0 139 0 0 139 0 0 143 7 8 139 0 0 139 0 0 139 0 0 139 0 0 139 0 0 139 0 0 139 0 0 143 7 8 139 0 0 139 0 0 139 0 0 139 0 0 139 0 0 139 0 0 139 0 0 139 0 0 139 0 0 139 0 0 158 30 32 214 118 125 219 125 133 217 123 131 205 104 110 185 73 78 150 17 18 147 13 14 153 23 24 150 17 18 145 9 10 151 19 20 159 32 34 168 46 49 155 25 26 158 30 32 172 52 55 169 48 51 158 30 32 158 30 32 153 23 24 153 23 24 155 25 26 147 13 14 146 11 12 146 11 12 146 11 12 146 11 12 146 11 12 145 9 10 143 7 8 145 9 10 145 9 10 146 11 12 146 11 12 146 11 12 146 11 12 146 11 12 146 11 12 145 9 10 143 7 8 143 7 8 145 9 10 145 9 10 145 9 10 145 9 10 145 9 10 143 7 8 143 7 8 143 7 8 143 7 8 143 7 8 143 7 8 143 7 8 143 7 8 143 7 8 143 7 8 143 7 8 143 7 8 143 7 8 143 7 8 139 0 0 143 7 8 139 0 0 139 0 0 143 7 8 139 0 0 143 7 8 143 7 8 143 7 8 139 0 0 139 0 0 139 0 0 139 0 0 139 0 0 139 0 0 139 0 0 139 0 0 143 7 8 139 0 0 139 0 0 139 0 0 139 0 0 139 0 0 143 7 8 143 7 8 139 0 0 139 0 0 139 0 0 143 7 8 139 0 0 139 0 0 139 0 0 139 0 0 139 0 0 139 0 0 139 0 0 143 7 8 139 0 0 139 0 0 139 0 0 139 0 0 139 0 0 139 0 0 139 0 0 139 0 0 139 0 0 139 0 0 139 0 0 139 0 0 139 0 0 139 0 0 139 0 0 139 0 0 139 0 0 139 0 0 139 0 0 143 7 8 139 0 0 139 0 0 139 0 0 
139 0 0 139 0 0 139 0 0 139 0 0 139 0 0 139 0 0 139 0 0 139 0 0 139 0 0 139 0 0 139 0 0 139 0 0 139 0 0 139 0 0 139 0 0 139 0 0 139 0 0 139 0 0 143 7 8 143 7 8 139 0 0 139 0 0 139 0 0 139 0 0 139 0 0 139 0 0 139 0 0 143 7 8 139 0 0 139 0 0 139 0 0 139 0 0 139 0 0 139 0 0 139 0 0 139 0 0 139 0 0 139 0 0 139 0 0 139 0 0 139 0 0 139 0 0 139 0 0 139 0 0 139 0 0 143 7 8 143 7 8 139 0 0 139 0 0 139 0 0 139 0 0 139 0 0 139 0 0 139 0 0 139 0 0 139 0 0 139 0 0 139 0 0 139 0 0 139 0 0 139 0 0 139 0 0 139 0 0 139 0 0 143 7 8 139 0 0 139 0 0 139 0 0 139 0 0 139 0 0 139 0 0 139 0 0 139 0 0 139 0 0 139 0 0 139 0 0 139 0 0 139 0 0 139 0 0 139 0 0 139 0 0 139 0 0 139 0 0 139 0 0 139 0 0 143 7 8 139 0 0 139 0 0 139 0 0 139 0 0 139 0 0 139 0 0 139 0 0 139 0 0 139 0 0 139 0 0 143 7 8 139 0 0 139 0 0 139 0 0 143 7 8 153 23 24 185 73 78 183 69 73 159 32 34 146 11 12 147 13 14 146 11 12 145 9 10 147 13 14 157 29 30 158 30 32 157 29 30 153 23 24 150 17 18 168 46 49 183 69 73 179 63 67 158 30 32 150 17 18 147 13 14 150 17 18 147 13 14 146 11 12 147 13 14 146 11 12 145 9 10 145 9 10 145 9 10 145 9 10 145 9 10 146 11 12 145 9 10 146 11 12 147 13 14 146 11 12 145 9 10 145 9 10 145 9 10 143 7 8 143 7 8 143 7 8 145 9 10 143 7 8 143 7 8 143 7 8 143 7 8 143 7 8 143 7 8 143 7 8 143 7 8 143 7 8 143 7 8 143 7 8 143 7 8 143 7 8 143 7 8 143 7 8 139 0 0 139 0 0 139 0 0 139 0 0 139 0 0 143 7 8 139 0 0 139 0 0 139 0 0 139 0 0 139 0 0 139 0 0 139 0 0 139 0 0 139 0 0 139 0 0 139 0 0 139 0 0 139 0 0 139 0 0 139 0 0 143 7 8 139 0 0 139 0 0 143 7 8 139 0 0 139 0 0 143 7 8 139 0 0 139 0 0 143 7 8 139 0 0 139 0 0 139 0 0 139 0 0 139 0 0 139 0 0 139 0 0 139 0 0 139 0 0 139 0 0 139 0 0 139 0 0 139 0 0 143 7 8 139 0 0 139 0 0 139 0 0 139 0 0 139 0 0 139 0 0 139 0 0 139 0 0 143 7 8 139 0 0 139 0 0 139 0 0 139 0 0 139 0 0 139 0 0 139 0 0 139 0 0 
139 0 0 139 0 0 139 0 0 139 0 0 139 0 0 139 0 0 139 0 0 139 0 0 139 0 0 139 0 0 139 0 0 139 0 0 139 0 0 139 0 0 139 0 0 139 0 0 139 0 0 139 0 0 143 7 8 143 7 8 139 0 0 139 0 0 139 0 0 139 0 0 139 0 0 139 0 0 139 0 0 143 7 8 139 0 0 139 0 0 139 0 0 139 0 0 139 0 0 139 0 0 139 0 0 139 0 0 139 0 0 139 0 0 139 0 0 139 0 0 139 0 0 139 0 0 139 0 0 139 0 0 139 0 0 143 7 8 143 7 8 139 0 0 139 0 0 139 0 0 139 0 0 139 0 0 139 0 0 139 0 0 139 0 0 139 0 0 139 0 0 139 0 0 139 0 0 139 0 0 139 0 0 139 0 0 139 0 0 139 0 0 143 7 8 139 0 0 139 0 0 139 0 0 139 0 0 139 0 0 139 0 0 139 0 0 139 0 0 139 0 0 139 0 0 139 0 0 139 0 0 139 0 0 139 0 0 139 0 0 139 0 0 139 0 0 139 0 0 139 0 0 139 0 0 143 7 8 139 0 0 139 0 0 139 0 0 139 0 0 139 0 0 139 0 0 139 0 0 139 0 0 139 0 0 139 0 0 143 7 8 139 0 0 139 0 0 139 0 0 143 7 8 153 23 24 185 73 78 183 69 73 159 32 34 146 11 12 147 13 14 146 11 12 145 9 10 147 13 14 157 29 30 158 30 32 157 29 30 153 23 24 150 17 18 168 46 49 183 69 73 179 63 67 158 30 32 150 17 18 147 13 14 150 17 18 147 13 14 146 11 12 147 13 14 146 11 12 145 9 10 145 9 10 145 9 10 145 9 10 145 9 10 146 11 12 145 9 10 146 11 12 147 13 14 146 11 12 145 9 10 145 9 10 145 9 10 143 7 8 143 7 8 143 7 8 145 9 10 143 7 8 143 7 8 143 7 8 143 7 8 143 7 8 143 7 8 143 7 8 143 7 8 143 7 8 143 7 8 143 7 8 143 7 8 143 7 8 143 7 8 143 7 8 139 0 0 139 0 0 139 0 0 139 0 0 139 0 0 143 7 8 139 0 0 139 0 0 139 0 0 139 0 0 139 0 0 139 0 0 139 0 0 139 0 0 139 0 0 139 0 0 139 0 0 139 0 0 139 0 0 139 0 0 139 0 0 143 7 8 139 0 0 139 0 0 143 7 8 139 0 0 139 0 0 143 7 8 139 0 0 139 0 0 143 7 8 139 0 0 139 0 0 139 0 0 139 0 0 139 0 0 139 0 0 139 0 0 139 0 0 139 0 0 139 0 0 139 0 0 139 0 0 139 0 0 143 7 8 139 0 0 139 0 0 139 0 0 139 0 0 139 0 0 139 0 0 139 0 0 139 0 0 143 7 8 139 0 0 139 0 0 139 0 0 139 0 0 139 0 0 139 0 0 139 0 0 139 0 0 
139 0 0 139 0 0 139 0 0 139 0 0 139 0 0 139 0 0 139 0 0 139 0 0 139 0 0 139 0 0 139 0 0 139 0 0 139 0 0 139 0 0 139 0 0 139 0 0 139 0 0 139 0 0 139 0 0 143 7 8 139 0 0 139 0 0 139 0 0 139 0 0 139 0 0 139 0 0 139 0 0 139 0 0 139 0 0 139 0 0 139 0 0 143 7 8 139 0 0 143 7 8 139 0 0 143 7 8 139 0 0 139 0 0 139 0 0 139 0 0 143 7 8 143 7 8 139 0 0 139 0 0 139 0 0 143 7 8 139 0 0 139 0 0 139 0 0 139 0 0 139 0 0 139 0 0 139 0 0 143 7 8 143 7 8 143 7 8 139 0 0 143 7 8 139 0 0 139 0 0 139 0 0 143 7 8 139 0 0 143 7 8 139 0 0 139 0 0 143 7 8 139 0 0 139 0 0 139 0 0 139 0 0 139 0 0 139 0 0 139 0 0 143 7 8 139 0 0 139 0 0 139 0 0 143 7 8 139 0 0 139 0 0 143 7 8 139 0 0 139 0 0 139 0 0 139 0 0 139 0 0 139 0 0 139 0 0 139 0 0 139 0 0 139 0 0 139 0 0 139 0 0 139 0 0 139 0 0 139 0 0 139 0 0 143 7 8 139 0 0 143 7 8 151 19 20 179 63 67 168 46 49 168 46 49 158 30 32 150 17 18 145 9 10 145 9 10 151 19 20 153 23 24 153 23 24 158 30 32 157 29 30 153 23 24 168 46 49 174 56 59 159 32 34 151 19 20 150 17 18 147 13 14 150 17 18 146 11 12 145 9 10 150 17 18 150 17 18 150 17 18 151 19 20 146 11 12 145 9 10 145 9 10 147 13 14 146 11 12 146 11 12 146 11 12 145 9 10 146 11 12 145 9 10 145 9 10 143 7 8 143 7 8 143 7 8 143 7 8 143 7 8 145 9 10 143 7 8 143 7 8 143 7 8 143 7 8 143 7 8 143 7 8 143 7 8 143 7 8 143 7 8 143 7 8 143 7 8 143 7 8 143 7 8 143 7 8 143 7 8 139 0 0 139 0 0 139 0 0 143 7 8 139 0 0 139 0 0 139 0 0 139 0 0 139 0 0 139 0 0 139 0 0 139 0 0 139 0 0 139 0 0 143 7 8 139 0 0 139 0 0 139 0 0 139 0 0 139 0 0 139 0 0 139 0 0 139 0 0 139 0 0 139 0 0 139 0 0 139 0 0 139 0 0 139 0 0 139 0 0 139 0 0 143 7 8 139 0 0 139 0 0 139 0 0 143 7 8 139 0 0 139 0 0 139 0 0 139 0 0 139 0 0 143 7 8 143 7 8 139 0 0 139 0 0 143 7 8 139 0 0 139 0 0 143 7 8 139 0 0 139 0 0 139 0 0 139 0 0 139 0 0 139 0 0 139 0 0 139 0 0 143 7 8 139 0 0 139 0 0 
139 0 0 139 0 0 139 0 0 139 0 0 139 0 0 139 0 0 139 0 0 139 0 0 139 0 0 139 0 0 139 0 0 139 0 0 139 0 0 139 0 0 139 0 0 139 0 0 139 0 0 139 0 0 139 0 0 143 7 8 139 0 0 139 0 0 139 0 0 139 0 0 139 0 0 139 0 0 139 0 0 139 0 0 139 0 0 139 0 0 139 0 0 143 7 8 139 0 0 143 7 8 139 0 0 143 7 8 139 0 0 139 0 0 139 0 0 139 0 0 143 7 8 143 7 8 139 0 0 139 0 0 139 0 0 143 7 8 139 0 0 139 0 0 139 0 0 139 0 0 139 0 0 139 0 0 139 0 0 143 7 8 143 7 8 143 7 8 139 0 0 143 7 8 139 0 0 139 0 0 139 0 0 143 7 8 139 0 0 143 7 8 139 0 0 139 0 0 143 7 8 139 0 0 139 0 0 139 0 0 139 0 0 139 0 0 139 0 0 139 0 0 143 7 8 139 0 0 139 0 0 139 0 0 143 7 8 139 0 0 139 0 0 143 7 8 139 0 0 139 0 0 139 0 0 139 0 0 139 0 0 139 0 0 139 0 0 139 0 0 139 0 0 139 0 0 139 0 0 139 0 0 139 0 0 139 0 0 139 0 0 139 0 0 143 7 8 139 0 0 143 7 8 151 19 20 179 63 67 168 46 49 168 46 49 158 30 32 150 17 18 145 9 10 145 9 10 151 19 20 153 23 24 153 23 24 158 30 32 157 29 30 153 23 24 168 46 49 174 56 59 159 32 34 151 19 20 150 17 18 147 13 14 150 17 18 146 11 12 145 9 10 150 17 18 150 17 18 150 17 18 151 19 20 146 11 12 145 9 10 145 9 10 147 13 14 146 11 12 146 11 12 146 11 12 145 9 10 146 11 12 145 9 10 145 9 10 143 7 8 143 7 8 143 7 8 143 7 8 143 7 8 145 9 10 143 7 8 143 7 8 143 7 8 143 7 8 143 7 8 143 7 8 143 7 8 143 7 8 143 7 8 143 7 8 143 7 8 143 7 8 143 7 8 143 7 8 143 7 8 139 0 0 139 0 0 139 0 0 143 7 8 139 0 0 139 0 0 139 0 0 139 0 0 139 0 0 139 0 0 139 0 0 139 0 0 139 0 0 139 0 0 143 7 8 139 0 0 139 0 0 139 0 0 139 0 0 139 0 0 139 0 0 139 0 0 139 0 0 139 0 0 139 0 0 139 0 0 139 0 0 139 0 0 139 0 0 139 0 0 139 0 0 143 7 8 139 0 0 139 0 0 139 0 0 143 7 8 139 0 0 139 0 0 139 0 0 139 0 0 139 0 0 143 7 8 143 7 8 139 0 0 139 0 0 143 7 8 139 0 0 139 0 0 143 7 8 139 0 0 139 0 0 139 0 0 139 0 0 139 0 0 139 0 0 139 0 0 139 0 0 143 7 8 139 0 0 139 0 0 
139 0 0 139 0 0 139 0 0 139 0 0 139 0 0 143 7 8 139 0 0 139 0 0 139 0 0 139 0 0 143 7 8 139 0 0 139 0 0 139 0 0 139 0 0 139 0 0 139 0 0 143 7 8 139 0 0 139 0 0 139 0 0 139 0 0 139 0 0 143 7 8 139 0 0 139 0 0 139 0 0 139 0 0 139 0 0 139 0 0 139 0 0 139 0 0 139 0 0 139 0 0 139 0 0 139 0 0 143 7 8 139 0 0 139 0 0 143 7 8 139 0 0 143 7 8 139 0 0 139 0 0 139 0 0 139 0 0 143 7 8 139 0 0 143 7 8 143 7 8 143 7 8 139 0 0 139 0 0 139 0 0 143 7 8 143 7 8 143 7 8 139 0 0 139 0 0 139 0 0 139 0 0 139 0 0 139 0 0 143 7 8 139 0 0 139 0 0 139 0 0 139 0 0 143 7 8 139 0 0 139 0 0 143 7 8 139 0 0 139 0 0 143 7 8 143 7 8 139 0 0 139 0 0 143 7 8 139 0 0 143 7 8 139 0 0 139 0 0 139 0 0 139 0 0 139 0 0 139 0 0 143 7 8 139 0 0 139 0 0 143 7 8 139 0 0 139 0 0 139 0 0 139 0 0 139 0 0 139 0 0 139 0 0 139 0 0 139 0 0 143 7 8 147 13 14 168 46 49 159 32 34 153 23 24 151 19 20 147 13 14 145 9 10 145 9 10 153 23 24 158 30 32 158 30 32 168 46 49 159 32 34 159 32 34 157 29 30 168 46 49 172 52 55 158 30 32 151 19 20 151 19 20 158 30 32 155 25 26 151 19 20 155 25 26 169 48 51 174 56 59 158 30 32 150 17 18 145 9 10 145 9 10 146 11 12 147 13 14 146 11 12 146 11 12 145 9 10 145 9 10 145 9 10 145 9 10 143 7 8 145 9 10 145 9 10 145 9 10 145 9 10 143 7 8 143 7 8 143 7 8 143 7 8 143 7 8 143 7 8 143 7 8 143 7 8 143 7 8 143 7 8 143 7 8 143 7 8 143 7 8 143 7 8 143 7 8 143 7 8 143 7 8 143 7 8 139 0 0 139 0 0 139 0 0 143 7 8 139 0 0 143 7 8 139 0 0 139 0 0 139 0 0 139 0 0 143 7 8 143 7 8 143 7 8 139 0 0 139 0 0 143 7 8 139 0 0 143 7 8 139 0 0 139 0 0 139 0 0 139 0 0 139 0 0 139 0 0 139 0 0 139 0 0 143 7 8 139 0 0 139 0 0 139 0 0 139 0 0 139 0 0 139 0 0 139 0 0 139 0 0 139 0 0 139 0 0 139 0 0 143 7 8 139 0 0 139 0 0 139 0 0 139 0 0 139 0 0 139 0 0 139 0 0 139 0 0 139 0 0 139 0 0 139 0 0 139 0 0 139 0 0 139 0 0 139 0 0 139 0 0 139 0 0 139 0 0 143 7 8 
139 0 0 139 0 0 139 0 0 139 0 0 139 0 0 143 7 8 139 0 0 139 0 0 139 0 0 139 0 0 143 7 8 139 0 0 139 0 0 139 0 0 139 0 0 139 0 0 139 0 0 143 7 8 139 0 0 139 0 0 139 0 0 139 0 0 139 0 0 143 7 8 139 0 0 139 0 0 139 0 0 139 0 0 139 0 0 139 0 0 139 0 0 139 0 0 139 0 0 139 0 0 139 0 0 139 0 0 143 7 8 139 0 0 139 0 0 143 7 8 139 0 0 143 7 8 139 0 0 139 0 0 139 0 0 139 0 0 143 7 8 139 0 0 143 7 8 143 7 8 143 7 8 139 0 0 139 0 0 139 0 0 143 7 8 143 7 8 143 7 8 139 0 0 139 0 0 139 0 0 139 0 0 139 0 0 139 0 0 143 7 8 139 0 0 139 0 0 139 0 0 139 0 0 143 7 8 139 0 0 139 0 0 143 7 8 139 0 0 139 0 0 143 7 8 143 7 8 139 0 0 139 0 0 143 7 8 139 0 0 143 7 8 139 0 0 139 0 0 139 0 0 139 0 0 139 0 0 139 0 0 143 7 8 139 0 0 139 0 0 143 7 8 139 0 0 139 0 0 139 0 0 139 0 0 139 0 0 139 0 0 139 0 0 139 0 0 139 0 0 143 7 8 147 13 14 168 46 49 159 32 34 153 23 24 151 19 20 147 13 14 145 9 10 145 9 10 153 23 24 158 30 32 158 30 32 168 46 49 159 32 34 159 32 34 157 29 30 168 46 49 172 52 55 158 30 32 151 19 20 151 19 20 158 30 32 155 25 26 151 19 20 155 25 26 169 48 51 174 56 59 158 30 32 150 17 18 145 9 10 145 9 10 146 11 12 147 13 14 146 11 12 146 11 12 145 9 10 145 9 10 145 9 10 145 9 10 143 7 8 145 9 10 145 9 10 145 9 10 145 9 10 143 7 8 143 7 8 143 7 8 143 7 8 143 7 8 143 7 8 143 7 8 143 7 8 143 7 8 143 7 8 143 7 8 143 7 8 143 7 8 143 7 8 143 7 8 143 7 8 143 7 8 143 7 8 139 0 0 139 0 0 139 0 0 143 7 8 139 0 0 143 7 8 139 0 0 139 0 0 139 0 0 139 0 0 143 7 8 143 7 8 143 7 8 139 0 0 139 0 0 143 7 8 139 0 0 143 7 8 139 0 0 139 0 0 139 0 0 139 0 0 139 0 0 139 0 0 139 0 0 139 0 0 143 7 8 139 0 0 139 0 0 139 0 0 139 0 0 139 0 0 139 0 0 139 0 0 139 0 0 139 0 0 139 0 0 139 0 0 143 7 8 139 0 0 139 0 0 139 0 0 139 0 0 139 0 0 139 0 0 139 0 0 139 0 0 139 0 0 139 0 0 139 0 0 139 0 0 139 0 0 139 0 0 139 0 0 139 0 0 139 0 0 139 0 0 143 7 8 
139 0 0 139 0 0 139 0 0 139 0 0 139 0 0 139 0 0 139 0 0 139 0 0 139 0 0 139 0 0 139 0 0 139 0 0 139 0 0 139 0 0 139 0 0 139 0 0 139 0 0 139 0 0 139 0 0 139 0 0 139 0 0 139 0 0 139 0 0 139 0 0 139 0 0 139 0 0 139 0 0 139 0 0 139 0 0 139 0 0 143 7 8 143 7 8 139 0 0 139 0 0 139 0 0 139 0 0 139 0 0 139 0 0 143 7 8 139 0 0 139 0 0 139 0 0 139 0 0 139 0 0 139 0 0 139 0 0 139 0 0 139 0 0 139 0 0 139 0 0 139 0 0 139 0 0 139 0 0 139 0 0 139 0 0 139 0 0 139 0 0 139 0 0 139 0 0 139 0 0 139 0 0 139 0 0 143 7 8 139 0 0 139 0 0 139 0 0 139 0 0 139 0 0 139 0 0 139 0 0 139 0 0 139 0 0 139 0 0 139 0 0 139 0 0 139 0 0 139 0 0 143 7 8 139 0 0 139 0 0 139 0 0 139 0 0 139 0 0 139 0 0 139 0 0 143 7 8 139 0 0 139 0 0 139 0 0 139 0 0 143 7 8 139 0 0 139 0 0 139 0 0 143 7 8 139 0 0 139 0 0 139 0 0 139 0 0 139 0 0 147 13 14 159 32 34 159 32 34 159 32 34 155 25 26 147 13 14 146 11 12 147 13 14 150 17 18 157 29 30 168 46 49 159 32 34 169 48 51 159 32 34 159 32 34 159 32 34 159 32 34 174 56 59 159 32 34 153 23 24 151 19 20 157 29 30 153 23 24 150 17 18 157 29 30 159 32 34 168 46 49 155 25 26 150 17 18 146 11 12 145 9 10 145 9 10 147 13 14 150 17 18 147 13 14 145 9 10 145 9 10 145 9 10 145 9 10 143 7 8 143 7 8 145 9 10 143 7 8 143 7 8 143 7 8 143 7 8 143 7 8 145 9 10 143 7 8 143 7 8 143 7 8 143 7 8 143 7 8 143 7 8 143 7 8 143 7 8 143 7 8 143 7 8 143 7 8 143 7 8 143 7 8 139 0 0 139 0 0 139 0 0 139 0 0 139 0 0 143 7 8 139 0 0 139 0 0 139 0 0 139 0 0 139 0 0 143 7 8 139 0 0 139 0 0 139 0 0 139 0 0 139 0 0 139 0 0 139 0 0 139 0 0 139 0 0 139 0 0 139 0 0 139 0 0 139 0 0 139 0 0 139 0 0 139 0 0 139 0 0 139 0 0 139 0 0 139 0 0 139 0 0 139 0 0 139 0 0 139 0 0 139 0 0 139 0 0 139 0 0 143 7 8 139 0 0 139 0 0 139 0 0 139 0 0 143 7 8 139 0 0 139 0 0 139 0 0 139 0 0 139 0 0 139 0 0 139 0 0 139 0 0 139 0 0 139 0 0 143 7 8 139 0 0 139 0 0 139 0 0 
139 0 0 139 0 0 139 0 0 139 0 0 139 0 0 139 0 0 139 0 0 139 0 0 139 0 0 139 0 0 139 0 0 139 0 0 139 0 0 139 0 0 139 0 0 139 0 0 139 0 0 139 0 0 139 0 0 139 0 0 139 0 0 139 0 0 139 0 0 139 0 0 139 0 0 139 0 0 139 0 0 139 0 0 139 0 0 139 0 0 143 7 8 143 7 8 139 0 0 139 0 0 139 0 0 139 0 0 139 0 0 139 0 0 143 7 8 139 0 0 139 0 0 139 0 0 139 0 0 139 0 0 139 0 0 139 0 0 139 0 0 139 0 0 139 0 0 139 0 0 139 0 0 139 0 0 139 0 0 139 0 0 139 0 0 139 0 0 139 0 0 139 0 0 139 0 0 139 0 0 139 0 0 139 0 0 143 7 8 139 0 0 139 0 0 139 0 0 139 0 0 139 0 0 139 0 0 139 0 0 139 0 0 139 0 0 139 0 0 139 0 0 139 0 0 139 0 0 139 0 0 143 7 8 139 0 0 139 0 0 139 0 0 139 0 0 139 0 0 139 0 0 139 0 0 143 7 8 139 0 0 139 0 0 139 0 0 139 0 0 143 7 8 139 0 0 139 0 0 139 0 0 143 7 8 139 0 0 139 0 0 139 0 0 139 0 0 139 0 0 147 13 14 159 32 34 159 32 34 159 32 34 155 25 26 147 13 14 146 11 12 147 13 14 150 17 18 157 29 30 168 46 49 159 32 34 169 48 51 159 32 34 159 32 34 159 32 34 159 32 34 174 56 59 159 32 34 153 23 24 151 19 20 157 29 30 153 23 24 150 17 18 157 29 30 159 32 34 168 46 49 155 25 26 150 17 18 146 11 12 145 9 10 145 9 10 147 13 14 150 17 18 147 13 14 145 9 10 145 9 10 145 9 10 145 9 10 143 7 8 143 7 8 145 9 10 143 7 8 143 7 8 143 7 8 143 7 8 143 7 8 145 9 10 143 7 8 143 7 8 143 7 8 143 7 8 143 7 8 143 7 8 143 7 8 143 7 8 143 7 8 143 7 8 143 7 8 143 7 8 143 7 8 139 0 0 139 0 0 139 0 0 139 0 0 139 0 0 143 7 8 139 0 0 139 0 0 139 0 0 139 0 0 139 0 0 143 7 8 139 0 0 139 0 0 139 0 0 139 0 0 139 0 0 139 0 0 139 0 0 139 0 0 139 0 0 139 0 0 139 0 0 139 0 0 139 0 0 139 0 0 139 0 0 139 0 0 139 0 0 139 0 0 139 0 0 139 0 0 139 0 0 139 0 0 139 0 0 139 0 0 139 0 0 139 0 0 139 0 0 143 7 8 139 0 0 139 0 0 139 0 0 139 0 0 143 7 8 139 0 0 139 0 0 139 0 0 139 0 0 139 0 0 139 0 0 139 0 0 139 0 0 139 0 0 139 0 0 143 7 8 139 0 0 139 0 0 139 0 0 
139 0 0 139 0 0 139 0 0 139 0 0 139 0 0 139 0 0 139 0 0 139 0 0 139 0 0 139 0 0 143 7 8 139 0 0 139 0 0 139 0 0 139 0 0 139 0 0 139 0 0 139 0 0 139 0 0 139 0 0 139 0 0 139 0 0 139 0 0 139 0 0 139 0 0 139 0 0 139 0 0 139 0 0 139 0 0 139 0 0 139 0 0 139 0 0 139 0 0 139 0 0 143 7 8 139 0 0 139 0 0 139 0 0 139 0 0 139 0 0 139 0 0 139 0 0 139 0 0 139 0 0 139 0 0 139 0 0 143 7 8 139 0 0 139 0 0 139 0 0 139 0 0 139 0 0 139 0 0 139 0 0 143 7 8 139 0 0 139 0 0 139 0 0 139 0 0 139 0 0 139 0 0 143 7 8 143 7 8 139 0 0 139 0 0 139 0 0 139 0 0 139 0 0 139 0 0 139 0 0 143 7 8 139 0 0 139 0 0 139 0 0 139 0 0 139 0 0 139 0 0 139 0 0 139 0 0 139 0 0 139 0 0 139 0 0 143 7 8 139 0 0 139 0 0 139 0 0 143 7 8 139 0 0 139 0 0 139 0 0 139 0 0 139 0 0 139 0 0 139 0 0 139 0 0 139 0 0 139 0 0 139 0 0 139 0 0 139 0 0 146 11 12 157 29 30 157 29 30 168 46 49 159 32 34 150 17 18 147 13 14 146 11 12 145 9 10 155 25 26 159 32 34 159 32 34 159 32 34 157 29 30 158 30 32 158 30 32 168 46 49 169 48 51 168 46 49 158 30 32 153 23 24 153 23 24 153 23 24 150 17 18 150 17 18 153 23 24 155 25 26 151 19 20 147 13 14 147 13 14 145 9 10 147 13 14 145 9 10 146 11 12 146 11 12 145 9 10 145 9 10 145 9 10 145 9 10 143 7 8 143 7 8 143 7 8 145 9 10 143 7 8 143 7 8 143 7 8 143 7 8 143 7 8 143 7 8 143 7 8 143 7 8 143 7 8 143 7 8 143 7 8 143 7 8 139 0 0 143 7 8 143 7 8 143 7 8 143 7 8 143 7 8 143 7 8 139 0 0 139 0 0 139 0 0 139 0 0 139 0 0 139 0 0 143 7 8 139 0 0 139 0 0 139 0 0 139 0 0 139 0 0 139 0 0 139 0 0 139 0 0 143 7 8 139 0 0 143 7 8 139 0 0 139 0 0 139 0 0 139 0 0 139 0 0 139 0 0 139 0 0 139 0 0 139 0 0 139 0 0 139 0 0 139 0 0 139 0 0 139 0 0 139 0 0 139 0 0 139 0 0 139 0 0 139 0 0 139 0 0 139 0 0 139 0 0 139 0 0 139 0 0 139 0 0 139 0 0 139 0 0 139 0 0 139 0 0 139 0 0 139 0 0 139 0 0 143 7 8 139 0 0 139 0 0 139 0 0 139 0 0 139 0 0 139 0 0 143 7 8 
139 0 0 139 0 0 139 0 0 139 0 0 139 0 0 139 0 0 139 0 0 139 0 0 139 0 0 139 0 0 143 7 8 139 0 0 139 0 0 139 0 0 139 0 0 139 0 0 139 0 0 139 0 0 139 0 0 139 0 0 139 0 0 139 0 0 139 0 0 139 0 0 139 0 0 139 0 0 139 0 0 139 0 0 139 0 0 139 0 0 139 0 0 139 0 0 139 0 0 139 0 0 143 7 8 139 0 0 139 0 0 139 0 0 139 0 0 139 0 0 139 0 0 139 0 0 139 0 0 139 0 0 139 0 0 139 0 0 143 7 8 139 0 0 139 0 0 139 0 0 139 0 0 139 0 0 139 0 0 139 0 0 143 7 8 139 0 0 139 0 0 139 0 0 139 0 0 139 0 0 139 0 0 143 7 8 143 7 8 139 0 0 139 0 0 139 0 0 139 0 0 139 0 0 139 0 0 139 0 0 143 7 8 139 0 0 139 0 0 139 0 0 139 0 0 139 0 0 139 0 0 139 0 0 139 0 0 139 0 0 139 0 0 139 0 0 143 7 8 139 0 0 139 0 0 139 0 0 143 7 8 139 0 0 139 0 0 139 0 0 139 0 0 139 0 0 139 0 0 139 0 0 139 0 0 139 0 0 139 0 0 139 0 0 139 0 0 139 0 0 146 11 12 157 29 30 157 29 30 168 46 49 159 32 34 150 17 18 147 13 14 146 11 12 145 9 10 155 25 26 159 32 34 159 32 34 159 32 34 157 29 30 158 30 32 158 30 32 168 46 49 169 48 51 168 46 49 158 30 32 153 23 24 153 23 24 153 23 24 150 17 18 150 17 18 153 23 24 155 25 26 151 19 20 147 13 14 147 13 14 145 9 10 147 13 14 145 9 10 146 11 12 146 11 12 145 9 10 145 9 10 145 9 10 145 9 10 143 7 8 143 7 8 143 7 8 145 9 10 143 7 8 143 7 8 143 7 8 143 7 8 143 7 8 143 7 8 143 7 8 143 7 8 143 7 8 143 7 8 143 7 8 143 7 8 139 0 0 143 7 8 143 7 8 143 7 8 143 7 8 143 7 8 143 7 8 139 0 0 139 0 0 139 0 0 139 0 0 139 0 0 139 0 0 143 7 8 139 0 0 139 0 0 139 0 0 139 0 0 139 0 0 139 0 0 139 0 0 139 0 0 143 7 8 139 0 0 143 7 8 139 0 0 139 0 0 139 0 0 139 0 0 139 0 0 139 0 0 139 0 0 139 0 0 139 0 0 139 0 0 139 0 0 139 0 0 139 0 0 139 0 0 139 0 0 139 0 0 139 0 0 139 0 0 139 0 0 139 0 0 139 0 0 139 0 0 139 0 0 139 0 0 139 0 0 139 0 0 139 0 0 139 0 0 139 0 0 139 0 0 139 0 0 139 0 0 143 7 8 139 0 0 139 0 0 139 0 0 139 0 0 139 0 0 139 0 0 143 7 8 
139 0 0 139 0 0 139 0 0 139 0 0 139 0 0 139 0 0 139 0 0 139 0 0 139 0 0 139 0 0 139 0 0 139 0 0 139 0 0 139 0 0 139 0 0 139 0 0 139 0 0 139 0 0 139 0 0 139 0 0 139 0 0 139 0 0 139 0 0 139 0 0 139 0 0 139 0 0 139 0 0 139 0 0 139 0 0 139 0 0 139 0 0 139 0 0 139 0 0 139 0 0 139 0 0 139 0 0 139 0 0 139 0 0 139 0 0 139 0 0 139 0 0 139 0 0 139 0 0 139 0 0 139 0 0 139 0 0 139 0 0 139 0 0 139 0 0 139 0 0 139 0 0 139 0 0 139 0 0 143 7 8 139 0 0 139 0 0 139 0 0 139 0 0 139 0 0 139 0 0 139 0 0 139 0 0 139 0 0 139 0 0 143 7 8 143 7 8 139 0 0 139 0 0 139 0 0 139 0 0 139 0 0 139 0 0 139 0 0 139 0 0 139 0 0 139 0 0 143 7 8 139 0 0 139 0 0 139 0 0 143 7 8 139 0 0 143 7 8 139 0 0 139 0 0 143 7 8 139 0 0 139 0 0 139 0 0 139 0 0 139 0 0 139 0 0 139 0 0 139 0 0 139 0 0 143 7 8 139 0 0 139 0 0 139 0 0 139 0 0 146 11 12 157 29 30 168 46 49 158 30 32 155 25 26 146 11 12 146 11 12 145 9 10 145 9 10 151 19 20 158 30 32 169 48 51 168 46 49 153 23 24 153 23 24 155 25 26 157 29 30 169 48 51 169 48 51 157 29 30 151 19 20 151 19 20 155 25 26 155 25 26 158 30 32 168 46 49 157 29 30 155 25 26 147 13 14 153 23 24 150 17 18 147 13 14 145 9 10 146 11 12 143 7 8 145 9 10 145 9 10 145 9 10 145 9 10 145 9 10 145 9 10 145 9 10 143 7 8 143 7 8 143 7 8 143 7 8 143 7 8 145 9 10 143 7 8 143 7 8 143 7 8 143 7 8 143 7 8 143 7 8 143 7 8 143 7 8 143 7 8 143 7 8 143 7 8 143 7 8 143 7 8 139 0 0 143 7 8 139 0 0 139 0 0 139 0 0 139 0 0 143 7 8 143 7 8 139 0 0 143 7 8 139 0 0 139 0 0 139 0 0 139 0 0 139 0 0 139 0 0 139 0 0 139 0 0 139 0 0 139 0 0 139 0 0 139 0 0 139 0 0 139 0 0 139 0 0 139 0 0 139 0 0 139 0 0 139 0 0 139 0 0 139 0 0 139 0 0 139 0 0 139 0 0 139 0 0 143 7 8 139 0 0 139 0 0 139 0 0 139 0 0 139 0 0 139 0 0 139 0 0 139 0 0 139 0 0 139 0 0 139 0 0 139 0 0 139 0 0 139 0 0 139 0 0 139 0 0 143 7 8 139 0 0 139 0 0 143 7 8 139 0 0 139 0 0 139 0 0 
139 0 0 139 0 0 139 0 0 139 0 0 139 0 0 139 0 0 139 0 0 139 0 0 139 0 0 139 0 0 139 0 0 139 0 0 139 0 0 139 0 0 139 0 0 139 0 0 139 0 0 139 0 0 139 0 0 139 0 0 139 0 0 139 0 0 139 0 0 139 0 0 139 0 0 139 0 0 139 0 0 139 0 0 139 0 0 139 0 0 139 0 0 139 0 0 139 0 0 139 0 0 139 0 0 139 0 0 139 0 0 139 0 0 139 0 0 139 0 0 139 0 0 139 0 0 139 0 0 139 0 0 139 0 0 139 0 0 139 0 0 139 0 0 139 0 0 139 0 0 139 0 0 139 0 0 139 0 0 143 7 8 139 0 0 139 0 0 139 0 0 139 0 0 139 0 0 139 0 0 139 0 0 139 0 0 139 0 0 139 0 0 143 7 8 143 7 8 139 0 0 139 0 0 139 0 0 139 0 0 139 0 0 139 0 0 139 0 0 139 0 0 139 0 0 139 0 0 143 7 8 139 0 0 139 0 0 139 0 0 143 7 8 139 0 0 143 7 8 139 0 0 139 0 0 143 7 8 139 0 0 139 0 0 139 0 0 139 0 0 139 0 0 139 0 0 139 0 0 139 0 0 139 0 0 143 7 8 139 0 0 139 0 0 139 0 0 139 0 0 146 11 12 157 29 30 168 46 49 158 30 32 155 25 26 146 11 12 146 11 12 145 9 10 145 9 10 151 19 20 158 30 32 169 48 51 168 46 49 153 23 24 153 23 24 155 25 26 157 29 30 169 48 51 169 48 51 157 29 30 151 19 20 151 19 20 155 25 26 155 25 26 158 30 32 168 46 49 157 29 30 155 25 26 147 13 14 153 23 24 150 17 18 147 13 14 145 9 10 146 11 12 143 7 8 145 9 10 145 9 10 145 9 10 145 9 10 145 9 10 145 9 10 145 9 10 143 7 8 143 7 8 143 7 8 143 7 8 143 7 8 145 9 10 143 7 8 143 7 8 143 7 8 143 7 8 143 7 8 143 7 8 143 7 8 143 7 8 143 7 8 143 7 8 143 7 8 143 7 8 143 7 8 139 0 0 143 7 8 139 0 0 139 0 0 139 0 0 139 0 0 143 7 8 143 7 8 139 0 0 143 7 8 139 0 0 139 0 0 139 0 0 139 0 0 139 0 0 139 0 0 139 0 0 139 0 0 139 0 0 139 0 0 139 0 0 139 0 0 139 0 0 139 0 0 139 0 0 139 0 0 139 0 0 139 0 0 139 0 0 139 0 0 139 0 0 139 0 0 139 0 0 139 0 0 139 0 0 143 7 8 139 0 0 139 0 0 139 0 0 139 0 0 139 0 0 139 0 0 139 0 0 139 0 0 139 0 0 139 0 0 139 0 0 139 0 0 139 0 0 139 0 0 139 0 0 139 0 0 143 7 8 139 0 0 139 0 0 143 7 8 139 0 0 139 0 0 139 0 0 
139 0 0 139 0 0 139 0 0 139 0 0 139 0 0 139 0 0 139 0 0 143 7 8 139 0 0 139 0 0 139 0 0 139 0 0 139 0 0 139 0 0 139 0 0 139 0 0 139 0 0 143 7 8 143 7 8 139 0 0 139 0 0 139 0 0 139 0 0 139 0 0 139 0 0 139 0 0 139 0 0 139 0 0 139 0 0 139 0 0 139 0 0 139 0 0 139 0 0 139 0 0 139 0 0 139 0 0 139 0 0 139 0 0 139 0 0 139 0 0 139 0 0 139 0 0 143 7 8 139 0 0 139 0 0 143 7 8 139 0 0 139 0 0 139 0 0 139 0 0 139 0 0 139 0 0 139 0 0 139 0 0 139 0 0 139 0 0 139 0 0 139 0 0 139 0 0 139 0 0 139 0 0 143 7 8 139 0 0 139 0 0 139 0 0 139 0 0 139 0 0 139 0 0 143 7 8 139 0 0 139 0 0 139 0 0 143 7 8 139 0 0 139 0 0 139 0 0 139 0 0 143 7 8 139 0 0 139 0 0 139 0 0 139 0 0 139 0 0 139 0 0 143 7 8 139 0 0 139 0 0 139 0 0 139 0 0 139 0 0 139 0 0 139 0 0 143 7 8 143 7 8 139 0 0 139 0 0 139 0 0 139 0 0 139 0 0 139 0 0 147 13 14 159 32 34 159 32 34 158 30 32 155 25 26 147 13 14 146 11 12 146 11 12 146 11 12 153 23 24 155 25 26 150 17 18 151 19 20 151 19 20 168 46 49 174 56 59 159 32 34 159 32 34 159 32 34 158 30 32 155 25 26 153 23 24 157 29 30 169 48 51 184 71 75 188 77 82 180 65 69 153 23 24 146 11 12 146 11 12 147 13 14 146 11 12 146 11 12 146 11 12 145 9 10 145 9 10 145 9 10 145 9 10 145 9 10 146 11 12 146 11 12 145 9 10 145 9 10 143 7 8 143 7 8 143 7 8 143 7 8 143 7 8 143 7 8 143 7 8 143 7 8 143 7 8 143 7 8 143 7 8 143 7 8 143 7 8 143 7 8 143 7 8 143 7 8 143 7 8 143 7 8 143 7 8 139 0 0 139 0 0 139 0 0 139 0 0 139 0 0 139 0 0 139 0 0 139 0 0 139 0 0 139 0 0 139 0 0 139 0 0 139 0 0 139 0 0 143 7 8 139 0 0 139 0 0 139 0 0 139 0 0 139 0 0 139 0 0 139 0 0 143 7 8 139 0 0 139 0 0 139 0 0 143 7 8 139 0 0 139 0 0 139 0 0 139 0 0 139 0 0 139 0 0 139 0 0 139 0 0 139 0 0 139 0 0 139 0 0 139 0 0 139 0 0 139 0 0 139 0 0 139 0 0 139 0 0 139 0 0 139 0 0 139 0 0 139 0 0 143 7 8 139 0 0 139 0 0 139 0 0 143 7 8 139 0 0 139 0 0 139 0 0 143 7 8 143 7 8 
139 0 0 139 0 0 139 0 0 139 0 0 139 0 0 139 0 0 139 0 0 143 7 8 139 0 0 139 0 0 139 0 0 139 0 0 139 0 0 139 0 0 139 0 0 139 0 0 139 0 0 143 7 8 143 7 8 139 0 0 139 0 0 139 0 0 139 0 0 139 0 0 139 0 0 139 0 0 139 0 0 139 0 0 139 0 0 139 0 0 139 0 0 139 0 0 139 0 0 139 0 0 139 0 0 139 0 0 139 0 0 139 0 0 139 0 0 139 0 0 139 0 0 139 0 0 143 7 8 139 0 0 139 0 0 143 7 8 139 0 0 139 0 0 139 0 0 139 0 0 139 0 0 139 0 0 139 0 0 139 0 0 139 0 0 139 0 0 139 0 0 139 0 0 139 0 0 139 0 0 139 0 0 143 7 8 139 0 0 139 0 0 139 0 0 139 0 0 139 0 0 139 0 0 143 7 8 139 0 0 139 0 0 139 0 0 143 7 8 139 0 0 139 0 0 139 0 0 139 0 0 143 7 8 139 0 0 139 0 0 139 0 0 139 0 0 139 0 0 139 0 0 143 7 8 139 0 0 139 0 0 139 0 0 139 0 0 139 0 0 139 0 0 139 0 0 143 7 8 143 7 8 139 0 0 139 0 0 139 0 0 139 0 0 139 0 0 139 0 0 147 13 14 159 32 34 159 32 34 158 30 32 155 25 26 147 13 14 146 11 12 146 11 12 146 11 12 153 23 24 155 25 26 150 17 18 151 19 20 151 19 20 168 46 49 174 56 59 159 32 34 159 32 34 159 32 34 158 30 32 155 25 26 153 23 24 157 29 30 169 48 51 184 71 75 188 77 82 180 65 69 153 23 24 146 11 12 146 11 12 147 13 14 146 11 12 146 11 12 146 11 12 145 9 10 145 9 10 145 9 10 145 9 10 145 9 10 146 11 12 146 11 12 145 9 10 145 9 10 143 7 8 143 7 8 143 7 8 143 7 8 143 7 8 143 7 8 143 7 8 143 7 8 143 7 8 143 7 8 143 7 8 143 7 8 143 7 8 143 7 8 143 7 8 143 7 8 143 7 8 143 7 8 143 7 8 139 0 0 139 0 0 139 0 0 139 0 0 139 0 0 139 0 0 139 0 0 139 0 0 139 0 0 139 0 0 139 0 0 139 0 0 139 0 0 139 0 0 143 7 8 139 0 0 139 0 0 139 0 0 139 0 0 139 0 0 139 0 0 139 0 0 143 7 8 139 0 0 139 0 0 139 0 0 143 7 8 139 0 0 139 0 0 139 0 0 139 0 0 139 0 0 139 0 0 139 0 0 139 0 0 139 0 0 139 0 0 139 0 0 139 0 0 139 0 0 139 0 0 139 0 0 139 0 0 139 0 0 139 0 0 139 0 0 139 0 0 139 0 0 143 7 8 139 0 0 139 0 0 139 0 0 143 7 8 139 0 0 139 0 0 139 0 0 143 7 8 143 7 8 
139 0 0 139 0 0 139 0 0 143 7 8 139 0 0 139 0 0 139 0 0 139 0 0 139 0 0 139 0 0 139 0 0 139 0 0 139 0 0 139 0 0 139 0 0 139 0 0 139 0 0 139 0 0 139 0 0 139 0 0 139 0 0 139 0 0 139 0 0 139 0 0 139 0 0 139 0 0 139 0 0 139 0 0 143 7 8 139 0 0 139 0 0 139 0 0 139 0 0 139 0 0 139 0 0 139 0 0 139 0 0 139 0 0 139 0 0 143 7 8 139 0 0 139 0 0 139 0 0 139 0 0 139 0 0 143 7 8 139 0 0 139 0 0 139 0 0 139 0 0 139 0 0 139 0 0 139 0 0 139 0 0 143 7 8 139 0 0 139 0 0 139 0 0 139 0 0 143 7 8 143 7 8 139 0 0 139 0 0 143 7 8 139 0 0 139 0 0 139 0 0 143 7 8 139 0 0 139 0 0 143 7 8 139 0 0 139 0 0 139 0 0 139 0 0 139 0 0 139 0 0 139 0 0 143 7 8 139 0 0 139 0 0 143 7 8 143 7 8 139 0 0 143 7 8 139 0 0 139 0 0 139 0 0 143 7 8 139 0 0 139 0 0 139 0 0 139 0 0 139 0 0 143 7 8 139 0 0 139 0 0 139 0 0 139 0 0 139 0 0 151 19 20 179 63 67 168 46 49 158 30 32 150 17 18 147 13 14 147 13 14 146 11 12 146 11 12 155 25 26 168 46 49 159 32 34 158 30 32 155 25 26 169 48 51 174 56 59 169 48 51 179 63 67 172 52 55 168 46 49 159 32 34 155 25 26 157 29 30 157 29 30 168 46 49 180 65 69 184 71 75 159 32 34 146 11 12 146 11 12 147 13 14 146 11 12 146 11 12 146 11 12 146 11 12 146 11 12 145 9 10 145 9 10 146 11 12 145 9 10 143 7 8 145 9 10 143 7 8 143 7 8 143 7 8 143 7 8 143 7 8 143 7 8 143 7 8 143 7 8 143 7 8 143 7 8 143 7 8 143 7 8 143 7 8 143 7 8 143 7 8 143 7 8 143 7 8 143 7 8 143 7 8 143 7 8 139 0 0 139 0 0 139 0 0 139 0 0 139 0 0 139 0 0 139 0 0 143 7 8 139 0 0 139 0 0 143 7 8 139 0 0 143 7 8 139 0 0 139 0 0 139 0 0 143 7 8 139 0 0 139 0 0 139 0 0 139 0 0 139 0 0 139 0 0 139 0 0 143 7 8 139 0 0 139 0 0 139 0 0 139 0 0 139 0 0 139 0 0 139 0 0 139 0 0 143 7 8 139 0 0 139 0 0 139 0 0 139 0 0 139 0 0 139 0 0 143 7 8 143 7 8 139 0 0 139 0 0 139 0 0 139 0 0 139 0 0 143 7 8 139 0 0 139 0 0 139 0 0 139 0 0 139 0 0 139 0 0 143 7 8 139 0 0 139 0 0 143 7 8 
139 0 0 139 0 0 139 0 0 143 7 8 139 0 0 139 0 0 139 0 0 139 0 0 139 0 0 139 0 0 139 0 0 139 0 0 139 0 0 139 0 0 139 0 0 139 0 0 139 0 0 139 0 0 139 0 0 139 0 0 139 0 0 139 0 0 139 0 0 139 0 0 139 0 0 139 0 0 139 0 0 139 0 0 143 7 8 139 0 0 139 0 0 139 0 0 139 0 0 139 0 0 139 0 0 139 0 0 139 0 0 139 0 0 139 0 0 143 7 8 139 0 0 139 0 0 139 0 0 139 0 0 139 0 0 143 7 8 139 0 0 139 0 0 139 0 0 139 0 0 139 0 0 139 0 0 139 0 0 139 0 0 143 7 8 139 0 0 139 0 0 139 0 0 139 0 0 143 7 8 143 7 8 139 0 0 139 0 0 143 7 8 139 0 0 139 0 0 139 0 0 143 7 8 139 0 0 139 0 0 143 7 8 139 0 0 139 0 0 139 0 0 139 0 0 139 0 0 139 0 0 139 0 0 143 7 8 139 0 0 139 0 0 143 7 8 143 7 8 139 0 0 143 7 8 139 0 0 139 0 0 139 0 0 143 7 8 139 0 0 139 0 0 139 0 0 139 0 0 139 0 0 143 7 8 139 0 0 139 0 0 139 0 0 139 0 0 139 0 0 151 19 20 179 63 67 168 46 49 158 30 32 150 17 18 147 13 14 147 13 14 146 11 12 146 11 12 155 25 26 168 46 49 159 32 34 158 30 32 155 25 26 169 48 51 174 56 59 169 48 51 179 63 67 172 52 55 168 46 49 159 32 34 155 25 26 157 29 30 157 29 30 168 46 49 180 65 69 184 71 75 159 32 34 146 11 12 146 11 12 147 13 14 146 11 12 146 11 12 146 11 12 146 11 12 146 11 12 145 9 10 145 9 10 146 11 12 145 9 10 143 7 8 145 9 10 143 7 8 143 7 8 143 7 8 143 7 8 143 7 8 143 7 8 143 7 8 143 7 8 143 7 8 143 7 8 143 7 8 143 7 8 143 7 8 143 7 8 143 7 8 143 7 8 143 7 8 143 7 8 143 7 8 143 7 8 139 0 0 139 0 0 139 0 0 139 0 0 139 0 0 139 0 0 139 0 0 143 7 8 139 0 0 139 0 0 143 7 8 139 0 0 143 7 8 139 0 0 139 0 0 139 0 0 143 7 8 139 0 0 139 0 0 139 0 0 139 0 0 139 0 0 139 0 0 139 0 0 143 7 8 139 0 0 139 0 0 139 0 0 139 0 0 139 0 0 139 0 0 139 0 0 139 0 0 143 7 8 139 0 0 139 0 0 139 0 0 139 0 0 139 0 0 139 0 0 143 7 8 143 7 8 139 0 0 139 0 0 139 0 0 139 0 0 139 0 0 143 7 8 139 0 0 139 0 0 139 0 0 139 0 0 139 0 0 139 0 0 143 7 8 139 0 0 139 0 0 143 7 8 
139 0 0 139 0 0 143 7 8 139 0 0 139 0 0 139 0 0 139 0 0 139 0 0 139 0 0 139 0 0 139 0 0 139 0 0 139 0 0 139 0 0 139 0 0 139 0 0 143 7 8 143 7 8 139 0 0 139 0 0 139 0 0 139 0 0 139 0 0 139 0 0 139 0 0 143 7 8 139 0 0 139 0 0 139 0 0 139 0 0 139 0 0 139 0 0 139 0 0 143 7 8 139 0 0 139 0 0 139 0 0 139 0 0 139 0 0 143 7 8 139 0 0 139 0 0 139 0 0 139 0 0 139 0 0 139 0 0 139 0 0 143 7 8 139 0 0 139 0 0 139 0 0 143 7 8 139 0 0 139 0 0 139 0 0 139 0 0 139 0 0 143 7 8 139 0 0 139 0 0 139 0 0 139 0 0 139 0 0 139 0 0 143 7 8 139 0 0 139 0 0 143 7 8 143 7 8 143 7 8 139 0 0 139 0 0 143 7 8 139 0 0 139 0 0 143 7 8 139 0 0 139 0 0 139 0 0 139 0 0 139 0 0 139 0 0 139 0 0 143 7 8 143 7 8 139 0 0 139 0 0 139 0 0 143 7 8 143 7 8 139 0 0 143 7 8 139 0 0 139 0 0 139 0 0 139 0 0 139 0 0 139 0 0 139 0 0 139 0 0 150 17 18 172 52 55 158 30 32 159 32 34 150 17 18 146 11 12 146 11 12 145 9 10 146 11 12 151 19 20 157 29 30 172 52 55 180 65 69 169 48 51 174 56 59 183 69 73 169 48 51 172 52 55 174 56 59 157 29 30 158 30 32 158 30 32 174 56 59 168 46 49 157 29 30 180 65 69 185 73 78 158 30 32 146 11 12 146 11 12 146 11 12 146 11 12 146 11 12 146 11 12 146 11 12 145 9 10 145 9 10 145 9 10 146 11 12 145 9 10 146 11 12 143 7 8 143 7 8 145 9 10 145 9 10 143 7 8 143 7 8 143 7 8 143 7 8 143 7 8 143 7 8 143 7 8 143 7 8 143 7 8 143 7 8 143 7 8 139 0 0 139 0 0 143 7 8 143 7 8 143 7 8 139 0 0 139 0 0 139 0 0 139 0 0 139 0 0 143 7 8 139 0 0 139 0 0 139 0 0 139 0 0 139 0 0 139 0 0 139 0 0 139 0 0 139 0 0 139 0 0 139 0 0 139 0 0 139 0 0 139 0 0 139 0 0 139 0 0 139 0 0 139 0 0 143 7 8 139 0 0 139 0 0 139 0 0 139 0 0 139 0 0 139 0 0 139 0 0 143 7 8 139 0 0 139 0 0 139 0 0 143 7 8 139 0 0 139 0 0 139 0 0 139 0 0 139 0 0 139 0 0 143 7 8 143 7 8 139 0 0 139 0 0 139 0 0 139 0 0 143 7 8 139 0 0 139 0 0 139 0 0 139 0 0 139 0 0 139 0 0 139 0 0 139 0 0 139 0 0 
139 0 0 139 0 0 143 7 8 139 0 0 139 0 0 139 0 0 139 0 0 139 0 0 139 0 0 139 0 0 139 0 0 139 0 0 139 0 0 139 0 0 139 0 0 139 0 0 143 7 8 143 7 8 139 0 0 139 0 0 139 0 0 139 0 0 139 0 0 139 0 0 139 0 0 143 7 8 139 0 0 139 0 0 139 0 0 139 0 0 139 0 0 139 0 0 139 0 0 143 7 8 139 0 0 139 0 0 139 0 0 139 0 0 139 0 0 143 7 8 139 0 0 139 0 0 139 0 0 139 0 0 139 0 0 139 0 0 139 0 0 143 7 8 139 0 0 139 0 0 139 0 0 143 7 8 139 0 0 139 0 0 139 0 0 139 0 0 139 0 0 143 7 8 139 0 0 139 0 0 139 0 0 139 0 0 139 0 0 139 0 0 143 7 8 139 0 0 139 0 0 143 7 8 143 7 8 143 7 8 139 0 0 139 0 0 143 7 8 139 0 0 139 0 0 143 7 8 139 0 0 139 0 0 139 0 0 139 0 0 139 0 0 139 0 0 139 0 0 143 7 8 143 7 8 139 0 0 139 0 0 139 0 0 143 7 8 143 7 8 139 0 0 143 7 8 139 0 0 139 0 0 139 0 0 139 0 0 139 0 0 139 0 0 139 0 0 139 0 0 150 17 18 172 52 55 158 30 32 159 32 34 150 17 18 146 11 12 146 11 12 145 9 10 146 11 12 151 19 20 157 29 30 172 52 55 180 65 69 169 48 51 174 56 59 183 69 73 169 48 51 172 52 55 174 56 59 157 29 30 158 30 32 158 30 32 174 56 59 168 46 49 157 29 30 180 65 69 185 73 78 158 30 32 146 11 12 146 11 12 146 11 12 146 11 12 146 11 12 146 11 12 146 11 12 145 9 10 145 9 10 145 9 10 146 11 12 145 9 10 146 11 12 143 7 8 143 7 8 145 9 10 145 9 10 143 7 8 143 7 8 143 7 8 143 7 8 143 7 8 143 7 8 143 7 8 143 7 8 143 7 8 143 7 8 143 7 8 139 0 0 139 0 0 143 7 8 143 7 8 143 7 8 139 0 0 139 0 0 139 0 0 139 0 0 139 0 0 143 7 8 139 0 0 139 0 0 139 0 0 139 0 0 139 0 0 139 0 0 139 0 0 139 0 0 139 0 0 139 0 0 139 0 0 139 0 0 139 0 0 139 0 0 139 0 0 139 0 0 139 0 0 139 0 0 143 7 8 139 0 0 139 0 0 139 0 0 139 0 0 139 0 0 139 0 0 139 0 0 143 7 8 139 0 0 139 0 0 139 0 0 143 7 8 139 0 0 139 0 0 139 0 0 139 0 0 139 0 0 139 0 0 143 7 8 143 7 8 139 0 0 139 0 0 139 0 0 139 0 0 143 7 8 139 0 0 139 0 0 139 0 0 139 0 0 139 0 0 139 0 0 139 0 0 139 0 0 139 0 0 
139 0 0 139 0 0 139 0 0 139 0 0 139 0 0 139 0 0 139 0 0 139 0 0 139 0 0 139 0 0 139 0 0 139 0 0 139 0 0 139 0 0 139 0 0 139 0 0 139 0 0 139 0 0 139 0 0 139 0 0 139 0 0 139 0 0 143 7 8 139 0 0 139 0 0 139 0 0 139 0 0 139 0 0 139 0 0 139 0 0 139 0 0 139 0 0 139 0 0 139 0 0 139 0 0 143 7 8 139 0 0 139 0 0 143 7 8 143 7 8 139 0 0 139 0 0 139 0 0 139 0 0 143 7 8 139 0 0 139 0 0 139 0 0 139 0 0 139 0 0 139 0 0 139 0 0 139 0 0 139 0 0 139 0 0 143 7 8 139 0 0 143 7 8 139 0 0 139 0 0 139 0 0 139 0 0 139 0 0 143 7 8 139 0 0 139 0 0 139 0 0 139 0 0 139 0 0 143 7 8 143 7 8 139 0 0 139 0 0 139 0 0 139 0 0 139 0 0 139 0 0 139 0 0 139 0 0 139 0 0 139 0 0 139 0 0 139 0 0 139 0 0 139 0 0 139 0 0 139 0 0 139 0 0 139 0 0 139 0 0 143 7 8 143 7 8 139 0 0 139 0 0 139 0 0 139 0 0 139 0 0 139 0 0 139 0 0 139 0 0 147 13 14 159 32 34 159 32 34 157 29 30 150 17 18 146 11 12 146 11 12 146 11 12 146 11 12 151 19 20 158 30 32 174 56 59 183 69 73 180 65 69 159 32 34 172 52 55 185 73 78 179 63 67 169 48 51 158 30 32 157 29 30 159 32 34 159 32 34 153 23 24 153 23 24 184 71 75 195 89 94 183 69 73 151 19 20 146 11 12 145 9 10 145 9 10 143 7 8 146 11 12 146 11 12 145 9 10 145 9 10 145 9 10 143 7 8 143 7 8 143 7 8 145 9 10 145 9 10 145 9 10 145 9 10 143 7 8 143 7 8 145 9 10 145 9 10 143 7 8 143 7 8 143 7 8 143 7 8 143 7 8 143 7 8 145 9 10 145 9 10 143 7 8 143 7 8 139 0 0 143 7 8 139 0 0 139 0 0 139 0 0 143 7 8 139 0 0 139 0 0 139 0 0 139 0 0 139 0 0 139 0 0 139 0 0 139 0 0 139 0 0 139 0 0 143 7 8 139 0 0 139 0 0 139 0 0 139 0 0 139 0 0 143 7 8 139 0 0 139 0 0 139 0 0 139 0 0 139 0 0 139 0 0 139 0 0 139 0 0 139 0 0 139 0 0 139 0 0 139 0 0 143 7 8 143 7 8 139 0 0 139 0 0 139 0 0 139 0 0 139 0 0 143 7 8 139 0 0 139 0 0 139 0 0 143 7 8 139 0 0 139 0 0 139 0 0 139 0 0 143 7 8 139 0 0 139 0 0 139 0 0 139 0 0 139 0 0 139 0 0 139 0 0 143 7 8 139 0 0 
139 0 0 139 0 0 139 0 0 139 0 0 139 0 0 139 0 0 139 0 0 139 0 0 139 0 0 139 0 0 139 0 0 139 0 0 139 0 0 139 0 0 139 0 0 139 0 0 139 0 0 139 0 0 139 0 0 139 0 0 139 0 0 139 0 0 143 7 8 139 0 0 139 0 0 139 0 0 139 0 0 139 0 0 139 0 0 139 0 0 139 0 0 139 0 0 139 0 0 139 0 0 139 0 0 143 7 8 139 0 0 139 0 0 143 7 8 143 7 8 139 0 0 139 0 0 139 0 0 139 0 0 143 7 8 139 0 0 139 0 0 139 0 0 139 0 0 139 0 0 139 0 0 139 0 0 139 0 0 139 0 0 139 0 0 143 7 8 139 0 0 143 7 8 139 0 0 139 0 0 139 0 0 139 0 0 139 0 0 143 7 8 139 0 0 139 0 0 139 0 0 139 0 0 139 0 0 143 7 8 143 7 8 139 0 0 139 0 0 139 0 0 139 0 0 139 0 0 139 0 0 139 0 0 139 0 0 139 0 0 139 0 0 139 0 0 139 0 0 139 0 0 139 0 0 139 0 0 139 0 0 139 0 0 139 0 0 139 0 0 143 7 8 143 7 8 139 0 0 139 0 0 139 0 0 139 0 0 139 0 0 139 0 0 139 0 0 139 0 0 147 13 14 159 32 34 159 32 34 157 29 30 150 17 18 146 11 12 146 11 12 146 11 12 146 11 12 151 19 20 158 30 32 174 56 59 183 69 73 180 65 69 159 32 34 172 52 55 185 73 78 179 63 67 169 48 51 158 30 32 157 29 30 159 32 34 159 32 34 153 23 24 153 23 24 184 71 75 195 89 94 183 69 73 151 19 20 146 11 12 145 9 10 145 9 10 143 7 8 146 11 12 146 11 12 145 9 10 145 9 10 145 9 10 143 7 8 143 7 8 143 7 8 145 9 10 145 9 10 145 9 10 145 9 10 143 7 8 143 7 8 145 9 10 145 9 10 143 7 8 143 7 8 143 7 8 143 7 8 143 7 8 143 7 8 145 9 10 145 9 10 143 7 8 143 7 8 139 0 0 143 7 8 139 0 0 139 0 0 139 0 0 143 7 8 139 0 0 139 0 0 139 0 0 139 0 0 139 0 0 139 0 0 139 0 0 139 0 0 139 0 0 139 0 0 143 7 8 139 0 0 139 0 0 139 0 0 139 0 0 139 0 0 143 7 8 139 0 0 139 0 0 139 0 0 139 0 0 139 0 0 139 0 0 139 0 0 139 0 0 139 0 0 139 0 0 139 0 0 139 0 0 143 7 8 143 7 8 139 0 0 139 0 0 139 0 0 139 0 0 139 0 0 143 7 8 139 0 0 139 0 0 139 0 0 143 7 8 139 0 0 139 0 0 139 0 0 139 0 0 143 7 8 139 0 0 139 0 0 139 0 0 139 0 0 139 0 0 139 0 0 139 0 0 143 7 8 139 0 0 
139 0 0 139 0 0 139 0 0 139 0 0 139 0 0 139 0 0 139 0 0 139 0 0 139 0 0 139 0 0 139 0 0 139 0 0 139 0 0 139 0 0 139 0 0 139 0 0 139 0 0 139 0 0 139 0 0 139 0 0 139 0 0 139 0 0 139 0 0 139 0 0 139 0 0 139 0 0 139 0 0 139 0 0 139 0 0 143 7 8 139 0 0 143 7 8 139 0 0 139 0 0 139 0 0 139 0 0 139 0 0 143 7 8 139 0 0 139 0 0 139 0 0 139 0 0 139 0 0 139 0 0 139 0 0 143 7 8 139 0 0 139 0 0 139 0 0 143 7 8 139 0 0 139 0 0 139 0 0 139 0 0 139 0 0 139 0 0 139 0 0 143 7 8 139 0 0 139 0 0 139 0 0 139 0 0 139 0 0 139 0 0 139 0 0 139 0 0 139 0 0 139 0 0 139 0 0 139 0 0 139 0 0 139 0 0 139 0 0 139 0 0 139 0 0 139 0 0 139 0 0 139 0 0 139 0 0 139 0 0 139 0 0 139 0 0 139 0 0 139 0 0 139 0 0 139 0 0 139 0 0 139 0 0 139 0 0 139 0 0 139 0 0 139 0 0 139 0 0 139 0 0 139 0 0 139 0 0 139 0 0 139 0 0 139 0 0 143 7 8 147 13 14 168 46 49 158 30 32 157 29 30 155 25 26 147 13 14 146 11 12 145 9 10 146 11 12 150 17 18 157 29 30 168 46 49 168 46 49 174 56 59 172 52 55 159 32 34 180 65 69 168 46 49 153 23 24 155 25 26 155 25 26 155 25 26 153 23 24 158 30 32 168 46 49 159 32 34 179 63 67 179 63 67 155 25 26 146 11 12 145 9 10 146 11 12 146 11 12 145 9 10 146 11 12 146 11 12 145 9 10 145 9 10 145 9 10 145 9 10 145 9 10 145 9 10 145 9 10 145 9 10 145 9 10 145 9 10 145 9 10 143 7 8 143 7 8 143 7 8 143 7 8 143 7 8 143 7 8 143 7 8 145 9 10 145 9 10 145 9 10 143 7 8 143 7 8 143 7 8 143 7 8 143 7 8 143 7 8 139 0 0 139 0 0 139 0 0 139 0 0 139 0 0 139 0 0 139 0 0 139 0 0 139 0 0 139 0 0 139 0 0 139 0 0 139 0 0 139 0 0 139 0 0 139 0 0 139 0 0 139 0 0 139 0 0 139 0 0 139 0 0 139 0 0 139 0 0 139 0 0 139 0 0 139 0 0 139 0 0 139 0 0 139 0 0 139 0 0 143 7 8 139 0 0 139 0 0 139 0 0 139 0 0 139 0 0 139 0 0 139 0 0 139 0 0 139 0 0 139 0 0 139 0 0 139 0 0 139 0 0 139 0 0 139 0 0 139 0 0 139 0 0 143 7 8 139 0 0 139 0 0 139 0 0 139 0 0 139 0 0 139 0 0 139 0 0 139 0 0 
139 0 0 139 0 0 139 0 0 139 0 0 139 0 0 139 0 0 139 0 0 139 0 0 139 0 0 139 0 0 139 0 0 139 0 0 139 0 0 139 0 0 139 0 0 139 0 0 139 0 0 139 0 0 139 0 0 139 0 0 139 0 0 139 0 0 139 0 0 139 0 0 139 0 0 139 0 0 139 0 0 139 0 0 139 0 0 143 7 8 139 0 0 143 7 8 139 0 0 139 0 0 139 0 0 139 0 0 139 0 0 143 7 8 139 0 0 139 0 0 139 0 0 139 0 0 139 0 0 139 0 0 139 0 0 143 7 8 139 0 0 139 0 0 139 0 0 143 7 8 139 0 0 139 0 0 139 0 0 139 0 0 139 0 0 139 0 0 139 0 0 143 7 8 139 0 0 139 0 0 139 0 0 139 0 0 139 0 0 139 0 0 139 0 0 139 0 0 139 0 0 139 0 0 139 0 0 139 0 0 139 0 0 139 0 0 139 0 0 139 0 0 139 0 0 139 0 0 139 0 0 139 0 0 139 0 0 139 0 0 139 0 0 139 0 0 139 0 0 139 0 0 139 0 0 139 0 0 139 0 0 139 0 0 139 0 0 139 0 0 139 0 0 139 0 0 139 0 0 139 0 0 139 0 0 139 0 0 139 0 0 139 0 0 139 0 0 143 7 8 147 13 14 168 46 49 158 30 32 157 29 30 155 25 26 147 13 14 146 11 12 145 9 10 146 11 12 150 17 18 157 29 30 168 46 49 168 46 49 174 56 59 172 52 55 159 32 34 180 65 69 168 46 49 153 23 24 155 25 26 155 25 26 155 25 26 153 23 24 158 30 32 168 46 49 159 32 34 179 63 67 179 63 67 155 25 26 146 11 12 145 9 10 146 11 12 146 11 12 145 9 10 146 11 12 146 11 12 145 9 10 145 9 10 145 9 10 145 9 10 145 9 10 145 9 10 145 9 10 145 9 10 145 9 10 145 9 10 145 9 10 143 7 8 143 7 8 143 7 8 143 7 8 143 7 8 143 7 8 143 7 8 145 9 10 145 9 10 145 9 10 143 7 8 143 7 8 143 7 8 143 7 8 143 7 8 143 7 8 139 0 0 139 0 0 139 0 0 139 0 0 139 0 0 139 0 0 139 0 0 139 0 0 139 0 0 139 0 0 139 0 0 139 0 0 139 0 0 139 0 0 139 0 0 139 0 0 139 0 0 139 0 0 139 0 0 139 0 0 139 0 0 139 0 0 139 0 0 139 0 0 139 0 0 139 0 0 139 0 0 139 0 0 139 0 0 139 0 0 143 7 8 139 0 0 139 0 0 139 0 0 139 0 0 139 0 0 139 0 0 139 0 0 139 0 0 139 0 0 139 0 0 139 0 0 139 0 0 139 0 0 139 0 0 139 0 0 139 0 0 139 0 0 143 7 8 139 0 0 139 0 0 139 0 0 139 0 0 139 0 0 139 0 0 139 0 0 139 0 0 
143 7 8 139 0 0 139 0 0 139 0 0 139 0 0 139 0 0 139 0 0 139 0 0 139 0 0 139 0 0 139 0 0 139 0 0 139 0 0 139 0 0 139 0 0 139 0 0 139 0 0 139 0 0 139 0 0 139 0 0 139 0 0 139 0 0 139 0 0 139 0 0 139 0 0 139 0 0 139 0 0 139 0 0 139 0 0 139 0 0 139 0 0 139 0 0 139 0 0 139 0 0 139 0 0 139 0 0 139 0 0 139 0 0 143 7 8 143 7 8 139 0 0 139 0 0 139 0 0 143 7 8 139 0 0 139 0 0 139 0 0 139 0 0 143 7 8 139 0 0 139 0 0 139 0 0 143 7 8 139 0 0 139 0 0 139 0 0 139 0 0 139 0 0 139 0 0 139 0 0 143 7 8 143 7 8 139 0 0 139 0 0 139 0 0 143 7 8 143 7 8 139 0 0 139 0 0 139 0 0 139 0 0 139 0 0 139 0 0 139 0 0 139 0 0 139 0 0 139 0 0 139 0 0 139 0 0 139 0 0 139 0 0 139 0 0 139 0 0 143 7 8 139 0 0 139 0 0 139 0 0 139 0 0 139 0 0 139 0 0 143 7 8 139 0 0 143 7 8 139 0 0 139 0 0 139 0 0 139 0 0 139 0 0 139 0 0 139 0 0 145 9 10 157 29 30 159 32 34 158 30 32 157 29 30 150 17 18 146 11 12 146 11 12 146 11 12 151 19 20 159 32 34 157 29 30 159 32 34 179 63 67 179 63 67 157 29 30 158 30 32 158 30 32 155 25 26 153 23 24 157 29 30 153 23 24 150 17 18 153 23 24 168 46 49 159 32 34 157 29 30 169 48 51 157 29 30 146 11 12 146 11 12 145 9 10 146 11 12 145 9 10 146 11 12 146 11 12 145 9 10 145 9 10 143 7 8 143 7 8 145 9 10 145 9 10 145 9 10 145 9 10 145 9 10 145 9 10 146 11 12 145 9 10 143 7 8 143 7 8 143 7 8 143 7 8 143 7 8 143 7 8 145 9 10 145 9 10 143 7 8 143 7 8 143 7 8 143 7 8 143 7 8 143 7 8 143 7 8 139 0 0 139 0 0 139 0 0 139 0 0 139 0 0 139 0 0 139 0 0 139 0 0 139 0 0 143 7 8 139 0 0 139 0 0 139 0 0 139 0 0 139 0 0 143 7 8 139 0 0 139 0 0 139 0 0 139 0 0 139 0 0 139 0 0 139 0 0 139 0 0 139 0 0 139 0 0 139 0 0 139 0 0 139 0 0 139 0 0 139 0 0 139 0 0 139 0 0 139 0 0 139 0 0 139 0 0 139 0 0 139 0 0 139 0 0 139 0 0 139 0 0 139 0 0 139 0 0 139 0 0 139 0 0 139 0 0 139 0 0 139 0 0 139 0 0 139 0 0 139 0 0 139 0 0 143 7 8 139 0 0 143 7 8 139 0 0 139 0 0 
143 7 8 139 0 0 139 0 0 139 0 0 139 0 0 139 0 0 139 0 0 139 0 0 139 0 0 139 0 0 139 0 0 139 0 0 139 0 0 139 0 0 139 0 0 139 0 0 139 0 0 139 0 0 139 0 0 139 0 0 139 0 0 139 0 0 139 0 0 139 0 0 139 0 0 139 0 0 139 0 0 139 0 0 139 0 0 139 0 0 139 0 0 139 0 0 139 0 0 139 0 0 139 0 0 139 0 0 139 0 0 139 0 0 143 7 8 143 7 8 139 0 0 139 0 0 139 0 0 143 7 8 139 0 0 139 0 0 139 0 0 139 0 0 143 7 8 139 0 0 139 0 0 139 0 0 143 7 8 139 0 0 139 0 0 139 0 0 139 0 0 139 0 0 139 0 0 139 0 0 143 7 8 143 7 8 139 0 0 139 0 0 139 0 0 143 7 8 143 7 8 139 0 0 139 0 0 139 0 0 139 0 0 139 0 0 139 0 0 139 0 0 139 0 0 139 0 0 139 0 0 139 0 0 139 0 0 139 0 0 139 0 0 139 0 0 139 0 0 143 7 8 139 0 0 139 0 0 139 0 0 139 0 0 139 0 0 139 0 0 143 7 8 139 0 0 143 7 8 139 0 0 139 0 0 139 0 0 139 0 0 139 0 0 139 0 0 139 0 0 145 9 10 157 29 30 159 32 34 158 30 32 157 29 30 150 17 18 146 11 12 146 11 12 146 11 12 151 19 20 159 32 34 157 29 30 159 32 34 179 63 67 179 63 67 157 29 30 158 30 32 158 30 32 155 25 26 153 23 24 157 29 30 153 23 24 150 17 18 153 23 24 168 46 49 159 32 34 157 29 30 169 48 51 157 29 30 146 11 12 146 11 12 145 9 10 146 11 12 145 9 10 146 11 12 146 11 12 145 9 10 145 9 10 143 7 8 143 7 8 145 9 10 145 9 10 145 9 10 145 9 10 145 9 10 145 9 10 146 11 12 145 9 10 143 7 8 143 7 8 143 7 8 143 7 8 143 7 8 143 7 8 145 9 10 145 9 10 143 7 8 143 7 8 143 7 8 143 7 8 143 7 8 143 7 8 143 7 8 139 0 0 139 0 0 139 0 0 139 0 0 139 0 0 139 0 0 139 0 0 139 0 0 139 0 0 143 7 8 139 0 0 139 0 0 139 0 0 139 0 0 139 0 0 143 7 8 139 0 0 139 0 0 139 0 0 139 0 0 139 0 0 139 0 0 139 0 0 139 0 0 139 0 0 139 0 0 139 0 0 139 0 0 139 0 0 139 0 0 139 0 0 139 0 0 139 0 0 139 0 0 139 0 0 139 0 0 139 0 0 139 0 0 139 0 0 139 0 0 139 0 0 139 0 0 139 0 0 139 0 0 139 0 0 139 0 0 139 0 0 139 0 0 139 0 0 139 0 0 139 0 0 139 0 0 143 7 8 139 0 0 143 7 8 139 0 0 139 0 0 
139 0 0 139 0 0 139 0 0 139 0 0 139 0 0 139 0 0 139 0 0 139 0 0 139 0 0 139 0 0 139 0 0 139 0 0 139 0 0 139 0 0 139 0 0 139 0 0 139 0 0 139 0 0 139 0 0 139 0 0 139 0 0 139 0 0 139 0 0 139 0 0 139 0 0 139 0 0 139 0 0 139 0 0 139 0 0 139 0 0 139 0 0 139 0 0 139 0 0 139 0 0 139 0 0 139 0 0 143 7 8 143 7 8 139 0 0 143 7 8 139 0 0 139 0 0 139 0 0 139 0 0 139 0 0 139 0 0 143 7 8 143 7 8 139 0 0 139 0 0 139 0 0 143 7 8 139 0 0 139 0 0 139 0 0 139 0 0 139 0 0 139 0 0 139 0 0 139 0 0 139 0 0 139 0 0 143 7 8 143 7 8 139 0 0 139 0 0 139 0 0 139 0 0 139 0 0 139 0 0 143 7 8 139 0 0 139 0 0 139 0 0 139 0 0 139 0 0 139 0 0 139 0 0 139 0 0 139 0 0 143 7 8 139 0 0 139 0 0 139 0 0 139 0 0 139 0 0 139 0 0 139 0 0 139 0 0 139 0 0 139 0 0 139 0 0 139 0 0 139 0 0 139 0 0 139 0 0 139 0 0 139 0 0 139 0 0 139 0 0 145 9 10 155 25 26 169 48 51 172 52 55 168 46 49 153 23 24 147 13 14 146 11 12 145 9 10 150 17 18 155 25 26 151 19 20 153 23 24 168 46 49 180 65 69 172 52 55 169 48 51 158 30 32 153 23 24 150 17 18 150 17 18 153 23 24 155 25 26 150 17 18 157 29 30 172 52 55 158 30 32 155 25 26 155 25 26 157 29 30 150 17 18 146 11 12 146 11 12 145 9 10 146 11 12 145 9 10 146 11 12 146 11 12 146 11 12 145 9 10 145 9 10 145 9 10 145 9 10 143 7 8 143 7 8 145 9 10 145 9 10 145 9 10 145 9 10 145 9 10 145 9 10 143 7 8 143 7 8 143 7 8 143 7 8 143 7 8 143 7 8 143 7 8 143 7 8 143 7 8 143 7 8 143 7 8 143 7 8 143 7 8 143 7 8 139 0 0 143 7 8 139 0 0 139 0 0 139 0 0 139 0 0 139 0 0 139 0 0 139 0 0 139 0 0 139 0 0 143 7 8 139 0 0 139 0 0 139 0 0 139 0 0 139 0 0 143 7 8 139 0 0 139 0 0 143 7 8 143 7 8 139 0 0 139 0 0 139 0 0 139 0 0 139 0 0 139 0 0 139 0 0 139 0 0 139 0 0 139 0 0 139 0 0 139 0 0 139 0 0 139 0 0 139 0 0 139 0 0 139 0 0 139 0 0 139 0 0 139 0 0 139 0 0 139 0 0 139 0 0 139 0 0 139 0 0 139 0 0 139 0 0 139 0 0 139 0 0 139 0 0 143 7 8 139 0 0 143 7 8 
139 0 0 139 0 0 139 0 0 139 0 0 139 0 0 139 0 0 139 0 0 139 0 0 139 0 0 139 0 0 139 0 0 139 0 0 139 0 0 139 0 0 139 0 0 139 0 0 139 0 0 139 0 0 139 0 0 139 0 0 139 0 0 139 0 0 139 0 0 139 0 0 139 0 0 139 0 0 139 0 0 139 0 0 139 0 0 139 0 0 139 0 0 139 0 0 139 0 0 139 0 0 139 0 0 139 0 0 143 7 8 143 7 8 139 0 0 143 7 8 139 0 0 139 0 0 139 0 0 139 0 0 139 0 0 139 0 0 143 7 8 143 7 8 139 0 0 139 0 0 139 0 0 143 7 8 139 0 0 139 0 0 139 0 0 139 0 0 139 0 0 139 0 0 139 0 0 139 0 0 139 0 0 139 0 0 143 7 8 143 7 8 139 0 0 139 0 0 139 0 0 139 0 0 139 0 0 139 0 0 143 7 8 139 0 0 139 0 0 139 0 0 139 0 0 139 0 0 139 0 0 139 0 0 139 0 0 139 0 0 143 7 8 139 0 0 139 0 0 139 0 0 139 0 0 139 0 0 139 0 0 139 0 0 139 0 0 139 0 0 139 0 0 139 0 0 139 0 0 139 0 0 139 0 0 139 0 0 139 0 0 139 0 0 139 0 0 139 0 0 145 9 10 155 25 26 169 48 51 172 52 55 168 46 49 153 23 24 147 13 14 146 11 12 145 9 10 150 17 18 155 25 26 151 19 20 153 23 24 168 46 49 180 65 69 172 52 55 169 48 51 158 30 32 153 23 24 150 17 18 150 17 18 153 23 24 155 25 26 150 17 18 157 29 30 172 52 55 158 30 32 155 25 26 155 25 26 157 29 30 150 17 18 146 11 12 146 11 12 145 9 10 146 11 12 145 9 10 146 11 12 146 11 12 146 11 12 145 9 10 145 9 10 145 9 10 145 9 10 143 7 8 143 7 8 145 9 10 145 9 10 145 9 10 145 9 10 145 9 10 145 9 10 143 7 8 143 7 8 143 7 8 143 7 8 143 7 8 143 7 8 143 7 8 143 7 8 143 7 8 143 7 8 143 7 8 143 7 8 143 7 8 143 7 8 139 0 0 143 7 8 139 0 0 139 0 0 139 0 0 139 0 0 139 0 0 139 0 0 139 0 0 139 0 0 139 0 0 143 7 8 139 0 0 139 0 0 139 0 0 139 0 0 139 0 0 143 7 8 139 0 0 139 0 0 143 7 8 143 7 8 139 0 0 139 0 0 139 0 0 139 0 0 139 0 0 139 0 0 139 0 0 139 0 0 139 0 0 139 0 0 139 0 0 139 0 0 139 0 0 139 0 0 139 0 0 139 0 0 139 0 0 139 0 0 139 0 0 139 0 0 139 0 0 139 0 0 139 0 0 139 0 0 139 0 0 139 0 0 139 0 0 139 0 0 139 0 0 139 0 0 143 7 8 139 0 0 143 7 8 
139 0 0 139 0 0 139 0 0 139 0 0 139 0 0 139 0 0 139 0 0 139 0 0 139 0 0 139 0 0 139 0 0 139 0 0 139 0 0 139 0 0 139 0 0 139 0 0 139 0 0 139 0 0 139 0 0 139 0 0 139 0 0 139 0 0 139 0 0 139 0 0 139 0 0 139 0 0 139 0 0 139 0 0 139 0 0 139 0 0 143 7 8 139 0 0 139 0 0 143 7 8 139 0 0 139 0 0 139 0 0 139 0 0 139 0 0 139 0 0 139 0 0 139 0 0 143 7 8 139 0 0 139 0 0 139 0 0 139 0 0 139 0 0 139 0 0 139 0 0 139 0 0 139 0 0 139 0 0 139 0 0 143 7 8 139 0 0 139 0 0 139 0 0 139 0 0 139 0 0 139 0 0 139 0 0 139 0 0 139 0 0 139 0 0 139 0 0 139 0 0 139 0 0 139 0 0 143 7 8 139 0 0 139 0 0 139 0 0 139 0 0 139 0 0 139 0 0 139 0 0 139 0 0 139 0 0 139 0 0 139 0 0 139 0 0 139 0 0 139 0 0 139 0 0 143 7 8 139 0 0 139 0 0 139 0 0 139 0 0 139 0 0 139 0 0 139 0 0 139 0 0 139 0 0 139 0 0 139 0 0 139 0 0 139 0 0 139 0 0 143 7 8 150 17 18 169 48 51 168 46 49 155 25 26 151 19 20 147 13 14 146 11 12 145 9 10 147 13 14 153 23 24 153 23 24 155 25 26 168 46 49 174 56 59 179 63 67 158 30 32 155 25 26 157 29 30 155 25 26 155 25 26 155 25 26 172 52 55 169 48 51 155 25 26 150 17 18 146 11 12 153 23 24 157 29 30 159 32 34 158 30 32 153 23 24 146 11 12 146 11 12 145 9 10 146 11 12 146 11 12 147 13 14 147 13 14 147 13 14 146 11 12 145 9 10 145 9 10 146 11 12 145 9 10 143 7 8 143 7 8 143 7 8 143 7 8 145 9 10 145 9 10 145 9 10 145 9 10 145 9 10 143 7 8 143 7 8 143 7 8 143 7 8 143 7 8 143 7 8 143 7 8 143 7 8 143 7 8 143 7 8 143 7 8 143 7 8 139 0 0 139 0 0 143 7 8 139 0 0 139 0 0 139 0 0 139 0 0 139 0 0 143 7 8 139 0 0 139 0 0 139 0 0 139 0 0 139 0 0 139 0 0 139 0 0 139 0 0 143 7 8 139 0 0 143 7 8 139 0 0 139 0 0 139 0 0 143 7 8 139 0 0 139 0 0 139 0 0 139 0 0 139 0 0 139 0 0 139 0 0 139 0 0 139 0 0 139 0 0 139 0 0 143 7 8 139 0 0 139 0 0 139 0 0 139 0 0 139 0 0 139 0 0 139 0 0 139 0 0 139 0 0 139 0 0 139 0 0 139 0 0 139 0 0 139 0 0 139 0 0 139 0 0 139 0 0 139 0 0 
139 0 0 139 0 0 139 0 0 139 0 0 139 0 0 139 0 0 139 0 0 139 0 0 139 0 0 139 0 0 139 0 0 139 0 0 139 0 0 139 0 0 139 0 0 139 0 0 139 0 0 139 0 0 139 0 0 139 0 0 139 0 0 139 0 0 139 0 0 139 0 0 139 0 0 139 0 0 139 0 0 139 0 0 139 0 0 139 0 0 143 7 8 139 0 0 139 0 0 143 7 8 139 0 0 139 0 0 139 0 0 139 0 0 139 0 0 139 0 0 139 0 0 139 0 0 143 7 8 139 0 0 139 0 0 139 0 0 139 0 0 139 0 0 139 0 0 139 0 0 139 0 0 139 0 0 139 0 0 139 0 0 143 7 8 139 0 0 139 0 0 139 0 0 139 0 0 139 0 0 139 0 0 139 0 0 139 0 0 139 0 0 139 0 0 139 0 0 139 0 0 139 0 0 139 0 0 143 7 8 139 0 0 139 0 0 139 0 0 139 0 0 139 0 0 139 0 0 139 0 0 139 0 0 139 0 0 139 0 0 139 0 0 139 0 0 139 0 0 139 0 0 139 0 0 143 7 8 139 0 0 139 0 0 139 0 0 139 0 0 139 0 0 139 0 0 139 0 0 139 0 0 139 0 0 139 0 0 139 0 0 139 0 0 139 0 0 139 0 0 143 7 8 150 17 18 169 48 51 168 46 49 155 25 26 151 19 20 147 13 14 146 11 12 145 9 10 147 13 14 153 23 24 153 23 24 155 25 26 168 46 49 174 56 59 179 63 67 158 30 32 155 25 26 157 29 30 155 25 26 155 25 26 155 25 26 172 52 55 169 48 51 155 25 26 150 17 18 146 11 12 153 23 24 157 29 30 159 32 34 158 30 32 153 23 24 146 11 12 146 11 12 145 9 10 146 11 12 146 11 12 147 13 14 147 13 14 147 13 14 146 11 12 145 9 10 145 9 10 146 11 12 145 9 10 143 7 8 143 7 8 143 7 8 143 7 8 145 9 10 145 9 10 145 9 10 145 9 10 145 9 10 143 7 8 143 7 8 143 7 8 143 7 8 143 7 8 143 7 8 143 7 8 143 7 8 143 7 8 143 7 8 143 7 8 143 7 8 139 0 0 139 0 0 143 7 8 139 0 0 139 0 0 139 0 0 139 0 0 139 0 0 143 7 8 139 0 0 139 0 0 139 0 0 139 0 0 139 0 0 139 0 0 139 0 0 139 0 0 143 7 8 139 0 0 143 7 8 139 0 0 139 0 0 139 0 0 143 7 8 139 0 0 139 0 0 139 0 0 139 0 0 139 0 0 139 0 0 139 0 0 139 0 0 139 0 0 139 0 0 139 0 0 143 7 8 139 0 0 139 0 0 139 0 0 139 0 0 139 0 0 139 0 0 139 0 0 139 0 0 139 0 0 139 0 0 139 0 0 139 0 0 139 0 0 139 0 0 139 0 0 139 0 0 139 0 0 139 0 0 
139 0 0 139 0 0 139 0 0 139 0 0 139 0 0 139 0 0 139 0 0 139 0 0 139 0 0 139 0 0 139 0 0 143 7 8 139 0 0 139 0 0 139 0 0 139 0 0 139 0 0 139 0 0 139 0 0 139 0 0 139 0 0 139 0 0 139 0 0 139 0 0 139 0 0 139 0 0 143 7 8 139 0 0 139 0 0 139 0 0 139 0 0 139 0 0 139 0 0 139 0 0 139 0 0 143 7 8 139 0 0 139 0 0 139 0 0 139 0 0 139 0 0 139 0 0 139 0 0 143 7 8 139 0 0 143 7 8 143 7 8 143 7 8 139 0 0 139 0 0 143 7 8 143 7 8 139 0 0 139 0 0 139 0 0 139 0 0 139 0 0 139 0 0 143 7 8 139 0 0 143 7 8 139 0 0 143 7 8 139 0 0 139 0 0 139 0 0 139 0 0 139 0 0 143 7 8 139 0 0 139 0 0 139 0 0 139 0 0 143 7 8 143 7 8 139 0 0 139 0 0 139 0 0 139 0 0 143 7 8 139 0 0 139 0 0 139 0 0 139 0 0 139 0 0 143 7 8 139 0 0 139 0 0 139 0 0 139 0 0 139 0 0 139 0 0 139 0 0 139 0 0 139 0 0 139 0 0 139 0 0 139 0 0 139 0 0 143 7 8 139 0 0 146 11 12 159 32 34 168 46 49 157 29 30 151 19 20 183 69 73 185 73 78 146 11 12 146 11 12 150 17 18 151 19 20 155 25 26 172 52 55 184 71 75 187 75 80 174 56 59 157 29 30 158 30 32 159 32 34 157 29 30 153 23 24 151 19 20 155 25 26 158 30 32 158 30 32 151 19 20 153 23 24 157 29 30 157 29 30 157 29 30 153 23 24 147 13 14 146 11 12 145 9 10 145 9 10 146 11 12 146 11 12 147 13 14 151 19 20 153 23 24 150 17 18 146 11 12 146 11 12 145 9 10 145 9 10 143 7 8 143 7 8 143 7 8 143 7 8 143 7 8 145 9 10 145 9 10 145 9 10 145 9 10 145 9 10 143 7 8 143 7 8 143 7 8 143 7 8 143 7 8 143 7 8 143 7 8 143 7 8 139 0 0 143 7 8 143 7 8 143 7 8 139 0 0 139 0 0 143 7 8 139 0 0 143 7 8 139 0 0 139 0 0 139 0 0 139 0 0 139 0 0 143 7 8 139 0 0 139 0 0 143 7 8 139 0 0 143 7 8 139 0 0 139 0 0 139 0 0 139 0 0 139 0 0 139 0 0 143 7 8 139 0 0 139 0 0 143 7 8 143 7 8 139 0 0 139 0 0 139 0 0 139 0 0 139 0 0 139 0 0 139 0 0 139 0 0 139 0 0 139 0 0 139 0 0 143 7 8 143 7 8 139 0 0 143 7 8 139 0 0 139 0 0 139 0 0 139 0 0 139 0 0 139 0 0 139 0 0 139 0 0 139 0 0 139 0 0 
139 0 0 139 0 0 139 0 0 139 0 0 139 0 0 139 0 0 139 0 0 139 0 0 139 0 0 139 0 0 139 0 0 143 7 8 139 0 0 139 0 0 139 0 0 139 0 0 139 0 0 139 0 0 139 0 0 139 0 0 139 0 0 139 0 0 139 0 0 139 0 0 139 0 0 139 0 0 143 7 8 139 0 0 139 0 0 139 0 0 139 0 0 139 0 0 139 0 0 139 0 0 139 0 0 143 7 8 139 0 0 139 0 0 139 0 0 139 0 0 139 0 0 139 0 0 139 0 0 143 7 8 139 0 0 143 7 8 143 7 8 143 7 8 139 0 0 139 0 0 143 7 8 143 7 8 139 0 0 139 0 0 139 0 0 139 0 0 139 0 0 139 0 0 143 7 8 139 0 0 143 7 8 139 0 0 143 7 8 139 0 0 139 0 0 139 0 0 139 0 0 139 0 0 143 7 8 139 0 0 139 0 0 139 0 0 139 0 0 143 7 8 143 7 8 139 0 0 139 0 0 139 0 0 139 0 0 143 7 8 139 0 0 139 0 0 139 0 0 139 0 0 139 0 0 143 7 8 139 0 0 139 0 0 139 0 0 139 0 0 139 0 0 139 0 0 139 0 0 139 0 0 139 0 0 139 0 0 139 0 0 139 0 0 139 0 0 143 7 8 139 0 0 146 11 12 159 32 34 168 46 49 157 29 30 151 19 20 183 69 73 185 73 78 146 11 12 146 11 12 150 17 18 151 19 20 155 25 26 172 52 55 184 71 75 187 75 80 174 56 59 157 29 30 158 30 32 159 32 34 157 29 30 153 23 24 151 19 20 155 25 26 158 30 32 158 30 32 151 19 20 153 23 24 157 29 30 157 29 30 157 29 30 153 23 24 147 13 14 146 11 12 145 9 10 145 9 10 146 11 12 146 11 12 147 13 14 151 19 20 153 23 24 150 17 18 146 11 12 146 11 12 145 9 10 145 9 10 143 7 8 143 7 8 143 7 8 143 7 8 143 7 8 145 9 10 145 9 10 145 9 10 145 9 10 145 9 10 143 7 8 143 7 8 143 7 8 143 7 8 143 7 8 143 7 8 143 7 8 143 7 8 139 0 0 143 7 8 143 7 8 143 7 8 139 0 0 139 0 0 143 7 8 139 0 0 143 7 8 139 0 0 139 0 0 139 0 0 139 0 0 139 0 0 143 7 8 139 0 0 139 0 0 143 7 8 139 0 0 143 7 8 139 0 0 139 0 0 139 0 0 139 0 0 139 0 0 139 0 0 143 7 8 139 0 0 139 0 0 143 7 8 143 7 8 139 0 0 139 0 0 139 0 0 139 0 0 139 0 0 139 0 0 139 0 0 139 0 0 139 0 0 139 0 0 139 0 0 143 7 8 143 7 8 139 0 0 143 7 8 139 0 0 139 0 0 139 0 0 139 0 0 139 0 0 139 0 0 139 0 0 139 0 0 139 0 0 139 0 0 
139 0 0 139 0 0 139 0 0 139 0 0 139 0 0 139 0 0 139 0 0 139 0 0 139 0 0 139 0 0 143 7 8 139 0 0 139 0 0 139 0 0 139 0 0 139 0 0 139 0 0 143 7 8 139 0 0 139 0 0 139 0 0 139 0 0 139 0 0 143 7 8 139 0 0 139 0 0 139 0 0 139 0 0 139 0 0 139 0 0 143 7 8 139 0 0 139 0 0 139 0 0 139 0 0 139 0 0 139 0 0 139 0 0 139 0 0 143 7 8 139 0 0 139 0 0 139 0 0 139 0 0 143 7 8 139 0 0 139 0 0 139 0 0 139 0 0 139 0 0 143 7 8 143 7 8 143 7 8 139 0 0 139 0 0 139 0 0 139 0 0 139 0 0 139 0 0 139 0 0 143 7 8 139 0 0 139 0 0 139 0 0 143 7 8 139 0 0 139 0 0 143 7 8 139 0 0 139 0 0 139 0 0 139 0 0 139 0 0 139 0 0 139 0 0 143 7 8 139 0 0 139 0 0 139 0 0 139 0 0 139 0 0 139 0 0 139 0 0 139 0 0 139 0 0 139 0 0 139 0 0 139 0 0 139 0 0 139 0 0 139 0 0 139 0 0 139 0 0 139 0 0 139 0 0 143 7 8 139 0 0 139 0 0 139 0 0 139 0 0 139 0 0 145 9 10 157 29 30 174 56 59 157 29 30 153 23 24 151 19 20 150 17 18 145 9 10 145 9 10 146 11 12 147 13 14 151 19 20 157 29 30 172 52 55 183 69 73 174 56 59 172 52 55 159 32 34 157 29 30 158 30 32 155 25 26 153 23 24 158 30 32 157 29 30 151 19 20 153 23 24 151 19 20 155 25 26 169 48 51 168 46 49 168 46 49 158 30 32 150 17 18 146 11 12 145 9 10 146 11 12 146 11 12 147 13 14 145 9 10 145 9 10 146 11 12 147 13 14 147 13 14 146 11 12 145 9 10 143 7 8 143 7 8 143 7 8 143 7 8 143 7 8 143 7 8 139 0 0 143 7 8 143 7 8 145 9 10 143 7 8 143 7 8 143 7 8 143 7 8 143 7 8 143 7 8 143 7 8 143 7 8 139 0 0 143 7 8 139 0 0 139 0 0 139 0 0 139 0 0 139 0 0 139 0 0 143 7 8 139 0 0 139 0 0 139 0 0 139 0 0 143 7 8 139 0 0 139 0 0 139 0 0 139 0 0 139 0 0 139 0 0 139 0 0 139 0 0 139 0 0 139 0 0 139 0 0 139 0 0 139 0 0 139 0 0 139 0 0 139 0 0 139 0 0 139 0 0 139 0 0 139 0 0 139 0 0 139 0 0 139 0 0 139 0 0 139 0 0 139 0 0 139 0 0 139 0 0 139 0 0 139 0 0 139 0 0 143 7 8 143 7 8 139 0 0 139 0 0 139 0 0 139 0 0 139 0 0 143 7 8 139 0 0 139 0 0 139 0 0 
139 0 0 139 0 0 139 0 0 139 0 0 139 0 0 139 0 0 139 0 0 139 0 0 139 0 0 139 0 0 143 7 8 139 0 0 139 0 0 139 0 0 139 0 0 139 0 0 139 0 0 143 7 8 139 0 0 139 0 0 139 0 0 139 0 0 139 0 0 143 7 8 139 0 0 139 0 0 139 0 0 139 0 0 139 0 0 139 0 0 143 7 8 139 0 0 139 0 0 139 0 0 139 0 0 139 0 0 139 0 0 139 0 0 139 0 0 143 7 8 139 0 0 139 0 0 139 0 0 139 0 0 143 7 8 139 0 0 139 0 0 139 0 0 139 0 0 139 0 0 143 7 8 143 7 8 143 7 8 139 0 0 139 0 0 139 0 0 139 0 0 139 0 0 139 0 0 139 0 0 143 7 8 139 0 0 139 0 0 139 0 0 143 7 8 139 0 0 139 0 0 143 7 8 139 0 0 139 0 0 139 0 0 139 0 0 139 0 0 139 0 0 139 0 0 143 7 8 139 0 0 139 0 0 139 0 0 139 0 0 139 0 0 139 0 0 139 0 0 139 0 0 139 0 0 139 0 0 139 0 0 139 0 0 139 0 0 139 0 0 139 0 0 139 0 0 139 0 0 139 0 0 139 0 0 143 7 8 139 0 0 139 0 0 139 0 0 139 0 0 139 0 0 145 9 10 157 29 30 174 56 59 157 29 30 153 23 24 151 19 20 150 17 18 145 9 10 145 9 10 146 11 12 147 13 14 151 19 20 157 29 30 172 52 55 183 69 73 174 56 59 172 52 55 159 32 34 157 29 30 158 30 32 155 25 26 153 23 24 158 30 32 157 29 30 151 19 20 153 23 24 151 19 20 155 25 26 169 48 51 168 46 49 168 46 49 158 30 32 150 17 18 146 11 12 145 9 10 146 11 12 146 11 12 147 13 14 145 9 10 145 9 10 146 11 12 147 13 14 147 13 14 146 11 12 145 9 10 143 7 8 143 7 8 143 7 8 143 7 8 143 7 8 143 7 8 139 0 0 143 7 8 143 7 8 145 9 10 143 7 8 143 7 8 143 7 8 143 7 8 143 7 8 143 7 8 143 7 8 143 7 8 139 0 0 143 7 8 139 0 0 139 0 0 139 0 0 139 0 0 139 0 0 139 0 0 143 7 8 139 0 0 139 0 0 139 0 0 139 0 0 143 7 8 139 0 0 139 0 0 139 0 0 139 0 0 139 0 0 139 0 0 139 0 0 139 0 0 139 0 0 139 0 0 139 0 0 139 0 0 139 0 0 139 0 0 139 0 0 139 0 0 139 0 0 139 0 0 139 0 0 139 0 0 139 0 0 139 0 0 139 0 0 139 0 0 139 0 0 139 0 0 139 0 0 139 0 0 139 0 0 139 0 0 139 0 0 143 7 8 143 7 8 139 0 0 139 0 0 139 0 0 139 0 0 139 0 0 143 7 8 139 0 0 139 0 0 139 0 0 
143 7 8 139 0 0 139 0 0 139 0 0 139 0 0 139 0 0 139 0 0 139 0 0 139 0 0 139 0 0 139 0 0 139 0 0 139 0 0 139 0 0 139 0 0 139 0 0 139 0 0 139 0 0 139 0 0 139 0 0 139 0 0 139 0 0 139 0 0 139 0 0 139 0 0 139 0 0 139 0 0 139 0 0 143 7 8 139 0 0 139 0 0 139 0 0 139 0 0 139 0 0 139 0 0 139 0 0 139 0 0 139 0 0 139 0 0 139 0 0 139 0 0 139 0 0 139 0 0 143 7 8 139 0 0 139 0 0 139 0 0 139 0 0 139 0 0 139 0 0 139 0 0 143 7 8 139 0 0 139 0 0 139 0 0 139 0 0 139 0 0 139 0 0 139 0 0 143 7 8 139 0 0 139 0 0 139 0 0 143 7 8 139 0 0 139 0 0 139 0 0 139 0 0 139 0 0 139 0 0 139 0 0 139 0 0 143 7 8 143 7 8 139 0 0 143 7 8 139 0 0 139 0 0 139 0 0 139 0 0 139 0 0 139 0 0 139 0 0 139 0 0 139 0 0 139 0 0 139 0 0 139 0 0 143 7 8 139 0 0 139 0 0 139 0 0 139 0 0 139 0 0 139 0 0 139 0 0 139 0 0 139 0 0 139 0 0 139 0 0 139 0 0 143 7 8 150 17 18 168 46 49 158 30 32 155 25 26 153 23 24 150 17 18 150 17 18 147 13 14 145 9 10 146 11 12 150 17 18 151 19 20 157 29 30 172 52 55 174 56 59 172 52 55 155 25 26 159 32 34 168 46 49 157 29 30 157 29 30 159 32 34 158 30 32 159 32 34 153 23 24 151 19 20 153 23 24 153 23 24 153 23 24 151 19 20 157 29 30 157 29 30 150 17 18 146 11 12 146 11 12 147 13 14 150 17 18 150 17 18 147 13 14 147 13 14 146 11 12 145 9 10 143 7 8 145 9 10 145 9 10 143 7 8 143 7 8 143 7 8 143 7 8 143 7 8 143 7 8 143 7 8 143 7 8 143 7 8 143 7 8 143 7 8 143 7 8 143 7 8 143 7 8 143 7 8 139 0 0 139 0 0 139 0 0 139 0 0 139 0 0 143 7 8 139 0 0 139 0 0 139 0 0 139 0 0 139 0 0 139 0 0 139 0 0 143 7 8 143 7 8 139 0 0 143 7 8 139 0 0 139 0 0 139 0 0 139 0 0 143 7 8 139 0 0 143 7 8 143 7 8 139 0 0 139 0 0 139 0 0 139 0 0 139 0 0 143 7 8 139 0 0 139 0 0 143 7 8 139 0 0 139 0 0 139 0 0 139 0 0 139 0 0 139 0 0 139 0 0 143 7 8 139 0 0 139 0 0 143 7 8 139 0 0 139 0 0 139 0 0 139 0 0 139 0 0 139 0 0 139 0 0 139 0 0 139 0 0 139 0 0 139 0 0 139 0 0 139 0 0 
143 7 8 139 0 0 139 0 0 139 0 0 139 0 0 139 0 0 139 0 0 139 0 0 139 0 0 139 0 0 139 0 0 139 0 0 139 0 0 139 0 0 139 0 0 139 0 0 139 0 0 139 0 0 139 0 0 139 0 0 139 0 0 139 0 0 139 0 0 139 0 0 139 0 0 139 0 0 139 0 0 139 0 0 143 7 8 139 0 0 139 0 0 139 0 0 139 0 0 139 0 0 139 0 0 139 0 0 139 0 0 139 0 0 139 0 0 139 0 0 139 0 0 139 0 0 139 0 0 143 7 8 139 0 0 139 0 0 139 0 0 139 0 0 139 0 0 139 0 0 139 0 0 143 7 8 139 0 0 139 0 0 139 0 0 139 0 0 139 0 0 139 0 0 139 0 0 143 7 8 139 0 0 139 0 0 139 0 0 143 7 8 139 0 0 139 0 0 139 0 0 139 0 0 139 0 0 139 0 0 139 0 0 139 0 0 143 7 8 143 7 8 139 0 0 143 7 8 139 0 0 139 0 0 139 0 0 139 0 0 139 0 0 139 0 0 139 0 0 139 0 0 139 0 0 139 0 0 139 0 0 139 0 0 143 7 8 139 0 0 139 0 0 139 0 0 139 0 0 139 0 0 139 0 0 139 0 0 139 0 0 139 0 0 139 0 0 139 0 0 139 0 0 143 7 8 150 17 18 168 46 49 158 30 32 155 25 26 153 23 24 150 17 18 150 17 18 147 13 14 145 9 10 146 11 12 150 17 18 151 19 20 157 29 30 172 52 55 174 56 59 172 52 55 155 25 26 159 32 34 168 46 49 157 29 30 157 29 30 159 32 34 158 30 32 159 32 34 153 23 24 151 19 20 153 23 24 153 23 24 153 23 24 151 19 20 157 29 30 157 29 30 150 17 18 146 11 12 146 11 12 147 13 14 150 17 18 150 17 18 147 13 14 147 13 14 146 11 12 145 9 10 143 7 8 145 9 10 145 9 10 143 7 8 143 7 8 143 7 8 143 7 8 143 7 8 143 7 8 143 7 8 143 7 8 143 7 8 143 7 8 143 7 8 143 7 8 143 7 8 143 7 8 143 7 8 139 0 0 139 0 0 139 0 0 139 0 0 139 0 0 143 7 8 139 0 0 139 0 0 139 0 0 139 0 0 139 0 0 139 0 0 139 0 0 143 7 8 143 7 8 139 0 0 143 7 8 139 0 0 139 0 0 139 0 0 139 0 0 143 7 8 139 0 0 143 7 8 143 7 8 139 0 0 139 0 0 139 0 0 139 0 0 139 0 0 143 7 8 139 0 0 139 0 0 143 7 8 139 0 0 139 0 0 139 0 0 139 0 0 139 0 0 139 0 0 139 0 0 143 7 8 139 0 0 139 0 0 143 7 8 139 0 0 139 0 0 139 0 0 139 0 0 139 0 0 139 0 0 139 0 0 139 0 0 139 0 0 139 0 0 139 0 0 139 0 0 139 0 0 
139 0 0 139 0 0 139 0 0 139 0 0 139 0 0 139 0 0 139 0 0 143 7 8 139 0 0 139 0 0 139 0 0 139 0 0 139 0 0 139 0 0 139 0 0 139 0 0 139 0 0 139 0 0 139 0 0 139 0 0 139 0 0 139 0 0 139 0 0 139 0 0 139 0 0 139 0 0 139 0 0 139 0 0 139 0 0 139 0 0 139 0 0 139 0 0 139 0 0 139 0 0 139 0 0 139 0 0 139 0 0 139 0 0 139 0 0 139 0 0 139 0 0 139 0 0 139 0 0 139 0 0 139 0 0 139 0 0 139 0 0 139 0 0 139 0 0 139 0 0 139 0 0 143 7 8 139 0 0 139 0 0 139 0 0 139 0 0 139 0 0 139 0 0 139 0 0 139 0 0 143 7 8 139 0 0 139 0 0 139 0 0 139 0 0 143 7 8 139 0 0 139 0 0 139 0 0 139 0 0 139 0 0 139 0 0 139 0 0 139 0 0 139 0 0 143 7 8 139 0 0 139 0 0 139 0 0 139 0 0 139 0 0 139 0 0 143 7 8 139 0 0 139 0 0 139 0 0 139 0 0 139 0 0 139 0 0 139 0 0 139 0 0 139 0 0 139 0 0 139 0 0 139 0 0 139 0 0 139 0 0 139 0 0 139 0 0 139 0 0 139 0 0 143 7 8 147 13 14 169 48 51 168 46 49 153 23 24 147 13 14 146 11 12 146 11 12 146 11 12 145 9 10 146 11 12 147 13 14 147 13 14 147 13 14 157 29 30 174 56 59 180 65 69 159 32 34 151 19 20 153 23 24 150 17 18 159 32 34 168 46 49 168 46 49 158 30 32 158 30 32 153 23 24 155 25 26 157 29 30 153 23 24 150 17 18 150 17 18 151 19 20 158 30 32 155 25 26 147 13 14 146 11 12 145 9 10 146 11 12 146 11 12 145 9 10 145 9 10 145 9 10 146 11 12 145 9 10 145 9 10 145 9 10 143 7 8 143 7 8 143 7 8 145 9 10 145 9 10 143 7 8 143 7 8 143 7 8 143 7 8 143 7 8 139 0 0 143 7 8 143 7 8 143 7 8 139 0 0 143 7 8 139 0 0 143 7 8 143 7 8 139 0 0 139 0 0 139 0 0 139 0 0 139 0 0 139 0 0 139 0 0 139 0 0 139 0 0 139 0 0 143 7 8 139 0 0 139 0 0 139 0 0 143 7 8 139 0 0 139 0 0 143 7 8 139 0 0 139 0 0 139 0 0 139 0 0 139 0 0 139 0 0 139 0 0 139 0 0 139 0 0 139 0 0 139 0 0 139 0 0 139 0 0 139 0 0 139 0 0 139 0 0 139 0 0 139 0 0 139 0 0 139 0 0 139 0 0 139 0 0 139 0 0 139 0 0 139 0 0 139 0 0 139 0 0 139 0 0 139 0 0 139 0 0 139 0 0 139 0 0 139 0 0 139 0 0 139 0 0 
139 0 0 139 0 0 139 0 0 139 0 0 139 0 0 139 0 0 139 0 0 143 7 8 139 0 0 139 0 0 139 0 0 139 0 0 139 0 0 139 0 0 139 0 0 139 0 0 139 0 0 139 0 0 139 0 0 139 0 0 139 0 0 139 0 0 139 0 0 139 0 0 139 0 0 139 0 0 139 0 0 139 0 0 139 0 0 139 0 0 139 0 0 139 0 0 139 0 0 139 0 0 139 0 0 139 0 0 139 0 0 139 0 0 139 0 0 139 0 0 139 0 0 139 0 0 139 0 0 139 0 0 139 0 0 139 0 0 139 0 0 139 0 0 139 0 0 139 0 0 139 0 0 143 7 8 139 0 0 139 0 0 139 0 0 139 0 0 139 0 0 139 0 0 139 0 0 139 0 0 143 7 8 139 0 0 139 0 0 139 0 0 139 0 0 143 7 8 139 0 0 139 0 0 139 0 0 139 0 0 139 0 0 139 0 0 139 0 0 139 0 0 139 0 0 143 7 8 139 0 0 139 0 0 139 0 0 139 0 0 139 0 0 139 0 0 143 7 8 139 0 0 139 0 0 139 0 0 139 0 0 139 0 0 139 0 0 139 0 0 139 0 0 139 0 0 139 0 0 139 0 0 139 0 0 139 0 0 139 0 0 139 0 0 139 0 0 139 0 0 139 0 0 143 7 8 147 13 14 169 48 51 168 46 49 153 23 24 147 13 14 146 11 12 146 11 12 146 11 12 145 9 10 146 11 12 147 13 14 147 13 14 147 13 14 157 29 30 174 56 59 180 65 69 159 32 34 151 19 20 153 23 24 150 17 18 159 32 34 168 46 49 168 46 49 158 30 32 158 30 32 153 23 24 155 25 26 157 29 30 153 23 24 150 17 18 150 17 18 151 19 20 158 30 32 155 25 26 147 13 14 146 11 12 145 9 10 146 11 12 146 11 12 145 9 10 145 9 10 145 9 10 146 11 12 145 9 10 145 9 10 145 9 10 143 7 8 143 7 8 143 7 8 145 9 10 145 9 10 143 7 8 143 7 8 143 7 8 143 7 8 143 7 8 139 0 0 143 7 8 143 7 8 143 7 8 139 0 0 143 7 8 139 0 0 143 7 8 143 7 8 139 0 0 139 0 0 139 0 0 139 0 0 139 0 0 139 0 0 139 0 0 139 0 0 139 0 0 139 0 0 143 7 8 139 0 0 139 0 0 139 0 0 143 7 8 139 0 0 139 0 0 143 7 8 139 0 0 139 0 0 139 0 0 139 0 0 139 0 0 139 0 0 139 0 0 139 0 0 139 0 0 139 0 0 139 0 0 139 0 0 139 0 0 139 0 0 139 0 0 139 0 0 139 0 0 139 0 0 139 0 0 139 0 0 139 0 0 139 0 0 139 0 0 139 0 0 139 0 0 139 0 0 139 0 0 139 0 0 139 0 0 139 0 0 139 0 0 139 0 0 139 0 0 139 0 0 139 0 0 
139 0 0 139 0 0 139 0 0 139 0 0 139 0 0 139 0 0 139 0 0 139 0 0 139 0 0 139 0 0 139 0 0 139 0 0 139 0 0 139 0 0 139 0 0 139 0 0 139 0 0 139 0 0 139 0 0 139 0 0 139 0 0 139 0 0 139 0 0 139 0 0 139 0 0 139 0 0 139 0 0 139 0 0 139 0 0 139 0 0 139 0 0 139 0 0 139 0 0 139 0 0 139 0 0 139 0 0 139 0 0 139 0 0 139 0 0 139 0 0 139 0 0 139 0 0 139 0 0 139 0 0 139 0 0 143 7 8 139 0 0 139 0 0 139 0 0 139 0 0 139 0 0 139 0 0 139 0 0 139 0 0 139 0 0 139 0 0 139 0 0 139 0 0 139 0 0 139 0 0 139 0 0 139 0 0 139 0 0 139 0 0 139 0 0 143 7 8 143 7 8 139 0 0 143 7 8 143 7 8 143 7 8 139 0 0 139 0 0 139 0 0 139 0 0 139 0 0 139 0 0 139 0 0 139 0 0 139 0 0 143 7 8 139 0 0 139 0 0 139 0 0 139 0 0 139 0 0 143 7 8 139 0 0 139 0 0 139 0 0 139 0 0 139 0 0 139 0 0 139 0 0 139 0 0 139 0 0 139 0 0 139 0 0 139 0 0 139 0 0 139 0 0 139 0 0 143 7 8 150 17 18 157 29 30 151 19 20 147 13 14 146 11 12 146 11 12 146 11 12 146 11 12 145 9 10 146 11 12 147 13 14 150 17 18 150 17 18 157 29 30 179 63 67 183 69 73 168 46 49 157 29 30 150 17 18 147 13 14 153 23 24 157 29 30 158 30 32 159 32 34 157 29 30 155 25 26 155 25 26 159 32 34 155 25 26 157 29 30 155 25 26 157 29 30 155 25 26 151 19 20 146 11 12 145 9 10 145 9 10 145 9 10 145 9 10 146 11 12 146 11 12 147 13 14 147 13 14 145 9 10 145 9 10 145 9 10 143 7 8 145 9 10 143 7 8 143 7 8 145 9 10 143 7 8 143 7 8 143 7 8 143 7 8 143 7 8 143 7 8 143 7 8 139 0 0 139 0 0 143 7 8 143 7 8 139 0 0 139 0 0 139 0 0 139 0 0 139 0 0 139 0 0 139 0 0 143 7 8 139 0 0 139 0 0 139 0 0 139 0 0 139 0 0 139 0 0 139 0 0 139 0 0 139 0 0 139 0 0 139 0 0 143 7 8 143 7 8 139 0 0 143 7 8 139 0 0 139 0 0 139 0 0 139 0 0 139 0 0 139 0 0 139 0 0 139 0 0 139 0 0 139 0 0 139 0 0 143 7 8 139 0 0 139 0 0 143 7 8 139 0 0 139 0 0 139 0 0 139 0 0 139 0 0 139 0 0 139 0 0 139 0 0 139 0 0 139 0 0 139 0 0 139 0 0 139 0 0 139 0 0 139 0 0 143 7 8 139 0 0 
139 0 0 139 0 0 139 0 0 139 0 0 139 0 0 139 0 0 139 0 0 139 0 0 139 0 0 139 0 0 139 0 0 139 0 0 139 0 0 139 0 0 139 0 0 139 0 0 139 0 0 139 0 0 139 0 0 139 0 0 139 0 0 139 0 0 139 0 0 139 0 0 139 0 0 139 0 0 139 0 0 139 0 0 139 0 0 139 0 0 139 0 0 139 0 0 139 0 0 139 0 0 139 0 0 139 0 0 139 0 0 139 0 0 139 0 0 139 0 0 139 0 0 139 0 0 139 0 0 139 0 0 139 0 0 143 7 8 139 0 0 139 0 0 139 0 0 139 0 0 139 0 0 139 0 0 139 0 0 139 0 0 139 0 0 139 0 0 139 0 0 139 0 0 139 0 0 139 0 0 139 0 0 139 0 0 139 0 0 139 0 0 139 0 0 143 7 8 143 7 8 139 0 0 143 7 8 143 7 8 143 7 8 139 0 0 139 0 0 139 0 0 139 0 0 139 0 0 139 0 0 139 0 0 139 0 0 139 0 0 143 7 8 139 0 0 139 0 0 139 0 0 139 0 0 139 0 0 143 7 8 139 0 0 139 0 0 139 0 0 139 0 0 139 0 0 139 0 0 139 0 0 139 0 0 139 0 0 139 0 0 139 0 0 139 0 0 139 0 0 139 0 0 139 0 0 143 7 8 150 17 18 157 29 30 151 19 20 147 13 14 146 11 12 146 11 12 146 11 12 146 11 12 145 9 10 146 11 12 147 13 14 150 17 18 150 17 18 157 29 30 179 63 67 183 69 73 168 46 49 157 29 30 150 17 18 147 13 14 153 23 24 157 29 30 158 30 32 159 32 34 157 29 30 155 25 26 155 25 26 159 32 34 155 25 26 157 29 30 155 25 26 157 29 30 155 25 26 151 19 20 146 11 12 145 9 10 145 9 10 145 9 10 145 9 10 146 11 12 146 11 12 147 13 14 147 13 14 145 9 10 145 9 10 145 9 10 143 7 8 145 9 10 143 7 8 143 7 8 145 9 10 143 7 8 143 7 8 143 7 8 143 7 8 143 7 8 143 7 8 143 7 8 139 0 0 139 0 0 143 7 8 143 7 8 139 0 0 139 0 0 139 0 0 139 0 0 139 0 0 139 0 0 139 0 0 143 7 8 139 0 0 139 0 0 139 0 0 139 0 0 139 0 0 139 0 0 139 0 0 139 0 0 139 0 0 139 0 0 139 0 0 143 7 8 143 7 8 139 0 0 143 7 8 139 0 0 139 0 0 139 0 0 139 0 0 139 0 0 139 0 0 139 0 0 139 0 0 139 0 0 139 0 0 139 0 0 143 7 8 139 0 0 139 0 0 143 7 8 139 0 0 139 0 0 139 0 0 139 0 0 139 0 0 139 0 0 139 0 0 139 0 0 139 0 0 139 0 0 139 0 0 139 0 0 139 0 0 139 0 0 139 0 0 143 7 8 139 0 0 
139 0 0 139 0 0 139 0 0 139 0 0 139 0 0 139 0 0 139 0 0 139 0 0 139 0 0 139 0 0 139 0 0 139 0 0 139 0 0 139 0 0 139 0 0 139 0 0 139 0 0 139 0 0 139 0 0 139 0 0 139 0 0 139 0 0 139 0 0 139 0 0 139 0 0 139 0 0 139 0 0 139 0 0 139 0 0 139 0 0 139 0 0 139 0 0 139 0 0 139 0 0 139 0 0 139 0 0 139 0 0 143 7 8 139 0 0 143 7 8 139 0 0 139 0 0 139 0 0 139 0 0 139 0 0 139 0 0 139 0 0 139 0 0 139 0 0 139 0 0 139 0 0 139 0 0 139 0 0 139 0 0 139 0 0 139 0 0 139 0 0 139 0 0 139 0 0 139 0 0 139 0 0 139 0 0 139 0 0 139 0 0 139 0 0 139 0 0 139 0 0 139 0 0 139 0 0 139 0 0 139 0 0 139 0 0 139 0 0 139 0 0 139 0 0 139 0 0 139 0 0 139 0 0 139 0 0 139 0 0 139 0 0 139 0 0 139 0 0 139 0 0 139 0 0 139 0 0 139 0 0 139 0 0 139 0 0 139 0 0 139 0 0 139 0 0 139 0 0 139 0 0 139 0 0 139 0 0 139 0 0 139 0 0 139 0 0 139 0 0 139 0 0 139 0 0 139 0 0 145 9 10 150 17 18 150 17 18 146 11 12 146 11 12 146 11 12 146 11 12 146 11 12 145 9 10 145 9 10 145 9 10 146 11 12 147 13 14 153 23 24 174 56 59 187 75 80 172 52 55 155 25 26 158 30 32 155 25 26 155 25 26 155 25 26 158 30 32 159 32 34 158 30 32 155 25 26 150 17 18 155 25 26 169 48 51 158 30 32 158 30 32 155 25 26 159 32 34 151 19 20 147 13 14 146 11 12 145 9 10 145 9 10 145 9 10 145 9 10 145 9 10 145 9 10 146 11 12 145 9 10 145 9 10 145 9 10 143 7 8 143 7 8 143 7 8 143 7 8 143 7 8 143 7 8 143 7 8 143 7 8 143 7 8 143 7 8 143 7 8 143 7 8 143 7 8 143 7 8 139 0 0 139 0 0 139 0 0 139 0 0 139 0 0 139 0 0 139 0 0 139 0 0 139 0 0 139 0 0 139 0 0 139 0 0 139 0 0 139 0 0 139 0 0 143 7 8 139 0 0 139 0 0 139 0 0 139 0 0 139 0 0 139 0 0 139 0 0 139 0 0 139 0 0 139 0 0 139 0 0 139 0 0 139 0 0 143 7 8 139 0 0 139 0 0 139 0 0 139 0 0 139 0 0 139 0 0 139 0 0 139 0 0 139 0 0 139 0 0 139 0 0 139 0 0 139 0 0 139 0 0 139 0 0 139 0 0 139 0 0 139 0 0 139 0 0 139 0 0 139 0 0 139 0 0 143 7 8 139 0 0 139 0 0 139 0 0 139 0 0 
139 0 0 139 0 0 139 0 0 139 0 0 139 0 0 139 0 0 139 0 0 139 0 0 139 0 0 139 0 0 139 0 0 139 0 0 139 0 0 139 0 0 139 0 0 139 0 0 139 0 0 139 0 0 139 0 0 139 0 0 139 0 0 139 0 0 139 0 0 139 0 0 139 0 0 139 0 0 139 0 0 139 0 0 139 0 0 139 0 0 139 0 0 139 0 0 139 0 0 139 0 0 139 0 0 139 0 0 139 0 0 143 7 8 139 0 0 143 7 8 139 0 0 139 0 0 139 0 0 139 0 0 139 0 0 139 0 0 139 0 0 139 0 0 139 0 0 139 0 0 139 0 0 139 0 0 139 0 0 139 0 0 139 0 0 139 0 0 139 0 0 139 0 0 139 0 0 139 0 0 139 0 0 139 0 0 139 0 0 139 0 0 139 0 0 139 0 0 139 0 0 139 0 0 139 0 0 139 0 0 139 0 0 139 0 0 139 0 0 139 0 0 139 0 0 139 0 0 139 0 0 139 0 0 139 0 0 139 0 0 139 0 0 139 0 0 139 0 0 139 0 0 139 0 0 139 0 0 139 0 0 139 0 0 139 0 0 139 0 0 139 0 0 139 0 0 139 0 0 139 0 0 139 0 0 139 0 0 139 0 0 139 0 0 139 0 0 139 0 0 139 0 0 139 0 0 139 0 0 145 9 10 150 17 18 150 17 18 146 11 12 146 11 12 146 11 12 146 11 12 146 11 12 145 9 10 145 9 10 145 9 10 146 11 12 147 13 14 153 23 24 174 56 59 187 75 80 172 52 55 155 25 26 158 30 32 155 25 26 155 25 26 155 25 26 158 30 32 159 32 34 158 30 32 155 25 26 150 17 18 155 25 26 169 48 51 158 30 32 158 30 32 155 25 26 159 32 34 151 19 20 147 13 14 146 11 12 145 9 10 145 9 10 145 9 10 145 9 10 145 9 10 145 9 10 146 11 12 145 9 10 145 9 10 145 9 10 143 7 8 143 7 8 143 7 8 143 7 8 143 7 8 143 7 8 143 7 8 143 7 8 143 7 8 143 7 8 143 7 8 143 7 8 143 7 8 143 7 8 139 0 0 139 0 0 139 0 0 139 0 0 139 0 0 139 0 0 139 0 0 139 0 0 139 0 0 139 0 0 139 0 0 139 0 0 139 0 0 139 0 0 139 0 0 143 7 8 139 0 0 139 0 0 139 0 0 139 0 0 139 0 0 139 0 0 139 0 0 139 0 0 139 0 0 139 0 0 139 0 0 139 0 0 139 0 0 143 7 8 139 0 0 139 0 0 139 0 0 139 0 0 139 0 0 139 0 0 139 0 0 139 0 0 139 0 0 139 0 0 139 0 0 139 0 0 139 0 0 139 0 0 139 0 0 139 0 0 139 0 0 139 0 0 139 0 0 139 0 0 139 0 0 139 0 0 143 7 8 139 0 0 139 0 0 139 0 0 139 0 0 
139 0 0 139 0 0 139 0 0 139 0 0 139 0 0 139 0 0 139 0 0 139 0 0 139 0 0 139 0 0 139 0 0 139 0 0 139 0 0 139 0 0 143 7 8 139 0 0 139 0 0 139 0 0 139 0 0 139 0 0 139 0 0 139 0 0 139 0 0 139 0 0 139 0 0 139 0 0 139 0 0 139 0 0 139 0 0 139 0 0 143 7 8 143 7 8 139 0 0 139 0 0 143 7 8 139 0 0 139 0 0 139 0 0 143 7 8 139 0 0 139 0 0 139 0 0 139 0 0 139 0 0 139 0 0 139 0 0 143 7 8 139 0 0 139 0 0 139 0 0 139 0 0 143 7 8 139 0 0 143 7 8 143 7 8 143 7 8 139 0 0 139 0 0 139 0 0 139 0 0 139 0 0 143 7 8 143 7 8 139 0 0 139 0 0 139 0 0 139 0 0 139 0 0 139 0 0 139 0 0 139 0 0 139 0 0 139 0 0 139 0 0 139 0 0 143 7 8 139 0 0 139 0 0 139 0 0 139 0 0 139 0 0 139 0 0 139 0 0 139 0 0 139 0 0 139 0 0 139 0 0 139 0 0 139 0 0 139 0 0 139 0 0 139 0 0 143 7 8 139 0 0 139 0 0 139 0 0 139 0 0 139 0 0 139 0 0 139 0 0 139 0 0 139 0 0 139 0 0 139 0 0 147 13 14 157 29 30 153 23 24 147 13 14 146 11 12 146 11 12 146 11 12 146 11 12 145 9 10 146 11 12 147 13 14 146 11 12 146 11 12 151 19 20 159 32 34 169 48 51 153 23 24 146 11 12 147 13 14 150 17 18 153 23 24 153 23 24 155 25 26 157 29 30 155 25 26 151 19 20 150 17 18 158 30 32 169 48 51 158 30 32 158 30 32 151 19 20 150 17 18 150 17 18 150 17 18 150 17 18 146 11 12 145 9 10 143 7 8 143 7 8 143 7 8 143 7 8 143 7 8 143 7 8 143 7 8 145 9 10 143 7 8 143 7 8 143 7 8 143 7 8 143 7 8 143 7 8 143 7 8 143 7 8 143 7 8 143 7 8 139 0 0 143 7 8 143 7 8 139 0 0 143 7 8 143 7 8 139 0 0 139 0 0 139 0 0 139 0 0 139 0 0 139 0 0 139 0 0 139 0 0 139 0 0 139 0 0 139 0 0 143 7 8 139 0 0 139 0 0 139 0 0 139 0 0 139 0 0 139 0 0 139 0 0 139 0 0 143 7 8 143 7 8 139 0 0 139 0 0 139 0 0 139 0 0 139 0 0 139 0 0 139 0 0 139 0 0 139 0 0 143 7 8 139 0 0 139 0 0 139 0 0 139 0 0 139 0 0 139 0 0 139 0 0 139 0 0 139 0 0 139 0 0 139 0 0 139 0 0 139 0 0 139 0 0 143 7 8 139 0 0 143 7 8 139 0 0 139 0 0 139 0 0 143 7 8 143 7 8 
139 0 0 139 0 0 139 0 0 139 0 0 139 0 0 139 0 0 139 0 0 139 0 0 139 0 0 139 0 0 139 0 0 139 0 0 139 0 0 139 0 0 143 7 8 139 0 0 139 0 0 139 0 0 139 0 0 139 0 0 139 0 0 139 0 0 139 0 0 139 0 0 139 0 0 139 0 0 139 0 0 139 0 0 139 0 0 139 0 0 143 7 8 143 7 8 139 0 0 139 0 0 143 7 8 139 0 0 139 0 0 139 0 0 143 7 8 139 0 0 139 0 0 139 0 0 139 0 0 139 0 0 139 0 0 139 0 0 143 7 8 139 0 0 139 0 0 139 0 0 139 0 0 143 7 8 139 0 0 143 7 8 143 7 8 143 7 8 139 0 0 139 0 0 139 0 0 139 0 0 139 0 0 143 7 8 143 7 8 139 0 0 139 0 0 139 0 0 139 0 0 139 0 0 139 0 0 139 0 0 139 0 0 139 0 0 139 0 0 139 0 0 139 0 0 143 7 8 139 0 0 139 0 0 139 0 0 139 0 0 139 0 0 139 0 0 139 0 0 139 0 0 139 0 0 139 0 0 139 0 0 139 0 0 139 0 0 139 0 0 139 0 0 139 0 0 143 7 8 139 0 0 139 0 0 139 0 0 139 0 0 139 0 0 139 0 0 139 0 0 139 0 0 139 0 0 139 0 0 139 0 0 147 13 14 157 29 30 153 23 24 147 13 14 146 11 12 146 11 12 146 11 12 146 11 12 145 9 10 146 11 12 147 13 14 146 11 12 146 11 12 151 19 20 159 32 34 169 48 51 153 23 24 146 11 12 147 13 14 150 17 18 153 23 24 153 23 24 155 25 26 157 29 30 155 25 26 151 19 20 150 17 18 158 30 32 169 48 51 158 30 32 158 30 32 151 19 20 150 17 18 150 17 18 150 17 18 150 17 18 146 11 12 145 9 10 143 7 8 143 7 8 143 7 8 143 7 8 143 7 8 143 7 8 143 7 8 145 9 10 143 7 8 143 7 8 143 7 8 143 7 8 143 7 8 143 7 8 143 7 8 143 7 8 143 7 8 143 7 8 139 0 0 143 7 8 143 7 8 139 0 0 143 7 8 143 7 8 139 0 0 139 0 0 139 0 0 139 0 0 139 0 0 139 0 0 139 0 0 139 0 0 139 0 0 139 0 0 139 0 0 143 7 8 139 0 0 139 0 0 139 0 0 139 0 0 139 0 0 139 0 0 139 0 0 139 0 0 143 7 8 143 7 8 139 0 0 139 0 0 139 0 0 139 0 0 139 0 0 139 0 0 139 0 0 139 0 0 139 0 0 143 7 8 139 0 0 139 0 0 139 0 0 139 0 0 139 0 0 139 0 0 139 0 0 139 0 0 139 0 0 139 0 0 139 0 0 139 0 0 139 0 0 139 0 0 143 7 8 139 0 0 143 7 8 139 0 0 139 0 0 139 0 0 143 7 8 143 7 8 
139 0 0 139 0 0 139 0 0 139 0 0 139 0 0 143 7 8 139 0 0 139 0 0 139 0 0 139 0 0 139 0 0 139 0 0 139 0 0 139 0 0 139 0 0 139 0 0 139 0 0 139 0 0 139 0 0 139 0 0 139 0 0 139 0 0 139 0 0 139 0 0 139 0 0 139 0 0 139 0 0 139 0 0 139 0 0 139 0 0 139 0 0 139 0 0 139 0 0 139 0 0 139 0 0 139 0 0 139 0 0 139 0 0 139 0 0 139 0 0 139 0 0 139 0 0 139 0 0 139 0 0 139 0 0 143 7 8 139 0 0 139 0 0 139 0 0 139 0 0 139 0 0 139 0 0 139 0 0 143 7 8 139 0 0 139 0 0 139 0 0 139 0 0 139 0 0 139 0 0 139 0 0 139 0 0 139 0 0 139 0 0 139 0 0 139 0 0 139 0 0 139 0 0 139 0 0 139 0 0 139 0 0 139 0 0 139 0 0 139 0 0 139 0 0 139 0 0 139 0 0 139 0 0 139 0 0 139 0 0 139 0 0 139 0 0 139 0 0 139 0 0 139 0 0 139 0 0 139 0 0 139 0 0 139 0 0 139 0 0 139 0 0 139 0 0 139 0 0 139 0 0 139 0 0 139 0 0 139 0 0 139 0 0 139 0 0 139 0 0 139 0 0 139 0 0 139 0 0 139 0 0 146 11 12 159 32 34 194 87 92 190 81 86 150 17 18 146 11 12 146 11 12 145 9 10 146 11 12 147 13 14 146 11 12 146 11 12 145 9 10 145 9 10 147 13 14 169 48 51 159 32 34 150 17 18 147 13 14 147 13 14 151 19 20 153 23 24 157 29 30 158 30 32 155 25 26 158 30 32 157 29 30 151 19 20 155 25 26 153 23 24 151 19 20 146 11 12 151 19 20 151 19 20 151 19 20 150 17 18 147 13 14 146 11 12 145 9 10 145 9 10 145 9 10 145 9 10 145 9 10 143 7 8 143 7 8 143 7 8 143 7 8 143 7 8 143 7 8 143 7 8 143 7 8 143 7 8 143 7 8 139 0 0 143 7 8 143 7 8 143 7 8 139 0 0 139 0 0 143 7 8 139 0 0 139 0 0 139 0 0 143 7 8 143 7 8 139 0 0 139 0 0 143 7 8 139 0 0 139 0 0 139 0 0 143 7 8 139 0 0 139 0 0 139 0 0 139 0 0 139 0 0 139 0 0 139 0 0 139 0 0 139 0 0 139 0 0 139 0 0 139 0 0 139 0 0 139 0 0 139 0 0 139 0 0 139 0 0 139 0 0 139 0 0 139 0 0 139 0 0 143 7 8 143 7 8 139 0 0 139 0 0 139 0 0 139 0 0 139 0 0 139 0 0 139 0 0 139 0 0 143 7 8 139 0 0 139 0 0 143 7 8 139 0 0 139 0 0 139 0 0 139 0 0 139 0 0 139 0 0 139 0 0 139 0 0 139 0 0 
139 0 0 139 0 0 139 0 0 139 0 0 139 0 0 143 7 8 139 0 0 139 0 0 139 0 0 139 0 0 139 0 0 139 0 0 139 0 0 139 0 0 139 0 0 139 0 0 139 0 0 139 0 0 139 0 0 139 0 0 139 0 0 139 0 0 139 0 0 139 0 0 139 0 0 139 0 0 139 0 0 139 0 0 139 0 0 139 0 0 139 0 0 139 0 0 139 0 0 139 0 0 139 0 0 139 0 0 139 0 0 139 0 0 139 0 0 139 0 0 139 0 0 139 0 0 139 0 0 139 0 0 139 0 0 143 7 8 139 0 0 139 0 0 139 0 0 139 0 0 139 0 0 139 0 0 139 0 0 143 7 8 139 0 0 139 0 0 139 0 0 139 0 0 139 0 0 139 0 0 139 0 0 139 0 0 139 0 0 139 0 0 139 0 0 139 0 0 139 0 0 139 0 0 139 0 0 139 0 0 139 0 0 139 0 0 139 0 0 139 0 0 139 0 0 139 0 0 139 0 0 139 0 0 139 0 0 139 0 0 139 0 0 139 0 0 139 0 0 139 0 0 139 0 0 139 0 0 139 0 0 139 0 0 139 0 0 139 0 0 139 0 0 139 0 0 139 0 0 139 0 0 139 0 0 139 0 0 139 0 0 139 0 0 139 0 0 139 0 0 139 0 0 139 0 0 139 0 0 139 0 0 146 11 12 159 32 34 194 87 92 190 81 86 150 17 18 146 11 12 146 11 12 145 9 10 146 11 12 147 13 14 146 11 12 146 11 12 145 9 10 145 9 10 147 13 14 169 48 51 159 32 34 150 17 18 147 13 14 147 13 14 151 19 20 153 23 24 157 29 30 158 30 32 155 25 26 158 30 32 157 29 30 151 19 20 155 25 26 153 23 24 151 19 20 146 11 12 151 19 20 151 19 20 151 19 20 150 17 18 147 13 14 146 11 12 145 9 10 145 9 10 145 9 10 145 9 10 145 9 10 143 7 8 143 7 8 143 7 8 143 7 8 143 7 8 143 7 8 143 7 8 143 7 8 143 7 8 143 7 8 139 0 0 143 7 8 143 7 8 143 7 8 139 0 0 139 0 0 143 7 8 139 0 0 139 0 0 139 0 0 143 7 8 143 7 8 139 0 0 139 0 0 143 7 8 139 0 0 139 0 0 139 0 0 143 7 8 139 0 0 139 0 0 139 0 0 139 0 0 139 0 0 139 0 0 139 0 0 139 0 0 139 0 0 139 0 0 139 0 0 139 0 0 139 0 0 139 0 0 139 0 0 139 0 0 139 0 0 139 0 0 139 0 0 139 0 0 139 0 0 143 7 8 143 7 8 139 0 0 139 0 0 139 0 0 139 0 0 139 0 0 139 0 0 139 0 0 139 0 0 143 7 8 139 0 0 139 0 0 143 7 8 139 0 0 139 0 0 139 0 0 139 0 0 139 0 0 139 0 0 139 0 0 139 0 0 139 0 0 
139 0 0 139 0 0 139 0 0 139 0 0 139 0 0 139 0 0 139 0 0 139 0 0 139 0 0 139 0 0 139 0 0 139 0 0 139 0 0 139 0 0 139 0 0 139 0 0 139 0 0 139 0 0 139 0 0 139 0 0 139 0 0 139 0 0 139 0 0 139 0 0 139 0 0 139 0 0 139 0 0 139 0 0 139 0 0 139 0 0 139 0 0 139 0 0 139 0 0 139 0 0 139 0 0 139 0 0 139 0 0 139 0 0 143 7 8 139 0 0 139 0 0 139 0 0 139 0 0 139 0 0 139 0 0 139 0 0 139 0 0 143 7 8 139 0 0 139 0 0 139 0 0 139 0 0 139 0 0 143 7 8 143 7 8 139 0 0 139 0 0 139 0 0 139 0 0 139 0 0 139 0 0 143 7 8 139 0 0 139 0 0 139 0 0 139 0 0 143 7 8 139 0 0 139 0 0 139 0 0 139 0 0 139 0 0 139 0 0 139 0 0 139 0 0 143 7 8 139 0 0 139 0 0 139 0 0 139 0 0 139 0 0 139 0 0 139 0 0 139 0 0 139 0 0 139 0 0 139 0 0 143 7 8 139 0 0 139 0 0 139 0 0 139 0 0 139 0 0 139 0 0 139 0 0 139 0 0 139 0 0 139 0 0 139 0 0 139 0 0 139 0 0 139 0 0 139 0 0 139 0 0 143 7 8 151 19 20 168 46 49 169 48 51 155 25 26 146 11 12 146 11 12 155 25 26 151 19 20 145 9 10 145 9 10 145 9 10 145 9 10 145 9 10 146 11 12 146 11 12 145 9 10 145 9 10 146 11 12 147 13 14 155 25 26 159 32 34 159 32 34 155 25 26 155 25 26 155 25 26 153 23 24 157 29 30 153 23 24 147 13 14 151 19 20 147 13 14 151 19 20 150 17 18 146 11 12 150 17 18 150 17 18 147 13 14 145 9 10 145 9 10 145 9 10 146 11 12 145 9 10 143 7 8 143 7 8 143 7 8 143 7 8 143 7 8 143 7 8 143 7 8 143 7 8 143 7 8 143 7 8 143 7 8 143 7 8 143 7 8 139 0 0 139 0 0 139 0 0 143 7 8 139 0 0 143 7 8 139 0 0 139 0 0 143 7 8 143 7 8 139 0 0 139 0 0 139 0 0 139 0 0 139 0 0 143 7 8 139 0 0 139 0 0 139 0 0 139 0 0 139 0 0 139 0 0 139 0 0 139 0 0 139 0 0 139 0 0 139 0 0 139 0 0 139 0 0 139 0 0 139 0 0 139 0 0 139 0 0 139 0 0 139 0 0 139 0 0 139 0 0 139 0 0 139 0 0 143 7 8 139 0 0 139 0 0 139 0 0 143 7 8 139 0 0 139 0 0 139 0 0 139 0 0 139 0 0 139 0 0 139 0 0 139 0 0 139 0 0 139 0 0 139 0 0 139 0 0 139 0 0 143 7 8 139 0 0 139 0 0 
139 0 0 139 0 0 139 0 0 139 0 0 139 0 0 139 0 0 139 0 0 139 0 0 139 0 0 139 0 0 139 0 0 139 0 0 139 0 0 139 0 0 139 0 0 139 0 0 139 0 0 139 0 0 139 0 0 139 0 0 139 0 0 139 0 0 139 0 0 139 0 0 139 0 0 139 0 0 139 0 0 139 0 0 139 0 0 139 0 0 139 0 0 139 0 0 139 0 0 139 0 0 139 0 0 139 0 0 139 0 0 139 0 0 143 7 8 139 0 0 139 0 0 139 0 0 139 0 0 139 0 0 139 0 0 139 0 0 139 0 0 143 7 8 139 0 0 139 0 0 139 0 0 139 0 0 139 0 0 143 7 8 143 7 8 139 0 0 139 0 0 139 0 0 139 0 0 139 0 0 139 0 0 143 7 8 139 0 0 139 0 0 139 0 0 139 0 0 143 7 8 139 0 0 139 0 0 139 0 0 139 0 0 139 0 0 139 0 0 139 0 0 139 0 0 143 7 8 139 0 0 139 0 0 139 0 0 139 0 0 139 0 0 139 0 0 139 0 0 139 0 0 139 0 0 139 0 0 139 0 0 143 7 8 139 0 0 139 0 0 139 0 0 139 0 0 139 0 0 139 0 0 139 0 0 139 0 0 139 0 0 139 0 0 139 0 0 139 0 0 139 0 0 139 0 0 139 0 0 139 0 0 143 7 8 151 19 20 168 46 49 169 48 51 155 25 26 146 11 12 146 11 12 155 25 26 151 19 20 145 9 10 145 9 10 145 9 10 145 9 10 145 9 10 146 11 12 146 11 12 145 9 10 145 9 10 146 11 12 147 13 14 155 25 26 159 32 34 159 32 34 155 25 26 155 25 26 155 25 26 153 23 24 157 29 30 153 23 24 147 13 14 151 19 20 147 13 14 151 19 20 150 17 18 146 11 12 150 17 18 150 17 18 147 13 14 145 9 10 145 9 10 145 9 10 146 11 12 145 9 10 143 7 8 143 7 8 143 7 8 143 7 8 143 7 8 143 7 8 143 7 8 143 7 8 143 7 8 143 7 8 143 7 8 143 7 8 143 7 8 139 0 0 139 0 0 139 0 0 143 7 8 139 0 0 143 7 8 139 0 0 139 0 0 143 7 8 143 7 8 139 0 0 139 0 0 139 0 0 139 0 0 139 0 0 143 7 8 139 0 0 139 0 0 139 0 0 139 0 0 139 0 0 139 0 0 139 0 0 139 0 0 139 0 0 139 0 0 139 0 0 139 0 0 139 0 0 139 0 0 139 0 0 139 0 0 139 0 0 139 0 0 139 0 0 139 0 0 139 0 0 139 0 0 139 0 0 143 7 8 139 0 0 139 0 0 139 0 0 143 7 8 139 0 0 139 0 0 139 0 0 139 0 0 139 0 0 139 0 0 139 0 0 139 0 0 139 0 0 139 0 0 139 0 0 139 0 0 139 0 0 143 7 8 139 0 0 139 0 0 
139 0 0 139 0 0 139 0 0 139 0 0 139 0 0 139 0 0 139 0 0 139 0 0 139 0 0 139 0 0 139 0 0 139 0 0 139 0 0 139 0 0 139 0 0 139 0 0 139 0 0 139 0 0 139 0 0 139 0 0 139 0 0 139 0 0 139 0 0 139 0 0 139 0 0 139 0 0 139 0 0 139 0 0 139 0 0 139 0 0 139 0 0 139 0 0 139 0 0 139 0 0 139 0 0 139 0 0 139 0 0 139 0 0 143 7 8 139 0 0 139 0 0 139 0 0 139 0 0 139 0 0 139 0 0 139 0 0 139 0 0 139 0 0 139 0 0 139 0 0 139 0 0 143 7 8 139 0 0 139 0 0 139 0 0 139 0 0 139 0 0 139 0 0 139 0 0 139 0 0 139 0 0 139 0 0 139 0 0 139 0 0 139 0 0 139 0 0 139 0 0 139 0 0 139 0 0 139 0 0 139 0 0 139 0 0 139 0 0 139 0 0 139 0 0 139 0 0 139 0 0 139 0 0 143 7 8 139 0 0 139 0 0 139 0 0 139 0 0 139 0 0 139 0 0 139 0 0 139 0 0 139 0 0 139 0 0 139 0 0 139 0 0 139 0 0 139 0 0 139 0 0 139 0 0 139 0 0 139 0 0 139 0 0 139 0 0 139 0 0 139 0 0 139 0 0 139 0 0 139 0 0 139 0 0 145 9 10 158 30 32 169 48 51 151 19 20 146 11 12 146 11 12 146 11 12 147 13 14 147 13 14 146 11 12 146 11 12 146 11 12 145 9 10 145 9 10 143 7 8 145 9 10 146 11 12 146 11 12 146 11 12 151 19 20 153 23 24 153 23 24 150 17 18 155 25 26 151 19 20 150 17 18 147 13 14 153 23 24 151 19 20 147 13 14 150 17 18 153 23 24 155 25 26 150 17 18 147 13 14 150 17 18 150 17 18 151 19 20 150 17 18 147 13 14 146 11 12 145 9 10 145 9 10 145 9 10 143 7 8 143 7 8 143 7 8 139 0 0 143 7 8 143 7 8 143 7 8 143 7 8 143 7 8 143 7 8 143 7 8 143 7 8 139 0 0 143 7 8 139 0 0 143 7 8 143 7 8 139 0 0 139 0 0 139 0 0 143 7 8 139 0 0 139 0 0 143 7 8 139 0 0 139 0 0 139 0 0 139 0 0 139 0 0 139 0 0 139 0 0 139 0 0 139 0 0 139 0 0 139 0 0 139 0 0 139 0 0 143 7 8 139 0 0 139 0 0 139 0 0 139 0 0 139 0 0 139 0 0 139 0 0 139 0 0 143 7 8 139 0 0 139 0 0 139 0 0 139 0 0 139 0 0 139 0 0 139 0 0 139 0 0 143 7 8 139 0 0 139 0 0 139 0 0 139 0 0 143 7 8 139 0 0 139 0 0 143 7 8 139 0 0 139 0 0 139 0 0 139 0 0 139 0 0 139 0 0 139 0 0 
139 0 0 139 0 0 139 0 0 139 0 0 139 0 0 139 0 0 139 0 0 139 0 0 139 0 0 139 0 0 139 0 0 139 0 0 139 0 0 139 0 0 139 0 0 139 0 0 139 0 0 139 0 0 139 0 0 139 0 0 139 0 0 139 0 0 139 0 0 139 0 0 139 0 0 139 0 0 139 0 0 139 0 0 139 0 0 139 0 0 139 0 0 139 0 0 139 0 0 139 0 0 139 0 0 139 0 0 139 0 0 139 0 0 143 7 8 139 0 0 139 0 0 139 0 0 139 0 0 139 0 0 139 0 0 139 0 0 139 0 0 139 0 0 139 0 0 139 0 0 139 0 0 143 7 8 139 0 0 139 0 0 139 0 0 139 0 0 139 0 0 139 0 0 139 0 0 139 0 0 139 0 0 139 0 0 139 0 0 139 0 0 139 0 0 139 0 0 139 0 0 139 0 0 139 0 0 139 0 0 139 0 0 139 0 0 139 0 0 139 0 0 139 0 0 139 0 0 139 0 0 139 0 0 143 7 8 139 0 0 139 0 0 139 0 0 139 0 0 139 0 0 139 0 0 139 0 0 139 0 0 139 0 0 139 0 0 139 0 0 139 0 0 139 0 0 139 0 0 139 0 0 139 0 0 139 0 0 139 0 0 139 0 0 139 0 0 139 0 0 139 0 0 139 0 0 139 0 0 139 0 0 139 0 0 145 9 10 158 30 32 169 48 51 151 19 20 146 11 12 146 11 12 146 11 12 147 13 14 147 13 14 146 11 12 146 11 12 146 11 12 145 9 10 145 9 10 143 7 8 145 9 10 146 11 12 146 11 12 146 11 12 151 19 20 153 23 24 153 23 24 150 17 18 155 25 26 151 19 20 150 17 18 147 13 14 153 23 24 151 19 20 147 13 14 150 17 18 153 23 24 155 25 26 150 17 18 147 13 14 150 17 18 150 17 18 151 19 20 150 17 18 147 13 14 146 11 12 145 9 10 145 9 10 145 9 10 143 7 8 143 7 8 143 7 8 139 0 0 143 7 8 143 7 8 143 7 8 143 7 8 143 7 8 143 7 8 143 7 8 143 7 8 139 0 0 143 7 8 139 0 0 143 7 8 143 7 8 139 0 0 139 0 0 139 0 0 143 7 8 139 0 0 139 0 0 143 7 8 139 0 0 139 0 0 139 0 0 139 0 0 139 0 0 139 0 0 139 0 0 139 0 0 139 0 0 139 0 0 139 0 0 139 0 0 139 0 0 143 7 8 139 0 0 139 0 0 139 0 0 139 0 0 139 0 0 139 0 0 139 0 0 139 0 0 143 7 8 139 0 0 139 0 0 139 0 0 139 0 0 139 0 0 139 0 0 139 0 0 139 0 0 143 7 8 139 0 0 139 0 0 139 0 0 139 0 0 143 7 8 139 0 0 139 0 0 143 7 8 139 0 0 139 0 0 139 0 0 139 0 0 139 0 0 139 0 0 139 0 0 
143 7 8 139 0 0 139 0 0 139 0 0 139 0 0 143 7 8 143 7 8 139 0 0 139 0 0 139 0 0 143 7 8 139 0 0 139 0 0 143 7 8 139 0 0 139 0 0 139 0 0 139 0 0 139 0 0 139 0 0 139 0 0 139 0 0 139 0 0 139 0 0 139 0 0 139 0 0 139 0 0 139 0 0 139 0 0 143 7 8 139 0 0 139 0 0 139 0 0 139 0 0 139 0 0 139 0 0 139 0 0 139 0 0 139 0 0 139 0 0 139 0 0 139 0 0 139 0 0 139 0 0 139 0 0 139 0 0 139 0 0 139 0 0 139 0 0 139 0 0 139 0 0 139 0 0 139 0 0 143 7 8 139 0 0 143 7 8 139 0 0 139 0 0 139 0 0 139 0 0 139 0 0 139 0 0 139 0 0 139 0 0 139 0 0 139 0 0 139 0 0 139 0 0 139 0 0 139 0 0 143 7 8 139 0 0 139 0 0 139 0 0 139 0 0 139 0 0 139 0 0 139 0 0 139 0 0 139 0 0 139 0 0 139 0 0 139 0 0 139 0 0 139 0 0 139 0 0 139 0 0 139 0 0 139 0 0 139 0 0 139 0 0 139 0 0 139 0 0 139 0 0 143 7 8 139 0 0 139 0 0 139 0 0 139 0 0 139 0 0 139 0 0 139 0 0 139 0 0 139 0 0 139 0 0 143 7 8 147 13 14 155 25 26 155 25 26 157 29 30 153 23 24 147 13 14 146 11 12 147 13 14 157 29 30 153 23 24 146 11 12 146 11 12 145 9 10 146 11 12 146 11 12 146 11 12 145 9 10 146 11 12 146 11 12 146 11 12 147 13 14 153 23 24 150 17 18 147 13 14 150 17 18 150 17 18 150 17 18 150 17 18 150 17 18 150 17 18 147 13 14 147 13 14 147 13 14 147 13 14 150 17 18 150 17 18 151 19 20 151 19 20 150 17 18 146 11 12 145 9 10 145 9 10 145 9 10 143 7 8 143 7 8 143 7 8 143 7 8 143 7 8 143 7 8 143 7 8 143 7 8 143 7 8 143 7 8 143 7 8 139 0 0 143 7 8 143 7 8 139 0 0 143 7 8 139 0 0 139 0 0 139 0 0 139 0 0 139 0 0 139 0 0 139 0 0 139 0 0 139 0 0 139 0 0 139 0 0 139 0 0 139 0 0 139 0 0 139 0 0 139 0 0 139 0 0 139 0 0 139 0 0 139 0 0 139 0 0 139 0 0 143 7 8 139 0 0 139 0 0 143 7 8 139 0 0 139 0 0 143 7 8 139 0 0 139 0 0 139 0 0 139 0 0 139 0 0 139 0 0 143 7 8 139 0 0 139 0 0 139 0 0 139 0 0 139 0 0 139 0 0 139 0 0 143 7 8 139 0 0 139 0 0 143 7 8 143 7 8 139 0 0 139 0 0 139 0 0 143 7 8 139 0 0 139 0 0 139 0 0 
143 7 8 139 0 0 139 0 0 139 0 0 139 0 0 143 7 8 143 7 8 139 0 0 139 0 0 139 0 0 143 7 8 139 0 0 139 0 0 143 7 8 139 0 0 139 0 0 139 0 0 139 0 0 139 0 0 139 0 0 139 0 0 139 0 0 139 0 0 139 0 0 139 0 0 139 0 0 139 0 0 139 0 0 139 0 0 143 7 8 139 0 0 139 0 0 139 0 0 139 0 0 139 0 0 139 0 0 139 0 0 139 0 0 139 0 0 139 0 0 139 0 0 139 0 0 139 0 0 139 0 0 139 0 0 139 0 0 139 0 0 139 0 0 139 0 0 139 0 0 139 0 0 139 0 0 139 0 0 143 7 8 139 0 0 143 7 8 139 0 0 139 0 0 139 0 0 139 0 0 139 0 0 139 0 0 139 0 0 139 0 0 139 0 0 139 0 0 139 0 0 139 0 0 139 0 0 139 0 0 143 7 8 139 0 0 139 0 0 139 0 0 139 0 0 139 0 0 139 0 0 139 0 0 139 0 0 139 0 0 139 0 0 139 0 0 139 0 0 139 0 0 139 0 0 139 0 0 139 0 0 139 0 0 139 0 0 139 0 0 139 0 0 139 0 0 139 0 0 139 0 0 143 7 8 139 0 0 139 0 0 139 0 0 139 0 0 139 0 0 139 0 0 139 0 0 139 0 0 139 0 0 139 0 0 143 7 8 147 13 14 155 25 26 155 25 26 157 29 30 153 23 24 147 13 14 146 11 12 147 13 14 157 29 30 153 23 24 146 11 12 146 11 12 145 9 10 146 11 12 146 11 12 146 11 12 145 9 10 146 11 12 146 11 12 146 11 12 147 13 14 153 23 24 150 17 18 147 13 14 150 17 18 150 17 18 150 17 18 150 17 18 150 17 18 150 17 18 147 13 14 147 13 14 147 13 14 147 13 14 150 17 18 150 17 18 151 19 20 151 19 20 150 17 18 146 11 12 145 9 10 145 9 10 145 9 10 143 7 8 143 7 8 143 7 8 143 7 8 143 7 8 143 7 8 143 7 8 143 7 8 143 7 8 143 7 8 143 7 8 139 0 0 143 7 8 143 7 8 139 0 0 143 7 8 139 0 0 139 0 0 139 0 0 139 0 0 139 0 0 139 0 0 139 0 0 139 0 0 139 0 0 139 0 0 139 0 0 139 0 0 139 0 0 139 0 0 139 0 0 139 0 0 139 0 0 139 0 0 139 0 0 139 0 0 139 0 0 139 0 0 143 7 8 139 0 0 139 0 0 143 7 8 139 0 0 139 0 0 143 7 8 139 0 0 139 0 0 139 0 0 139 0 0 139 0 0 139 0 0 143 7 8 139 0 0 139 0 0 139 0 0 139 0 0 139 0 0 139 0 0 139 0 0 143 7 8 139 0 0 139 0 0 143 7 8 143 7 8 139 0 0 139 0 0 139 0 0 143 7 8 139 0 0 139 0 0 139 0 0 
139 0 0 139 0 0 139 0 0 139 0 0 139 0 0 139 0 0 143 7 8 139 0 0 139 0 0 139 0 0 139 0 0 139 0 0 139 0 0 139 0 0 139 0 0 139 0 0 139 0 0 139 0 0 139 0 0 139 0 0 139 0 0 139 0 0 139 0 0 139 0 0 139 0 0 139 0 0 139 0 0 139 0 0 139 0 0 139 0 0 139 0 0 139 0 0 139 0 0 139 0 0 139 0 0 139 0 0 143 7 8 139 0 0 139 0 0 139 0 0 139 0 0 139 0 0 139 0 0 139 0 0 139 0 0 139 0 0 139 0 0 139 0 0 139 0 0 139 0 0 139 0 0 143 7 8 139 0 0 139 0 0 139 0 0 139 0 0 139 0 0 143 7 8 139 0 0 139 0 0 139 0 0 139 0 0 139 0 0 139 0 0 139 0 0 139 0 0 139 0 0 139 0 0 139 0 0 139 0 0 139 0 0 139 0 0 139 0 0 139 0 0 139 0 0 139 0 0 139 0 0 139 0 0 139 0 0 139 0 0 143 7 8 139 0 0 139 0 0 139 0 0 139 0 0 143 7 8 139 0 0 139 0 0 139 0 0 139 0 0 139 0 0 139 0 0 139 0 0 139 0 0 139 0 0 139 0 0 139 0 0 139 0 0 139 0 0 139 0 0 139 0 0 139 0 0 139 0 0 139 0 0 139 0 0 139 0 0 143 7 8 146 11 12 150 17 18 153 23 24 151 19 20 146 11 12 146 11 12 146 11 12 147 13 14 150 17 18 150 17 18 146 11 12 145 9 10 145 9 10 146 11 12 147 13 14 146 11 12 146 11 12 146 11 12 146 11 12 146 11 12 147 13 14 150 17 18 150 17 18 147 13 14 150 17 18 151 19 20 151 19 20 153 23 24 147 13 14 147 13 14 146 11 12 147 13 14 150 17 18 150 17 18 150 17 18 150 17 18 150 17 18 150 17 18 150 17 18 146 11 12 145 9 10 143 7 8 143 7 8 143 7 8 145 9 10 145 9 10 143 7 8 143 7 8 143 7 8 143 7 8 143 7 8 139 0 0 143 7 8 143 7 8 143 7 8 143 7 8 139 0 0 139 0 0 139 0 0 139 0 0 139 0 0 139 0 0 143 7 8 139 0 0 143 7 8 143 7 8 143 7 8 139 0 0 139 0 0 139 0 0 139 0 0 139 0 0 139 0 0 139 0 0 143 7 8 143 7 8 139 0 0 139 0 0 139 0 0 139 0 0 139 0 0 139 0 0 139 0 0 139 0 0 143 7 8 139 0 0 139 0 0 139 0 0 143 7 8 143 7 8 143 7 8 139 0 0 143 7 8 139 0 0 139 0 0 139 0 0 139 0 0 139 0 0 139 0 0 139 0 0 139 0 0 139 0 0 139 0 0 139 0 0 139 0 0 139 0 0 143 7 8 139 0 0 143 7 8 139 0 0 139 0 0 139 0 0 139 0 0 
139 0 0 139 0 0 139 0 0 139 0 0 139 0 0 139 0 0 143 7 8 139 0 0 139 0 0 139 0 0 139 0 0 139 0 0 139 0 0 139 0 0 139 0 0 139 0 0 139 0 0 139 0 0 139 0 0 139 0 0 139 0 0 139 0 0 139 0 0 139 0 0 139 0 0 139 0 0 139 0 0 139 0 0 139 0 0 139 0 0 139 0 0 139 0 0 139 0 0 139 0 0 139 0 0 139 0 0 143 7 8 139 0 0 139 0 0 139 0 0 139 0 0 139 0 0 139 0 0 139 0 0 139 0 0 139 0 0 139 0 0 139 0 0 139 0 0 139 0 0 139 0 0 143 7 8 139 0 0 139 0 0 139 0 0 139 0 0 139 0 0 143 7 8 139 0 0 139 0 0 139 0 0 139 0 0 139 0 0 139 0 0 139 0 0 139 0 0 139 0 0 139 0 0 139 0 0 139 0 0 139 0 0 139 0 0 139 0 0 139 0 0 139 0 0 139 0 0 139 0 0 139 0 0 139 0 0 139 0 0 143 7 8 139 0 0 139 0 0 139 0 0 139 0 0 143 7 8 139 0 0 139 0 0 139 0 0 139 0 0 139 0 0 139 0 0 139 0 0 139 0 0 139 0 0 139 0 0 139 0 0 139 0 0 139 0 0 139 0 0 139 0 0 139 0 0 139 0 0 139 0 0 139 0 0 139 0 0 143 7 8 146 11 12 150 17 18 153 23 24 151 19 20 146 11 12 146 11 12 146 11 12 147 13 14 150 17 18 150 17 18 146 11 12 145 9 10 145 9 10 146 11 12 147 13 14 146 11 12 146 11 12 146 11 12 146 11 12 146 11 12 147 13 14 150 17 18 150 17 18 147 13 14 150 17 18 151 19 20 151 19 20 153 23 24 147 13 14 147 13 14 146 11 12 147 13 14 150 17 18 150 17 18 150 17 18 150 17 18 150 17 18 150 17 18 150 17 18 146 11 12 145 9 10 143 7 8 143 7 8 143 7 8 145 9 10 145 9 10 143 7 8 143 7 8 143 7 8 143 7 8 143 7 8 139 0 0 143 7 8 143 7 8 143 7 8 143 7 8 139 0 0 139 0 0 139 0 0 139 0 0 139 0 0 139 0 0 143 7 8 139 0 0 143 7 8 143 7 8 143 7 8 139 0 0 139 0 0 139 0 0 139 0 0 139 0 0 139 0 0 139 0 0 143 7 8 143 7 8 139 0 0 139 0 0 139 0 0 139 0 0 139 0 0 139 0 0 139 0 0 139 0 0 143 7 8 139 0 0 139 0 0 139 0 0 143 7 8 143 7 8 143 7 8 139 0 0 143 7 8 139 0 0 139 0 0 139 0 0 139 0 0 139 0 0 139 0 0 139 0 0 139 0 0 139 0 0 139 0 0 139 0 0 139 0 0 139 0 0 143 7 8 139 0 0 143 7 8 139 0 0 139 0 0 139 0 0 139 0 0 
139 0 0 139 0 0 139 0 0 139 0 0 139 0 0 139 0 0 139 0 0 139 0 0 139 0 0 139 0 0 139 0 0 139 0 0 139 0 0 139 0 0 139 0 0 139 0 0 139 0 0 139 0 0 139 0 0 139 0 0 139 0 0 139 0 0 139 0 0 139 0 0 139 0 0 139 0 0 139 0 0 139 0 0 139 0 0 139 0 0 139 0 0 139 0 0 139 0 0 139 0 0 139 0 0 139 0 0 139 0 0 139 0 0 143 7 8 139 0 0 139 0 0 139 0 0 139 0 0 139 0 0 139 0 0 139 0 0 139 0 0 139 0 0 139 0 0 139 0 0 139 0 0 143 7 8 139 0 0 139 0 0 139 0 0 139 0 0 139 0 0 139 0 0 139 0 0 139 0 0 143 7 8 139 0 0 139 0 0 139 0 0 139 0 0 139 0 0 139 0 0 139 0 0 139 0 0 139 0 0 139 0 0 139 0 0 139 0 0 139 0 0 139 0 0 139 0 0 139 0 0 139 0 0 139 0 0 139 0 0 139 0 0 139 0 0 139 0 0 139 0 0 139 0 0 139 0 0 139 0 0 139 0 0 139 0 0 139 0 0 139 0 0 139 0 0 139 0 0 139 0 0 139 0 0 139 0 0 139 0 0 139 0 0 139 0 0 139 0 0 139 0 0 139 0 0 139 0 0 139 0 0 139 0 0 139 0 0 139 0 0 139 0 0 146 11 12 150 17 18 150 17 18 147 13 14 147 13 14 147 13 14 153 23 24 153 23 24 150 17 18 146 11 12 147 13 14 146 11 12 146 11 12 146 11 12 147 13 14 146 11 12 147 13 14 151 19 20 150 17 18 147 13 14 150 17 18 150 17 18 153 23 24 153 23 24 147 13 14 146 11 12 147 13 14 147 13 14 147 13 14 147 13 14 150 17 18 150 17 18 146 11 12 146 11 12 147 13 14 147 13 14 147 13 14 147 13 14 150 17 18 147 13 14 146 11 12 145 9 10 143 7 8 143 7 8 143 7 8 143 7 8 143 7 8 143 7 8 143 7 8 143 7 8 139 0 0 139 0 0 139 0 0 139 0 0 139 0 0 139 0 0 139 0 0 139 0 0 139 0 0 139 0 0 139 0 0 139 0 0 139 0 0 143 7 8 139 0 0 139 0 0 139 0 0 139 0 0 143 7 8 143 7 8 139 0 0 143 7 8 139 0 0 139 0 0 139 0 0 139 0 0 139 0 0 139 0 0 139 0 0 139 0 0 143 7 8 139 0 0 139 0 0 139 0 0 139 0 0 139 0 0 139 0 0 139 0 0 139 0 0 139 0 0 143 7 8 143 7 8 139 0 0 139 0 0 139 0 0 139 0 0 139 0 0 139 0 0 139 0 0 143 7 8 143 7 8 139 0 0 139 0 0 139 0 0 139 0 0 143 7 8 139 0 0 139 0 0 139 0 0 139 0 0 143 7 8 139 0 0 
139 0 0 139 0 0 139 0 0 139 0 0 139 0 0 139 0 0 139 0 0 139 0 0 139 0 0 139 0 0 139 0 0 139 0 0 139 0 0 139 0 0 139 0 0 139 0 0 139 0 0 139 0 0 139 0 0 139 0 0 139 0 0 139 0 0 139 0 0 139 0 0 139 0 0 139 0 0 139 0 0 139 0 0 139 0 0 139 0 0 139 0 0 139 0 0 139 0 0 139 0 0 139 0 0 139 0 0 139 0 0 139 0 0 143 7 8 139 0 0 139 0 0 139 0 0 139 0 0 139 0 0 139 0 0 139 0 0 139 0 0 139 0 0 139 0 0 139 0 0 139 0 0 143 7 8 139 0 0 139 0 0 139 0 0 139 0 0 139 0 0 139 0 0 139 0 0 139 0 0 143 7 8 139 0 0 139 0 0 139 0 0 139 0 0 139 0 0 139 0 0 139 0 0 139 0 0 139 0 0 139 0 0 139 0 0 139 0 0 139 0 0 139 0 0 139 0 0 139 0 0 139 0 0 139 0 0 139 0 0 139 0 0 139 0 0 139 0 0 139 0 0 139 0 0 139 0 0 139 0 0 139 0 0 139 0 0 139 0 0 139 0 0 139 0 0 139 0 0 139 0 0 139 0 0 139 0 0 139 0 0 139 0 0 139 0 0 139 0 0 139 0 0 139 0 0 139 0 0 139 0 0 139 0 0 139 0 0 139 0 0 139 0 0 146 11 12 150 17 18 150 17 18 147 13 14 147 13 14 147 13 14 153 23 24 153 23 24 150 17 18 146 11 12 147 13 14 146 11 12 146 11 12 146 11 12 147 13 14 146 11 12 147 13 14 151 19 20 150 17 18 147 13 14 150 17 18 150 17 18 153 23 24 153 23 24 147 13 14 146 11 12 147 13 14 147 13 14 147 13 14 147 13 14 150 17 18 150 17 18 146 11 12 146 11 12 147 13 14 147 13 14 147 13 14 147 13 14 150 17 18 147 13 14 146 11 12 145 9 10 143 7 8 143 7 8 143 7 8 143 7 8 143 7 8 143 7 8 143 7 8 143 7 8 139 0 0 139 0 0 139 0 0 139 0 0 139 0 0 139 0 0 139 0 0 139 0 0 139 0 0 139 0 0 139 0 0 139 0 0 139 0 0 143 7 8 139 0 0 139 0 0 139 0 0 139 0 0 143 7 8 143 7 8 139 0 0 143 7 8 139 0 0 139 0 0 139 0 0 139 0 0 139 0 0 139 0 0 139 0 0 139 0 0 143 7 8 139 0 0 139 0 0 139 0 0 139 0 0 139 0 0 139 0 0 139 0 0 139 0 0 139 0 0 143 7 8 143 7 8 139 0 0 139 0 0 139 0 0 139 0 0 139 0 0 139 0 0 139 0 0 143 7 8 143 7 8 139 0 0 139 0 0 139 0 0 139 0 0 143 7 8 139 0 0 139 0 0 139 0 0 139 0 0 143 7 8 139 0 0 
139 0 0 139 0 0 139 0 0 139 0 0 139 0 0 139 0 0 139 0 0 139 0 0 139 0 0 139 0 0 139 0 0 139 0 0 139 0 0 139 0 0 139 0 0 139 0 0 139 0 0 139 0 0 139 0 0 139 0 0 139 0 0 139 0 0 139 0 0 139 0 0 139 0 0 139 0 0 139 0 0 139 0 0 139 0 0 139 0 0 139 0 0 139 0 0 139 0 0 139 0 0 139 0 0 139 0 0 139 0 0 139 0 0 139 0 0 139 0 0 139 0 0 139 0 0 139 0 0 139 0 0 139 0 0 139 0 0 143 7 8 139 0 0 139 0 0 139 0 0 139 0 0 139 0 0 139 0 0 139 0 0 139 0 0 139 0 0 139 0 0 139 0 0 139 0 0 139 0 0 139 0 0 143 7 8 139 0 0 139 0 0 139 0 0 139 0 0 139 0 0 139 0 0 139 0 0 139 0 0 139 0 0 139 0 0 139 0 0 143 7 8 139 0 0 139 0 0 139 0 0 139 0 0 139 0 0 139 0 0 139 0 0 139 0 0 143 7 8 139 0 0 139 0 0 139 0 0 139 0 0 139 0 0 139 0 0 139 0 0 139 0 0 139 0 0 139 0 0 139 0 0 139 0 0 139 0 0 139 0 0 139 0 0 139 0 0 139 0 0 139 0 0 139 0 0 139 0 0 139 0 0 139 0 0 139 0 0 139 0 0 139 0 0 139 0 0 147 13 14 153 23 24 150 17 18 150 17 18 147 13 14 147 13 14 147 13 14 146 11 12 147 13 14 155 25 26 150 17 18 146 11 12 146 11 12 146 11 12 146 11 12 147 13 14 150 17 18 146 11 12 146 11 12 150 17 18 147 13 14 147 13 14 150 17 18 147 13 14 150 17 18 147 13 14 150 17 18 147 13 14 147 13 14 151 19 20 150 17 18 147 13 14 146 11 12 147 13 14 150 17 18 150 17 18 151 19 20 151 19 20 153 23 24 153 23 24 150 17 18 146 11 12 145 9 10 143 7 8 143 7 8 143 7 8 143 7 8 143 7 8 143 7 8 139 0 0 139 0 0 143 7 8 143 7 8 143 7 8 143 7 8 139 0 0 143 7 8 139 0 0 139 0 0 139 0 0 139 0 0 139 0 0 143 7 8 139 0 0 139 0 0 139 0 0 139 0 0 139 0 0 139 0 0 139 0 0 139 0 0 139 0 0 139 0 0 139 0 0 143 7 8 139 0 0 139 0 0 143 7 8 143 7 8 143 7 8 139 0 0 139 0 0 139 0 0 139 0 0 139 0 0 139 0 0 143 7 8 143 7 8 139 0 0 143 7 8 143 7 8 139 0 0 143 7 8 139 0 0 139 0 0 139 0 0 139 0 0 139 0 0 143 7 8 139 0 0 139 0 0 139 0 0 143 7 8 139 0 0 139 0 0 139 0 0 143 7 8 139 0 0 139 0 0 139 0 0 139 0 0 
139 0 0 139 0 0 139 0 0 139 0 0 139 0 0 139 0 0 139 0 0 139 0 0 139 0 0 139 0 0 139 0 0 139 0 0 139 0 0 139 0 0 139 0 0 139 0 0 139 0 0 139 0 0 139 0 0 139 0 0 139 0 0 139 0 0 139 0 0 139 0 0 139 0 0 139 0 0 139 0 0 139 0 0 139 0 0 139 0 0 139 0 0 139 0 0 139 0 0 139 0 0 139 0 0 139 0 0 139 0 0 139 0 0 139 0 0 139 0 0 139 0 0 139 0 0 139 0 0 139 0 0 139 0 0 139 0 0 143 7 8 139 0 0 139 0 0 139 0 0 139 0 0 139 0 0 139 0 0 139 0 0 139 0 0 139 0 0 139 0 0 139 0 0 139 0 0 139 0 0 139 0 0 143 7 8 139 0 0 139 0 0 139 0 0 139 0 0 139 0 0 139 0 0 139 0 0 139 0 0 139 0 0 139 0 0 139 0 0 143 7 8 139 0 0 139 0 0 139 0 0 139 0 0 139 0 0 139 0 0 139 0 0 139 0 0 143 7 8 139 0 0 139 0 0 139 0 0 139 0 0 139 0 0 139 0 0 139 0 0 139 0 0 139 0 0 139 0 0 139 0 0 139 0 0 139 0 0 139 0 0 139 0 0 139 0 0 139 0 0 139 0 0 139 0 0 139 0 0 139 0 0 139 0 0 139 0 0 139 0 0 139 0 0 139 0 0 147 13 14 153 23 24 150 17 18 150 17 18 147 13 14 147 13 14 147 13 14 146 11 12 147 13 14 155 25 26 150 17 18 146 11 12 146 11 12 146 11 12 146 11 12 147 13 14 150 17 18 146 11 12 146 11 12 150 17 18 147 13 14 147 13 14 150 17 18 147 13 14 150 17 18 147 13 14 150 17 18 147 13 14 147 13 14 151 19 20 150 17 18 147 13 14 146 11 12 147 13 14 150 17 18 150 17 18 151 19 20 151 19 20 153 23 24 153 23 24 150 17 18 146 11 12 145 9 10 143 7 8 143 7 8 143 7 8 143 7 8 143 7 8 143 7 8 139 0 0 139 0 0 143 7 8 143 7 8 143 7 8 143 7 8 139 0 0 143 7 8 139 0 0 139 0 0 139 0 0 139 0 0 139 0 0 143 7 8 139 0 0 139 0 0 139 0 0 139 0 0 139 0 0 139 0 0 139 0 0 139 0 0 139 0 0 139 0 0 139 0 0 143 7 8 139 0 0 139 0 0 143 7 8 143 7 8 143 7 8 139 0 0 139 0 0 139 0 0 139 0 0 139 0 0 139 0 0 143 7 8 143 7 8 139 0 0 143 7 8 143 7 8 139 0 0 143 7 8 139 0 0 139 0 0 139 0 0 139 0 0 139 0 0 143 7 8 139 0 0 139 0 0 139 0 0 143 7 8 139 0 0 139 0 0 139 0 0 143 7 8 139 0 0 139 0 0 139 0 0 139 0 0 
139 0 0 139 0 0 139 0 0 139 0 0 139 0 0 139 0 0 139 0 0 139 0 0 139 0 0 139 0 0 139 0 0 139 0 0 139 0 0 139 0 0 139 0 0 139 0 0 139 0 0 139 0 0 143 7 8 139 0 0 139 0 0 139 0 0 139 0 0 139 0 0 139 0 0 139 0 0 139 0 0 139 0 0 139 0 0 139 0 0 139 0 0 139 0 0 139 0 0 139 0 0 139 0 0 139 0 0 139 0 0 139 0 0 139 0 0 139 0 0 139 0 0 139 0 0 139 0 0 139 0 0 139 0 0 139 0 0 139 0 0 139 0 0 139 0 0 139 0 0 139 0 0 139 0 0 139 0 0 139 0 0 139 0 0 139 0 0 139 0 0 139 0 0 139 0 0 139 0 0 139 0 0 139 0 0 143 7 8 139 0 0 139 0 0 139 0 0 139 0 0 139 0 0 139 0 0 139 0 0 139 0 0 139 0 0 139 0 0 139 0 0 139 0 0 139 0 0 139 0 0 139 0 0 139 0 0 139 0 0 139 0 0 139 0 0 139 0 0 139 0 0 139 0 0 139 0 0 139 0 0 139 0 0 139 0 0 139 0 0 139 0 0 139 0 0 139 0 0 139 0 0 139 0 0 139 0 0 139 0 0 139 0 0 139 0 0 139 0 0 139 0 0 139 0 0 139 0 0 139 0 0 139 0 0 139 0 0 139 0 0 139 0 0 139 0 0 139 0 0 150 17 18 155 25 26 153 23 24 147 13 14 146 11 12 146 11 12 150 17 18 147 13 14 147 13 14 151 19 20 146 11 12 145 9 10 145 9 10 146 11 12 146 11 12 146 11 12 146 11 12 150 17 18 150 17 18 150 17 18 150 17 18 147 13 14 147 13 14 147 13 14 147 13 14 150 17 18 150 17 18 151 19 20 151 19 20 147 13 14 147 13 14 147 13 14 150 17 18 155 25 26 151 19 20 151 19 20 151 19 20 155 25 26 157 29 30 153 23 24 147 13 14 147 13 14 146 11 12 143 7 8 143 7 8 143 7 8 143 7 8 143 7 8 143 7 8 139 0 0 143 7 8 143 7 8 143 7 8 139 0 0 139 0 0 139 0 0 139 0 0 139 0 0 139 0 0 139 0 0 139 0 0 139 0 0 139 0 0 139 0 0 139 0 0 143 7 8 139 0 0 139 0 0 139 0 0 139 0 0 139 0 0 139 0 0 139 0 0 139 0 0 139 0 0 139 0 0 139 0 0 139 0 0 143 7 8 143 7 8 143 7 8 143 7 8 139 0 0 139 0 0 139 0 0 139 0 0 139 0 0 139 0 0 139 0 0 139 0 0 139 0 0 139 0 0 139 0 0 139 0 0 139 0 0 139 0 0 139 0 0 139 0 0 139 0 0 139 0 0 143 7 8 139 0 0 139 0 0 139 0 0 143 7 8 139 0 0 139 0 0 139 0 0 139 0 0 139 0 0 
139 0 0 139 0 0 139 0 0 139 0 0 139 0 0 139 0 0 139 0 0 139 0 0 139 0 0 139 0 0 139 0 0 139 0 0 139 0 0 139 0 0 139 0 0 139 0 0 139 0 0 139 0 0 143 7 8 139 0 0 139 0 0 139 0 0 139 0 0 139 0 0 139 0 0 139 0 0 139 0 0 139 0 0 139 0 0 139 0 0 139 0 0 139 0 0 139 0 0 139 0 0 139 0 0 139 0 0 139 0 0 139 0 0 139 0 0 139 0 0 139 0 0 139 0 0 139 0 0 139 0 0 139 0 0 139 0 0 139 0 0 139 0 0 139 0 0 139 0 0 139 0 0 139 0 0 139 0 0 139 0 0 139 0 0 139 0 0 139 0 0 139 0 0 139 0 0 139 0 0 139 0 0 139 0 0 143 7 8 139 0 0 139 0 0 139 0 0 139 0 0 139 0 0 139 0 0 139 0 0 139 0 0 139 0 0 139 0 0 139 0 0 139 0 0 139 0 0 139 0 0 139 0 0 139 0 0 139 0 0 139 0 0 139 0 0 139 0 0 139 0 0 139 0 0 139 0 0 139 0 0 139 0 0 139 0 0 139 0 0 139 0 0 139 0 0 139 0 0 139 0 0 139 0 0 139 0 0 139 0 0 139 0 0 139 0 0 139 0 0 139 0 0 139 0 0 139 0 0 139 0 0 139 0 0 139 0 0 139 0 0 139 0 0 139 0 0 139 0 0 150 17 18 155 25 26 153 23 24 147 13 14 146 11 12 146 11 12 150 17 18 147 13 14 147 13 14 151 19 20 146 11 12 145 9 10 145 9 10 146 11 12 146 11 12 146 11 12 146 11 12 150 17 18 150 17 18 150 17 18 150 17 18 147 13 14 147 13 14 147 13 14 147 13 14 150 17 18 150 17 18 151 19 20 151 19 20 147 13 14 147 13 14 147 13 14 150 17 18 155 25 26 151 19 20 151 19 20 151 19 20 155 25 26 157 29 30 153 23 24 147 13 14 147 13 14 146 11 12 143 7 8 143 7 8 143 7 8 143 7 8 143 7 8 143 7 8 139 0 0 143 7 8 143 7 8 143 7 8 139 0 0 139 0 0 139 0 0 139 0 0 139 0 0 139 0 0 139 0 0 139 0 0 139 0 0 139 0 0 139 0 0 139 0 0 143 7 8 139 0 0 139 0 0 139 0 0 139 0 0 139 0 0 139 0 0 139 0 0 139 0 0 139 0 0 139 0 0 139 0 0 139 0 0 143 7 8 143 7 8 143 7 8 143 7 8 139 0 0 139 0 0 139 0 0 139 0 0 139 0 0 139 0 0 139 0 0 139 0 0 139 0 0 139 0 0 139 0 0 139 0 0 139 0 0 139 0 0 139 0 0 139 0 0 139 0 0 139 0 0 143 7 8 139 0 0 139 0 0 139 0 0 143 7 8 139 0 0 139 0 0 139 0 0 139 0 0 139 0 0 
139 0 0 139 0 0 139 0 0 139 0 0 139 0 0 143 7 8 139 0 0 139 0 0 139 0 0 139 0 0 139 0 0 139 0 0 139 0 0 139 0 0 139 0 0 139 0 0 139 0 0 139 0 0 139 0 0 139 0 0 143 7 8 139 0 0 143 7 8 139 0 0 139 0 0 139 0 0 139 0 0 139 0 0 139 0 0 139 0 0 139 0 0 139 0 0 139 0 0 139 0 0 139 0 0 139 0 0 139 0 0 139 0 0 139 0 0 139 0 0 139 0 0 139 0 0 139 0 0 143 7 8 139 0 0 139 0 0 139 0 0 139 0 0 139 0 0 139 0 0 143 7 8 139 0 0 139 0 0 139 0 0 139 0 0 139 0 0 139 0 0 139 0 0 139 0 0 139 0 0 139 0 0 139 0 0 139 0 0 139 0 0 139 0 0 139 0 0 139 0 0 143 7 8 139 0 0 139 0 0 139 0 0 139 0 0 139 0 0 139 0 0 139 0 0 143 7 8 139 0 0 139 0 0 139 0 0 139 0 0 139 0 0 139 0 0 139 0 0 139 0 0 139 0 0 139 0 0 139 0 0 139 0 0 139 0 0 139 0 0 139 0 0 139 0 0 139 0 0 139 0 0 139 0 0 139 0 0 139 0 0 139 0 0 139 0 0 139 0 0 139 0 0 139 0 0 139 0 0 139 0 0 139 0 0 139 0 0 139 0 0 139 0 0 139 0 0 139 0 0 139 0 0 145 9 10 147 13 14 151 19 20 147 13 14 146 11 12 147 13 14 147 13 14 146 11 12 146 11 12 150 17 18 150 17 18 146 11 12 145 9 10 145 9 10 145 9 10 146 11 12 146 11 12 145 9 10 147 13 14 145 9 10 146 11 12 146 11 12 147 13 14 147 13 14 146 11 12 150 17 18 153 23 24 151 19 20 147 13 14 146 11 12 146 11 12 146 11 12 146 11 12 150 17 18 153 23 24 153 23 24 153 23 24 155 25 26 153 23 24 150 17 18 147 13 14 147 13 14 146 11 12 145 9 10 143 7 8 143 7 8 139 0 0 143 7 8 143 7 8 143 7 8 143 7 8 143 7 8 139 0 0 139 0 0 139 0 0 139 0 0 143 7 8 143 7 8 139 0 0 139 0 0 139 0 0 143 7 8 139 0 0 139 0 0 139 0 0 139 0 0 143 7 8 139 0 0 139 0 0 139 0 0 139 0 0 143 7 8 139 0 0 139 0 0 139 0 0 139 0 0 139 0 0 139 0 0 143 7 8 139 0 0 139 0 0 139 0 0 139 0 0 139 0 0 139 0 0 139 0 0 139 0 0 139 0 0 139 0 0 139 0 0 139 0 0 139 0 0 139 0 0 139 0 0 139 0 0 139 0 0 139 0 0 139 0 0 139 0 0 143 7 8 139 0 0 139 0 0 139 0 0 139 0 0 139 0 0 139 0 0 139 0 0 139 0 0 139 0 0 
139 0 0 139 0 0 139 0 0 139 0 0 139 0 0 143 7 8 139 0 0 139 0 0 139 0 0 139 0 0 139 0 0 139 0 0 139 0 0 139 0 0 139 0 0 139 0 0 139 0 0 139 0 0 139 0 0 139 0 0 143 7 8 139 0 0 143 7 8 139 0 0 139 0 0 139 0 0 139 0 0 139 0 0 139 0 0 139 0 0 139 0 0 139 0 0 139 0 0 139 0 0 139 0 0 139 0 0 139 0 0 139 0 0 139 0 0 139 0 0 139 0 0 139 0 0 139 0 0 143 7 8 139 0 0 139 0 0 139 0 0 139 0 0 139 0 0 139 0 0 143 7 8 139 0 0 139 0 0 139 0 0 139 0 0 139 0 0 139 0 0 139 0 0 139 0 0 139 0 0 139 0 0 139 0 0 139 0 0 139 0 0 139 0 0 139 0 0 139 0 0 143 7 8 139 0 0 139 0 0 139 0 0 139 0 0 139 0 0 139 0 0 139 0 0 143 7 8 139 0 0 139 0 0 139 0 0 139 0 0 139 0 0 139 0 0 139 0 0 139 0 0 139 0 0 139 0 0 139 0 0 139 0 0 139 0 0 139 0 0 139 0 0 139 0 0 139 0 0 139 0 0 139 0 0 139 0 0 139 0 0 139 0 0 139 0 0 139 0 0 139 0 0 139 0 0 139 0 0 139 0 0 139 0 0 139 0 0 139 0 0 139 0 0 139 0 0 139 0 0 139 0 0 145 9 10 147 13 14 151 19 20 147 13 14 146 11 12 147 13 14 147 13 14 146 11 12 146 11 12 150 17 18 150 17 18 146 11 12 145 9 10 145 9 10 145 9 10 146 11 12 146 11 12 145 9 10 147 13 14 145 9 10 146 11 12 146 11 12 147 13 14 147 13 14 146 11 12 150 17 18 153 23 24 151 19 20 147 13 14 146 11 12 146 11 12 146 11 12 146 11 12 150 17 18 153 23 24 153 23 24 153 23 24 155 25 26 153 23 24 150 17 18 147 13 14 147 13 14 146 11 12 145 9 10 143 7 8 143 7 8 139 0 0 143 7 8 143 7 8 143 7 8 143 7 8 143 7 8 139 0 0 139 0 0 139 0 0 139 0 0 143 7 8 143 7 8 139 0 0 139 0 0 139 0 0 143 7 8 139 0 0 139 0 0 139 0 0 139 0 0 143 7 8 139 0 0 139 0 0 139 0 0 139 0 0 143 7 8 139 0 0 139 0 0 139 0 0 139 0 0 139 0 0 139 0 0 143 7 8 139 0 0 139 0 0 139 0 0 139 0 0 139 0 0 139 0 0 139 0 0 139 0 0 139 0 0 139 0 0 139 0 0 139 0 0 139 0 0 139 0 0 139 0 0 139 0 0 139 0 0 139 0 0 139 0 0 139 0 0 143 7 8 139 0 0 139 0 0 139 0 0 139 0 0 139 0 0 139 0 0 139 0 0 139 0 0 139 0 0 
139 0 0 139 0 0 139 0 0 139 0 0 139 0 0 139 0 0 139 0 0 139 0 0 139 0 0 139 0 0 139 0 0 139 0 0 139 0 0 139 0 0 139 0 0 139 0 0 139 0 0 139 0 0 139 0 0 139 0 0 139 0 0 139 0 0 139 0 0 139 0 0 139 0 0 139 0 0 139 0 0 139 0 0 139 0 0 139 0 0 139 0 0 139 0 0 139 0 0 139 0 0 139 0 0 139 0 0 139 0 0 139 0 0 139 0 0 139 0 0 139 0 0 139 0 0 139 0 0 139 0 0 139 0 0 139 0 0 143 7 8 139 0 0 139 0 0 139 0 0 139 0 0 139 0 0 139 0 0 139 0 0 139 0 0 139 0 0 139 0 0 139 0 0 139 0 0 139 0 0 139 0 0 139 0 0 139 0 0 139 0 0 139 0 0 139 0 0 139 0 0 139 0 0 139 0 0 139 0 0 139 0 0 139 0 0 139 0 0 139 0 0 139 0 0 139 0 0 139 0 0 139 0 0 139 0 0 139 0 0 139 0 0 139 0 0 139 0 0 143 7 8 139 0 0 139 0 0 139 0 0 139 0 0 139 0 0 139 0 0 139 0 0 139 0 0 139 0 0 139 0 0 139 0 0 139 0 0 139 0 0 139 0 0 139 0 0 139 0 0 139 0 0 139 0 0 139 0 0 139 0 0 139 0 0 139 0 0 139 0 0 139 0 0 139 0 0 139 0 0 139 0 0 139 0 0 143 7 8 146 11 12 150 17 18 151 19 20 147 13 14 146 11 12 146 11 12 150 17 18 159 32 34 168 46 49 158 30 32 150 17 18 146 11 12 145 9 10 146 11 12 145 9 10 145 9 10 145 9 10 146 11 12 150 17 18 147 13 14 147 13 14 146 11 12 146 11 12 150 17 18 151 19 20 151 19 20 147 13 14 150 17 18 150 17 18 147 13 14 150 17 18 151 19 20 155 25 26 155 25 26 157 29 30 155 25 26 151 19 20 150 17 18 150 17 18 151 19 20 153 23 24 147 13 14 145 9 10 143 7 8 143 7 8 143 7 8 143 7 8 143 7 8 143 7 8 139 0 0 139 0 0 143 7 8 139 0 0 139 0 0 139 0 0 139 0 0 139 0 0 139 0 0 139 0 0 139 0 0 139 0 0 143 7 8 139 0 0 139 0 0 139 0 0 139 0 0 139 0 0 139 0 0 139 0 0 139 0 0 143 7 8 139 0 0 139 0 0 139 0 0 139 0 0 139 0 0 139 0 0 139 0 0 139 0 0 139 0 0 139 0 0 139 0 0 139 0 0 139 0 0 139 0 0 139 0 0 139 0 0 139 0 0 139 0 0 139 0 0 139 0 0 139 0 0 139 0 0 139 0 0 139 0 0 139 0 0 139 0 0 139 0 0 139 0 0 139 0 0 139 0 0 139 0 0 139 0 0 139 0 0 139 0 0 143 7 8 139 0 0 
139 0 0 139 0 0 139 0 0 139 0 0 139 0 0 139 0 0 139 0 0 139 0 0 139 0 0 139 0 0 139 0 0 139 0 0 139 0 0 139 0 0 139 0 0 139 0 0 139 0 0 139 0 0 139 0 0 139 0 0 139 0 0 139 0 0 139 0 0 139 0 0 139 0 0 139 0 0 139 0 0 139 0 0 139 0 0 139 0 0 139 0 0 139 0 0 139 0 0 139 0 0 139 0 0 139 0 0 139 0 0 139 0 0 139 0 0 139 0 0 139 0 0 139 0 0 139 0 0 139 0 0 139 0 0 139 0 0 143 7 8 139 0 0 139 0 0 139 0 0 139 0 0 139 0 0 139 0 0 139 0 0 139 0 0 139 0 0 139 0 0 139 0 0 139 0 0 139 0 0 139 0 0 139 0 0 139 0 0 139 0 0 139 0 0 139 0 0 139 0 0 139 0 0 139 0 0 139 0 0 139 0 0 139 0 0 139 0 0 139 0 0 139 0 0 139 0 0 139 0 0 139 0 0 139 0 0 139 0 0 139 0 0 139 0 0 139 0 0 143 7 8 139 0 0 139 0 0 139 0 0 139 0 0 139 0 0 139 0 0 139 0 0 139 0 0 139 0 0 139 0 0 139 0 0 139 0 0 139 0 0 139 0 0 139 0 0 139 0 0 139 0 0 139 0 0 139 0 0 139 0 0 139 0 0 139 0 0 139 0 0 139 0 0 139 0 0 139 0 0 139 0 0 139 0 0 143 7 8 146 11 12 150 17 18 151 19 20 147 13 14 146 11 12 146 11 12 150 17 18 159 32 34 168 46 49 158 30 32 150 17 18 146 11 12 145 9 10 146 11 12 145 9 10 145 9 10 145 9 10 146 11 12 150 17 18 147 13 14 147 13 14 146 11 12 146 11 12 150 17 18 151 19 20 151 19 20 147 13 14 150 17 18 150 17 18 147 13 14 150 17 18 151 19 20 155 25 26 155 25 26 157 29 30 155 25 26 151 19 20 150 17 18 150 17 18 151 19 20 153 23 24 147 13 14 145 9 10 143 7 8 143 7 8 143 7 8 143 7 8 143 7 8 143 7 8 139 0 0 139 0 0 143 7 8 139 0 0 139 0 0 139 0 0 139 0 0 139 0 0 139 0 0 139 0 0 139 0 0 139 0 0 143 7 8 139 0 0 139 0 0 139 0 0 139 0 0 139 0 0 139 0 0 139 0 0 139 0 0 143 7 8 139 0 0 139 0 0 139 0 0 139 0 0 139 0 0 139 0 0 139 0 0 139 0 0 139 0 0 139 0 0 139 0 0 139 0 0 139 0 0 139 0 0 139 0 0 139 0 0 139 0 0 139 0 0 139 0 0 139 0 0 139 0 0 139 0 0 139 0 0 139 0 0 139 0 0 139 0 0 139 0 0 139 0 0 139 0 0 139 0 0 139 0 0 139 0 0 139 0 0 139 0 0 143 7 8 139 0 0 
139 0 0 139 0 0 139 0 0 139 0 0 139 0 0 139 0 0 139 0 0 139 0 0 139 0 0 139 0 0 139 0 0 139 0 0 139 0 0 139 0 0 139 0 0 139 0 0 139 0 0 139 0 0 139 0 0 139 0 0 139 0 0 139 0 0 139 0 0 139 0 0 139 0 0 139 0 0 139 0 0 139 0 0 139 0 0 143 7 8 139 0 0 139 0 0 139 0 0 139 0 0 139 0 0 139 0 0 139 0 0 139 0 0 139 0 0 139 0 0 139 0 0 139 0 0 139 0 0 139 0 0 139 0 0 139 0 0 139 0 0 139 0 0 139 0 0 139 0 0 139 0 0 139 0 0 139 0 0 139 0 0 139 0 0 139 0 0 139 0 0 139 0 0 139 0 0 139 0 0 139 0 0 139 0 0 139 0 0 139 0 0 139 0 0 139 0 0 139 0 0 139 0 0 139 0 0 139 0 0 139 0 0 139 0 0 139 0 0 139 0 0 139 0 0 139 0 0 139 0 0 139 0 0 139 0 0 139 0 0 139 0 0 139 0 0 139 0 0 139 0 0 139 0 0 139 0 0 139 0 0 139 0 0 139 0 0 139 0 0 139 0 0 139 0 0 139 0 0 139 0 0 139 0 0 139 0 0 139 0 0 139 0 0 139 0 0 139 0 0 139 0 0 139 0 0 139 0 0 139 0 0 139 0 0 139 0 0 139 0 0 139 0 0 139 0 0 139 0 0 139 0 0 139 0 0 139 0 0 139 0 0 143 7 8 146 11 12 147 13 14 147 13 14 147 13 14 150 17 18 183 69 73 184 71 75 169 48 51 150 17 18 150 17 18 147 13 14 147 13 14 146 11 12 145 9 10 146 11 12 146 11 12 146 11 12 145 9 10 146 11 12 146 11 12 147 13 14 147 13 14 150 17 18 147 13 14 147 13 14 147 13 14 147 13 14 151 19 20 150 17 18 150 17 18 150 17 18 151 19 20 153 23 24 155 25 26 155 25 26 151 19 20 150 17 18 150 17 18 151 19 20 147 13 14 150 17 18 150 17 18 146 11 12 143 7 8 143 7 8 143 7 8 143 7 8 143 7 8 143 7 8 143 7 8 143 7 8 139 0 0 143 7 8 139 0 0 139 0 0 143 7 8 139 0 0 143 7 8 143 7 8 143 7 8 139 0 0 139 0 0 139 0 0 139 0 0 139 0 0 139 0 0 139 0 0 139 0 0 139 0 0 139 0 0 139 0 0 139 0 0 139 0 0 143 7 8 139 0 0 139 0 0 143 7 8 139 0 0 139 0 0 139 0 0 139 0 0 139 0 0 139 0 0 143 7 8 143 7 8 139 0 0 139 0 0 139 0 0 139 0 0 143 7 8 139 0 0 139 0 0 139 0 0 139 0 0 139 0 0 139 0 0 139 0 0 139 0 0 139 0 0 143 7 8 139 0 0 139 0 0 139 0 0 143 7 8 139 0 0 
139 0 0 139 0 0 139 0 0 139 0 0 139 0 0 139 0 0 139 0 0 139 0 0 139 0 0 139 0 0 139 0 0 139 0 0 139 0 0 139 0 0 139 0 0 139 0 0 139 0 0 139 0 0 139 0 0 139 0 0 139 0 0 139 0 0 139 0 0 139 0 0 139 0 0 139 0 0 139 0 0 139 0 0 139 0 0 143 7 8 139 0 0 139 0 0 139 0 0 139 0 0 139 0 0 139 0 0 139 0 0 139 0 0 139 0 0 139 0 0 139 0 0 139 0 0 139 0 0 139 0 0 139 0 0 139 0 0 139 0 0 139 0 0 139 0 0 139 0 0 139 0 0 139 0 0 139 0 0 139 0 0 139 0 0 139 0 0 139 0 0 139 0 0 139 0 0 139 0 0 139 0 0 139 0 0 139 0 0 139 0 0 139 0 0 139 0 0 139 0 0 139 0 0 139 0 0 139 0 0 139 0 0 139 0 0 139 0 0 139 0 0 139 0 0 139 0 0 139 0 0 139 0 0 139 0 0 139 0 0 139 0 0 139 0 0 139 0 0 139 0 0 139 0 0 139 0 0 139 0 0 139 0 0 139 0 0 139 0 0 139 0 0 139 0 0 139 0 0 139 0 0 139 0 0 139 0 0 139 0 0 139 0 0 139 0 0 139 0 0 139 0 0 139 0 0 139 0 0 139 0 0 139 0 0 139 0 0 139 0 0 139 0 0 139 0 0 139 0 0 139 0 0 139 0 0 139 0 0 139 0 0 143 7 8 146 11 12 147 13 14 147 13 14 147 13 14 150 17 18 183 69 73 184 71 75 169 48 51 150 17 18 150 17 18 147 13 14 147 13 14 146 11 12 145 9 10 146 11 12 146 11 12 146 11 12 145 9 10 146 11 12 146 11 12 147 13 14 147 13 14 150 17 18 147 13 14 147 13 14 147 13 14 147 13 14 151 19 20 150 17 18 150 17 18 150 17 18 151 19 20 153 23 24 155 25 26 155 25 26 151 19 20 150 17 18 150 17 18 151 19 20 147 13 14 150 17 18 150 17 18 146 11 12 143 7 8 143 7 8 143 7 8 143 7 8 143 7 8 143 7 8 143 7 8 143 7 8 139 0 0 143 7 8 139 0 0 139 0 0 143 7 8 139 0 0 143 7 8 143 7 8 143 7 8 139 0 0 139 0 0 139 0 0 139 0 0 139 0 0 139 0 0 139 0 0 139 0 0 139 0 0 139 0 0 139 0 0 139 0 0 139 0 0 143 7 8 139 0 0 139 0 0 143 7 8 139 0 0 139 0 0 139 0 0 139 0 0 139 0 0 139 0 0 143 7 8 143 7 8 139 0 0 139 0 0 139 0 0 139 0 0 143 7 8 139 0 0 139 0 0 139 0 0 139 0 0 139 0 0 139 0 0 139 0 0 139 0 0 139 0 0 143 7 8 139 0 0 139 0 0 139 0 0 143 7 8 139 0 0 
139 0 0 139 0 0 139 0 0 139 0 0 139 0 0 139 0 0 139 0 0 143 7 8 139 0 0 139 0 0 139 0 0 139 0 0 139 0 0 139 0 0 139 0 0 139 0 0 139 0 0 139 0 0 139 0 0 139 0 0 139 0 0 139 0 0 139 0 0 139 0 0 139 0 0 139 0 0 139 0 0 139 0 0 139 0 0 139 0 0 139 0 0 139 0 0 139 0 0 139 0 0 139 0 0 139 0 0 139 0 0 139 0 0 139 0 0 139 0 0 139 0 0 139 0 0 139 0 0 139 0 0 139 0 0 139 0 0 139 0 0 139 0 0 139 0 0 139 0 0 139 0 0 139 0 0 139 0 0 139 0 0 139 0 0 139 0 0 139 0 0 139 0 0 139 0 0 139 0 0 139 0 0 139 0 0 139 0 0 139 0 0 139 0 0 139 0 0 139 0 0 139 0 0 139 0 0 139 0 0 139 0 0 139 0 0 139 0 0 139 0 0 139 0 0 139 0 0 139 0 0 139 0 0 139 0 0 139 0 0 139 0 0 139 0 0 139 0 0 143 7 8 139 0 0 139 0 0 139 0 0 139 0 0 139 0 0 139 0 0 139 0 0 139 0 0 139 0 0 139 0 0 139 0 0 139 0 0 139 0 0 139 0 0 139 0 0 139 0 0 139 0 0 139 0 0 139 0 0 139 0 0 139 0 0 139 0 0 139 0 0 139 0 0 139 0 0 139 0 0 139 0 0 139 0 0 139 0 0 139 0 0 139 0 0 143 7 8 146 11 12 151 19 20 157 29 30 158 30 32 157 29 30 153 23 24 147 13 14 147 13 14 146 11 12 153 23 24 147 13 14 146 11 12 147 13 14 147 13 14 147 13 14 147 13 14 147 13 14 146 11 12 146 11 12 147 13 14 147 13 14 147 13 14 147 13 14 147 13 14 147 13 14 147 13 14 150 17 18 151 19 20 151 19 20 151 19 20 150 17 18 151 19 20 150 17 18 150 17 18 150 17 18 151 19 20 150 17 18 147 13 14 147 13 14 151 19 20 155 25 26 151 19 20 147 13 14 146 11 12 143 7 8 143 7 8 139 0 0 139 0 0 143 7 8 143 7 8 139 0 0 139 0 0 139 0 0 143 7 8 139 0 0 143 7 8 139 0 0 139 0 0 139 0 0 139 0 0 139 0 0 139 0 0 139 0 0 139 0 0 139 0 0 143 7 8 139 0 0 139 0 0 139 0 0 139 0 0 139 0 0 139 0 0 139 0 0 139 0 0 139 0 0 139 0 0 139 0 0 139 0 0 139 0 0 139 0 0 139 0 0 139 0 0 139 0 0 139 0 0 139 0 0 139 0 0 139 0 0 139 0 0 139 0 0 139 0 0 139 0 0 139 0 0 139 0 0 139 0 0 139 0 0 139 0 0 143 7 8 139 0 0 139 0 0 139 0 0 139 0 0 139 0 0 139 0 0 143 7 8 
139 0 0 139 0 0 139 0 0 139 0 0 139 0 0 139 0 0 139 0 0 143 7 8 139 0 0 139 0 0 139 0 0 139 0 0 139 0 0 139 0 0 139 0 0 139 0 0 139 0 0 139 0 0 139 0 0 139 0 0 139 0 0 139 0 0 139 0 0 139 0 0 139 0 0 139 0 0 139 0 0 139 0 0 139 0 0 139 0 0 139 0 0 139 0 0 139 0 0 139 0 0 139 0 0 139 0 0 139 0 0 139 0 0 139 0 0 139 0 0 139 0 0 139 0 0 139 0 0 139 0 0 139 0 0 139 0 0 139 0 0 139 0 0 139 0 0 139 0 0 139 0 0 139 0 0 139 0 0 139 0 0 139 0 0 139 0 0 139 0 0 139 0 0 139 0 0 139 0 0 139 0 0 139 0 0 139 0 0 139 0 0 139 0 0 139 0 0 139 0 0 139 0 0 139 0 0 139 0 0 139 0 0 139 0 0 139 0 0 139 0 0 139 0 0 139 0 0 139 0 0 139 0 0 139 0 0 139 0 0 139 0 0 139 0 0 139 0 0 143 7 8 139 0 0 139 0 0 139 0 0 139 0 0 139 0 0 139 0 0 139 0 0 139 0 0 139 0 0 139 0 0 139 0 0 139 0 0 139 0 0 139 0 0 139 0 0 139 0 0 139 0 0 139 0 0 139 0 0 139 0 0 139 0 0 139 0 0 139 0 0 139 0 0 139 0 0 139 0 0 139 0 0 139 0 0 139 0 0 139 0 0 139 0 0 143 7 8 146 11 12 151 19 20 157 29 30 158 30 32 157 29 30 153 23 24 147 13 14 147 13 14 146 11 12 153 23 24 147 13 14 146 11 12 147 13 14 147 13 14 147 13 14 147 13 14 147 13 14 146 11 12 146 11 12 147 13 14 147 13 14 147 13 14 147 13 14 147 13 14 147 13 14 147 13 14 150 17 18 151 19 20 151 19 20 151 19 20 150 17 18 151 19 20 150 17 18 150 17 18 150 17 18 151 19 20 150 17 18 147 13 14 147 13 14 151 19 20 155 25 26 151 19 20 147 13 14 146 11 12 143 7 8 143 7 8 139 0 0 139 0 0 143 7 8 143 7 8 139 0 0 139 0 0 139 0 0 143 7 8 139 0 0 143 7 8 139 0 0 139 0 0 139 0 0 139 0 0 139 0 0 139 0 0 139 0 0 139 0 0 139 0 0 143 7 8 139 0 0 139 0 0 139 0 0 139 0 0 139 0 0 139 0 0 139 0 0 139 0 0 139 0 0 139 0 0 139 0 0 139 0 0 139 0 0 139 0 0 139 0 0 139 0 0 139 0 0 139 0 0 139 0 0 139 0 0 139 0 0 139 0 0 139 0 0 139 0 0 139 0 0 139 0 0 139 0 0 139 0 0 139 0 0 139 0 0 143 7 8 139 0 0 139 0 0 139 0 0 139 0 0 139 0 0 139 0 0 143 7 8 
143 7 8 139 0 0 139 0 0 139 0 0 139 0 0 139 0 0 143 7 8 139 0 0 139 0 0 139 0 0 139 0 0 139 0 0 139 0 0 139 0 0 143 7 8 139 0 0 139 0 0 139 0 0 139 0 0 139 0 0 139 0 0 139 0 0 139 0 0 139 0 0 139 0 0 139 0 0 139 0 0 139 0 0 139 0 0 139 0 0 139 0 0 139 0 0 139 0 0 139 0 0 139 0 0 139 0 0 139 0 0 139 0 0 139 0 0 139 0 0 139 0 0 139 0 0 139 0 0 139 0 0 139 0 0 143 7 8 139 0 0 139 0 0 139 0 0 139 0 0 139 0 0 139 0 0 139 0 0 139 0 0 139 0 0 139 0 0 139 0 0 139 0 0 139 0 0 139 0 0 139 0 0 139 0 0 139 0 0 139 0 0 139 0 0 139 0 0 139 0 0 139 0 0 139 0 0 139 0 0 139 0 0 139 0 0 139 0 0 139 0 0 139 0 0 139 0 0 139 0 0 139 0 0 139 0 0 139 0 0 139 0 0 139 0 0 139 0 0 139 0 0 139 0 0 139 0 0 139 0 0 139 0 0 139 0 0 139 0 0 139 0 0 139 0 0 139 0 0 139 0 0 139 0 0 139 0 0 139 0 0 139 0 0 139 0 0 139 0 0 139 0 0 139 0 0 139 0 0 139 0 0 139 0 0 139 0 0 139 0 0 139 0 0 139 0 0 139 0 0 139 0 0 139 0 0 139 0 0 139 0 0 139 0 0 139 0 0 139 0 0 146 11 12 150 17 18 153 23 24 155 25 26 172 52 55 174 56 59 157 29 30 147 13 14 150 17 18 150 17 18 151 19 20 151 19 20 150 17 18 153 23 24 147 13 14 151 19 20 147 13 14 147 13 14 150 17 18 147 13 14 147 13 14 150 17 18 147 13 14 147 13 14 147 13 14 146 11 12 147 13 14 147 13 14 147 13 14 147 13 14 147 13 14 147 13 14 147 13 14 147 13 14 147 13 14 147 13 14 150 17 18 151 19 20 151 19 20 150 17 18 150 17 18 147 13 14 147 13 14 146 11 12 146 11 12 145 9 10 143 7 8 143 7 8 139 0 0 139 0 0 139 0 0 143 7 8 143 7 8 143 7 8 139 0 0 143 7 8 139 0 0 139 0 0 139 0 0 143 7 8 139 0 0 139 0 0 143 7 8 143 7 8 139 0 0 143 7 8 139 0 0 143 7 8 139 0 0 139 0 0 139 0 0 143 7 8 139 0 0 139 0 0 139 0 0 139 0 0 139 0 0 139 0 0 139 0 0 139 0 0 139 0 0 139 0 0 139 0 0 139 0 0 139 0 0 143 7 8 143 7 8 139 0 0 143 7 8 139 0 0 139 0 0 143 7 8 143 7 8 143 7 8 143 7 8 139 0 0 139 0 0 139 0 0 139 0 0 139 0 0 143 7 8 143 7 8 143 7 8 
143 7 8 139 0 0 139 0 0 139 0 0 139 0 0 139 0 0 143 7 8 139 0 0 139 0 0 139 0 0 139 0 0 139 0 0 139 0 0 139 0 0 143 7 8 139 0 0 139 0 0 139 0 0 139 0 0 139 0 0 139 0 0 139 0 0 139 0 0 139 0 0 139 0 0 139 0 0 139 0 0 139 0 0 139 0 0 139 0 0 139 0 0 139 0 0 139 0 0 139 0 0 139 0 0 139 0 0 139 0 0 139 0 0 139 0 0 139 0 0 139 0 0 139 0 0 139 0 0 139 0 0 139 0 0 143 7 8 139 0 0 139 0 0 139 0 0 139 0 0 139 0 0 139 0 0 139 0 0 139 0 0 139 0 0 139 0 0 139 0 0 139 0 0 139 0 0 139 0 0 139 0 0 139 0 0 139 0 0 139 0 0 139 0 0 139 0 0 139 0 0 139 0 0 139 0 0 139 0 0 139 0 0 139 0 0 139 0 0 139 0 0 139 0 0 139 0 0 139 0 0 139 0 0 139 0 0 139 0 0 139 0 0 139 0 0 139 0 0 139 0 0 139 0 0 139 0 0 139 0 0 139 0 0 139 0 0 139 0 0 139 0 0 139 0 0 139 0 0 139 0 0 139 0 0 139 0 0 139 0 0 139 0 0 139 0 0 139 0 0 139 0 0 139 0 0 139 0 0 139 0 0 139 0 0 139 0 0 139 0 0 139 0 0 139 0 0 139 0 0 139 0 0 139 0 0 139 0 0 139 0 0 139 0 0 139 0 0 139 0 0 146 11 12 150 17 18 153 23 24 155 25 26 172 52 55 174 56 59 157 29 30 147 13 14 150 17 18 150 17 18 151 19 20 151 19 20 150 17 18 153 23 24 147 13 14 151 19 20 147 13 14 147 13 14 150 17 18 147 13 14 147 13 14 150 17 18 147 13 14 147 13 14 147 13 14 146 11 12 147 13 14 147 13 14 147 13 14 147 13 14 147 13 14 147 13 14 147 13 14 147 13 14 147 13 14 147 13 14 150 17 18 151 19 20 151 19 20 150 17 18 150 17 18 147 13 14 147 13 14 146 11 12 146 11 12 145 9 10 143 7 8 143 7 8 139 0 0 139 0 0 139 0 0 143 7 8 143 7 8 143 7 8 139 0 0 143 7 8 139 0 0 139 0 0 139 0 0 143 7 8 139 0 0 139 0 0 143 7 8 143 7 8 139 0 0 143 7 8 139 0 0 143 7 8 139 0 0 139 0 0 139 0 0 143 7 8 139 0 0 139 0 0 139 0 0 139 0 0 139 0 0 139 0 0 139 0 0 139 0 0 139 0 0 139 0 0 139 0 0 139 0 0 139 0 0 143 7 8 143 7 8 139 0 0 143 7 8 139 0 0 139 0 0 143 7 8 143 7 8 143 7 8 143 7 8 139 0 0 139 0 0 139 0 0 139 0 0 139 0 0 143 7 8 143 7 8 143 7 8 
139 0 0 139 0 0 139 0 0 139 0 0 139 0 0 139 0 0 139 0 0 139 0 0 139 0 0 139 0 0 139 0 0 139 0 0 139 0 0 139 0 0 139 0 0 139 0 0 139 0 0 139 0 0 139 0 0 139 0 0 139 0 0 139 0 0 139 0 0 139 0 0 139 0 0 139 0 0 139 0 0 139 0 0 139 0 0 139 0 0 139 0 0 139 0 0 139 0 0 139 0 0 139 0 0 139 0 0 139 0 0 139 0 0 139 0 0 139 0 0 139 0 0 139 0 0 139 0 0 139 0 0 139 0 0 139 0 0 139 0 0 139 0 0 139 0 0 139 0 0 139 0 0 139 0 0 139 0 0 139 0 0 139 0 0 139 0 0 139 0 0 139 0 0 139 0 0 139 0 0 139 0 0 139 0 0 139 0 0 139 0 0 139 0 0 139 0 0 139 0 0 139 0 0 139 0 0 139 0 0 139 0 0 139 0 0 139 0 0 139 0 0 139 0 0 139 0 0 139 0 0 139 0 0 139 0 0 139 0 0 139 0 0 139 0 0 139 0 0 139 0 0 139 0 0 139 0 0 139 0 0 139 0 0 139 0 0 139 0 0 139 0 0 139 0 0 139 0 0 139 0 0 139 0 0 139 0 0 139 0 0 139 0 0 139 0 0 139 0 0 139 0 0 139 0 0 139 0 0 139 0 0 139 0 0 139 0 0 139 0 0 139 0 0 139 0 0 139 0 0 139 0 0 139 0 0 139 0 0 139 0 0 139 0 0 139 0 0 139 0 0 139 0 0 143 7 8 147 13 14 151 19 20 157 29 30 155 25 26 157 29 30 168 46 49 150 17 18 147 13 14 147 13 14 150 17 18 187 75 80 151 19 20 158 30 32 147 13 14 147 13 14 146 11 12 146 11 12 146 11 12 150 17 18 147 13 14 150 17 18 150 17 18 147 13 14 147 13 14 146 11 12 146 11 12 146 11 12 145 9 10 146 11 12 146 11 12 146 11 12 146 11 12 146 11 12 147 13 14 147 13 14 146 11 12 147 13 14 150 17 18 151 19 20 147 13 14 147 13 14 146 11 12 147 13 14 150 17 18 146 11 12 145 9 10 143 7 8 143 7 8 143 7 8 143 7 8 143 7 8 139 0 0 143 7 8 143 7 8 139 0 0 143 7 8 139 0 0 143 7 8 143 7 8 143 7 8 139 0 0 139 0 0 139 0 0 139 0 0 143 7 8 139 0 0 143 7 8 139 0 0 139 0 0 139 0 0 143 7 8 139 0 0 139 0 0 143 7 8 139 0 0 139 0 0 139 0 0 139 0 0 139 0 0 139 0 0 139 0 0 139 0 0 139 0 0 139 0 0 143 7 8 139 0 0 143 7 8 143 7 8 143 7 8 139 0 0 139 0 0 139 0 0 139 0 0 139 0 0 143 7 8 139 0 0 143 7 8 139 0 0 139 0 0 139 0 0 139 0 0 
139 0 0 139 0 0 139 0 0 139 0 0 139 0 0 139 0 0 139 0 0 139 0 0 139 0 0 139 0 0 139 0 0 139 0 0 139 0 0 139 0 0 139 0 0 139 0 0 139 0 0 139 0 0 139 0 0 139 0 0 139 0 0 139 0 0 139 0 0 139 0 0 139 0 0 139 0 0 139 0 0 139 0 0 139 0 0 139 0 0 139 0 0 139 0 0 139 0 0 139 0 0 139 0 0 139 0 0 139 0 0 139 0 0 139 0 0 139 0 0 139 0 0 139 0 0 139 0 0 139 0 0 139 0 0 139 0 0 139 0 0 139 0 0 139 0 0 139 0 0 139 0 0 139 0 0 139 0 0 139 0 0 139 0 0 139 0 0 139 0 0 139 0 0 139 0 0 139 0 0 139 0 0 139 0 0 139 0 0 139 0 0 139 0 0 139 0 0 139 0 0 139 0 0 139 0 0 139 0 0 139 0 0 139 0 0 139 0 0 139 0 0 139 0 0 139 0 0 139 0 0 139 0 0 139 0 0 139 0 0 139 0 0 139 0 0 139 0 0 139 0 0 139 0 0 139 0 0 139 0 0 139 0 0 139 0 0 139 0 0 139 0 0 139 0 0 139 0 0 139 0 0 139 0 0 139 0 0 139 0 0 139 0 0 139 0 0 139 0 0 139 0 0 139 0 0 139 0 0 139 0 0 139 0 0 139 0 0 139 0 0 139 0 0 139 0 0 139 0 0 139 0 0 139 0 0 139 0 0 139 0 0 139 0 0 139 0 0 139 0 0 139 0 0 143 7 8 147 13 14 151 19 20 157 29 30 155 25 26 157 29 30 168 46 49 150 17 18 147 13 14 147 13 14 150 17 18 187 75 80 151 19 20 158 30 32 147 13 14 147 13 14 146 11 12 146 11 12 146 11 12 150 17 18 147 13 14 150 17 18 150 17 18 147 13 14 147 13 14 146 11 12 146 11 12 146 11 12 145 9 10 146 11 12 146 11 12 146 11 12 146 11 12 146 11 12 147 13 14 147 13 14 146 11 12 147 13 14 150 17 18 151 19 20 147 13 14 147 13 14 146 11 12 147 13 14 150 17 18 146 11 12 145 9 10 143 7 8 143 7 8 143 7 8 143 7 8 143 7 8 139 0 0 143 7 8 143 7 8 139 0 0 143 7 8 139 0 0 143 7 8 143 7 8 143 7 8 139 0 0 139 0 0 139 0 0 139 0 0 143 7 8 139 0 0 143 7 8 139 0 0 139 0 0 139 0 0 143 7 8 139 0 0 139 0 0 143 7 8 139 0 0 139 0 0 139 0 0 139 0 0 139 0 0 139 0 0 139 0 0 139 0 0 139 0 0 139 0 0 143 7 8 139 0 0 143 7 8 143 7 8 143 7 8 139 0 0 139 0 0 139 0 0 139 0 0 139 0 0 143 7 8 139 0 0 143 7 8 139 0 0 139 0 0 139 0 0 139 0 0 
139 0 0 139 0 0 139 0 0 139 0 0 139 0 0 139 0 0 139 0 0 139 0 0 139 0 0 139 0 0 139 0 0 139 0 0 139 0 0 139 0 0 139 0 0 139 0 0 139 0 0 139 0 0 139 0 0 139 0 0 139 0 0 139 0 0 139 0 0 139 0 0 139 0 0 139 0 0 139 0 0 139 0 0 139 0 0 139 0 0 139 0 0 139 0 0 139 0 0 139 0 0 139 0 0 139 0 0 139 0 0 139 0 0 139 0 0 139 0 0 139 0 0 139 0 0 139 0 0 139 0 0 139 0 0 139 0 0 143 7 8 139 0 0 139 0 0 139 0 0 139 0 0 139 0 0 139 0 0 139 0 0 139 0 0 139 0 0 139 0 0 139 0 0 139 0 0 139 0 0 139 0 0 139 0 0 143 7 8 139 0 0 139 0 0 139 0 0 139 0 0 139 0 0 139 0 0 139 0 0 139 0 0 139 0 0 139 0 0 139 0 0 139 0 0 139 0 0 139 0 0 139 0 0 139 0 0 139 0 0 139 0 0 139 0 0 139 0 0 139 0 0 139 0 0 139 0 0 139 0 0 139 0 0 139 0 0 139 0 0 139 0 0 139 0 0 139 0 0 139 0 0 139 0 0 139 0 0 139 0 0 139 0 0 139 0 0 139 0 0 139 0 0 139 0 0 139 0 0 139 0 0 139 0 0 139 0 0 139 0 0 139 0 0 139 0 0 139 0 0 139 0 0 139 0 0 139 0 0 139 0 0 139 0 0 139 0 0 139 0 0 139 0 0 139 0 0 139 0 0 145 9 10 146 11 12 150 17 18 157 29 30 153 23 24 155 25 26 151 19 20 147 13 14 150 17 18 169 48 51 195 89 94 158 30 32 147 13 14 147 13 14 150 17 18 150 17 18 146 11 12 147 13 14 150 17 18 147 13 14 147 13 14 147 13 14 147 13 14 147 13 14 150 17 18 150 17 18 150 17 18 147 13 14 146 11 12 146 11 12 146 11 12 145 9 10 147 13 14 147 13 14 147 13 14 147 13 14 147 13 14 150 17 18 151 19 20 151 19 20 151 19 20 151 19 20 151 19 20 150 17 18 147 13 14 146 11 12 143 7 8 143 7 8 139 0 0 143 7 8 139 0 0 143 7 8 139 0 0 139 0 0 143 7 8 139 0 0 139 0 0 139 0 0 139 0 0 139 0 0 143 7 8 139 0 0 139 0 0 139 0 0 143 7 8 143 7 8 139 0 0 139 0 0 143 7 8 143 7 8 139 0 0 139 0 0 143 7 8 139 0 0 139 0 0 143 7 8 139 0 0 139 0 0 139 0 0 139 0 0 139 0 0 143 7 8 139 0 0 139 0 0 139 0 0 139 0 0 139 0 0 143 7 8 139 0 0 139 0 0 139 0 0 139 0 0 139 0 0 139 0 0 139 0 0 143 7 8 139 0 0 139 0 0 139 0 0 139 0 0 
139 0 0 139 0 0 139 0 0 139 0 0 139 0 0 139 0 0 139 0 0 139 0 0 139 0 0 139 0 0 139 0 0 139 0 0 139 0 0 139 0 0 139 0 0 139 0 0 139 0 0 139 0 0 139 0 0 139 0 0 139 0 0 139 0 0 139 0 0 139 0 0 139 0 0 139 0 0 139 0 0 139 0 0 139 0 0 139 0 0 139 0 0 139 0 0 139 0 0 139 0 0 139 0 0 139 0 0 139 0 0 139 0 0 139 0 0 139 0 0 139 0 0 139 0 0 139 0 0 139 0 0 139 0 0 139 0 0 143 7 8 139 0 0 139 0 0 139 0 0 139 0 0 139 0 0 139 0 0 139 0 0 139 0 0 139 0 0 139 0 0 139 0 0 139 0 0 139 0 0 139 0 0 139 0 0 143 7 8 139 0 0 139 0 0 139 0 0 139 0 0 139 0 0 139 0 0 139 0 0 139 0 0 139 0 0 139 0 0 139 0 0 139 0 0 139 0 0 139 0 0 139 0 0 139 0 0 139 0 0 139 0 0 139 0 0 139 0 0 139 0 0 139 0 0 139 0 0 139 0 0 139 0 0 139 0 0 139 0 0 139 0 0 139 0 0 139 0 0 139 0 0 139 0 0 139 0 0 139 0 0 139 0 0 139 0 0 139 0 0 139 0 0 139 0 0 139 0 0 139 0 0 139 0 0 139 0 0 139 0 0 139 0 0 139 0 0 139 0 0 139 0 0 139 0 0 139 0 0 139 0 0 139 0 0 139 0 0 139 0 0 139 0 0 139 0 0 139 0 0 145 9 10 146 11 12 150 17 18 157 29 30 153 23 24 155 25 26 151 19 20 147 13 14 150 17 18 169 48 51 195 89 94 158 30 32 147 13 14 147 13 14 150 17 18 150 17 18 146 11 12 147 13 14 150 17 18 147 13 14 147 13 14 147 13 14 147 13 14 147 13 14 150 17 18 150 17 18 150 17 18 147 13 14 146 11 12 146 11 12 146 11 12 145 9 10 147 13 14 147 13 14 147 13 14 147 13 14 147 13 14 150 17 18 151 19 20 151 19 20 151 19 20 151 19 20 151 19 20 150 17 18 147 13 14 146 11 12 143 7 8 143 7 8 139 0 0 143 7 8 139 0 0 143 7 8 139 0 0 139 0 0 143 7 8 139 0 0 139 0 0 139 0 0 139 0 0 139 0 0 143 7 8 139 0 0 139 0 0 139 0 0 143 7 8 143 7 8 139 0 0 139 0 0 143 7 8 143 7 8 139 0 0 139 0 0 143 7 8 139 0 0 139 0 0 143 7 8 139 0 0 139 0 0 139 0 0 139 0 0 139 0 0 143 7 8 139 0 0 139 0 0 139 0 0 139 0 0 139 0 0 143 7 8 139 0 0 139 0 0 139 0 0 139 0 0 139 0 0 139 0 0 139 0 0 143 7 8 139 0 0 139 0 0 139 0 0 139 0 0 
139 0 0 139 0 0 139 0 0 139 0 0 139 0 0 139 0 0 139 0 0 139 0 0 139 0 0 139 0 0 139 0 0 139 0 0 139 0 0 139 0 0 139 0 0 139 0 0 139 0 0 139 0 0 139 0 0 139 0 0 139 0 0 139 0 0 139 0 0 139 0 0 139 0 0 139 0 0 139 0 0 139 0 0 139 0 0 139 0 0 139 0 0 139 0 0 139 0 0 139 0 0 139 0 0 139 0 0 139 0 0 139 0 0 139 0 0 139 0 0 139 0 0 139 0 0 139 0 0 139 0 0 139 0 0 139 0 0 139 0 0 139 0 0 139 0 0 139 0 0 139 0 0 139 0 0 139 0 0 139 0 0 139 0 0 139 0 0 139 0 0 139 0 0 139 0 0 139 0 0 139 0 0 139 0 0 139 0 0 139 0 0 139 0 0 139 0 0 139 0 0 139 0 0 139 0 0 139 0 0 139 0 0 139 0 0 139 0 0 139 0 0 139 0 0 139 0 0 143 7 8 139 0 0 139 0 0 139 0 0 139 0 0 139 0 0 139 0 0 139 0 0 139 0 0 139 0 0 139 0 0 139 0 0 139 0 0 139 0 0 139 0 0 139 0 0 139 0 0 139 0 0 139 0 0 139 0 0 139 0 0 139 0 0 139 0 0 139 0 0 139 0 0 139 0 0 139 0 0 139 0 0 139 0 0 139 0 0 139 0 0 139 0 0 139 0 0 139 0 0 139 0 0 139 0 0 139 0 0 139 0 0 139 0 0 139 0 0 139 0 0 139 0 0 139 0 0 139 0 0 139 0 0 139 0 0 143 7 8 145 9 10 151 19 20 153 23 24 169 48 51 159 32 34 151 19 20 147 13 14 146 11 12 155 25 26 157 29 30 158 30 32 159 32 34 159 32 34 150 17 18 150 17 18 147 13 14 145 9 10 147 13 14 150 17 18 151 19 20 150 17 18 150 17 18 151 19 20 157 29 30 153 23 24 151 19 20 150 17 18 146 11 12 146 11 12 147 13 14 147 13 14 146 11 12 150 17 18 151 19 20 150 17 18 147 13 14 151 19 20 157 29 30 168 46 49 168 46 49 159 32 34 159 32 34 158 30 32 151 19 20 147 13 14 145 9 10 143 7 8 139 0 0 143 7 8 143 7 8 139 0 0 139 0 0 139 0 0 143 7 8 143 7 8 139 0 0 143 7 8 139 0 0 139 0 0 139 0 0 139 0 0 143 7 8 139 0 0 139 0 0 139 0 0 139 0 0 139 0 0 139 0 0 139 0 0 139 0 0 143 7 8 139 0 0 139 0 0 139 0 0 139 0 0 139 0 0 139 0 0 139 0 0 143 7 8 139 0 0 139 0 0 139 0 0 139 0 0 139 0 0 139 0 0 139 0 0 143 7 8 143 7 8 139 0 0 143 7 8 139 0 0 139 0 0 139 0 0 139 0 0 143 7 8 139 0 0 139 0 0 
139 0 0 139 0 0 139 0 0 139 0 0 139 0 0 139 0 0 139 0 0 139 0 0 139 0 0 139 0 0 139 0 0 139 0 0 139 0 0 139 0 0 139 0 0 139 0 0 139 0 0 139 0 0 139 0 0 139 0 0 139 0 0 139 0 0 139 0 0 139 0 0 139 0 0 139 0 0 139 0 0 139 0 0 139 0 0 139 0 0 139 0 0 139 0 0 139 0 0 139 0 0 139 0 0 139 0 0 139 0 0 139 0 0 139 0 0 139 0 0 139 0 0 139 0 0 139 0 0 139 0 0 139 0 0 139 0 0 139 0 0 139 0 0 139 0 0 139 0 0 139 0 0 139 0 0 139 0 0 139 0 0 139 0 0 139 0 0 139 0 0 139 0 0 139 0 0 139 0 0 139 0 0 139 0 0 139 0 0 139 0 0 139 0 0 139 0 0 139 0 0 139 0 0 139 0 0 139 0 0 139 0 0 139 0 0 139 0 0 139 0 0 139 0 0 139 0 0 143 7 8 139 0 0 139 0 0 139 0 0 139 0 0 139 0 0 139 0 0 139 0 0 139 0 0 139 0 0 139 0 0 139 0 0 139 0 0 139 0 0 139 0 0 139 0 0 139 0 0 139 0 0 139 0 0 139 0 0 139 0 0 139 0 0 139 0 0 139 0 0 139 0 0 139 0 0 139 0 0 139 0 0 139 0 0 139 0 0 139 0 0 139 0 0 139 0 0 139 0 0 139 0 0 139 0 0 139 0 0 139 0 0 139 0 0 139 0 0 139 0 0 139 0 0 139 0 0 139 0 0 139 0 0 139 0 0 143 7 8 145 9 10 151 19 20 153 23 24 169 48 51 159 32 34 151 19 20 147 13 14 146 11 12 155 25 26 157 29 30 158 30 32 159 32 34 159 32 34 150 17 18 150 17 18 147 13 14 145 9 10 147 13 14 150 17 18 151 19 20 150 17 18 150 17 18 151 19 20 157 29 30 153 23 24 151 19 20 150 17 18 146 11 12 146 11 12 147 13 14 147 13 14 146 11 12 150 17 18 151 19 20 150 17 18 147 13 14 151 19 20 157 29 30 168 46 49 168 46 49 159 32 34 159 32 34 158 30 32 151 19 20 147 13 14 145 9 10 143 7 8 139 0 0 143 7 8 143 7 8 139 0 0 139 0 0 139 0 0 143 7 8 143 7 8 139 0 0 143 7 8 139 0 0 139 0 0 139 0 0 139 0 0 143 7 8 139 0 0 139 0 0 139 0 0 139 0 0 139 0 0 139 0 0 139 0 0 139 0 0 143 7 8 139 0 0 139 0 0 139 0 0 139 0 0 139 0 0 139 0 0 139 0 0 143 7 8 139 0 0 139 0 0 139 0 0 139 0 0 139 0 0 139 0 0 139 0 0 143 7 8 143 7 8 139 0 0 143 7 8 139 0 0 139 0 0 139 0 0 139 0 0 143 7 8 139 0 0 139 0 0 
139 0 0 139 0 0 139 0 0 139 0 0 139 0 0 139 0 0 139 0 0 139 0 0 139 0 0 139 0 0 139 0 0 139 0 0 139 0 0 139 0 0 139 0 0 139 0 0 139 0 0 139 0 0 139 0 0 139 0 0 139 0 0 139 0 0 139 0 0 139 0 0 139 0 0 139 0 0 139 0 0 139 0 0 139 0 0 143 7 8 139 0 0 139 0 0 139 0 0 139 0 0 139 0 0 139 0 0 139 0 0 139 0 0 139 0 0 139 0 0 139 0 0 139 0 0 139 0 0 143 7 8 143 7 8 139 0 0 139 0 0 139 0 0 139 0 0 139 0 0 139 0 0 139 0 0 139 0 0 139 0 0 139 0 0 139 0 0 139 0 0 139 0 0 139 0 0 139 0 0 139 0 0 139 0 0 139 0 0 139 0 0 139 0 0 139 0 0 139 0 0 139 0 0 143 7 8 139 0 0 139 0 0 139 0 0 139 0 0 139 0 0 139 0 0 139 0 0 139 0 0 139 0 0 139 0 0 139 0 0 139 0 0 139 0 0 139 0 0 139 0 0 139 0 0 143 7 8 139 0 0 139 0 0 139 0 0 139 0 0 139 0 0 139 0 0 139 0 0 139 0 0 139 0 0 139 0 0 139 0 0 139 0 0 139 0 0 139 0 0 139 0 0 139 0 0 139 0 0 139 0 0 139 0 0 139 0 0 139 0 0 139 0 0 139 0 0 139 0 0 139 0 0 139 0 0 139 0 0 139 0 0 139 0 0 139 0 0 139 0 0 139 0 0 139 0 0 139 0 0 139 0 0 139 0 0 139 0 0 143 7 8 145 9 10 147 13 14 147 13 14 150 17 18 168 46 49 153 23 24 147 13 14 147 13 14 151 19 20 159 32 34 155 25 26 159 32 34 169 48 51 157 29 30 153 23 24 151 19 20 150 17 18 151 19 20 151 19 20 151 19 20 151 19 20 157 29 30 157 29 30 153 23 24 147 13 14 150 17 18 151 19 20 147 13 14 147 13 14 147 13 14 153 23 24 153 23 24 150 17 18 150 17 18 151 19 20 151 19 20 151 19 20 155 25 26 153 23 24 153 23 24 153 23 24 157 29 30 151 19 20 147 13 14 150 17 18 147 13 14 145 9 10 143 7 8 139 0 0 139 0 0 139 0 0 143 7 8 139 0 0 139 0 0 139 0 0 143 7 8 139 0 0 139 0 0 139 0 0 139 0 0 143 7 8 139 0 0 139 0 0 139 0 0 139 0 0 139 0 0 139 0 0 139 0 0 139 0 0 139 0 0 139 0 0 139 0 0 143 7 8 143 7 8 143 7 8 139 0 0 139 0 0 143 7 8 143 7 8 139 0 0 139 0 0 143 7 8 139 0 0 139 0 0 139 0 0 143 7 8 139 0 0 143 7 8 139 0 0 139 0 0 139 0 0 139 0 0 143 7 8 139 0 0 139 0 0 139 0 0 
139 0 0 139 0 0 139 0 0 139 0 0 139 0 0 139 0 0 139 0 0 139 0 0 139 0 0 139 0 0 139 0 0 139 0 0 139 0 0 139 0 0 139 0 0 139 0 0 139 0 0 139 0 0 139 0 0 139 0 0 139 0 0 139 0 0 139 0 0 139 0 0 139 0 0 139 0 0 139 0 0 139 0 0 139 0 0 143 7 8 139 0 0 139 0 0 139 0 0 139 0 0 139 0 0 139 0 0 139 0 0 139 0 0 139 0 0 139 0 0 139 0 0 139 0 0 139 0 0 143 7 8 143 7 8 139 0 0 139 0 0 139 0 0 139 0 0 139 0 0 139 0 0 139 0 0 139 0 0 139 0 0 139 0 0 139 0 0 139 0 0 139 0 0 139 0 0 139 0 0 139 0 0 139 0 0 139 0 0 139 0 0 139 0 0 139 0 0 139 0 0 139 0 0 143 7 8 139 0 0 139 0 0 139 0 0 139 0 0 139 0 0 139 0 0 139 0 0 139 0 0 139 0 0 139 0 0 139 0 0 139 0 0 139 0 0 139 0 0 139 0 0 139 0 0 143 7 8 139 0 0 139 0 0 139 0 0 139 0 0 139 0 0 139 0 0 139 0 0 139 0 0 139 0 0 139 0 0 139 0 0 139 0 0 139 0 0 139 0 0 139 0 0 139 0 0 139 0 0 139 0 0 139 0 0 139 0 0 139 0 0 139 0 0 139 0 0 139 0 0 139 0 0 139 0 0 139 0 0 139 0 0 139 0 0 139 0 0 139 0 0 139 0 0 139 0 0 139 0 0 139 0 0 139 0 0 139 0 0 143 7 8 145 9 10 147 13 14 147 13 14 150 17 18 168 46 49 153 23 24 147 13 14 147 13 14 151 19 20 159 32 34 155 25 26 159 32 34 169 48 51 157 29 30 153 23 24 151 19 20 150 17 18 151 19 20 151 19 20 151 19 20 151 19 20 157 29 30 157 29 30 153 23 24 147 13 14 150 17 18 151 19 20 147 13 14 147 13 14 147 13 14 153 23 24 153 23 24 150 17 18 150 17 18 151 19 20 151 19 20 151 19 20 155 25 26 153 23 24 153 23 24 153 23 24 157 29 30 151 19 20 147 13 14 150 17 18 147 13 14 145 9 10 143 7 8 139 0 0 139 0 0 139 0 0 143 7 8 139 0 0 139 0 0 139 0 0 143 7 8 139 0 0 139 0 0 139 0 0 139 0 0 143 7 8 139 0 0 139 0 0 139 0 0 139 0 0 139 0 0 139 0 0 139 0 0 139 0 0 139 0 0 139 0 0 139 0 0 143 7 8 143 7 8 143 7 8 139 0 0 139 0 0 143 7 8 143 7 8 139 0 0 139 0 0 143 7 8 139 0 0 139 0 0 139 0 0 143 7 8 139 0 0 143 7 8 139 0 0 139 0 0 139 0 0 139 0 0 143 7 8 139 0 0 139 0 0 139 0 0 
139 0 0 139 0 0 139 0 0 139 0 0 139 0 0 139 0 0 139 0 0 139 0 0 139 0 0 139 0 0 139 0 0 139 0 0 139 0 0 139 0 0 139 0 0 139 0 0 139 0 0 139 0 0 139 0 0 139 0 0 139 0 0 139 0 0 139 0 0 139 0 0 139 0 0 139 0 0 139 0 0 139 0 0 143 7 8 139 0 0 139 0 0 139 0 0 139 0 0 139 0 0 139 0 0 139 0 0 139 0 0 143 7 8 139 0 0 139 0 0 139 0 0 139 0 0 139 0 0 139 0 0 139 0 0 139 0 0 139 0 0 139 0 0 139 0 0 139 0 0 139 0 0 139 0 0 139 0 0 139 0 0 139 0 0 139 0 0 139 0 0 139 0 0 139 0 0 139 0 0 139 0 0 139 0 0 139 0 0 139 0 0 139 0 0 139 0 0 139 0 0 139 0 0 139 0 0 139 0 0 139 0 0 139 0 0 139 0 0 139 0 0 139 0 0 139 0 0 139 0 0 139 0 0 139 0 0 139 0 0 139 0 0 139 0 0 139 0 0 139 0 0 139 0 0 139 0 0 139 0 0 139 0 0 139 0 0 139 0 0 139 0 0 139 0 0 139 0 0 139 0 0 139 0 0 139 0 0 139 0 0 139 0 0 139 0 0 139 0 0 139 0 0 139 0 0 139 0 0 139 0 0 139 0 0 139 0 0 139 0 0 139 0 0 139 0 0 139 0 0 139 0 0 139 0 0 139 0 0 139 0 0 139 0 0 139 0 0 139 0 0 139 0 0 139 0 0 139 0 0 139 0 0 139 0 0 139 0 0 139 0 0 139 0 0 139 0 0 145 9 10 146 11 12 150 17 18 151 19 20 151 19 20 151 19 20 168 46 49 147 13 14 150 17 18 150 17 18 151 19 20 153 23 24 159 32 34 169 48 51 159 32 34 153 23 24 147 13 14 147 13 14 150 17 18 150 17 18 150 17 18 151 19 20 155 25 26 155 25 26 151 19 20 147 13 14 147 13 14 150 17 18 150 17 18 150 17 18 147 13 14 150 17 18 151 19 20 153 23 24 153 23 24 155 25 26 155 25 26 147 13 14 147 13 14 151 19 20 146 11 12 147 13 14 150 17 18 151 19 20 147 13 14 147 13 14 143 7 8 143 7 8 139 0 0 139 0 0 143 7 8 143 7 8 139 0 0 139 0 0 139 0 0 139 0 0 139 0 0 139 0 0 143 7 8 139 0 0 143 7 8 143 7 8 143 7 8 143 7 8 139 0 0 143 7 8 139 0 0 139 0 0 143 7 8 143 7 8 139 0 0 139 0 0 139 0 0 139 0 0 139 0 0 139 0 0 139 0 0 139 0 0 139 0 0 143 7 8 139 0 0 139 0 0 139 0 0 143 7 8 139 0 0 143 7 8 139 0 0 139 0 0 139 0 0 143 7 8 143 7 8 139 0 0 143 7 8 139 0 0 
139 0 0 139 0 0 139 0 0 139 0 0 139 0 0 139 0 0 139 0 0 139 0 0 139 0 0 139 0 0 139 0 0 139 0 0 139 0 0 139 0 0 139 0 0 139 0 0 139 0 0 139 0 0 139 0 0 139 0 0 139 0 0 139 0 0 139 0 0 139 0 0 139 0 0 139 0 0 139 0 0 139 0 0 143 7 8 139 0 0 139 0 0 139 0 0 139 0 0 139 0 0 139 0 0 139 0 0 139 0 0 143 7 8 139 0 0 139 0 0 139 0 0 139 0 0 139 0 0 139 0 0 139 0 0 139 0 0 139 0 0 139 0 0 139 0 0 139 0 0 139 0 0 139 0 0 139 0 0 139 0 0 139 0 0 139 0 0 139 0 0 139 0 0 139 0 0 139 0 0 139 0 0 139 0 0 139 0 0 139 0 0 139 0 0 139 0 0 139 0 0 139 0 0 139 0 0 139 0 0 139 0 0 139 0 0 139 0 0 139 0 0 139 0 0 139 0 0 139 0 0 139 0 0 139 0 0 139 0 0 139 0 0 139 0 0 139 0 0 139 0 0 139 0 0 139 0 0 139 0 0 139 0 0 139 0 0 139 0 0 139 0 0 139 0 0 139 0 0 139 0 0 139 0 0 139 0 0 139 0 0 139 0 0 139 0 0 139 0 0 139 0 0 139 0 0 139 0 0 139 0 0 139 0 0 139 0 0 139 0 0 139 0 0 139 0 0 139 0 0 139 0 0 139 0 0 139 0 0 139 0 0 139 0 0 139 0 0 139 0 0 139 0 0 139 0 0 139 0 0 139 0 0 139 0 0 139 0 0 139 0 0 139 0 0 139 0 0 145 9 10 146 11 12 150 17 18 151 19 20 151 19 20 151 19 20 168 46 49 147 13 14 150 17 18 150 17 18 151 19 20 153 23 24 159 32 34 169 48 51 159 32 34 153 23 24 147 13 14 147 13 14 150 17 18 150 17 18 150 17 18 151 19 20 155 25 26 155 25 26 151 19 20 147 13 14 147 13 14 150 17 18 150 17 18 150 17 18 147 13 14 150 17 18 151 19 20 153 23 24 153 23 24 155 25 26 155 25 26 147 13 14 147 13 14 151 19 20 146 11 12 147 13 14 150 17 18 151 19 20 147 13 14 147 13 14 143 7 8 143 7 8 139 0 0 139 0 0 143 7 8 143 7 8 139 0 0 139 0 0 139 0 0 139 0 0 139 0 0 139 0 0 143 7 8 139 0 0 143 7 8 143 7 8 143 7 8 143 7 8 139 0 0 143 7 8 139 0 0 139 0 0 143 7 8 143 7 8 139 0 0 139 0 0 139 0 0 139 0 0 139 0 0 139 0 0 139 0 0 139 0 0 139 0 0 143 7 8 139 0 0 139 0 0 139 0 0 143 7 8 139 0 0 143 7 8 139 0 0 139 0 0 139 0 0 143 7 8 143 7 8 139 0 0 143 7 8 139 0 0 
139 0 0 139 0 0 139 0 0 139 0 0 139 0 0 139 0 0 139 0 0 139 0 0 139 0 0 139 0 0 139 0 0 139 0 0 139 0 0 139 0 0 139 0 0 139 0 0 139 0 0 139 0 0 139 0 0 139 0 0 139 0 0 139 0 0 139 0 0 139 0 0 139 0 0 139 0 0 139 0 0 139 0 0 139 0 0 139 0 0 143 7 8 139 0 0 139 0 0 139 0 0 139 0 0 139 0 0 139 0 0 139 0 0 139 0 0 139 0 0 139 0 0 139 0 0 139 0 0 139 0 0 139 0 0 139 0 0 139 0 0 139 0 0 139 0 0 139 0 0 139 0 0 139 0 0 139 0 0 139 0 0 139 0 0 139 0 0 139 0 0 139 0 0 139 0 0 139 0 0 139 0 0 139 0 0 139 0 0 139 0 0 139 0 0 139 0 0 139 0 0 139 0 0 139 0 0 139 0 0 139 0 0 139 0 0 139 0 0 139 0 0 139 0 0 139 0 0 139 0 0 139 0 0 139 0 0 139 0 0 139 0 0 139 0 0 139 0 0 139 0 0 139 0 0 139 0 0 139 0 0 139 0 0 139 0 0 139 0 0 139 0 0 139 0 0 139 0 0 139 0 0 139 0 0 139 0 0 139 0 0 139 0 0 139 0 0 139 0 0 139 0 0 139 0 0 139 0 0 139 0 0 139 0 0 139 0 0 139 0 0 139 0 0 139 0 0 139 0 0 139 0 0 139 0 0 139 0 0 139 0 0 139 0 0 139 0 0 139 0 0 139 0 0 139 0 0 139 0 0 139 0 0 139 0 0 139 0 0 139 0 0 139 0 0 139 0 0 139 0 0 143 7 8 145 9 10 146 11 12 150 17 18 150 17 18 185 73 78 210 112 119 153 23 24 147 13 14 147 13 14 150 17 18 155 25 26 158 30 32 168 46 49 150 17 18 147 13 14 147 13 14 146 11 12 146 11 12 147 13 14 151 19 20 150 17 18 147 13 14 151 19 20 153 23 24 151 19 20 150 17 18 151 19 20 157 29 30 159 32 34 157 29 30 151 19 20 151 19 20 150 17 18 155 25 26 158 30 32 151 19 20 147 13 14 147 13 14 147 13 14 147 13 14 150 17 18 147 13 14 146 11 12 146 11 12 146 11 12 145 9 10 143 7 8 139 0 0 139 0 0 139 0 0 143 7 8 143 7 8 143 7 8 139 0 0 139 0 0 143 7 8 139 0 0 139 0 0 143 7 8 143 7 8 139 0 0 139 0 0 139 0 0 139 0 0 139 0 0 139 0 0 139 0 0 139 0 0 139 0 0 143 7 8 139 0 0 139 0 0 139 0 0 139 0 0 139 0 0 139 0 0 139 0 0 139 0 0 139 0 0 139 0 0 139 0 0 143 7 8 143 7 8 143 7 8 143 7 8 143 7 8 139 0 0 143 7 8 143 7 8 143 7 8 139 0 0 143 7 8 
139 0 0 139 0 0 139 0 0 139 0 0 139 0 0 139 0 0 139 0 0 139 0 0 139 0 0 139 0 0 139 0 0 139 0 0 139 0 0 139 0 0 139 0 0 139 0 0 139 0 0 139 0 0 139 0 0 139 0 0 139 0 0 139 0 0 139 0 0 139 0 0 139 0 0 139 0 0 139 0 0 139 0 0 139 0 0 139 0 0 143 7 8 139 0 0 139 0 0 139 0 0 139 0 0 139 0 0 139 0 0 139 0 0 139 0 0 139 0 0 139 0 0 139 0 0 139 0 0 139 0 0 139 0 0 139 0 0 139 0 0 139 0 0 139 0 0 139 0 0 139 0 0 139 0 0 139 0 0 139 0 0 139 0 0 139 0 0 139 0 0 139 0 0 139 0 0 139 0 0 139 0 0 139 0 0 139 0 0 139 0 0 139 0 0 139 0 0 139 0 0 139 0 0 139 0 0 139 0 0 139 0 0 139 0 0 139 0 0 139 0 0 139 0 0 139 0 0 139 0 0 139 0 0 139 0 0 139 0 0 139 0 0 139 0 0 139 0 0 139 0 0 139 0 0 139 0 0 139 0 0 139 0 0 139 0 0 139 0 0 139 0 0 139 0 0 139 0 0 139 0 0 139 0 0 139 0 0 139 0 0 139 0 0 139 0 0 139 0 0 139 0 0 139 0 0 139 0 0 139 0 0 139 0 0 139 0 0 139 0 0 139 0 0 139 0 0 139 0 0 139 0 0 139 0 0 139 0 0 139 0 0 139 0 0 139 0 0 139 0 0 139 0 0 139 0 0 139 0 0 139 0 0 139 0 0 139 0 0 139 0 0 139 0 0 139 0 0 139 0 0 143 7 8 145 9 10 146 11 12 150 17 18 150 17 18 185 73 78 210 112 119 153 23 24 147 13 14 147 13 14 150 17 18 155 25 26 158 30 32 168 46 49 150 17 18 147 13 14 147 13 14 146 11 12 146 11 12 147 13 14 151 19 20 150 17 18 147 13 14 151 19 20 153 23 24 151 19 20 150 17 18 151 19 20 157 29 30 159 32 34 157 29 30 151 19 20 151 19 20 150 17 18 155 25 26 158 30 32 151 19 20 147 13 14 147 13 14 147 13 14 147 13 14 150 17 18 147 13 14 146 11 12 146 11 12 146 11 12 145 9 10 143 7 8 139 0 0 139 0 0 139 0 0 143 7 8 143 7 8 143 7 8 139 0 0 139 0 0 143 7 8 139 0 0 139 0 0 143 7 8 143 7 8 139 0 0 139 0 0 139 0 0 139 0 0 139 0 0 139 0 0 139 0 0 139 0 0 139 0 0 143 7 8 139 0 0 139 0 0 139 0 0 139 0 0 139 0 0 139 0 0 139 0 0 139 0 0 139 0 0 139 0 0 139 0 0 143 7 8 143 7 8 143 7 8 143 7 8 143 7 8 139 0 0 143 7 8 143 7 8 143 7 8 139 0 0 143 7 8 
139 0 0 139 0 0 139 0 0 139 0 0 139 0 0 139 0 0 139 0 0 139 0 0 139 0 0 139 0 0 139 0 0 139 0 0 139 0 0 139 0 0 139 0 0 139 0 0 139 0 0 139 0 0 139 0 0 139 0 0 139 0 0 139 0 0 139 0 0 139 0 0 139 0 0 139 0 0 139 0 0 139 0 0 139 0 0 139 0 0 139 0 0 139 0 0 139 0 0 139 0 0 139 0 0 139 0 0 139 0 0 139 0 0 139 0 0 143 7 8 139 0 0 139 0 0 143 7 8 139 0 0 139 0 0 139 0 0 139 0 0 139 0 0 139 0 0 139 0 0 143 7 8 139 0 0 139 0 0 139 0 0 139 0 0 139 0 0 139 0 0 139 0 0 139 0 0 139 0 0 139 0 0 139 0 0 139 0 0 139 0 0 139 0 0 139 0 0 139 0 0 139 0 0 139 0 0 139 0 0 139 0 0 139 0 0 139 0 0 139 0 0 139 0 0 139 0 0 139 0 0 139 0 0 139 0 0 139 0 0 139 0 0 139 0 0 139 0 0 139 0 0 139 0 0 139 0 0 139 0 0 139 0 0 139 0 0 143 7 8 139 0 0 139 0 0 139 0 0 139 0 0 139 0 0 139 0 0 139 0 0 139 0 0 139 0 0 139 0 0 139 0 0 139 0 0 139 0 0 139 0 0 139 0 0 139 0 0 139 0 0 139 0 0 139 0 0 139 0 0 139 0 0 139 0 0 139 0 0 139 0 0 139 0 0 139 0 0 139 0 0 139 0 0 139 0 0 139 0 0 139 0 0 139 0 0 139 0 0 139 0 0 139 0 0 139 0 0 139 0 0 139 0 0 139 0 0 139 0 0 143 7 8 143 7 8 145 9 10 147 13 14 147 13 14 147 13 14 147 13 14 155 25 26 172 52 55 157 29 30 159 32 34 168 46 49 153 23 24 155 25 26 151 19 20 147 13 14 151 19 20 151 19 20 147 13 14 150 17 18 147 13 14 147 13 14 147 13 14 150 17 18 153 23 24 153 23 24 151 19 20 151 19 20 150 17 18 147 13 14 150 17 18 150 17 18 147 13 14 147 13 14 150 17 18 147 13 14 146 11 12 145 9 10 146 11 12 146 11 12 146 11 12 145 9 10 145 9 10 145 9 10 145 9 10 145 9 10 143 7 8 139 0 0 143 7 8 139 0 0 143 7 8 139 0 0 139 0 0 139 0 0 139 0 0 139 0 0 143 7 8 143 7 8 139 0 0 139 0 0 139 0 0 139 0 0 139 0 0 139 0 0 139 0 0 139 0 0 139 0 0 139 0 0 139 0 0 139 0 0 139 0 0 143 7 8 143 7 8 139 0 0 139 0 0 139 0 0 143 7 8 139 0 0 139 0 0 143 7 8 143 7 8 139 0 0 139 0 0 139 0 0 143 7 8 143 7 8 145 9 10 147 13 14 153 23 24 158 30 32 
139 0 0 139 0 0 139 0 0 139 0 0 139 0 0 139 0 0 139 0 0 139 0 0 139 0 0 139 0 0 139 0 0 139 0 0 139 0 0 139 0 0 139 0 0 139 0 0 139 0 0 139 0 0 139 0 0 139 0 0 139 0 0 139 0 0 139 0 0 139 0 0 139 0 0 139 0 0 139 0 0 139 0 0 139 0 0 139 0 0 139 0 0 139 0 0 139 0 0 139 0 0 139 0 0 139 0 0 139 0 0 139 0 0 139 0 0 143 7 8 139 0 0 139 0 0 143 7 8 139 0 0 139 0 0 139 0 0 139 0 0 139 0 0 139 0 0 139 0 0 143 7 8 139 0 0 139 0 0 139 0 0 139 0 0 139 0 0 139 0 0 139 0 0 139 0 0 139 0 0 139 0 0 139 0 0 139 0 0 139 0 0 139 0 0 139 0 0 139 0 0 139 0 0 139 0 0 139 0 0 139 0 0 139 0 0 139 0 0 139 0 0 139 0 0 139 0 0 139 0 0 139 0 0 139 0 0 139 0 0 139 0 0 139 0 0 139 0 0 139 0 0 139 0 0 139 0 0 139 0 0 139 0 0 139 0 0 143 7 8 139 0 0 139 0 0 139 0 0 139 0 0 139 0 0 139 0 0 139 0 0 139 0 0 139 0 0 139 0 0 139 0 0 139 0 0 139 0 0 139 0 0 139 0 0 139 0 0 139 0 0 139 0 0 139 0 0 139 0 0 139 0 0 139 0 0 139 0 0 139 0 0 139 0 0 139 0 0 139 0 0 139 0 0 139 0 0 139 0 0 139 0 0 139 0 0 139 0 0 139 0 0 139 0 0 139 0 0 139 0 0 139 0 0 139 0 0 139 0 0 143 7 8 143 7 8 145 9 10 147 13 14 147 13 14 147 13 14 147 13 14 155 25 26 172 52 55 157 29 30 159 32 34 168 46 49 153 23 24 155 25 26 151 19 20 147 13 14 151 19 20 151 19 20 147 13 14 150 17 18 147 13 14 147 13 14 147 13 14 150 17 18 153 23 24 153 23 24 151 19 20 151 19 20 150 17 18 147 13 14 150 17 18 150 17 18 147 13 14 147 13 14 150 17 18 147 13 14 146 11 12 145 9 10 146 11 12 146 11 12 146 11 12 145 9 10 145 9 10 145 9 10 145 9 10 145 9 10 143 7 8 139 0 0 143 7 8 139 0 0 143 7 8 139 0 0 139 0 0 139 0 0 139 0 0 139 0 0 143 7 8 143 7 8 139 0 0 139 0 0 139 0 0 139 0 0 139 0 0 139 0 0 139 0 0 139 0 0 139 0 0 139 0 0 139 0 0 139 0 0 139 0 0 143 7 8 143 7 8 139 0 0 139 0 0 139 0 0 143 7 8 139 0 0 139 0 0 143 7 8 143 7 8 139 0 0 139 0 0 139 0 0 143 7 8 143 7 8 145 9 10 147 13 14 153 23 24 158 30 32 
139 0 0 139 0 0 139 0 0 139 0 0 139 0 0 143 7 8 139 0 0 139 0 0 139 0 0 139 0 0 139 0 0 139 0 0 139 0 0 139 0 0 139 0 0 139 0 0 139 0 0 139 0 0 139 0 0 139 0 0 139 0 0 139 0 0 139 0 0 139 0 0 139 0 0 139 0 0 139 0 0 139 0 0 139 0 0 139 0 0 139 0 0 139 0 0 139 0 0 139 0 0 139 0 0 139 0 0 139 0 0 139 0 0 139 0 0 139 0 0 139 0 0 139 0 0 139 0 0 139 0 0 139 0 0 139 0 0 139 0 0 139 0 0 139 0 0 143 7 8 139 0 0 139 0 0 139 0 0 139 0 0 139 0 0 139 0 0 139 0 0 139 0 0 139 0 0 139 0 0 139 0 0 139 0 0 139 0 0 139 0 0 139 0 0 139 0 0 139 0 0 139 0 0 139 0 0 139 0 0 139 0 0 139 0 0 139 0 0 139 0 0 139 0 0 139 0 0 139 0 0 139 0 0 139 0 0 139 0 0 139 0 0 139 0 0 139 0 0 139 0 0 139 0 0 139 0 0 139 0 0 139 0 0 139 0 0 139 0 0 139 0 0 139 0 0 139 0 0 139 0 0 139 0 0 139 0 0 139 0 0 139 0 0 139 0 0 139 0 0 139 0 0 139 0 0 139 0 0 139 0 0 139 0 0 139 0 0 139 0 0 139 0 0 139 0 0 139 0 0 139 0 0 139 0 0 139 0 0 139 0 0 139 0 0 139 0 0 139 0 0 139 0 0 139 0 0 139 0 0 139 0 0 139 0 0 139 0 0 139 0 0 139 0 0 139 0 0 139 0 0 139 0 0 139 0 0 139 0 0 139 0 0 139 0 0 139 0 0 143 7 8 145 9 10 147 13 14 172 52 55 150 17 18 151 19 20 158 30 32 155 25 26 150 17 18 151 19 20 151 19 20 150 17 18 151 19 20 151 19 20 150 17 18 153 23 24 159 32 34 159 32 34 153 23 24 147 13 14 145 9 10 145 9 10 146 11 12 146 11 12 146 11 12 147 13 14 146 11 12 146 11 12 147 13 14 146 11 12 147 13 14 147 13 14 150 17 18 150 17 18 147 13 14 146 11 12 147 13 14 146 11 12 147 13 14 146 11 12 145 9 10 145 9 10 145 9 10 145 9 10 143 7 8 143 7 8 143 7 8 143 7 8 143 7 8 143 7 8 143 7 8 139 0 0 139 0 0 143 7 8 143 7 8 139 0 0 143 7 8 139 0 0 139 0 0 139 0 0 139 0 0 139 0 0 139 0 0 143 7 8 143 7 8 143 7 8 143 7 8 143 7 8 143 7 8 139 0 0 139 0 0 139 0 0 139 0 0 139 0 0 143 7 8 139 0 0 143 7 8 145 9 10 147 13 14 153 23 24 159 32 34 179 63 67 184 71 75 174 56 59 174 56 59 183 69 73 169 48 51 
139 0 0 139 0 0 139 0 0 139 0 0 139 0 0 143 7 8 139 0 0 139 0 0 139 0 0 139 0 0 139 0 0 139 0 0 139 0 0 139 0 0 139 0 0 139 0 0 139 0 0 139 0 0 139 0 0 139 0 0 139 0 0 139 0 0 139 0 0 139 0 0 139 0 0 139 0 0 139 0 0 139 0 0 139 0 0 139 0 0 139 0 0 139 0 0 139 0 0 139 0 0 139 0 0 139 0 0 139 0 0 139 0 0 139 0 0 139 0 0 139 0 0 139 0 0 139 0 0 139 0 0 139 0 0 139 0 0 139 0 0 139 0 0 139 0 0 143 7 8 139 0 0 139 0 0 139 0 0 139 0 0 139 0 0 139 0 0 139 0 0 139 0 0 139 0 0 139 0 0 139 0 0 139 0 0 139 0 0 139 0 0 139 0 0 139 0 0 139 0 0 139 0 0 139 0 0 139 0 0 139 0 0 139 0 0 139 0 0 139 0 0 139 0 0 139 0 0 139 0 0 139 0 0 139 0 0 139 0 0 139 0 0 139 0 0 139 0 0 139 0 0 139 0 0 139 0 0 139 0 0 139 0 0 139 0 0 139 0 0 139 0 0 139 0 0 139 0 0 139 0 0 139 0 0 139 0 0 139 0 0 139 0 0 139 0 0 139 0 0 139 0 0 139 0 0 139 0 0 139 0 0 139 0 0 139 0 0 139 0 0 139 0 0 139 0 0 139 0 0 139 0 0 139 0 0 139 0 0 139 0 0 139 0 0 139 0 0 139 0 0 139 0 0 139 0 0 139 0 0 139 0 0 139 0 0 139 0 0 139 0 0 139 0 0 139 0 0 139 0 0 139 0 0 139 0 0 139 0 0 139 0 0 139 0 0 139 0 0 143 7 8 145 9 10 147 13 14 172 52 55 150 17 18 151 19 20 158 30 32 155 25 26 150 17 18 151 19 20 151 19 20 150 17 18 151 19 20 151 19 20 150 17 18 153 23 24 159 32 34 159 32 34 153 23 24 147 13 14 145 9 10 145 9 10 146 11 12 146 11 12 146 11 12 147 13 14 146 11 12 146 11 12 147 13 14 146 11 12 147 13 14 147 13 14 150 17 18 150 17 18 147 13 14 146 11 12 147 13 14 146 11 12 147 13 14 146 11 12 145 9 10 145 9 10 145 9 10 145 9 10 143 7 8 143 7 8 143 7 8 143 7 8 143 7 8 143 7 8 143 7 8 139 0 0 139 0 0 143 7 8 143 7 8 139 0 0 143 7 8 139 0 0 139 0 0 139 0 0 139 0 0 139 0 0 139 0 0 143 7 8 143 7 8 143 7 8 143 7 8 143 7 8 143 7 8 139 0 0 139 0 0 139 0 0 139 0 0 139 0 0 143 7 8 139 0 0 143 7 8 145 9 10 147 13 14 153 23 24 159 32 34 179 63 67 184 71 75 174 56 59 174 56 59 183 69 73 169 48 51 
139 0 0 139 0 0 139 0 0 139 0 0 139 0 0 139 0 0 139 0 0 139 0 0 139 0 0 139 0 0 139 0 0 139 0 0 139 0 0 143 7 8 139 0 0 139 0 0 139 0 0 139 0 0 139 0 0 139 0 0 139 0 0 139 0 0 139 0 0 139 0 0 139 0 0 139 0 0 139 0 0 143 7 8 139 0 0 139 0 0 139 0 0 139 0 0 139 0 0 139 0 0 139 0 0 139 0 0 139 0 0 139 0 0 139 0 0 139 0 0 139 0 0 139 0 0 139 0 0 139 0 0 139 0 0 139 0 0 139 0 0 139 0 0 139 0 0 139 0 0 139 0 0 139 0 0 139 0 0 139 0 0 139 0 0 139 0 0 139 0 0 139 0 0 139 0 0 139 0 0 143 7 8 139 0 0 139 0 0 139 0 0 139 0 0 139 0 0 139 0 0 139 0 0 139 0 0 139 0 0 139 0 0 139 0 0 139 0 0 139 0 0 139 0 0 139 0 0 139 0 0 139 0 0 139 0 0 139 0 0 139 0 0 139 0 0 139 0 0 139 0 0 139 0 0 139 0 0 139 0 0 139 0 0 139 0 0 139 0 0 139 0 0 139 0 0 139 0 0 139 0 0 139 0 0 139 0 0 139 0 0 139 0 0 139 0 0 139 0 0 139 0 0 139 0 0 139 0 0 139 0 0 139 0 0 139 0 0 139 0 0 139 0 0 139 0 0 139 0 0 139 0 0 139 0 0 139 0 0 139 0 0 139 0 0 139 0 0 139 0 0 139 0 0 139 0 0 139 0 0 139 0 0 139 0 0 139 0 0 139 0 0 139 0 0 139 0 0 139 0 0 139 0 0 139 0 0 139 0 0 139 0 0 139 0 0 139 0 0 139 0 0 139 0 0 139 0 0 143 7 8 147 13 14 150 17 18 168 46 49 151 19 20 151 19 20 153 23 24 153 23 24 155 25 26 174 56 59 184 71 75 180 65 69 168 46 49 150 17 18 147 13 14 147 13 14 147 13 14 151 19 20 153 23 24 151 19 20 157 29 30 159 32 34 155 25 26 155 25 26 157 29 30 155 25 26 151 19 20 150 17 18 146 11 12 146 11 12 147 13 14 147 13 14 146 11 12 146 11 12 150 17 18 147 13 14 146 11 12 143 7 8 146 11 12 145 9 10 145 9 10 145 9 10 145 9 10 145 9 10 143 7 8 143 7 8 145 9 10 143 7 8 143 7 8 139 0 0 139 0 0 143 7 8 139 0 0 139 0 0 139 0 0 139 0 0 143 7 8 143 7 8 139 0 0 143 7 8 143 7 8 143 7 8 143 7 8 143 7 8 143 7 8 145 9 10 146 11 12 146 11 12 145 9 10 150 17 18 155 25 26 169 48 51 184 71 75 184 71 75 203 100 106 206 106 112 204 102 108 188 77 82 183 69 73 190 81 86 179 63 67 179 63 67 188 77 82 190 81 86 
139 0 0 139 0 0 139 0 0 139 0 0 139 0 0 139 0 0 139 0 0 139 0 0 139 0 0 139 0 0 139 0 0 139 0 0 139 0 0 143 7 8 139 0 0 139 0 0 139 0 0 139 0 0 139 0 0 139 0 0 139 0 0 139 0 0 139 0 0 139 0 0 139 0 0 139 0 0 139 0 0 143 7 8 139 0 0 139 0 0 139 0 0 139 0 0 139 0 0 139 0 0 139 0 0 139 0 0 139 0 0 139 0 0 139 0 0 139 0 0 139 0 0 139 0 0 139 0 0 139 0 0 139 0 0 139 0 0 139 0 0 139 0 0 139 0 0 139 0 0 139 0 0 139 0 0 139 0 0 139 0 0 139 0 0 139 0 0 139 0 0 139 0 0 139 0 0 139 0 0 143 7 8 139 0 0 139 0 0 139 0 0 139 0 0 139 0 0 139 0 0 139 0 0 139 0 0 139 0 0 139 0 0 139 0 0 139 0 0 139 0 0 139 0 0 139 0 0 139 0 0 139 0 0 139 0 0 139 0 0 139 0 0 139 0 0 139 0 0 139 0 0 139 0 0 139 0 0 139 0 0 139 0 0 139 0 0 139 0 0 139 0 0 139 0 0 139 0 0 139 0 0 139 0 0 139 0 0 139 0 0 139 0 0 139 0 0 139 0 0 139 0 0 139 0 0 139 0 0 139 0 0 139 0 0 139 0 0 139 0 0 139 0 0 139 0 0 139 0 0 139 0 0 139 0 0 139 0 0 139 0 0 139 0 0 139 0 0 139 0 0 139 0 0 139 0 0 139 0 0 139 0 0 139 0 0 139 0 0 139 0 0 139 0 0 139 0 0 139 0 0 139 0 0 139 0 0 139 0 0 139 0 0 139 0 0 139 0 0 139 0 0 139 0 0 139 0 0 143 7 8 147 13 14 150 17 18 168 46 49 151 19 20 151 19 20 153 23 24 153 23 24 155 25 26 174 56 59 184 71 75 180 65 69 168 46 49 150 17 18 147 13 14 147 13 14 147 13 14 151 19 20 153 23 24 151 19 20 157 29 30 159 32 34 155 25 26 155 25 26 157 29 30 155 25 26 151 19 20 150 17 18 146 11 12 146 11 12 147 13 14 147 13 14 146 11 12 146 11 12 150 17 18 147 13 14 146 11 12 143 7 8 146 11 12 145 9 10 145 9 10 145 9 10 145 9 10 145 9 10 143 7 8 143 7 8 145 9 10 143 7 8 143 7 8 139 0 0 139 0 0 143 7 8 139 0 0 139 0 0 139 0 0 139 0 0 143 7 8 143 7 8 139 0 0 143 7 8 143 7 8 143 7 8 143 7 8 143 7 8 143 7 8 145 9 10 146 11 12 146 11 12 145 9 10 150 17 18 155 25 26 169 48 51 184 71 75 184 71 75 203 100 106 206 106 112 204 102 108 188 77 82 183 69 73 190 81 86 179 63 67 179 63 67 188 77 82 190 81 86 
139 0 0 139 0 0 139 0 0 143 7 8 139 0 0 139 0 0 139 0 0 143 7 8 139 0 0 139 0 0 139 0 0 139 0 0 139 0 0 139 0 0 139 0 0 139 0 0 139 0 0 139 0 0 139 0 0 139 0 0 139 0 0 139 0 0 139 0 0 139 0 0 139 0 0 139 0 0 139 0 0 139 0 0 139 0 0 139 0 0 139 0 0 139 0 0 139 0 0 139 0 0 139 0 0 139 0 0 139 0 0 139 0 0 139 0 0 139 0 0 139 0 0 139 0 0 139 0 0 139 0 0 143 7 8 139 0 0 139 0 0 139 0 0 139 0 0 139 0 0 139 0 0 139 0 0 139 0 0 139 0 0 139 0 0 139 0 0 139 0 0 139 0 0 139 0 0 139 0 0 139 0 0 139 0 0 139 0 0 139 0 0 139 0 0 139 0 0 139 0 0 139 0 0 139 0 0 139 0 0 139 0 0 139 0 0 139 0 0 139 0 0 139 0 0 139 0 0 139 0 0 139 0 0 139 0 0 139 0 0 139 0 0 139 0 0 139 0 0 139 0 0 139 0 0 139 0 0 139 0 0 139 0 0 139 0 0 139 0 0 139 0 0 139 0 0 139 0 0 139 0 0 139 0 0 139 0 0 139 0 0 139 0 0 139 0 0 139 0 0 139 0 0 139 0 0 139 0 0 139 0 0 139 0 0 139 0 0 139 0 0 139 0 0 139 0 0 139 0 0 139 0 0 139 0 0 139 0 0 139 0 0 139 0 0 139 0 0 139 0 0 139 0 0 139 0 0 139 0 0 139 0 0 139 0 0 139 0 0 139 0 0 139 0 0 139 0 0 139 0 0 139 0 0 139 0 0 139 0 0 139 0 0 139 0 0 139 0 0 139 0 0 139 0 0 139 0 0 139 0 0 139 0 0 143 7 8 146 11 12 150 17 18 159 32 34 185 73 78 159 32 34 155 25 26 157 29 30 159 32 34 184 71 75 185 73 78 147 13 14 147 13 14 151 19 20 157 29 30 180 65 69 183 69 73 157 29 30 155 25 26 155 25 26 155 25 26 183 69 73 195 89 94 203 100 106 192 83 88 180 65 69 174 56 59 179 63 67 174 56 59 179 63 67 155 25 26 150 17 18 151 19 20 147 13 14 146 11 12 146 11 12 146 11 12 146 11 12 147 13 14 150 17 18 146 11 12 147 13 14 147 13 14 151 19 20 150 17 18 147 13 14 146 11 12 146 11 12 145 9 10 143 7 8 143 7 8 143 7 8 139 0 0 139 0 0 143 7 8 143 7 8 143 7 8 145 9 10 145 9 10 146 11 12 147 13 14 159 32 34 190 81 86 194 87 92 192 83 88 198 92 98 211 114 121 214 118 125 206 106 112 198 92 98 204 102 108 209 110 117 204 102 108 210 112 119 214 118 125 198 92 98 183 69 73 185 73 78 204 102 108 204 102 108 214 118 125 187 75 80 
139 0 0 139 0 0 139 0 0 143 7 8 139 0 0 139 0 0 139 0 0 143 7 8 139 0 0 139 0 0 139 0 0 139 0 0 139 0 0 139 0 0 139 0 0 139 0 0 139 0 0 139 0 0 139 0 0 139 0 0 139 0 0 139 0 0 139 0 0 139 0 0 139 0 0 139 0 0 139 0 0 139 0 0 139 0 0 139 0 0 139 0 0 139 0 0 139 0 0 139 0 0 139 0 0 139 0 0 139 0 0 139 0 0 139 0 0 139 0 0 139 0 0 139 0 0 139 0 0 139 0 0 143 7 8 139 0 0 139 0 0 139 0 0 139 0 0 139 0 0 139 0 0 139 0 0 139 0 0 139 0 0 139 0 0 139 0 0 139 0 0 139 0 0 139 0 0 139 0 0 139 0 0 139 0 0 139 0 0 139 0 0 139 0 0 139 0 0 139 0 0 139 0 0 139 0 0 139 0 0 139 0 0 139 0 0 139 0 0 139 0 0 139 0 0 139 0 0 139 0 0 139 0 0 139 0 0 139 0 0 139 0 0 139 0 0 139 0 0 139 0 0 139 0 0 139 0 0 139 0 0 139 0 0 139 0 0 139 0 0 139 0 0 139 0 0 139 0 0 139 0 0 139 0 0 139 0 0 139 0 0 139 0 0 139 0 0 139 0 0 139 0 0 139 0 0 139 0 0 139 0 0 139 0 0 139 0 0 139 0 0 139 0 0 139 0 0 139 0 0 139 0 0 139 0 0 139 0 0 139 0 0 139 0 0 139 0 0 139 0 0 139 0 0 139 0 0 139 0 0 139 0 0 139 0 0 139 0 0 139 0 0 139 0 0 139 0 0 139 0 0 139 0 0 139 0 0 139 0 0 139 0 0 139 0 0 139 0 0 139 0 0 139 0 0 139 0 0 139 0 0 139 0 0 143 7 8 146 11 12 150 17 18 159 32 34 185 73 78 159 32 34 155 25 26 157 29 30 159 32 34 184 71 75 185 73 78 147 13 14 147 13 14 151 19 20 157 29 30 180 65 69 183 69 73 157 29 30 155 25 26 155 25 26 155 25 26 183 69 73 195 89 94 203 100 106 192 83 88 180 65 69 174 56 59 179 63 67 174 56 59 179 63 67 155 25 26 150 17 18 151 19 20 147 13 14 146 11 12 146 11 12 146 11 12 146 11 12 147 13 14 150 17 18 146 11 12 147 13 14 147 13 14 151 19 20 150 17 18 147 13 14 146 11 12 146 11 12 145 9 10 143 7 8 143 7 8 143 7 8 139 0 0 139 0 0 143 7 8 143 7 8 143 7 8 145 9 10 145 9 10 146 11 12 147 13 14 159 32 34 190 81 86 194 87 92 192 83 88 198 92 98 211 114 121 214 118 125 206 106 112 198 92 98 204 102 108 209 110 117 204 102 108 210 112 119 214 118 125 198 92 98 183 69 73 185 73 78 204 102 108 204 102 108 214 118 125 187 75 80 
139 0 0 139 0 0 139 0 0 143 7 8 139 0 0 139 0 0 139 0 0 139 0 0 143 7 8 139 0 0 139 0 0 139 0 0 139 0 0 139 0 0 139 0 0 139 0 0 139 0 0 139 0 0 139 0 0 139 0 0 139 0 0 139 0 0 139 0 0 139 0 0 139 0 0 139 0 0 139 0 0 139 0 0 139 0 0 139 0 0 139 0 0 139 0 0 139 0 0 139 0 0 139 0 0 139 0 0 139 0 0 143 7 8 139 0 0 139 0 0 139 0 0 139 0 0 139 0 0 139 0 0 139 0 0 139 0 0 139 0 0 139 0 0 139 0 0 139 0 0 139 0 0 139 0 0 139 0 0 139 0 0 139 0 0 143 7 8 139 0 0 139 0 0 139 0 0 139 0 0 139 0 0 139 0 0 139 0 0 139 0 0 139 0 0 139 0 0 139 0 0 139 0 0 143 7 8 139 0 0 139 0 0 139 0 0 139 0 0 139 0 0 139 0 0 139 0 0 139 0 0 139 0 0 139 0 0 139 0 0 139 0 0 139 0 0 139 0 0 139 0 0 139 0 0 139 0 0 139 0 0 139 0 0 139 0 0 139 0 0 139 0 0 139 0 0 139 0 0 139 0 0 139 0 0 139 0 0 139 0 0 139 0 0 139 0 0 139 0 0 139 0 0 139 0 0 139 0 0 139 0 0 139 0 0 139 0 0 139 0 0 139 0 0 139 0 0 139 0 0 139 0 0 139 0 0 139 0 0 139 0 0 139 0 0 139 0 0 139 0 0 139 0 0 139 0 0 139 0 0 139 0 0 139 0 0 139 0 0 139 0 0 139 0 0 139 0 0 139 0 0 139 0 0 139 0 0 139 0 0 139 0 0 139 0 0 139 0 0 139 0 0 139 0 0 139 0 0 139 0 0 139 0 0 139 0 0 139 0 0 143 7 8 143 7 8 145 9 10 147 13 14 151 19 20 157 29 30 155 25 26 169 48 51 180 65 69 172 52 55 155 25 26 150 17 18 151 19 20 158 30 32 172 52 55 168 46 49 168 46 49 172 52 55 172 52 55 172 52 55 172 52 55 168 46 49 169 48 51 184 71 75 190 81 86 195 89 94 194 87 92 192 83 88 204 102 108 194 87 92 194 87 92 210 112 119 195 89 94 198 92 98 195 89 94 210 112 119 209 110 117 213 116 123 206 106 112 211 114 121 188 77 82 172 52 55 179 63 67 179 63 67 172 52 55 183 69 73 180 65 69 159 32 34 169 48 51 168 46 49 158 30 32 157 29 30 155 25 26 159 32 34 169 48 51 180 65 69 174 56 59 172 52 55 188 77 82 195 89 94 192 83 88 194 87 92 198 92 98 204 102 108 205 104 110 203 100 106 198 92 98 214 118 125 213 116 123 210 112 119 209 110 117 190 81 86 192 83 88 192 83 88 206 106 112 190 81 86 190 81 86 203 100 106 215 120 127 189 79 84 
139 0 0 139 0 0 139 0 0 143 7 8 139 0 0 139 0 0 139 0 0 139 0 0 143 7 8 139 0 0 139 0 0 139 0 0 139 0 0 139 0 0 139 0 0 139 0 0 139 0 0 139 0 0 139 0 0 139 0 0 139 0 0 139 0 0 139 0 0 139 0 0 139 0 0 139 0 0 139 0 0 139 0 0 139 0 0 139 0 0 139 0 0 139 0 0 139 0 0 139 0 0 139 0 0 139 0 0 139 0 0 143 7 8 139 0 0 139 0 0 139 0 0 139 0 0 139 0 0 139 0 0 139 0 0 139 0 0 139 0 0 139 0 0 139 0 0 139 0 0 139 0 0 139 0 0 139 0 0 139 0 0 139 0 0 143 7 8 139 0 0 139 0 0 139 0 0 139 0 0 139 0 0 139 0 0 139 0 0 139 0 0 139 0 0 139 0 0 139 0 0 139 0 0 143 7 8 139 0 0 139 0 0 139 0 0 139 0 0 139 0 0 139 0 0 139 0 0 139 0 0 139 0 0 139 0 0 139 0 0 139 0 0 139 0 0 139 0 0 139 0 0 139 0 0 139 0 0 139 0 0 139 0 0 139 0 0 139 0 0 139 0 0 139 0 0 139 0 0 139 0 0 139 0 0 139 0 0 139 0 0 139 0 0 139 0 0 139 0 0 139 0 0 139 0 0 139 0 0 139 0 0 139 0 0 139 0 0 139 0 0 139 0 0 139 0 0 139 0 0 139 0 0 139 0 0 139 0 0 139 0 0 139 0 0 139 0 0 139 0 0 139 0 0 139 0 0 139 0 0 139 0 0 139 0 0 139 0 0 139 0 0 139 0 0 139 0 0 139 0 0 139 0 0 139 0 0 139 0 0 139 0 0 139 0 0 139 0 0 139 0 0 139 0 0 139 0 0 139 0 0 139 0 0 139 0 0 139 0 0 143 7 8 143 7 8 145 9 10 147 13 14 151 19 20 157 29 30 155 25 26 169 48 51 180 65 69 172 52 55 155 25 26 150 17 18 151 19 20 158 30 32 172 52 55 168 46 49 168 46 49 172 52 55 172 52 55 172 52 55 172 52 55 168 46 49 169 48 51 184 71 75 190 81 86 195 89 94 194 87 92 192 83 88 204 102 108 194 87 92 194 87 92 210 112 119 195 89 94 198 92 98 195 89 94 210 112 119 209 110 117 213 116 123 206 106 112 211 114 121 188 77 82 172 52 55 179 63 67 179 63 67 172 52 55 183 69 73 180 65 69 159 32 34 169 48 51 168 46 49 158 30 32 157 29 30 155 25 26 159 32 34 169 48 51 180 65 69 174 56 59 172 52 55 188 77 82 195 89 94 192 83 88 194 87 92 198 92 98 204 102 108 205 104 110 203 100 106 198 92 98 214 118 125 213 116 123 210 112 119 209 110 117 190 81 86 192 83 88 192 83 88 206 106 112 190 81 86 190 81 86 203 100 106 215 120 127 189 79 84 
139 0 0 139 0 0 139 0 0 139 0 0 143 7 8 139 0 0 139 0 0 139 0 0 139 0 0 143 7 8 143 7 8 139 0 0 139 0 0 143 7 8 139 0 0 139 0 0 139 0 0 139 0 0 139 0 0 139 0 0 139 0 0 139 0 0 139 0 0 139 0 0 139 0 0 139 0 0 139 0 0 139 0 0 139 0 0 139 0 0 139 0 0 139 0 0 139 0 0 139 0 0 139 0 0 139 0 0 139 0 0 139 0 0 139 0 0 139 0 0 139 0 0 139 0 0 139 0 0 139 0 0 139 0 0 139 0 0 139 0 0 139 0 0 139 0 0 139 0 0 139 0 0 139 0 0 139 0 0 139 0 0 139 0 0 139 0 0 139 0 0 139 0 0 139 0 0 139 0 0 139 0 0 139 0 0 139 0 0 139 0 0 139 0 0 139 0 0 139 0 0 139 0 0 139 0 0 139 0 0 139 0 0 139 0 0 139 0 0 139 0 0 139 0 0 139 0 0 139 0 0 139 0 0 139 0 0 143 7 8 139 0 0 139 0 0 139 0 0 139 0 0 139 0 0 139 0 0 139 0 0 139 0 0 139 0 0 139 0 0 139 0 0 139 0 0 139 0 0 139 0 0 139 0 0 139 0 0 139 0 0 139 0 0 139 0 0 139 0 0 139 0 0 139 0 0 139 0 0 139 0 0 139 0 0 139 0 0 139 0 0 139 0 0 139 0 0 139 0 0 139 0 0 139 0 0 139 0 0 139 0 0 139 0 0 139 0 0 139 0 0 139 0 0 139 0 0 139 0 0 139 0 0 139 0 0 139 0 0 139 0 0 139 0 0 139 0 0 139 0 0 139 0 0 139 0 0 139 0 0 139 0 0 139 0 0 139 0 0 139 0 0 139 0 0 139 0 0 139 0 0 139 0 0 139 0 0 139 0 0 139 0 0 139 0 0 139 0 0 143 7 8 143 7 8 145 9 10 145 9 10 146 11 12 147 13 14 153 23 24 183 69 73 195 89 94 185 73 78 168 46 49 158 30 32 172 52 55 179 63 67 184 71 75 179 63 67 172 52 55 168 46 49 157 29 30 155 25 26 157 29 30 172 52 55 179 63 67 188 77 82 194 87 92 198 92 98 194 87 92 194 87 92 190 81 86 190 81 86 198 92 98 205 104 110 220 127 135 211 114 121 192 83 88 190 81 86 189 79 84 190 81 86 187 75 80 194 87 92 195 89 94 185 73 78 179 63 67 180 65 69 188 77 82 180 65 69 185 73 78 183 69 73 169 48 51 179 63 67 169 48 51 158 30 32 155 25 26 168 46 49 180 65 69 192 83 88 210 112 119 205 104 110 204 102 108 211 114 121 206 106 112 204 102 108 213 116 123 192 83 88 192 83 88 194 87 92 203 100 106 200 96 102 195 89 94 183 69 73 169 48 51 169 48 51 183 69 73 174 56 59 174 56 59 172 52 55 153 23 24 
139 0 0 139 0 0 139 0 0 139 0 0 143 7 8 139 0 0 139 0 0 139 0 0 139 0 0 143 7 8 143 7 8 139 0 0 139 0 0 143 7 8 139 0 0 139 0 0 139 0 0 139 0 0 139 0 0 139 0 0 139 0 0 139 0 0 139 0 0 139 0 0 139 0 0 139 0 0 139 0 0 139 0 0 139 0 0 139 0 0 139 0 0 139 0 0 139 0 0 139 0 0 139 0 0 139 0 0 139 0 0 139 0 0 139 0 0 139 0 0 139 0 0 139 0 0 139 0 0 139 0 0 139 0 0 139 0 0 139 0 0 139 0 0 139 0 0 139 0 0 139 0 0 139 0 0 139 0 0 139 0 0 139 0 0 139 0 0 139 0 0 139 0 0 139 0 0 139 0 0 139 0 0 139 0 0 139 0 0 139 0 0 139 0 0 139 0 0 139 0 0 139 0 0 139 0 0 139 0 0 139 0 0 139 0 0 139 0 0 139 0 0 139 0 0 139 0 0 139 0 0 139 0 0 139 0 0 143 7 8 139 0 0 139 0 0 139 0 0 139 0 0 139 0 0 139 0 0 139 0 0 139 0 0 139 0 0 139 0 0 139 0 0 139 0 0 139 0 0 139 0 0 139 0 0 139 0 0 139 0 0 139 0 0 139 0 0 139 0 0 139 0 0 139 0 0 139 0 0 139 0 0 139 0 0 139 0 0 139 0 0 139 0 0 139 0 0 139 0 0 139 0 0 139 0 0 139 0 0 139 0 0 139 0 0 139 0 0 139 0 0 139 0 0 139 0 0 139 0 0 139 0 0 139 0 0 139 0 0 139 0 0 139 0 0 139 0 0 139 0 0 139 0 0 139 0 0 139 0 0 139 0 0 139 0 0 139 0 0 139 0 0 139 0 0 139 0 0 139 0 0 139 0 0 139 0 0 139 0 0 139 0 0 139 0 0 139 0 0 143 7 8 143 7 8 145 9 10 145 9 10 146 11 12 147 13 14 153 23 24 183 69 73 195 89 94 185 73 78 168 46 49 158 30 32 172 52 55 179 63 67 184 71 75 179 63 67 172 52 55 168 46 49 157 29 30 155 25 26 157 29 30 172 52 55 179 63 67 188 77 82 194 87 92 198 92 98 194 87 92 194 87 92 190 81 86 190 81 86 198 92 98 205 104 110 220 127 135 211 114 121 192 83 88 190 81 86 189 79 84 190 81 86 187 75 80 194 87 92 195 89 94 185 73 78 179 63 67 180 65 69 188 77 82 180 65 69 185 73 78 183 69 73 169 48 51 179 63 67 169 48 51 158 30 32 155 25 26 168 46 49 180 65 69 192 83 88 210 112 119 205 104 110 204 102 108 211 114 121 206 106 112 204 102 108 213 116 123 192 83 88 192 83 88 194 87 92 203 100 106 200 96 102 195 89 94 183 69 73 169 48 51 169 48 51 183 69 73 174 56 59 174 56 59 172 52 55 153 23 24 
139 0 0 139 0 0 139 0 0 139 0 0 139 0 0 143 7 8 139 0 0 139 0 0 139 0 0 139 0 0 139 0 0 139 0 0 139 0 0 139 0 0 139 0 0 139 0 0 139 0 0 139 0 0 139 0 0 139 0 0 139 0 0 139 0 0 139 0 0 139 0 0 139 0 0 139 0 0 139 0 0 139 0 0 139 0 0 139 0 0 139 0 0 139 0 0 139 0 0 139 0 0 139 0 0 139 0 0 139 0 0 139 0 0 139 0 0 139 0 0 139 0 0 139 0 0 139 0 0 139 0 0 139 0 0 139 0 0 139 0 0 139 0 0 139 0 0 139 0 0 139 0 0 139 0 0 139 0 0 139 0 0 139 0 0 139 0 0 139 0 0 139 0 0 139 0 0 139 0 0 139 0 0 139 0 0 139 0 0 139 0 0 139 0 0 139 0 0 139 0 0 139 0 0 139 0 0 139 0 0 139 0 0 139 0 0 139 0 0 139 0 0 139 0 0 139 0 0 139 0 0 139 0 0 139 0 0 139 0 0 139 0 0 139 0 0 139 0 0 139 0 0 139 0 0 139 0 0 139 0 0 139 0 0 139 0 0 139 0 0 139 0 0 139 0 0 139 0 0 139 0 0 139 0 0 139 0 0 139 0 0 139 0 0 139 0 0 139 0 0 139 0 0 139 0 0 139 0 0 139 0 0 139 0 0 139 0 0 139 0 0 139 0 0 139 0 0 139 0 0 139 0 0 139 0 0 139 0 0 139 0 0 139 0 0 139 0 0 139 0 0 139 0 0 139 0 0 139 0 0 139 0 0 139 0 0 139 0 0 139 0 0 139 0 0 139 0 0 139 0 0 139 0 0 139 0 0 139 0 0 139 0 0 139 0 0 139 0 0 139 0 0 139 0 0 139 0 0 139 0 0 139 0 0 139 0 0 139 0 0 139 0 0 139 0 0 139 0 0 139 0 0 139 0 0 139 0 0 139 0 0 139 0 0 143 7 8 146 11 12 153 23 24 187 75 80 217 123 131 206 106 112 183 69 73 183 69 73 180 65 69 179 63 67 168 46 49 169 48 51 168 46 49 155 25 26 155 25 26 157 29 30 159 32 34 159 32 34 168 46 49 172 52 55 180 65 69 180 65 69 180 65 69 192 83 88 179 63 67 183 69 73 174 56 59 184 71 75 185 73 78 180 65 69 159 32 34 157 29 30 159 32 34 180 65 69 180 65 69 172 52 55 159 32 34 158 30 32 180 65 69 188 77 82 183 69 73 169 48 51 187 75 80 180 65 69 155 25 26 159 32 34 169 48 51 168 46 49 159 32 34 179 63 67 184 71 75 204 102 108 195 89 94 183 69 73 188 77 82 195 89 94 195 89 94 183 69 73 183 69 73 185 73 78 184 71 75 184 71 75 189 79 84 172 52 55 153 23 24 150 17 18 157 29 30 151 19 20 203 100 106 158 30 32 153 23 24 147 13 14 
139 0 0 139 0 0 139 0 0 139 0 0 139 0 0 143 7 8 139 0 0 139 0 0 139 0 0 139 0 0 139 0 0 139 0 0 139 0 0 139 0 0 139 0 0 139 0 0 139 0 0 139 0 0 139 0 0 139 0 0 139 0 0 139 0 0 139 0 0 139 0 0 139 0 0 139 0 0 139 0 0 139 0 0 139 0 0 139 0 0 139 0 0 139 0 0 139 0 0 139 0 0 139 0 0 139 0 0 139 0 0 139 0 0 139 0 0 139 0 0 139 0 0 139 0 0 139 0 0 139 0 0 139 0 0 139 0 0 139 0 0 139 0 0 139 0 0 139 0 0 139 0 0 139 0 0 139 0 0 139 0 0 139 0 0 139 0 0 139 0 0 139 0 0 139 0 0 139 0 0 139 0 0 139 0 0 139 0 0 139 0 0 139 0 0 139 0 0 139 0 0 139 0 0 139 0 0 139 0 0 139 0 0 139 0 0 139 0 0 139 0 0 139 0 0 139 0 0 139 0 0 139 0 0 139 0 0 139 0 0 139 0 0 139 0 0 139 0 0 139 0 0 139 0 0 139 0 0 139 0 0 139 0 0 139 0 0 139 0 0 139 0 0 139 0 0 139 0 0 139 0 0 139 0 0 139 0 0 139 0 0 139 0 0 139 0 0 139 0 0 139 0 0 139 0 0 139 0 0 139 0 0 139 0 0 139 0 0 139 0 0 139 0 0 139 0 0 139 0 0 139 0 0 139 0 0 139 0 0 139 0 0 139 0 0 139 0 0 139 0 0 139 0 0 139 0 0 139 0 0 139 0 0 139 0 0 139 0 0 139 0 0 139 0 0 139 0 0 139 0 0 139 0 0 139 0 0 139 0 0 139 0 0 139 0 0 139 0 0 139 0 0 139 0 0 139 0 0 139 0 0 139 0 0 139 0 0 139 0 0 139 0 0 139 0 0 139 0 0 139 0 0 139 0 0 139 0 0 139 0 0 139 0 0 143 7 8 146 11 12 153 23 24 187 75 80 217 123 131 206 106 112 183 69 73 183 69 73 180 65 69 179 63 67 168 46 49 169 48 51 168 46 49 155 25 26 155 25 26 157 29 30 159 32 34 159 32 34 168 46 49 172 52 55 180 65 69 180 65 69 180 65 69 192 83 88 179 63 67 183 69 73 174 56 59 184 71 75 185 73 78 180 65 69 159 32 34 157 29 30 159 32 34 180 65 69 180 65 69 172 52 55 159 32 34 158 30 32 180 65 69 188 77 82 183 69 73 169 48 51 187 75 80 180 65 69 155 25 26 159 32 34 169 48 51 168 46 49 159 32 34 179 63 67 184 71 75 204 102 108 195 89 94 183 69 73 188 77 82 195 89 94 195 89 94 183 69 73 183 69 73 185 73 78 184 71 75 184 71 75 189 79 84 172 52 55 153 23 24 150 17 18 157 29 30 151 19 20 203 100 106 158 30 32 153 23 24 147 13 14 
143 7 8 139 0 0 143 7 8 143 7 8 139 0 0 139 0 0 139 0 0 139 0 0 139 0 0 139 0 0 139 0 0 139 0 0 139 0 0 139 0 0 139 0 0 139 0 0 139 0 0 139 0 0 139 0 0 139 0 0 139 0 0 139 0 0 139 0 0 139 0 0 139 0 0 139 0 0 139 0 0 139 0 0 139 0 0 139 0 0 139 0 0 139 0 0 139 0 0 139 0 0 139 0 0 139 0 0 139 0 0 139 0 0 139 0 0 139 0 0 139 0 0 139 0 0 139 0 0 139 0 0 139 0 0 139 0 0 139 0 0 139 0 0 139 0 0 139 0 0 139 0 0 139 0 0 139 0 0 139 0 0 139 0 0 139 0 0 139 0 0 139 0 0 139 0 0 139 0 0 139 0 0 139 0 0 139 0 0 139 0 0 139 0 0 139 0 0 139 0 0 139 0 0 139 0 0 139 0 0 139 0 0 139 0 0 139 0 0 139 0 0 139 0 0 139 0 0 139 0 0 139 0 0 139 0 0 139 0 0 139 0 0 139 0 0 139 0 0 139 0 0 139 0 0 139 0 0 139 0 0 139 0 0 139 0 0 139 0 0 139 0 0 139 0 0 139 0 0 139 0 0 139 0 0 139 0 0 139 0 0 139 0 0 139 0 0 139 0 0 139 0 0 139 0 0 139 0 0 139 0 0 139 0 0 139 0 0 139 0 0 139 0 0 139 0 0 139 0 0 139 0 0 139 0 0 139 0 0 139 0 0 139 0 0 139 0 0 139 0 0 139 0 0 139 0 0 139 0 0 139 0 0 139 0 0 139 0 0 139 0 0 139 0 0 139 0 0 139 0 0 139 0 0 139 0 0 139 0 0 139 0 0 139 0 0 139 0 0 139 0 0 139 0 0 139 0 0 139 0 0 139 0 0 139 0 0 139 0 0 139 0 0 139 0 0 139 0 0 139 0 0 139 0 0 139 0 0 139 0 0 139 0 0 139 0 0 139 0 0 139 0 0 143 7 8 157 29 30 189 79 84 187 75 80 155 25 26 147 13 14 147 13 14 150 17 18 147 13 14 151 19 20 151 19 20 153 23 24 153 23 24 157 29 30 159 32 34 157 29 30 169 48 51 179 63 67 179 63 67 179 63 67 168 46 49 183 69 73 159 32 34 158 30 32 153 23 24 155 25 26 153 23 24 155 25 26 151 19 20 153 23 24 155 25 26 153 23 24 157 29 30 168 46 49 189 79 84 206 106 112 203 100 106 174 56 59 179 63 67 180 65 69 183 69 73 180 65 69 159 32 34 157 29 30 179 63 67 189 79 84 189 79 84 187 75 80 185 73 78 180 65 69 168 46 49 153 23 24 151 19 20 155 25 26 151 19 20 158 30 32 168 46 49 159 32 34 179 63 67 204 102 108 172 52 55 168 46 49 169 48 51 174 56 59 179 63 67 190 81 86 151 19 20 150 17 18 157 29 30 
143 7 8 139 0 0 143 7 8 143 7 8 139 0 0 139 0 0 139 0 0 139 0 0 139 0 0 139 0 0 139 0 0 139 0 0 139 0 0 139 0 0 139 0 0 139 0 0 139 0 0 139 0 0 139 0 0 139 0 0 139 0 0 139 0 0 139 0 0 139 0 0 139 0 0 139 0 0 139 0 0 139 0 0 139 0 0 139 0 0 139 0 0 139 0 0 139 0 0 139 0 0 139 0 0 139 0 0 139 0 0 139 0 0 139 0 0 139 0 0 139 0 0 139 0 0 139 0 0 139 0 0 139 0 0 139 0 0 139 0 0 139 0 0 139 0 0 139 0 0 139 0 0 139 0 0 139 0 0 139 0 0 139 0 0 139 0 0 139 0 0 139 0 0 139 0 0 139 0 0 139 0 0 139 0 0 139 0 0 139 0 0 139 0 0 139 0 0 139 0 0 139 0 0 139 0 0 139 0 0 139 0 0 139 0 0 139 0 0 139 0 0 139 0 0 139 0 0 139 0 0 139 0 0 139 0 0 139 0 0 139 0 0 139 0 0 139 0 0 139 0 0 139 0 0 139 0 0 139 0 0 139 0 0 139 0 0 139 0 0 139 0 0 139 0 0 139 0 0 139 0 0 139 0 0 139 0 0 139 0 0 139 0 0 139 0 0 139 0 0 139 0 0 139 0 0 139 0 0 139 0 0 139 0 0 139 0 0 139 0 0 139 0 0 139 0 0 139 0 0 139 0 0 139 0 0 139 0 0 139 0 0 139 0 0 139 0 0 139 0 0 139 0 0 139 0 0 139 0 0 139 0 0 139 0 0 139 0 0 139 0 0 139 0 0 139 0 0 139 0 0 139 0 0 139 0 0 139 0 0 139 0 0 139 0 0 139 0 0 139 0 0 139 0 0 139 0 0 139 0 0 139 0 0 139 0 0 139 0 0 139 0 0 139 0 0 139 0 0 139 0 0 139 0 0 139 0 0 139 0 0 139 0 0 139 0 0 139 0 0 139 0 0 143 7 8 157 29 30 189 79 84 187 75 80 155 25 26 147 13 14 147 13 14 150 17 18 147 13 14 151 19 20 151 19 20 153 23 24 153 23 24 157 29 30 159 32 34 157 29 30 169 48 51 179 63 67 179 63 67 179 63 67 168 46 49 183 69 73 159 32 34 158 30 32 153 23 24 155 25 26 153 23 24 155 25 26 151 19 20 153 23 24 155 25 26 153 23 24 157 29 30 168 46 49 189 79 84 206 106 112 203 100 106 174 56 59 179 63 67 180 65 69 183 69 73 180 65 69 159 32 34 157 29 30 179 63 67 189 79 84 189 79 84 187 75 80 185 73 78 180 65 69 168 46 49 153 23 24 151 19 20 155 25 26 151 19 20 158 30 32 168 46 49 159 32 34 179 63 67 204 102 108 172 52 55 168 46 49 169 48 51 174 56 59 179 63 67 190 81 86 151 19 20 150 17 18 157 29 30 
143 7 8 139 0 0 139 0 0 139 0 0 139 0 0 139 0 0 139 0 0 139 0 0 139 0 0 139 0 0 139 0 0 139 0 0 139 0 0 139 0 0 139 0 0 139 0 0 139 0 0 139 0 0 139 0 0 139 0 0 139 0 0 139 0 0 139 0 0 139 0 0 139 0 0 139 0 0 139 0 0 139 0 0 139 0 0 139 0 0 139 0 0 139 0 0 139 0 0 139 0 0 139 0 0 139 0 0 139 0 0 139 0 0 139 0 0 139 0 0 139 0 0 139 0 0 139 0 0 139 0 0 139 0 0 139 0 0 143 7 8 139 0 0 139 0 0 139 0 0 139 0 0 139 0 0 139 0 0 139 0 0 139 0 0 139 0 0 139 0 0 139 0 0 139 0 0 139 0 0 139 0 0 139 0 0 139 0 0 139 0 0 139 0 0 139 0 0 139 0 0 139 0 0 139 0 0 139 0 0 139 0 0 139 0 0 139 0 0 139 0 0 139 0 0 139 0 0 139 0 0 139 0 0 139 0 0 139 0 0 139 0 0 139 0 0 139 0 0 139 0 0 139 0 0 139 0 0 139 0 0 139 0 0 139 0 0 139 0 0 139 0 0 139 0 0 139 0 0 139 0 0 139 0 0 139 0 0 139 0 0 139 0 0 139 0 0 139 0 0 139 0 0 139 0 0 139 0 0 139 0 0 139 0 0 139 0 0 139 0 0 139 0 0 139 0 0 139 0 0 139 0 0 139 0 0 139 0 0 139 0 0 139 0 0 139 0 0 139 0 0 139 0 0 139 0 0 139 0 0 139 0 0 139 0 0 139 0 0 139 0 0 139 0 0 139 0 0 139 0 0 139 0 0 139 0 0 139 0 0 139 0 0 139 0 0 139 0 0 139 0 0 139 0 0 139 0 0 139 0 0 139 0 0 139 0 0 139 0 0 139 0 0 139 0 0 139 0 0 139 0 0 139 0 0 139 0 0 139 0 0 139 0 0 139 0 0 139 0 0 139 0 0 139 0 0 143 7 8 155 25 26 168 46 49 153 23 24 150 17 18 145 9 10 143 7 8 145 9 10 146 11 12 146 11 12 147 13 14 153 23 24 155 25 26 157 29 30 179 63 67 195 89 94 183 69 73 172 52 55 168 46 49 169 48 51 180 65 69 216 121 129 180 65 69 169 48 51 168 46 49 153 23 24 155 25 26 153 23 24 150 17 18 153 23 24 155 25 26 157 29 30 159 32 34 184 71 75 190 81 86 172 52 55 188 77 82 187 75 80 180 65 69 198 92 98 189 79 84 159 32 34 195 89 94 217 123 131 194 87 92 179 63 67 158 30 32 153 23 24 153 23 24 151 19 20 174 56 59 169 48 51 151 19 20 158 30 32 174 56 59 174 56 59 185 73 78 185 73 78 192 83 88 194 87 92 198 92 98 169 48 51 150 17 18 147 13 14 150 17 18 146 11 12 145 9 10 151 19 20 
143 7 8 139 0 0 139 0 0 139 0 0 139 0 0 139 0 0 139 0 0 139 0 0 139 0 0 139 0 0 139 0 0 139 0 0 139 0 0 139 0 0 139 0 0 139 0 0 139 0 0 139 0 0 139 0 0 139 0 0 139 0 0 139 0 0 139 0 0 139 0 0 139 0 0 139 0 0 139 0 0 139 0 0 139 0 0 139 0 0 139 0 0 139 0 0 139 0 0 139 0 0 139 0 0 139 0 0 139 0 0 139 0 0 139 0 0 139 0 0 139 0 0 139 0 0 139 0 0 139 0 0 139 0 0 139 0 0 143 7 8 139 0 0 139 0 0 139 0 0 139 0 0 139 0 0 139 0 0 139 0 0 139 0 0 139 0 0 139 0 0 139 0 0 139 0 0 139 0 0 139 0 0 139 0 0 139 0 0 139 0 0 139 0 0 139 0 0 139 0 0 139 0 0 139 0 0 139 0 0 139 0 0 139 0 0 139 0 0 139 0 0 139 0 0 139 0 0 139 0 0 139 0 0 139 0 0 139 0 0 139 0 0 139 0 0 139 0 0 139 0 0 139 0 0 139 0 0 139 0 0 139 0 0 139 0 0 139 0 0 139 0 0 139 0 0 139 0 0 139 0 0 139 0 0 139 0 0 139 0 0 139 0 0 139 0 0 139 0 0 139 0 0 139 0 0 139 0 0 139 0 0 139 0 0 139 0 0 139 0 0 139 0 0 139 0 0 139 0 0 139 0 0 139 0 0 139 0 0 139 0 0 139 0 0 139 0 0 139 0 0 139 0 0 139 0 0 139 0 0 139 0 0 139 0 0 139 0 0 139 0 0 139 0 0 139 0 0 139 0 0 139 0 0 139 0 0 139 0 0 139 0 0 139 0 0 139 0 0 139 0 0 139 0 0 139 0 0 139 0 0 139 0 0 139 0 0 139 0 0 139 0 0 139 0 0 139 0 0 139 0 0 139 0 0 139 0 0 139 0 0 139 0 0 139 0 0 139 0 0 139 0 0 139 0 0 143 7 8 155 25 26 168 46 49 153 23 24 150 17 18 145 9 10 143 7 8 145 9 10 146 11 12 146 11 12 147 13 14 153 23 24 155 25 26 157 29 30 179 63 67 195 89 94 183 69 73 172 52 55 168 46 49 169 48 51 180 65 69 216 121 129 180 65 69 169 48 51 168 46 49 153 23 24 155 25 26 153 23 24 150 17 18 153 23 24 155 25 26 157 29 30 159 32 34 184 71 75 190 81 86 172 52 55 188 77 82 187 75 80 180 65 69 198 92 98 189 79 84 159 32 34 195 89 94 217 123 131 194 87 92 179 63 67 158 30 32 153 23 24 153 23 24 151 19 20 174 56 59 169 48 51 151 19 20 158 30 32 174 56 59 174 56 59 185 73 78 185 73 78 192 83 88 194 87 92 198 92 98 169 48 51 150 17 18 147 13 14 150 17 18 146 11 12 145 9 10 151 19 20 
139 0 0 139 0 0 139 0 0 139 0 0 139 0 0 139 0 0 143 7 8 139 0 0 139 0 0 139 0 0 139 0 0 139 0 0 139 0 0 143 7 8 139 0 0 139 0 0 139 0 0 139 0 0 139 0 0 139 0 0 139 0 0 139 0 0 139 0 0 139 0 0 139 0 0 139 0 0 139 0 0 139 0 0 139 0 0 139 0 0 139 0 0 139 0 0 139 0 0 139 0 0 139 0 0 139 0 0 139 0 0 139 0 0 139 0 0 139 0 0 139 0 0 139 0 0 139 0 0 139 0 0 139 0 0 139 0 0 139 0 0 139 0 0 139 0 0 139 0 0 139 0 0 139 0 0 139 0 0 139 0 0 139 0 0 139 0 0 139 0 0 139 0 0 139 0 0 139 0 0 139 0 0 139 0 0 139 0 0 139 0 0 139 0 0 139 0 0 139 0 0 139 0 0 139 0 0 139 0 0 139 0 0 139 0 0 139 0 0 139 0 0 139 0 0 139 0 0 139 0 0 139 0 0 139 0 0 139 0 0 139 0 0 139 0 0 139 0 0 139 0 0 139 0 0 139 0 0 139 0 0 139 0 0 139 0 0 139 0 0 139 0 0 139 0 0 139 0 0 139 0 0 139 0 0 139 0 0 139 0 0 139 0 0 139 0 0 139 0 0 139 0 0 139 0 0 139 0 0 139 0 0 139 0 0 139 0 0 139 0 0 139 0 0 139 0 0 139 0 0 139 0 0 139 0 0 139 0 0 139 0 0 139 0 0 139 0 0 139 0 0 139 0 0 139 0 0 139 0 0 139 0 0 139 0 0 139 0 0 139 0 0 139 0 0 139 0 0 139 0 0 139 0 0 139 0 0 139 0 0 139 0 0 139 0 0 139 0 0 139 0 0 139 0 0 139 0 0 139 0 0 139 0 0 139 0 0 139 0 0 139 0 0 139 0 0 139 0 0 139 0 0 139 0 0 139 0 0 139 0 0 139 0 0 139 0 0 139 0 0 139 0 0 139 0 0 139 0 0 139 0 0 139 0 0 139 0 0 139 0 0 139 0 0 139 0 0 139 0 0 143 7 8 143 7 8 143 7 8 143 7 8 146 11 12 147 13 14 153 23 24 155 25 26 157 29 30 155 25 26 155 25 26 155 25 26 155 25 26 147 13 14 151 19 20 157 29 30 159 32 34 147 13 14 147 13 14 151 19 20 174 56 59 184 71 75 180 65 69 203 100 106 210 112 119 169 48 51 183 69 73 203 100 106 211 114 121 213 116 123 209 110 117 158 30 32 153 23 24 153 23 24 180 65 69 185 73 78 150 17 18 150 17 18 157 29 30 158 30 32 153 23 24 155 25 26 151 19 20 150 17 18 150 17 18 150 17 18 147 13 14 146 11 12 151 19 20 147 13 14 145 9 10 146 11 12 146 11 12 145 9 10 143 7 8 143 7 8 143 7 8 143 7 8 143 7 8 143 7 8 
139 0 0 139 0 0 139 0 0 139 0 0 139 0 0 139 0 0 143 7 8 139 0 0 139 0 0 139 0 0 139 0 0 139 0 0 139 0 0 143 7 8 139 0 0 139 0 0 139 0 0 139 0 0 139 0 0 139 0 0 139 0 0 139 0 0 139 0 0 139 0 0 139 0 0 139 0 0 139 0 0 139 0 0 139 0 0 139 0 0 139 0 0 139 0 0 139 0 0 139 0 0 139 0 0 139 0 0 139 0 0 139 0 0 139 0 0 139 0 0 139 0 0 139 0 0 139 0 0 139 0 0 139 0 0 139 0 0 139 0 0 139 0 0 139 0 0 139 0 0 139 0 0 139 0 0 139 0 0 139 0 0 139 0 0 139 0 0 139 0 0 139 0 0 139 0 0 139 0 0 139 0 0 139 0 0 139 0 0 139 0 0 139 0 0 139 0 0 139 0 0 139 0 0 139 0 0 139 0 0 139 0 0 139 0 0 139 0 0 139 0 0 139 0 0 139 0 0 139 0 0 139 0 0 139 0 0 139 0 0 139 0 0 139 0 0 139 0 0 139 0 0 139 0 0 139 0 0 139 0 0 139 0 0 139 0 0 139 0 0 139 0 0 139 0 0 139 0 0 139 0 0 139 0 0 139 0 0 139 0 0 139 0 0 139 0 0 139 0 0 139 0 0 139 0 0 139 0 0 139 0 0 139 0 0 139 0 0 139 0 0 139 0 0 139 0 0 139 0 0 139 0 0 139 0 0 139 0 0 139 0 0 139 0 0 139 0 0 139 0 0 139 0 0 139 0 0 139 0 0 139 0 0 139 0 0 139 0 0 139 0 0 139 0 0 139 0 0 139 0 0 139 0 0 139 0 0 139 0 0 139 0 0 139 0 0 139 0 0 139 0 0 139 0 0 139 0 0 139 0 0 139 0 0 139 0 0 139 0 0 139 0 0 139 0 0 139 0 0 139 0 0 139 0 0 139 0 0 139 0 0 139 0 0 139 0 0 139 0 0 139 0 0 139 0 0 139 0 0 139 0 0 139 0 0 139 0 0 139 0 0 139 0 0 139 0 0 139 0 0 143 7 8 143 7 8 143 7 8 143 7 8 146 11 12 147 13 14 153 23 24 155 25 26 157 29 30 155 25 26 155 25 26 155 25 26 155 25 26 147 13 14 151 19 20 157 29 30 159 32 34 147 13 14 147 13 14 151 19 20 174 56 59 184 71 75 180 65 69 203 100 106 210 112 119 169 48 51 183 69 73 203 100 106 211 114 121 213 116 123 209 110 117 158 30 32 153 23 24 153 23 24 180 65 69 185 73 78 150 17 18 150 17 18 157 29 30 158 30 32 153 23 24 155 25 26 151 19 20 150 17 18 150 17 18 150 17 18 147 13 14 146 11 12 151 19 20 147 13 14 145 9 10 146 11 12 146 11 12 145 9 10 143 7 8 143 7 8 143 7 8 143 7 8 143 7 8 143 7 8 
139 0 0 139 0 0 143 7 8 139 0 0 139 0 0 139 0 0 143 7 8 139 0 0 139 0 0 139 0 0 139 0 0 139 0 0 139 0 0 143 7 8 139 0 0 139 0 0 143 7 8 139 0 0 139 0 0 139 0 0 139 0 0 139 0 0 139 0 0 139 0 0 139 0 0 139 0 0 139 0 0 139 0 0 139 0 0 139 0 0 139 0 0 139 0 0 139 0 0 139 0 0 139 0 0 139 0 0 139 0 0 139 0 0 139 0 0 139 0 0 139 0 0 139 0 0 139 0 0 139 0 0 139 0 0 139 0 0 139 0 0 139 0 0 139 0 0 139 0 0 139 0 0 139 0 0 139 0 0 139 0 0 139 0 0 139 0 0 139 0 0 139 0 0 139 0 0 139 0 0 139 0 0 139 0 0 139 0 0 139 0 0 139 0 0 139 0 0 139 0 0 139 0 0 139 0 0 139 0 0 139 0 0 139 0 0 139 0 0 139 0 0 139 0 0 143 7 8 139 0 0 139 0 0 139 0 0 139 0 0 139 0 0 139 0 0 139 0 0 139 0 0 139 0 0 139 0 0 139 0 0 139 0 0 139 0 0 139 0 0 139 0 0 139 0 0 139 0 0 139 0 0 139 0 0 139 0 0 139 0 0 139 0 0 139 0 0 139 0 0 139 0 0 139 0 0 139 0 0 139 0 0 139 0 0 139 0 0 139 0 0 139 0 0 139 0 0 139 0 0 139 0 0 139 0 0 139 0 0 139 0 0 139 0 0 139 0 0 139 0 0 139 0 0 139 0 0 139 0 0 139 0 0 139 0 0 139 0 0 139 0 0 139 0 0 139 0 0 139 0 0 139 0 0 139 0 0 139 0 0 139 0 0 139 0 0 139 0 0 139 0 0 139 0 0 139 0 0 139 0 0 139 0 0 139 0 0 139 0 0 139 0 0 139 0 0 139 0 0 139 0 0 139 0 0 139 0 0 139 0 0 139 0 0 139 0 0 139 0 0 139 0 0 139 0 0 139 0 0 139 0 0 139 0 0 139 0 0 139 0 0 139 0 0 139 0 0 139 0 0 139 0 0 139 0 0 139 0 0 139 0 0 139 0 0 139 0 0 143 7 8 143 7 8 145 9 10 145 9 10 146 11 12 146 11 12 145 9 10 145 9 10 146 11 12 146 11 12 151 19 20 146 11 12 147 13 14 150 17 18 155 25 26 168 46 49 198 92 98 180 65 69 150 17 18 155 25 26 155 25 26 168 46 49 168 46 49 185 73 78 185 73 78 172 52 55 159 32 34 150 17 18 147 13 14 150 17 18 147 13 14 147 13 14 150 17 18 146 11 12 145 9 10 145 9 10 145 9 10 145 9 10 145 9 10 145 9 10 145 9 10 145 9 10 143 7 8 143 7 8 143 7 8 143 7 8 143 7 8 145 9 10 143 7 8 139 0 0 143 7 8 139 0 0 139 0 0 139 0 0 
139 0 0 139 0 0 143 7 8 139 0 0 139 0 0 139 0 0 143 7 8 139 0 0 139 0 0 139 0 0 139 0 0 139 0 0 139 0 0 143 7 8 139 0 0 139 0 0 143 7 8 139 0 0 139 0 0 139 0 0 139 0 0 139 0 0 139 0 0 139 0 0 139 0 0 139 0 0 139 0 0 139 0 0 139 0 0 139 0 0 139 0 0 139 0 0 139 0 0 139 0 0 139 0 0 139 0 0 139 0 0 139 0 0 139 0 0 139 0 0 139 0 0 139 0 0 139 0 0 139 0 0 139 0 0 139 0 0 139 0 0 139 0 0 139 0 0 139 0 0 139 0 0 139 0 0 139 0 0 139 0 0 139 0 0 139 0 0 139 0 0 139 0 0 139 0 0 139 0 0 139 0 0 139 0 0 139 0 0 139 0 0 139 0 0 139 0 0 139 0 0 139 0 0 139 0 0 139 0 0 139 0 0 139 0 0 139 0 0 139 0 0 139 0 0 143 7 8 139 0 0 139 0 0 139 0 0 139 0 0 139 0 0 139 0 0 139 0 0 139 0 0 139 0 0 139 0 0 139 0 0 139 0 0 139 0 0 139 0 0 139 0 0 139 0 0 139 0 0 139 0 0 139 0 0 139 0 0 139 0 0 139 0 0 139 0 0 139 0 0 139 0 0 139 0 0 139 0 0 139 0 0 139 0 0 139 0 0 139 0 0 139 0 0 139 0 0 139 0 0 139 0 0 139 0 0 139 0 0 139 0 0 139 0 0 139 0 0 139 0 0 139 0 0 139 0 0 139 0 0 139 0 0 139 0 0 139 0 0 139 0 0 139 0 0 139 0 0 139 0 0 139 0 0 139 0 0 139 0 0 139 0 0 139 0 0 139 0 0 139 0 0 139 0 0 139 0 0 139 0 0 139 0 0 139 0 0 139 0 0 139 0 0 139 0 0 139 0 0 139 0 0 139 0 0 139 0 0 139 0 0 139 0 0 139 0 0 139 0 0 139 0 0 139 0 0 139 0 0 139 0 0 139 0 0 139 0 0 139 0 0 139 0 0 139 0 0 139 0 0 139 0 0 139 0 0 139 0 0 139 0 0 139 0 0 139 0 0 143 7 8 143 7 8 145 9 10 145 9 10 146 11 12 146 11 12 145 9 10 145 9 10 146 11 12 146 11 12 151 19 20 146 11 12 147 13 14 150 17 18 155 25 26 168 46 49 198 92 98 180 65 69 150 17 18 155 25 26 155 25 26 168 46 49 168 46 49 185 73 78 185 73 78 172 52 55 159 32 34 150 17 18 147 13 14 150 17 18 147 13 14 147 13 14 150 17 18 146 11 12 145 9 10 145 9 10 145 9 10 145 9 10 145 9 10 145 9 10 145 9 10 145 9 10 143 7 8 143 7 8 143 7 8 143 7 8 143 7 8 145 9 10 143 7 8 139 0 0 143 7 8 139 0 0 139 0 0 139 0 0 
139 0 0 139 0 0 139 0 0 143 7 8 139 0 0 143 7 8 139 0 0 139 0 0 139 0 0 139 0 0 143 7 8 139 0 0 139 0 0 139 0 0 143 7 8 139 0 0 139 0 0 139 0 0 139 0 0 143 7 8 139 0 0 139 0 0 139 0 0 139 0 0 139 0 0 139 0 0 139 0 0 139 0 0 139 0 0 139 0 0 139 0 0 139 0 0 139 0 0 139 0 0 139 0 0 139 0 0 139 0 0 139 0 0 139 0 0 139 0 0 139 0 0 139 0 0 139 0 0 139 0 0 139 0 0 139 0 0 139 0 0 139 0 0 139 0 0 143 7 8 139 0 0 139 0 0 139 0 0 139 0 0 139 0 0 139 0 0 139 0 0 139 0 0 139 0 0 139 0 0 139 0 0 139 0 0 139 0 0 139 0 0 139 0 0 139 0 0 139 0 0 139 0 0 139 0 0 139 0 0 139 0 0 139 0 0 139 0 0 139 0 0 139 0 0 143 7 8 139 0 0 139 0 0 139 0 0 139 0 0 143 7 8 139 0 0 139 0 0 139 0 0 139 0 0 139 0 0 139 0 0 139 0 0 139 0 0 139 0 0 139 0 0 139 0 0 139 0 0 139 0 0 139 0 0 139 0 0 139 0 0 139 0 0 139 0 0 139 0 0 139 0 0 139 0 0 139 0 0 139 0 0 139 0 0 139 0 0 139 0 0 139 0 0 139 0 0 139 0 0 139 0 0 139 0 0 139 0 0 139 0 0 139 0 0 139 0 0 139 0 0 139 0 0 139 0 0 139 0 0 139 0 0 139 0 0 139 0 0 139 0 0 139 0 0 139 0 0 139 0 0 139 0 0 139 0 0 139 0 0 139 0 0 139 0 0 139 0 0 139 0 0 139 0 0 139 0 0 139 0 0 139 0 0 139 0 0 139 0 0 139 0 0 139 0 0 139 0 0 139 0 0 139 0 0 139 0 0 139 0 0 139 0 0 139 0 0 139 0 0 139 0 0 139 0 0 139 0 0 139 0 0 139 0 0 139 0 0 139 0 0 139 0 0 139 0 0 139 0 0 139 0 0 139 0 0 139 0 0 139 0 0 139 0 0 139 0 0 139 0 0 139 0 0 139 0 0 139 0 0 139 0 0 139 0 0 139 0 0 139 0 0 139 0 0 139 0 0 143 7 8 143 7 8 145 9 10 150 17 18 150 17 18 150 17 18 145 9 10 143 7 8 143 7 8 143 7 8 145 9 10 145 9 10 143 7 8 145 9 10 145 9 10 145 9 10 143 7 8 143 7 8 143 7 8 143 7 8 143 7 8 143 7 8 143 7 8 143 7 8 143 7 8 143 7 8 143 7 8 143 7 8 143 7 8 143 7 8 143 7 8 143 7 8 143 7 8 139 0 0 143 7 8 139 0 0 139 0 0 139 0 0 139 0 0 139 0 0 139 0 0 139 0 0 139 0 0 139 0 0 
139 0 0 139 0 0 139 0 0 143 7 8 139 0 0 143 7 8 139 0 0 139 0 0 139 0 0 139 0 0 143 7 8 139 0 0 139 0 0 139 0 0 143 7 8 139 0 0 139 0 0 139 0 0 139 0 0 143 7 8 139 0 0 139 0 0 139 0 0 139 0 0 139 0 0 139 0 0 139 0 0 139 0 0 139 0 0 139 0 0 139 0 0 139 0 0 139 0 0 139 0 0 139 0 0 139 0 0 139 0 0 139 0 0 139 0 0 139 0 0 139 0 0 139 0 0 139 0 0 139 0 0 139 0 0 139 0 0 139 0 0 139 0 0 139 0 0 143 7 8 139 0 0 139 0 0 139 0 0 139 0 0 139 0 0 139 0 0 139 0 0 139 0 0 139 0 0 139 0 0 139 0 0 139 0 0 139 0 0 139 0 0 139 0 0 139 0 0 139 0 0 139 0 0 139 0 0 139 0 0 139 0 0 139 0 0 139 0 0 139 0 0 139 0 0 143 7 8 139 0 0 139 0 0 139 0 0 139 0 0 143 7 8 139 0 0 139 0 0 139 0 0 139 0 0 139 0 0 139 0 0 139 0 0 139 0 0 139 0 0 139 0 0 139 0 0 139 0 0 139 0 0 139 0 0 139 0 0 139 0 0 139 0 0 139 0 0 139 0 0 139 0 0 139 0 0 139 0 0 139 0 0 139 0 0 139 0 0 139 0 0 139 0 0 139 0 0 139 0 0 139 0 0 139 0 0 139 0 0 139 0 0 139 0 0 139 0 0 139 0 0 139 0 0 139 0 0 139 0 0 139 0 0 139 0 0 139 0 0 139 0 0 139 0 0 139 0 0 139 0 0 139 0 0 139 0 0 139 0 0 139 0 0 139 0 0 139 0 0 139 0 0 139 0 0 139 0 0 139 0 0 139 0 0 139 0 0 139 0 0 139 0 0 139 0 0 139 0 0 139 0 0 139 0 0 139 0 0 139 0 0 139 0 0 139 0 0 139 0 0 139 0 0 139 0 0 139 0 0 139 0 0 139 0 0 139 0 0 139 0 0 139 0 0 139 0 0 139 0 0 139 0 0 139 0 0 139 0 0 139 0 0 139 0 0 139 0 0 139 0 0 139 0 0 139 0 0 139 0 0 139 0 0 139 0 0 139 0 0 139 0 0 139 0 0 139 0 0 143 7 8 143 7 8 145 9 10 150 17 18 150 17 18 150 17 18 145 9 10 143 7 8 143 7 8 143 7 8 145 9 10 145 9 10 143 7 8 145 9 10 145 9 10 145 9 10 143 7 8 143 7 8 143 7 8 143 7 8 143 7 8 143 7 8 143 7 8 143 7 8 143 7 8 143 7 8 143 7 8 143 7 8 143 7 8 143 7 8 143 7 8 143 7 8 143 7 8 139 0 0 143 7 8 139 0 0 139 0 0 139 0 0 139 0 0 139 0 0 139 0 0 139 0 0 139 0 0 139 0 0 
143 7 8 143 7 8 139 0 0 139 0 0 139 0 0 139 0 0 143 7 8 143 7 8 139 0 0 139 0 0 139 0 0 143 7 8 139 0 0 139 0 0 139 0 0 139 0 0 139 0 0 139 0 0 139 0 0 139 0 0 139 0 0 139 0 0 139 0 0 139 0 0 139 0 0 139 0 0 139 0 0 139 0 0 139 0 0 143 7 8 139 0 0 139 0 0 139 0 0 139 0 0 139 0 0 139 0 0 139 0 0 139 0 0 139 0 0 139 0 0 139 0 0 139 0 0 139 0 0 139 0 0 139 0 0 139 0 0 139 0 0 139 0 0 139 0 0 139 0 0 139 0 0 139 0 0 139 0 0 139 0 0 139 0 0 139 0 0 139 0 0 139 0 0 139 0 0 139 0 0 139 0 0 139 0 0 139 0 0 139 0 0 139 0 0 139 0 0 139 0 0 139 0 0 139 0 0 139 0 0 139 0 0 139 0 0 139 0 0 139 0 0 139 0 0 139 0 0 139 0 0 139 0 0 139 0 0 139 0 0 139 0 0 139 0 0 139 0 0 139 0 0 139 0 0 139 0 0 139 0 0 139 0 0 139 0 0 139 0 0 139 0 0 139 0 0 139 0 0 139 0 0 139 0 0 139 0 0 139 0 0 139 0 0 139 0 0 139 0 0 139 0 0 139 0 0 139 0 0 139 0 0 139 0 0 139 0 0 139 0 0 139 0 0 139 0 0 139 0 0 139 0 0 139 0 0 139 0 0 139 0 0 139 0 0 139 0 0 139 0 0 139 0 0 139 0 0 139 0 0 139 0 0 139 0 0 139 0 0 139 0 0 139 0 0 139 0 0 139 0 0 139 0 0 139 0 0 139 0 0 139 0 0 139 0 0 139 0 0 139 0 0 139 0 0 139 0 0 139 0 0 139 0 0 139 0 0 139 0 0 139 0 0 139 0 0 139 0 0 139 0 0 139 0 0 139 0 0 139 0 0 139 0 0 139 0 0 139 0 0 139 0 0 139 0 0 139 0 0 139 0 0 139 0 0 139 0 0 139 0 0 139 0 0 139 0 0 139 0 0 139 0 0 139 0 0 139 0 0 139 0 0 139 0 0 139 0 0 139 0 0 139 0 0 139 0 0 139 0 0 139 0 0 139 0 0 139 0 0 139 0 0 139 0 0 139 0 0 139 0 0 139 0 0 139 0 0 139 0 0 139 0 0 139 0 0 139 0 0 139 0 0 139 0 0 139 0 0 139 0 0 143 7 8 145 9 10 139 0 0 139 0 0 139 0 0 139 0 0 139 0 0 139 0 0 139 0 0 139 0 0 139 0 0 139 0 0 143 7 8 139 0 0 139 0 0 139 0 0 139 0 0 139 0 0 139 0 0 139 0 0 139 0 0 139 0 0 139 0 0 139 0 0 139 0 0 139 0 0 139 0 0 139 0 0 139 0 0 139 0 0 139 0 0 139 0 0 139 0 0 
143 7 8 143 7 8 139 0 0 139 0 0 139 0 0 139 0 0 143 7 8 143 7 8 139 0 0 139 0 0 139 0 0 143 7 8 139 0 0 139 0 0 139 0 0 139 0 0 139 0 0 139 0 0 139 0 0 139 0 0 139 0 0 139 0 0 139 0 0 139 0 0 139 0 0 139 0 0 139 0 0 139 0 0 139 0 0 143 7 8 139 0 0 139 0 0 139 0 0 139 0 0 139 0 0 139 0 0 139 0 0 139 0 0 139 0 0 139 0 0 139 0 0 139 0 0 139 0 0 139 0 0 139 0 0 139 0 0 139 0 0 139 0 0 139 0 0 139 0 0 139 0 0 139 0 0 139 0 0 139 0 0 139 0 0 139 0 0 139 0 0 139 0 0 139 0 0 139 0 0 139 0 0 139 0 0 139 0 0 139 0 0 139 0 0 139 0 0 139 0 0 139 0 0 139 0 0 139 0 0 139 0 0 139 0 0 139 0 0 139 0 0 139 0 0 139 0 0 139 0 0 139 0 0 139 0 0 139 0 0 139 0 0 139 0 0 139 0 0 139 0 0 139 0 0 139 0 0 139 0 0 139 0 0 139 0 0 139 0 0 139 0 0 139 0 0 139 0 0 139 0 0 139 0 0 139 0 0 139 0 0 139 0 0 139 0 0 139 0 0 139 0 0 139 0 0 139 0 0 139 0 0 139 0 0 139 0 0 139 0 0 139 0 0 139 0 0 139 0 0 139 0 0 139 0 0 139 0 0 139 0 0 139 0 0 139 0 0 139 0 0 139 0 0 139 0 0 139 0 0 139 0 0 139 0 0 139 0 0 139 0 0 139 0 0 139 0 0 139 0 0 139 0 0 139 0 0 139 0 0 139 0 0 139 0 0 139 0 0 139 0 0 139 0 0 139 0 0 139 0 0 139 0 0 139 0 0 139 0 0 139 0 0 139 0 0 139 0 0 139 0 0 139 0 0 139 0 0 139 0 0 139 0 0 139 0 0 139 0 0 139 0 0 139 0 0 139 0 0 139 0 0 139 0 0 139 0 0 139 0 0 139 0 0 139 0 0 139 0 0 139 0 0 139 0 0 139 0 0 139 0 0 139 0 0 139 0 0 139 0 0 139 0 0 139 0 0 139 0 0 139 0 0 139 0 0 139 0 0 139 0 0 139 0 0 139 0 0 139 0 0 139 0 0 139 0 0 139 0 0 139 0 0 139 0 0 139 0 0 139 0 0 139 0 0 139 0 0 139 0 0 143 7 8 145 9 10 139 0 0 139 0 0 139 0 0 139 0 0 139 0 0 139 0 0 139 0 0 139 0 0 139 0 0 139 0 0 143 7 8 139 0 0 139 0 0 139 0 0 139 0 0 139 0 0 139 0 0 139 0 0 139 0 0 139 0 0 139 0 0 139 0 0 139 0 0 139 0 0 139 0 0 139 0 0 139 0 0 139 0 0 139 0 0 139 0 0 139 0 0 
139 0 0 139 0 0 139 0 0 139 0 0 139 0 0 139 0 0 143 7 8 139 0 0 139 0 0 139 0 0 139 0 0 139 0 0 139 0 0 139 0 0 139 0 0 143 7 8 143 7 8 139 0 0 139 0 0 139 0 0 139 0 0 139 0 0 139 0 0 139 0 0 139 0 0 143 7 8 139 0 0 139 0 0 139 0 0 139 0 0 139 0 0 139 0 0 139 0 0 139 0 0 139 0 0 139 0 0 139 0 0 139 0 0 139 0 0 139 0 0 139 0 0 139 0 0 139 0 0 139 0 0 139 0 0 139 0 0 139 0 0 139 0 0 139 0 0 139 0 0 139 0 0 139 0 0 139 0 0 139 0 0 139 0 0 139 0 0 139 0 0 139 0 0 139 0 0 139 0 0 139 0 0 139 0 0 139 0 0 139 0 0 139 0 0 139 0 0 139 0 0 139 0 0 139 0 0 139 0 0 139 0 0 139 0 0 139 0 0 139 0 0 139 0 0 139 0 0 139 0 0 139 0 0 139 0 0 139 0 0 139 0 0 139 0 0 139 0 0 139 0 0 139 0 0 139 0 0 139 0 0 139 0 0 139 0 0 139 0 0 139 0 0 139 0 0 139 0 0 139 0 0 139 0 0 139 0 0 139 0 0 139 0 0 139 0 0 139 0 0 139 0 0 139 0 0 139 0 0 139 0 0 139 0 0 139 0 0 139 0 0 139 0 0 139 0 0 139 0 0 139 0 0 139 0 0 139 0 0 139 0 0 139 0 0 139 0 0 139 0 0 139 0 0 139 0 0 139 0 0 139 0 0 139 0 0 139 0 0 139 0 0 139 0 0 139 0 0 139 0 0 139 0 0 139 0 0 139 0 0 139 0 0 139 0 0 139 0 0 139 0 0 139 0 0 139 0 0 139 0 0 139 0 0 139 0 0 139 0 0 139 0 0 139 0 0 139 0 0 139 0 0 139 0 0 139 0 0 139 0 0 139 0 0 139 0 0 139 0 0 139 0 0 139 0 0 139 0 0 139 0 0 139 0 0 139 0 0 139 0 0 139 0 0 139 0 0 139 0 0 139 0 0 139 0 0 139 0 0 139 0 0 139 0 0 139 0 0 139 0 0 139 0 0 139 0 0 139 0 0 139 0 0 139 0 0 139 0 0 139 0 0 139 0 0 139 0 0 139 0 0 139 0 0 139 0 0 139 0 0 139 0 0 139 0 0 139 0 0 139 0 0 139 0 0 139 0 0 139 0 0 139 0 0 139 0 0 139 0 0 139 0 0 139 0 0 139 0 0 139 0 0 139 0 0 139 0 0 139 0 0 139 0 0 139 0 0 139 0 0 139 0 0 139 0 0 139 0 0 139 0 0 139 0 0 139 0 0 139 0 0 139 0 0 139 0 0 139 0 0 139 0 0 139 0 0 139 0 0 139 0 0 139 0 0 139 0 0 139 0 0 139 0 0 139 0 0 139 0 0 
139 0 0 139 0 0 139 0 0 139 0 0 139 0 0 139 0 0 143 7 8 139 0 0 139 0 0 139 0 0 139 0 0 139 0 0 139 0 0 139 0 0 139 0 0 143 7 8 143 7 8 139 0 0 139 0 0 139 0 0 139 0 0 139 0 0 139 0 0 139 0 0 139 0 0 143 7 8 139 0 0 139 0 0 139 0 0 139 0 0 139 0 0 139 0 0 139 0 0 139 0 0 139 0 0 139 0 0 139 0 0 139 0 0 139 0 0 139 0 0 139 0 0 139 0 0 139 0 0 139 0 0 139 0 0 139 0 0 139 0 0 139 0 0 139 0 0 139 0 0 139 0 0 139 0 0 139 0 0 139 0 0 139 0 0 139 0 0 139 0 0 139 0 0 139 0 0 139 0 0 139 0 0 139 0 0 139 0 0 139 0 0 139 0 0 139 0 0 139 0 0 139 0 0 139 0 0 139 0 0 139 0 0 139 0 0 139 0 0 139 0 0 139 0 0 139 0 0 139 0 0 139 0 0 139 0 0 139 0 0 139 0 0 139 0 0 139 0 0 139 0 0 139 0 0 139 0 0 139 0 0 139 0 0 139 0 0 139 0 0 139 0 0 139 0 0 139 0 0 139 0 0 139 0 0 139 0 0 139 0 0 139 0 0 139 0 0 139 0 0 139 0 0 139 0 0 139 0 0 139 0 0 139 0 0 139 0 0 139 0 0 139 0 0 139 0 0 139 0 0 139 0 0 139 0 0 139 0 0 139 0 0 139 0 0 139 0 0 139 0 0 139 0 0 139 0 0 139 0 0 139 0 0 139 0 0 139 0 0 139 0 0 139 0 0 139 0 0 139 0 0 139 0 0 139 0 0 139 0 0 139 0 0 139 0 0 139 0 0 139 0 0 139 0 0 139 0 0 139 0 0 139 0 0 139 0 0 139 0 0 139 0 0 139 0 0 139 0 0 139 0 0 139 0 0 139 0 0 139 0 0 139 0 0 139 0 0 139 0 0 139 0 0 139 0 0 139 0 0 139 0 0 139 0 0 139 0 0 139 0 0 139 0 0 139 0 0 139 0 0 139 0 0 139 0 0 139 0 0 139 0 0 139 0 0 139 0 0 139 0 0 139 0 0 139 0 0 139 0 0 139 0 0 139 0 0 139 0 0 139 0 0 139 0 0 139 0 0 139 0 0 139 0 0 139 0 0 139 0 0 139 0 0 139 0 0 139 0 0 139 0 0 139 0 0 139 0 0 139 0 0 139 0 0 139 0 0 139 0 0 139 0 0 139 0 0 139 0 0 139 0 0 139 0 0 139 0 0 139 0 0 139 0 0 139 0 0 139 0 0 139 0 0 139 0 0 139 0 0 139 0 0 139 0 0 139 0 0 139 0 0 139 0 0 139 0 0 139 0 0 139 0 0 139 0 0 139 0 0 139 0 0 139 0 0 139 0 0 139 0 0 139 0 0 139 0 0 139 0 0 
139 0 0 139 0 0 139 0 0 143 7 8 139 0 0 139 0 0 139 0 0 139 0 0 139 0 0 139 0 0 139 0 0 139 0 0 139 0 0 139 0 0 139 0 0 143 7 8 143 7 8 139 0 0 139 0 0 139 0 0 143 7 8 139 0 0 139 0 0 139 0 0 139 0 0 139 0 0 139 0 0 139 0 0 139 0 0 139 0 0 139 0 0 139 0 0 139 0 0 139 0 0 139 0 0 139 0 0 139 0 0 139 0 0 139 0 0 139 0 0 139 0 0 139 0 0 139 0 0 139 0 0 139 0 0 139 0 0 139 0 0 139 0 0 139 0 0 139 0 0 139 0 0 139 0 0 139 0 0 139 0 0 139 0 0 139 0 0 139 0 0 139 0 0 139 0 0 139 0 0 139 0 0 139 0 0 139 0 0 139 0 0 139 0 0 139 0 0 139 0 0 139 0 0 139 0 0 139 0 0 139 0 0 139 0 0 139 0 0 139 0 0 139 0 0 139 0 0 139 0 0 139 0 0 139 0 0 139 0 0 139 0 0 139 0 0 139 0 0 139 0 0 139 0 0 139 0 0 139 0 0 139 0 0 139 0 0 139 0 0 139 0 0 139 0 0 139 0 0 139 0 0 139 0 0 139 0 0 139 0 0 139 0 0 139 0 0 139 0 0 139 0 0 139 0 0 139 0 0 139 0 0 139 0 0 139 0 0 139 0 0 139 0 0 139 0 0 139 0 0 139 0 0 139 0 0 139 0 0 139 0 0 139 0 0 139 0 0 139 0 0 139 0 0 139 0 0 139 0 0 139 0 0 139 0 0 139 0 0 139 0 0 139 0 0 139 0 0 139 0 0 139 0 0 139 0 0 139 0 0 139 0 0 139 0 0 139 0 0 139 0 0 139 0 0 139 0 0 139 0 0 139 0 0 139 0 0 139 0 0 139 0 0 139 0 0 139 0 0 139 0 0 139 0 0 139 0 0 139 0 0 139 0 0 139 0 0 139 0 0 139 0 0 139 0 0 139 0 0 139 0 0 139 0 0 139 0 0 139 0 0 139 0 0 139 0 0 139 0 0 139 0 0 139 0 0 139 0 0 139 0 0 139 0 0 139 0 0 139 0 0 139 0 0 139 0 0 139 0 0 139 0 0 139 0 0 139 0 0 139 0 0 139 0 0 139 0 0 139 0 0 139 0 0 139 0 0 139 0 0 139 0 0 139 0 0 139 0 0 139 0 0 139 0 0 139 0 0 139 0 0 139 0 0 139 0 0 139 0 0 139 0 0 139 0 0 139 0 0 139 0 0 139 0 0 139 0 0 139 0 0 139 0 0 139 0 0 139 0 0 139 0 0 139 0 0 139 0 0 139 0 0 139 0 0 139 0 0 139 0 0 139 0 0 139 0 0 139 0 0 139 0 0 139 0 0 139 0 0 139 0 0 139 0 0 139 0 0 139 0 0 139 0 0 139 0 0 139 0 0 
139 0 0 139 0 0 139 0 0 143 7 8 139 0 0 139 0 0 139 0 0 139 0 0 139 0 0 139 0 0 139 0 0 139 0 0 139 0 0 139 0 0 139 0 0 143 7 8 143 7 8 139 0 0 139 0 0 139 0 0 143 7 8 139 0 0 139 0 0 139 0 0 139 0 0 139 0 0 139 0 0 139 0 0 139 0 0 139 0 0 139 0 0 139 0 0 139 0 0 139 0 0 139 0 0 139 0 0 139 0 0 139 0 0 139 0 0 139 0 0 139 0 0 139 0 0 139 0 0 139 0 0 139 0 0 139 0 0 139 0 0 139 0 0 139 0 0 139 0 0 139 0 0 139 0 0 139 0 0 139 0 0 139 0 0 139 0 0 139 0 0 139 0 0 139 0 0 139 0 0 139 0 0 139 0 0 139 0 0 139 0 0 139 0 0 139 0 0 139 0 0 139 0 0 139 0 0 139 0 0 139 0 0 139 0 0 139 0 0 139 0 0 139 0 0 139 0 0 139 0 0 139 0 0 139 0 0 139 0 0 139 0 0 139 0 0 139 0 0 139 0 0 139 0 0 139 0 0 139 0 0 139 0 0 139 0 0 139 0 0 139 0 0 139 0 0 139 0 0 139 0 0 139 0 0 139 0 0 139 0 0 139 0 0 139 0 0 139 0 0 139 0 0 139 0 0 139 0 0 139 0 0 139 0 0 139 0 0 139 0 0 139 0 0 139 0 0 139 0 0 139 0 0 139 0 0 139 0 0 139 0 0 139 0 0 139 0 0 139 0 0 139 0 0 139 0 0 139 0 0 139 0 0 139 0 0 139 0 0 139 0 0 139 0 0 139 0 0 139 0 0 139 0 0 139 0 0 139 0 0 139 0 0 139 0 0 139 0 0 139 0 0 139 0 0 139 0 0 139 0 0 139 0 0 139 0 0 139 0 0 139 0 0 139 0 0 139 0 0 139 0 0 139 0 0 139 0 0 139 0 0 139 0 0 139 0 0 139 0 0 139 0 0 139 0 0 139 0 0 139 0 0 139 0 0 139 0 0 139 0 0 139 0 0 139 0 0 139 0 0 139 0 0 139 0 0 139 0 0 139 0 0 139 0 0 139 0 0 139 0 0 139 0 0 139 0 0 139 0 0 139 0 0 139 0 0 139 0 0 139 0 0 139 0 0 139 0 0 139 0 0 139 0 0 139 0 0 139 0 0 139 0 0 139 0 0 139 0 0 139 0 0 139 0 0 139 0 0 139 0 0 139 0 0 139 0 0 139 0 0 139 0 0 139 0 0 139 0 0 139 0 0 139 0 0 139 0 0 139 0 0 139 0 0 139 0 0 139 0 0 139 0 0 139 0 0 139 0 0 139 0 0 139 0 0 139 0 0 139 0 0 139 0 0 139 0 0 139 0 0 139 0 0 139 0 0 139 0 0 139 0 0 139 0 0 139 0 0 139 0 0 139 0 0 139 0 0 139 0 0 
139 0 0 139 0 0 139 0 0 139 0 0 143 7 8 139 0 0 143 7 8 139 0 0 139 0 0 139 0 0 139 0 0 139 0 0 139 0 0 143 7 8 139 0 0 139 0 0 139 0 0 139 0 0 139 0 0 139 0 0 139 0 0 139 0 0 139 0 0 139 0 0 139 0 0 139 0 0 139 0 0 139 0 0 139 0 0 139 0 0 139 0 0 139 0 0 139 0 0 139 0 0 139 0 0 139 0 0 139 0 0 139 0 0 139 0 0 139 0 0 139 0 0 139 0 0 139 0 0 139 0 0 139 0 0 139 0 0 139 0 0 139 0 0 139 0 0 139 0 0 139 0 0 139 0 0 139 0 0 139 0 0 139 0 0 139 0 0 139 0 0 143 7 8 139 0 0 139 0 0 139 0 0 139 0 0 139 0 0 139 0 0 139 0 0 139 0 0 139 0 0 139 0 0 139 0 0 139 0 0 139 0 0 139 0 0 139 0 0 139 0 0 139 0 0 139 0 0 139 0 0 139 0 0 139 0 0 139 0 0 139 0 0 139 0 0 139 0 0 139 0 0 139 0 0 139 0 0 139 0 0 139 0 0 139 0 0 139 0 0 139 0 0 139 0 0 139 0 0 139 0 0 139 0 0 139 0 0 139 0 0 139 0 0 139 0 0 139 0 0 139 0 0 139 0 0 139 0 0 139 0 0 139 0 0 139 0 0 139 0 0 139 0 0 139 0 0 139 0 0 139 0 0 139 0 0 139 0 0 139 0 0 139 0 0 139 0 0 139 0 0 139 0 0 139 0 0 139 0 0 139 0 0 139 0 0 139 0 0 139 0 0 139 0 0 139 0 0 139 0 0 139 0 0 139 0 0 139 0 0 139 0 0 139 0 0 139 0 0 139 0 0 139 0 0 139 0 0 139 0 0 139 0 0 139 0 0 139 0 0 139 0 0 139 0 0 139 0 0 139 0 0 139 0 0 139 0 0 139 0 0 139 0 0 139 0 0 139 0 0 139 0 0 139 0 0 139 0 0 139 0 0 139 0 0 139 0 0 139 0 0 139 0 0 139 0 0 139 0 0 139 0 0 139 0 0 139 0 0 139 0 0 139 0 0 139 0 0 139 0 0 139 0 0 139 0 0 139 0 0 139 0 0 139 0 0 139 0 0 139 0 0 139 0 0 139 0 0 139 0 0 139 0 0 139 0 0 139 0 0 139 0 0 139 0 0 139 0 0 139 0 0 139 0 0 139 0 0 139 0 0 139 0 0 139 0 0 139 0 0 139 0 0 139 0 0 139 0 0 139 0 0 139 0 0 139 0 0 139 0 0 139 0 0 139 0 0 139 0 0 139 0 0 139 0 0 139 0 0 139 0 0 139 0 0 139 0 0 139 0 0 139 0 0 139 0 0 139 0 0 139 0 0 139 0 0 139 0 0 139 0 0 139 0 0 139 0 0 139 0 0 139 0 0 139 0 0 139 0 0 
139 0 0 139 0 0 139 0 0 139 0 0 143 7 8 139 0 0 143 7 8 139 0 0 139 0 0 139 0 0 139 0 0 139 0 0 139 0 0 143 7 8 139 0 0 139 0 0 139 0 0 139 0 0 139 0 0 139 0 0 139 0 0 139 0 0 139 0 0 139 0 0 139 0 0 139 0 0 139 0 0 139 0 0 139 0 0 139 0 0 139 0 0 139 0 0 139 0 0 139 0 0 139 0 0 139 0 0 139 0 0 139 0 0 139 0 0 139 0 0 139 0 0 139 0 0 139 0 0 139 0 0 139 0 0 139 0 0 139 0 0 139 0 0 139 0 0 139 0 0 139 0 0 139 0 0 139 0 0 139 0 0 139 0 0 139 0 0 139 0 0 143 7 8 139 0 0 139 0 0 139 0 0 139 0 0 139 0 0 139 0 0 139 0 0 139 0 0 139 0 0 139 0 0 139 0 0 139 0 0 139 0 0 139 0 0 139 0 0 139 0 0 139 0 0 139 0 0 139 0 0 139 0 0 139 0 0 139 0 0 139 0 0 139 0 0 139 0 0 139 0 0 139 0 0 139 0 0 139 0 0 139 0 0 139 0 0 139 0 0 139 0 0 139 0 0 139 0 0 139 0 0 139 0 0 139 0 0 139 0 0 139 0 0 139 0 0 139 0 0 139 0 0 139 0 0 139 0 0 139 0 0 139 0 0 139 0 0 139 0 0 139 0 0 139 0 0 139 0 0 139 0 0 139 0 0 139 0 0 139 0 0 139 0 0 139 0 0 139 0 0 139 0 0 139 0 0 139 0 0 139 0 0 139 0 0 139 0 0 139 0 0 139 0 0 139 0 0 139 0 0 139 0 0 139 0 0 139 0 0 139 0 0 139 0 0 139 0 0 139 0 0 139 0 0 139 0 0 139 0 0 139 0 0 139 0 0 139 0 0 139 0 0 139 0 0 139 0 0 139 0 0 139 0 0 139 0 0 139 0 0 139 0 0 139 0 0 139 0 0 139 0 0 139 0 0 139 0 0 139 0 0 139 0 0 139 0 0 139 0 0 139 0 0 139 0 0 139 0 0 139 0 0 139 0 0 139 0 0 139 0 0 139 0 0 139 0 0 139 0 0 139 0 0 139 0 0 139 0 0 139 0 0 139 0 0 139 0 0 139 0 0 139 0 0 139 0 0 139 0 0 139 0 0 139 0 0 139 0 0 139 0 0 139 0 0 139 0 0 139 0 0 139 0 0 139 0 0 139 0 0 139 0 0 139 0 0 139 0 0 139 0 0 139 0 0 139 0 0 139 0 0 139 0 0 139 0 0 139 0 0 139 0 0 139 0 0 139 0 0 139 0 0 139 0 0 139 0 0 139 0 0 139 0 0 139 0 0 139 0 0 139 0 0 139 0 0 139 0 0 139 0 0 139 0 0 139 0 0 139 0 0 139 0 0 139 0 0 139 0 0 139 0 0 139 0 0 139 0 0 
143 7 8 143 7 8 143 7 8 143 7 8 139 0 0 139 0 0 143 7 8 143 7 8 143 7 8 139 0 0 143 7 8 143 7 8 139 0 0 139 0 0 139 0 0 139 0 0 139 0 0 139 0 0 139 0 0 139 0 0 139 0 0 139 0 0 139 0 0 139 0 0 139 0 0 139 0 0 139 0 0 139 0 0 139 0 0 139 0 0 139 0 0 139 0 0 139 0 0 139 0 0 139 0 0 139 0 0 139 0 0 139 0 0 139 0 0 139 0 0 139 0 0 139 0 0 139 0 0 139 0 0 139 0 0 139 0 0 139 0 0 139 0 0 139 0 0 139 0 0 139 0 0 139 0 0 139 0 0 139 0 0 139 0 0 139 0 0 139 0 0 139 0 0 139 0 0 139 0 0 139 0 0 139 0 0 139 0 0 139 0 0 139 0 0 139 0 0 139 0 0 139 0 0 139 0 0 139 0 0 139 0 0 139 0 0 139 0 0 139 0 0 139 0 0 139 0 0 139 0 0 139 0 0 139 0 0 139 0 0 139 0 0 139 0 0 139 0 0 139 0 0 139 0 0 139 0 0 139 0 0 139 0 0 139 0 0 139 0 0 139 0 0 139 0 0 139 0 0 139 0 0 139 0 0 139 0 0 139 0 0 139 0 0 139 0 0 139 0 0 139 0 0 139 0 0 139 0 0 139 0 0 139 0 0 139 0 0 139 0 0 139 0 0 139 0 0 139 0 0 139 0 0 139 0 0 139 0 0 139 0 0 139 0 0 139 0 0 139 0 0 139 0 0 139 0 0 139 0 0 139 0 0 139 0 0 139 0 0 139 0 0 139 0 0 139 0 0 139 0 0 139 0 0 139 0 0 139 0 0 139 0 0 139 0 0 139 0 0 139 0 0 139 0 0 139 0 0 139 0 0 139 0 0 139 0 0 139 0 0 139 0 0 139 0 0 139 0 0 139 0 0 139 0 0 139 0 0 139 0 0 139 0 0 139 0 0 139 0 0 139 0 0 139 0 0 139 0 0 139 0 0 139 0 0 139 0 0 139 0 0 139 0 0 139 0 0 139 0 0 139 0 0 139 0 0 139 0 0 139 0 0 139 0 0 139 0 0 139 0 0 139 0 0 139 0 0 139 0 0 139 0 0 139 0 0 139 0 0 139 0 0 139 0 0 139 0 0 139 0 0 139 0 0 139 0 0 139 0 0 139 0 0 139 0 0 139 0 0 139 0 0 139 0 0 139 0 0 139 0 0 139 0 0 139 0 0 139 0 0 139 0 0 139 0 0 139 0 0 139 0 0 139 0 0 139 0 0 139 0 0 139 0 0 139 0 0 139 0 0 139 0 0 139 0 0 139 0 0 139 0 0 139 0 0 139 0 0 139 0 0 139 0 0 139 0 0 139 0 0 139 0 0 139 0 0 139 0 0 139 0 0 139 0 0 139 0 0 139 0 0 139 0 0 139 0 0 139 0 0 
143 7 8 143 7 8 143 7 8 143 7 8 139 0 0 139 0 0 143 7 8 143 7 8 143 7 8 139 0 0 143 7 8 143 7 8 139 0 0 139 0 0 139 0 0 139 0 0 139 0 0 139 0 0 139 0 0 139 0 0 139 0 0 139 0 0 139 0 0 139 0 0 139 0 0 139 0 0 139 0 0 139 0 0 139 0 0 139 0 0 139 0 0 139 0 0 139 0 0 139 0 0 139 0 0 139 0 0 139 0 0 139 0 0 139 0 0 139 0 0 139 0 0 139 0 0 139 0 0 139 0 0 139 0 0 139 0 0 139 0 0 139 0 0 139 0 0 139 0 0 139 0 0 139 0 0 139 0 0 139 0 0 139 0 0 139 0 0 139 0 0 139 0 0 139 0 0 139 0 0 139 0 0 139 0 0 139 0 0 139 0 0 139 0 0 139 0 0 139 0 0 139 0 0 139 0 0 139 0 0 139 0 0 139 0 0 139 0 0 139 0 0 139 0 0 139 0 0 139 0 0 139 0 0 139 0 0 139 0 0 139 0 0 139 0 0 139 0 0 139 0 0 139 0 0 139 0 0 139 0 0 139 0 0 139 0 0 139 0 0 139 0 0 139 0 0 139 0 0 139 0 0 139 0 0 139 0 0 139 0 0 139 0 0 139 0 0 139 0 0 139 0 0 139 0 0 139 0 0 139 0 0 139 0 0 139 0 0 139 0 0 139 0 0 139 0 0 139 0 0 139 0 0 139 0 0 139 0 0 139 0 0 139 0 0 139 0 0 139 0 0 139 0 0 139 0 0 139 0 0 139 0 0 139 0 0 139 0 0 139 0 0 139 0 0 139 0 0 139 0 0 139 0 0 139 0 0 139 0 0 139 0 0 139 0 0 139 0 0 139 0 0 139 0 0 139 0 0 139 0 0 139 0 0 139 0 0 139 0 0 139 0 0 139 0 0 139 0 0 139 0 0 139 0 0 139 0 0 139 0 0 139 0 0 139 0 0 139 0 0 139 0 0 139 0 0 139 0 0 139 0 0 139 0 0 139 0 0 139 0 0 139 0 0 139 0 0 139 0 0 139 0 0 139 0 0 139 0 0 139 0 0 139 0 0 139 0 0 139 0 0 139 0 0 139 0 0 139 0 0 139 0 0 139 0 0 139 0 0 139 0 0 139 0 0 139 0 0 139 0 0 139 0 0 139 0 0 139 0 0 139 0 0 139 0 0 139 0 0 139 0 0 139 0 0 139 0 0 139 0 0 139 0 0 139 0 0 139 0 0 139 0 0 139 0 0 139 0 0 139 0 0 139 0 0 139 0 0 139 0 0 139 0 0 139 0 0 139 0 0 139 0 0 139 0 0 139 0 0 139 0 0 139 0 0 139 0 0 139 0 0 139 0 0 139 0 0 139 0 0 139 0 0 139 0 0 139 0 0 139 0 0 139 0 0 139 0 0 139 0 0 139 0 0 139 0 0 139 0 0 
143 7 8 143 7 8 139 0 0 139 0 0 139 0 0 139 0 0 143 7 8 143 7 8 139 0 0 139 0 0 139 0 0 139 0 0 143 7 8 139 0 0 139 0 0 139 0 0 139 0 0 139 0 0 143 7 8 139 0 0 139 0 0 143 7 8 143 7 8 143 7 8 139 0 0 139 0 0 139 0 0 139 0 0 139 0 0 139 0 0 139 0 0 139 0 0 139 0 0 139 0 0 139 0 0 139 0 0 139 0 0 139 0 0 139 0 0 139 0 0 139 0 0 139 0 0 139 0 0 139 0 0 139 0 0 139 0 0 139 0 0 139 0 0 139 0 0 139 0 0 139 0 0 139 0 0 139 0 0 139 0 0 139 0 0 139 0 0 139 0 0 139 0 0 139 0 0 139 0 0 139 0 0 139 0 0 139 0 0 139 0 0 139 0 0 139 0 0 139 0 0 139 0 0 139 0 0 139 0 0 139 0 0 139 0 0 139 0 0 139 0 0 139 0 0 139 0 0 139 0 0 139 0 0 139 0 0 139 0 0 139 0 0 139 0 0 139 0 0 139 0 0 139 0 0 139 0 0 139 0 0 139 0 0 139 0 0 139 0 0 139 0 0 139 0 0 139 0 0 139 0 0 139 0 0 139 0 0 139 0 0 139 0 0 139 0 0 139 0 0 139 0 0 139 0 0 139 0 0 139 0 0 139 0 0 139 0 0 139 0 0 139 0 0 139 0 0 139 0 0 139 0 0 139 0 0 139 0 0 139 0 0 139 0 0 139 0 0 139 0 0 139 0 0 139 0 0 139 0 0 139 0 0 139 0 0 139 0 0 139 0 0 139 0 0 139 0 0 139 0 0 139 0 0 139 0 0 139 0 0 139 0 0 139 0 0 139 0 0 139 0 0 139 0 0 139 0 0 139 0 0 139 0 0 139 0 0 139 0 0 139 0 0 139 0 0 139 0 0 139 0 0 139 0 0 139 0 0 139 0 0 139 0 0 139 0 0 139 0 0 139 0 0 139 0 0 139 0 0 139 0 0 139 0 0 139 0 0 139 0 0 139 0 0 139 0 0 139 0 0 139 0 0 139 0 0 139 0 0 139 0 0 139 0 0 139 0 0 139 0 0 139 0 0 139 0 0 139 0 0 139 0 0 139 0 0 139 0 0 139 0 0 139 0 0 139 0 0 139 0 0 139 0 0 139 0 0 139 0 0 139 0 0 139 0 0 139 0 0 139 0 0 139 0 0 139 0 0 139 0 0 139 0 0 139 0 0 139 0 0 139 0 0 139 0 0 139 0 0 139 0 0 139 0 0 139 0 0 139 0 0 139 0 0 139 0 0 139 0 0 139 0 0 139 0 0 139 0 0 139 0 0 139 0 0 139 0 0 139 0 0 139 0 0 139 0 0 139 0 0 139 0 0 139 0 0 139 0 0 139 0 0 139 0 0 139 0 0 139 0 0 139 0 0 139 0 0 139 0 0 
143 7 8 143 7 8 139 0 0 139 0 0 139 0 0 139 0 0 143 7 8 143 7 8 139 0 0 139 0 0 139 0 0 139 0 0 143 7 8 139 0 0 139 0 0 139 0 0 139 0 0 139 0 0 143 7 8 139 0 0 139 0 0 143 7 8 143 7 8 143 7 8 139 0 0 139 0 0 139 0 0 139 0 0 139 0 0 139 0 0 139 0 0 139 0 0 139 0 0 139 0 0 139 0 0 139 0 0 139 0 0 139 0 0 139 0 0 139 0 0 139 0 0 139 0 0 139 0 0 139 0 0 139 0 0 139 0 0 139 0 0 139 0 0 139 0 0 139 0 0 139 0 0 139 0 0 139 0 0 139 0 0 139 0 0 139 0 0 139 0 0 139 0 0 139 0 0 139 0 0 139 0 0 139 0 0 139 0 0 139 0 0 139 0 0 139 0 0 139 0 0 139 0 0 139 0 0 139 0 0 139 0 0 139 0 0 139 0 0 139 0 0 139 0 0 139 0 0 139 0 0 139 0 0 139 0 0 139 0 0 139 0 0 139 0 0 139 0 0 139 0 0 139 0 0 139 0 0 139 0 0 139 0 0 139 0 0 139 0 0 139 0 0 139 0 0 139 0 0 139 0 0 139 0 0 139 0 0 139 0 0 139 0 0 139 0 0 139 0 0 139 0 0 139 0 0 139 0 0 139 0 0 139 0 0 139 0 0 139 0 0 139 0 0 139 0 0 139 0 0 139 0 0 139 0 0 139 0 0 139 0 0 139 0 0 139 0 0 139 0 0 139 0 0 139 0 0 139 0 0 139 0 0 139 0 0 139 0 0 139 0 0 139 0 0 139 0 0 139 0 0 139 0 0 139 0 0 139 0 0 139 0 0 139 0 0 139 0 0 139 0 0 139 0 0 139 0 0 139 0 0 139 0 0 139 0 0 139 0 0 139 0 0 139 0 0 139 0 0 139 0 0 139 0 0 139 0 0 139 0 0 139 0 0 139 0 0 139 0 0 139 0 0 139 0 0 139 0 0 139 0 0 139 0 0 139 0 0 139 0 0 139 0 0 139 0 0 139 0 0 139 0 0 139 0 0 139 0 0 139 0 0 139 0 0 139 0 0 139 0 0 139 0 0 139 0 0 139 0 0 139 0 0 139 0 0 139 0 0 139 0 0 139 0 0 139 0 0 139 0 0 139 0 0 139 0 0 139 0 0 139 0 0 139 0 0 139 0 0 139 0 0 139 0 0 139 0 0 139 0 0 139 0 0 139 0 0 139 0 0 139 0 0 139 0 0 139 0 0 139 0 0 139 0 0 139 0 0 139 0 0 139 0 0 139 0 0 139 0 0 139 0 0 139 0 0 139 0 0 139 0 0 139 0 0 139 0 0 139 0 0 139 0 0 139 0 0 139 0 0 139 0 0 139 0 0 139 0 0 139 0 0 139 0 0 139 0 0 139 0 0 139 0 0 139 0 0 139 0 0 
139 0 0 139 0 0 143 7 8 143 7 8 143 7 8 143 7 8 139 0 0 143 7 8 139 0 0 143 7 8 139 0 0 139 0 0 139 0 0 139 0 0 139 0 0 139 0 0 139 0 0 139 0 0 143 7 8 139 0 0 143 7 8 139 0 0 139 0 0 139 0 0 139 0 0 139 0 0 139 0 0 139 0 0 139 0 0 143 7 8 139 0 0 139 0 0 139 0 0 139 0 0 139 0 0 139 0 0 139 0 0 139 0 0 139 0 0 139 0 0 139 0 0 139 0 0 139 0 0 139 0 0 139 0 0 139 0 0 139 0 0 139 0 0 139 0 0 139 0 0 139 0 0 139 0 0 139 0 0 139 0 0 139 0 0 139 0 0 139 0 0 139 0 0 139 0 0 139 0 0 139 0 0 139 0 0 139 0 0 139 0 0 139 0 0 139 0 0 139 0 0 139 0 0 139 0 0 139 0 0 139 0 0 139 0 0 139 0 0 139 0 0 139 0 0 139 0 0 139 0 0 139 0 0 139 0 0 139 0 0 139 0 0 139 0 0 139 0 0 139 0 0 139 0 0 139 0 0 139 0 0 139 0 0 139 0 0 139 0 0 139 0 0 139 0 0 139 0 0 139 0 0 139 0 0 139 0 0 139 0 0 139 0 0 139 0 0 139 0 0 139 0 0 139 0 0 139 0 0 139 0 0 139 0 0 139 0 0 139 0 0 139 0 0 139 0 0 139 0 0 139 0 0 139 0 0 139 0 0 139 0 0 139 0 0 139 0 0 139 0 0 139 0 0 139 0 0 139 0 0 139 0 0 139 0 0 139 0 0 139 0 0 139 0 0 139 0 0 139 0 0 139 0 0 139 0 0 139 0 0 139 0 0 139 0 0 139 0 0 139 0 0 139 0 0 139 0 0 139 0 0 139 0 0 139 0 0 139 0 0 139 0 0 139 0 0 139 0 0 139 0 0 139 0 0 139 0 0 139 0 0 139 0 0 139 0 0 139 0 0 139 0 0 139 0 0 139 0 0 139 0 0 139 0 0 139 0 0 139 0 0 139 0 0 139 0 0 139 0 0 139 0 0 139 0 0 139 0 0 139 0 0 139 0 0 139 0 0 139 0 0 139 0 0 139 0 0 139 0 0 139 0 0 139 0 0 139 0 0 139 0 0 139 0 0 139 0 0 139 0 0 139 0 0 139 0 0 139 0 0 139 0 0 139 0 0 139 0 0 139 0 0 139 0 0 139 0 0 139 0 0 139 0 0 139 0 0 139 0 0 139 0 0 139 0 0 139 0 0 139 0 0 139 0 0 139 0 0 139 0 0 139 0 0 139 0 0 139 0 0 139 0 0 139 0 0 139 0 0 139 0 0 139 0 0 139 0 0 139 0 0 139 0 0 139 0 0 139 0 0 139 0 0 139 0 0 139 0 0 139 0 0 139 0 0 139 0 0 139 0 0 139 0 0 139 0 0 139 0 0 
139 0 0 139 0 0 143 7 8 143 7 8 143 7 8 143 7 8 139 0 0 143 7 8 139 0 0 143 7 8 139 0 0 139 0 0 139 0 0 139 0 0 139 0 0 139 0 0 139 0 0 139 0 0 143 7 8 139 0 0 143 7 8 139 0 0 139 0 0 139 0 0 139 0 0 139 0 0 139 0 0 139 0 0 139 0 0 143 7 8 139 0 0 139 0 0 139 0 0 139 0 0 139 0 0 139 0 0 139 0 0 139 0 0 139 0 0 139 0 0 139 0 0 139 0 0 139 0 0 139 0 0 139 0 0 139 0 0 139 0 0 139 0 0 139 0 0 139 0 0 139 0 0 139 0 0 139 0 0 139 0 0 139 0 0 139 0 0 139 0 0 139 0 0 139 0 0 139 0 0 139 0 0 139 0 0 139 0 0 139 0 0 139 0 0 139 0 0 139 0 0 139 0 0 139 0 0 139 0 0 139 0 0 139 0 0 139 0 0 139 0 0 139 0 0 139 0 0 139 0 0 139 0 0 139 0 0 139 0 0 139 0 0 139 0 0 139 0 0 139 0 0 139 0 0 139 0 0 139 0 0 139 0 0 139 0 0 139 0 0 139 0 0 139 0 0 139 0 0 139 0 0 139 0 0 139 0 0 139 0 0 139 0 0 139 0 0 139 0 0 139 0 0 139 0 0 139 0 0 139 0 0 139 0 0 139 0 0 139 0 0 139 0 0 139 0 0 139 0 0 139 0 0 139 0 0 139 0 0 139 0 0 139 0 0 139 0 0 139 0 0 139 0 0 139 0 0 139 0 0 139 0 0 139 0 0 139 0 0 139 0 0 139 0 0 139 0 0 139 0 0 139 0 0 139 0 0 139 0 0 139 0 0 139 0 0 139 0 0 139 0 0 139 0 0 139 0 0 139 0 0 139 0 0 139 0 0 139 0 0 139 0 0 139 0 0 139 0 0 139 0 0 139 0 0 139 0 0 139 0 0 139 0 0 139 0 0 139 0 0 139 0 0 139 0 0 139 0 0 139 0 0 139 0 0 139 0 0 139 0 0 139 0 0 139 0 0 139 0 0 139 0 0 139 0 0 139 0 0 139 0 0 139 0 0 139 0 0 139 0 0 139 0 0 139 0 0 139 0 0 139 0 0 139 0 0 139 0 0 139 0 0 139 0 0 139 0 0 139 0 0 139 0 0 139 0 0 139 0 0 139 0 0 139 0 0 139 0 0 139 0 0 139 0 0 139 0 0 139 0 0 139 0 0 139 0 0 139 0 0 139 0 0 139 0 0 139 0 0 139 0 0 139 0 0 139 0 0 139 0 0 139 0 0 139 0 0 139 0 0 139 0 0 139 0 0 139 0 0 139 0 0 139 0 0 139 0 0 139 0 0 139 0 0 139 0 0 139 0 0 139 0 0 139 0 0 139 0 0 139 0 0 139 0 0 139 0 0 139 0 0 139 0 0 139 0 0 139 0 0 
139 0 0 139 0 0 139 0 0 139 0 0 143 7 8 143 7 8 143 7 8 143 7 8 139 0 0 139 0 0 139 0 0 139 0 0 139 0 0 143 7 8 143 7 8 139 0 0 139 0 0 139 0 0 139 0 0 139 0 0 139 0 0 139 0 0 139 0 0 139 0 0 139 0 0 139 0 0 139 0 0 139 0 0 139 0 0 139 0 0 139 0 0 139 0 0 139 0 0 139 0 0 139 0 0 139 0 0 139 0 0 139 0 0 143 7 8 139 0 0 139 0 0 139 0 0 139 0 0 139 0 0 139 0 0 139 0 0 139 0 0 139 0 0 139 0 0 139 0 0 139 0 0 139 0 0 139 0 0 139 0 0 139 0 0 139 0 0 139 0 0 139 0 0 139 0 0 139 0 0 139 0 0 139 0 0 139 0 0 139 0 0 139 0 0 139 0 0 139 0 0 139 0 0 139 0 0 139 0 0 139 0 0 139 0 0 139 0 0 139 0 0 139 0 0 139 0 0 139 0 0 139 0 0 139 0 0 139 0 0 139 0 0 139 0 0 139 0 0 139 0 0 139 0 0 139 0 0 139 0 0 139 0 0 139 0 0 139 0 0 139 0 0 139 0 0 139 0 0 139 0 0 139 0 0 139 0 0 139 0 0 139 0 0 139 0 0 139 0 0 139 0 0 139 0 0 139 0 0 139 0 0 139 0 0 139 0 0 139 0 0 139 0 0 139 0 0 139 0 0 139 0 0 139 0 0 139 0 0 139 0 0 139 0 0 139 0 0 139 0 0 139 0 0 139 0 0 139 0 0 139 0 0 139 0 0 139 0 0 139 0 0 139 0 0 139 0 0 139 0 0 139 0 0 139 0 0 139 0 0 139 0 0 139 0 0 139 0 0 139 0 0 139 0 0 139 0 0 139 0 0 139 0 0 139 0 0 139 0 0 139 0 0 139 0 0 139 0 0 139 0 0 139 0 0 139 0 0 139 0 0 139 0 0 139 0 0 139 0 0 139 0 0 139 0 0 139 0 0 139 0 0 139 0 0 139 0 0 139 0 0 139 0 0 139 0 0 139 0 0 139 0 0 139 0 0 139 0 0 139 0 0 139 0 0 139 0 0 139 0 0 139 0 0 139 0 0 139 0 0 139 0 0 139 0 0 139 0 0 139 0 0 139 0 0 139 0 0 139 0 0 139 0 0 139 0 0 139 0 0 139 0 0 139 0 0 139 0 0 139 0 0 139 0 0 139 0 0 139 0 0 139 0 0 139 0 0 139 0 0 139 0 0 139 0 0 139 0 0 139 0 0 139 0 0 139 0 0 139 0 0 139 0 0 139 0 0 139 0 0 139 0 0 139 0 0 139 0 0 139 0 0 139 0 0 139 0 0 139 0 0 139 0 0 139 0 0 139 0 0 139 0 0 139 0 0 139 0 0 139 0 0 139 0 0 139 0 0 139 0 0 139 0 0 139 0 0 139 0 0 
139 0 0 139 0 0 139 0 0 139 0 0 143 7 8 143 7 8 143 7 8 143 7 8 139 0 0 139 0 0 139 0 0 139 0 0 139 0 0 143 7 8 143 7 8 139 0 0 139 0 0 139 0 0 139 0 0 139 0 0 139 0 0 139 0 0 139 0 0 139 0 0 139 0 0 139 0 0 139 0 0 139 0 0 139 0 0 139 0 0 139 0 0 139 0 0 139 0 0 139 0 0 139 0 0 139 0 0 139 0 0 139 0 0 143 7 8 139 0 0 139 0 0 139 0 0 139 0 0 139 0 0 139 0 0 139 0 0 139 0 0 139 0 0 139 0 0 139 0 0 139 0 0 139 0 0 139 0 0 139 0 0 139 0 0 139 0 0 139 0 0 139 0 0 139 0 0 139 0 0 139 0 0 139 0 0 139 0 0 139 0 0 139 0 0 139 0 0 139 0 0 139 0 0 139 0 0 139 0 0 139 0 0 139 0 0 139 0 0 139 0 0 139 0 0 139 0 0 139 0 0 139 0 0 139 0 0 139 0 0 139 0 0 139 0 0 139 0 0 139 0 0 139 0 0 139 0 0 139 0 0 139 0 0 139 0 0 139 0 0 139 0 0 139 0 0 139 0 0 139 0 0 139 0 0 139 0 0 139 0 0 139 0 0 139 0 0 139 0 0 139 0 0 139 0 0 139 0 0 139 0 0 139 0 0 139 0 0 139 0 0 139 0 0 139 0 0 139 0 0 139 0 0 139 0 0 139 0 0 139 0 0 139 0 0 139 0 0 139 0 0 139 0 0 139 0 0 139 0 0 139 0 0 139 0 0 139 0 0 139 0 0 139 0 0 139 0 0 139 0 0 139 0 0 139 0 0 139 0 0 139 0 0 139 0 0 139 0 0 139 0 0 139 0 0 139 0 0 139 0 0 139 0 0 139 0 0 139 0 0 139 0 0 139 0 0 139 0 0 139 0 0 139 0 0 139 0 0 139 0 0 139 0 0 139 0 0 139 0 0 139 0 0 139 0 0 139 0 0 139 0 0 139 0 0 139 0 0 139 0 0 139 0 0 139 0 0 139 0 0 139 0 0 139 0 0 139 0 0 139 0 0 139 0 0 139 0 0 139 0 0 139 0 0 139 0 0 139 0 0 139 0 0 139 0 0 139 0 0 139 0 0 139 0 0 139 0 0 139 0 0 139 0 0 139 0 0 139 0 0 139 0 0 139 0 0 139 0 0 139 0 0 139 0 0 139 0 0 139 0 0 139 0 0 139 0 0 139 0 0 139 0 0 139 0 0 139 0 0 139 0 0 139 0 0 139 0 0 139 0 0 139 0 0 139 0 0 139 0 0 139 0 0 139 0 0 139 0 0 139 0 0 139 0 0 139 0 0 139 0 0 139 0 0 139 0 0 139 0 0 139 0 0 139 0 0 139 0 0 139 0 0 139 0 0 139 0 0 139 0 0 139 0 0 139 0 0 139 0 0 
143 7 8 139 0 0 139 0 0 143 7 8 143 7 8 139 0 0 143 7 8 143 7 8 139 0 0 139 0 0 143 7 8 143 7 8 139 0 0 139 0 0 139 0 0 143 7 8 139 0 0 143 7 8 139 0 0 139 0 0 139 0 0 139 0 0 139 0 0 139 0 0 139 0 0 139 0 0 139 0 0 139 0 0 139 0 0 139 0 0 139 0 0 139 0 0 139 0 0 139 0 0 139 0 0 139 0 0 139 0 0 139 0 0 139 0 0 139 0 0 139 0 0 139 0 0 139 0 0 139 0 0 139 0 0 139 0 0 139 0 0 139 0 0 139 0 0 139 0 0 139 0 0 139 0 0 139 0 0 139 0 0 139 0 0 139 0 0 139 0 0 139 0 0 139 0 0 139 0 0 139 0 0 139 0 0 139 0 0 139 0 0 139 0 0 139 0 0 139 0 0 139 0 0 139 0 0 139 0 0 139 0 0 139 0 0 139 0 0 139 0 0 139 0 0 139 0 0 139 0 0 139 0 0 139 0 0 139 0 0 139 0 0 139 0 0 139 0 0 139 0 0 139 0 0 139 0 0 139 0 0 139 0 0 139 0 0 139 0 0 139 0 0 139 0 0 139 0 0 139 0 0 139 0 0 139 0 0 139 0 0 139 0 0 139 0 0 139 0 0 139 0 0 139 0 0 139 0 0 139 0 0 139 0 0 139 0 0 139 0 0 139 0 0 139 0 0 139 0 0 139 0 0 139 0 0 139 0 0 139 0 0 139 0 0 139 0 0 139 0 0 139 0 0 139 0 0 139 0 0 139 0 0 139 0 0 139 0 0 139 0 0 139 0 0 139 0 0 139 0 0 139 0 0 139 0 0 139 0 0 139 0 0 139 0 0 139 0 0 139 0 0 139 0 0 139 0 0 139 0 0 139 0 0 139 0 0 139 0 0 139 0 0 139 0 0 139 0 0 139 0 0 139 0 0 139 0 0 139 0 0 139 0 0 139 0 0 139 0 0 139 0 0 139 0 0 139 0 0 139 0 0 139 0 0 139 0 0 139 0 0 139 0 0 139 0 0 139 0 0 139 0 0 139 0 0 139 0 0 139 0 0 139 0 0 139 0 0 139 0 0 139 0 0 139 0 0 139 0 0 139 0 0 139 0 0 139 0 0 139 0 0 139 0 0 139 0 0 139 0 0 139 0 0 139 0 0 139 0 0 139 0 0 139 0 0 139 0 0 139 0 0 139 0 0 139 0 0 139 0 0 139 0 0 139 0 0 139 0 0 139 0 0 139 0 0 139 0 0 139 0 0 139 0 0 139 0 0 139 0 0 139 0 0 139 0 0 139 0 0 139 0 0 139 0 0 139 0 0 139 0 0 139 0 0 139 0 0 139 0 0 139 0 0 139 0 0 139 0 0 139 0 0 139 0 0 139 0 0 139 0 0 139 0 0 139 0 0 139 0 0 139 0 0 139 0 0 139 0 0 
143 7 8 139 0 0 139 0 0 143 7 8 143 7 8 139 0 0 143 7 8 143 7 8 139 0 0 139 0 0 143 7 8 143 7 8 139 0 0 139 0 0 139 0 0 143 7 8 139 0 0 143 7 8 139 0 0 139 0 0 139 0 0 139 0 0 139 0 0 139 0 0 139 0 0 139 0 0 139 0 0 139 0 0 139 0 0 139 0 0 139 0 0 139 0 0 139 0 0 139 0 0 139 0 0 139 0 0 139 0 0 139 0 0 139 0 0 139 0 0 139 0 0 139 0 0 139 0 0 139 0 0 139 0 0 139 0 0 139 0 0 139 0 0 139 0 0 139 0 0 139 0 0 139 0 0 139 0 0 139 0 0 139 0 0 139 0 0 139 0 0 139 0 0 139 0 0 139 0 0 139 0 0 139 0 0 139 0 0 139 0 0 139 0 0 139 0 0 139 0 0 139 0 0 139 0 0 139 0 0 139 0 0 139 0 0 139 0 0 139 0 0 139 0 0 139 0 0 139 0 0 139 0 0 139 0 0 139 0 0 139 0 0 139 0 0 139 0 0 139 0 0 139 0 0 139 0 0 139 0 0 139 0 0 139 0 0 139 0 0 139 0 0 139 0 0 139 0 0 139 0 0 139 0 0 139 0 0 139 0 0 139 0 0 139 0 0 139 0 0 139 0 0 139 0 0 139 0 0 139 0 0 139 0 0 139 0 0 139 0 0 139 0 0 139 0 0 139 0 0 139 0 0 139 0 0 139 0 0 139 0 0 139 0 0 139 0 0 139 0 0 139 0 0 139 0 0 139 0 0 139 0 0 139 0 0 139 0 0 139 0 0 139 0 0 139 0 0 139 0 0 139 0 0 139 0 0 139 0 0 139 0 0 139 0 0 139 0 0 139 0 0 139 0 0 139 0 0 139 0 0 139 0 0 139 0 0 139 0 0 139 0 0 139 0 0 139 0 0 139 0 0 139 0 0 139 0 0 139 0 0 139 0 0 139 0 0 139 0 0 139 0 0 139 0 0 139 0 0 139 0 0 139 0 0 139 0 0 139 0 0 139 0 0 139 0 0 139 0 0 139 0 0 139 0 0 139 0 0 139 0 0 139 0 0 139 0 0 139 0 0 139 0 0 139 0 0 139 0 0 139 0 0 139 0 0 139 0 0 139 0 0 139 0 0 139 0 0 139 0 0 139 0 0 139 0 0 139 0 0 139 0 0 139 0 0 139 0 0 139 0 0 139 0 0 139 0 0 139 0 0 139 0 0 139 0 0 139 0 0 139 0 0 139 0 0 139 0 0 139 0 0 139 0 0 139 0 0 139 0 0 139 0 0 139 0 0 139 0 0 139 0 0 139 0 0 139 0 0 139 0 0 139 0 0 139 0 0 139 0 0 139 0 0 139 0 0 139 0 0 139 0 0 139 0 0 139 0 0 139 0 0 139 0 0 139 0 0 139 0 0 139 0 0 139 0 0 139 0 0 
143 7 8 139 0 0 143 7 8 139 0 0 139 0 0 143 7 8 143 7 8 143 7 8 143 7 8 139 0 0 143 7 8 143 7 8 139 0 0 139 0 0 143 7 8 139 0 0 143 7 8 139 0 0 139 0 0 139 0 0 143 7 8 139 0 0 139 0 0 143 7 8 139 0 0 139 0 0 139 0 0 139 0 0 139 0 0 139 0 0 139 0 0 139 0 0 139 0 0 139 0 0 139 0 0 139 0 0 139 0 0 139 0 0 139 0 0 139 0 0 139 0 0 139 0 0 139 0 0 139 0 0 139 0 0 139 0 0 139 0 0 139 0 0 139 0 0 139 0 0 139 0 0 139 0 0 139 0 0 139 0 0 139 0 0 139 0 0 139 0 0 139 0 0 139 0 0 139 0 0 139 0 0 139 0 0 139 0 0 139 0 0 139 0 0 139 0 0 139 0 0 139 0 0 139 0 0 139 0 0 139 0 0 139 0 0 139 0 0 139 0 0 139 0 0 139 0 0 139 0 0 139 0 0 139 0 0 139 0 0 139 0 0 139 0 0 139 0 0 139 0 0 139 0 0 139 0 0 139 0 0 139 0 0 139 0 0 139 0 0 139 0 0 139 0 0 139 0 0 139 0 0 139 0 0 139 0 0 139 0 0 139 0 0 139 0 0 139 0 0 139 0 0 139 0 0 139 0 0 139 0 0 139 0 0 139 0 0 139 0 0 139 0 0 139 0 0 139 0 0 139 0 0 139 0 0 139 0 0 139 0 0 139 0 0 139 0 0 139 0 0 139 0 0 139 0 0 139 0 0 139 0 0 139 0 0 139 0 0 139 0 0 139 0 0 139 0 0 139 0 0 139 0 0 139 0 0 139 0 0 139 0 0 139 0 0 139 0 0 139 0 0 139 0 0 139 0 0 139 0 0 139 0 0 139 0 0 139 0 0 139 0 0 139 0 0 139 0 0 139 0 0 139 0 0 139 0 0 139 0 0 139 0 0 139 0 0 139 0 0 139 0 0 139 0 0 139 0 0 139 0 0 139 0 0 139 0 0 139 0 0 139 0 0 139 0 0 139 0 0 139 0 0 139 0 0 139 0 0 139 0 0 139 0 0 139 0 0 139 0 0 139 0 0 139 0 0 139 0 0 139 0 0 139 0 0 139 0 0 139 0 0 139 0 0 139 0 0 139 0 0 139 0 0 139 0 0 139 0 0 139 0 0 139 0 0 139 0 0 139 0 0 139 0 0 139 0 0 139 0 0 139 0 0 139 0 0 139 0 0 139 0 0 139 0 0 139 0 0 139 0 0 139 0 0 139 0 0 139 0 0 139 0 0 139 0 0 139 0 0 139 0 0 139 0 0 139 0 0 139 0 0 139 0 0 139 0 0 139 0 0 139 0 0 139 0 0 139 0 0 139 0 0 139 0 0 139 0 0 139 0 0 139 0 0 139 0 0 139 0 0 139 0 0 139 0 0 139 0 0 
143 7 8 139 0 0 143 7 8 139 0 0 139 0 0 143 7 8 143 7 8 143 7 8 143 7 8 139 0 0 143 7 8 143 7 8 139 0 0 139 0 0 143 7 8 139 0 0 143 7 8 139 0 0 139 0 0 139 0 0 143 7 8 139 0 0 139 0 0 143 7 8 139 0 0 139 0 0 139 0 0 139 0 0 139 0 0 139 0 0 139 0 0 139 0 0 139 0 0 139 0 0 139 0 0 139 0 0 139 0 0 139 0 0 139 0 0 139 0 0 139 0 0 139 0 0 139 0 0 139 0 0 139 0 0 139 0 0 139 0 0 139 0 0 139 0 0 139 0 0 139 0 0 139 0 0 139 0 0 139 0 0 139 0 0 139 0 0 139 0 0 139 0 0 139 0 0 139 0 0 139 0 0 139 0 0 139 0 0 139 0 0 139 0 0 139 0 0 139 0 0 139 0 0 139 0 0 139 0 0 139 0 0 139 0 0 139 0 0 139 0 0 139 0 0 139 0 0 139 0 0 139 0 0 139 0 0 139 0 0 139 0 0 139 0 0 139 0 0 139 0 0 139 0 0 139 0 0 139 0 0 139 0 0 139 0 0 139 0 0 139 0 0 139 0 0 139 0 0 139 0 0 139 0 0 139 0 0 139 0 0 139 0 0 139 0 0 139 0 0 139 0 0 139 0 0 139 0 0 139 0 0 139 0 0 139 0 0 139 0 0 139 0 0 139 0 0 139 0 0 139 0 0 139 0 0 139 0 0 139 0 0 139 0 0 139 0 0 139 0 0 139 0 0 139 0 0 139 0 0 139 0 0 139 0 0 139 0 0 139 0 0 139 0 0 139 0 0 139 0 0 139 0 0 139 0 0 139 0 0 139 0 0 139 0 0 139 0 0 139 0 0 139 0 0 139 0 0 139 0 0 139 0 0 139 0 0 139 0 0 139 0 0 139 0 0 139 0 0 139 0 0 139 0 0 139 0 0 139 0 0 139 0 0 139 0 0 139 0 0 139 0 0 139 0 0 139 0 0 139 0 0 139 0 0 139 0 0 139 0 0 139 0 0 139 0 0 139 0 0 139 0 0 139 0 0 139 0 0 139 0 0 139 0 0 139 0 0 139 0 0 139 0 0 139 0 0 139 0 0 139 0 0 139 0 0 139 0 0 139 0 0 139 0 0 139 0 0 139 0 0 139 0 0 139 0 0 139 0 0 139 0 0 139 0 0 139 0 0 139 0 0 139 0 0 139 0 0 139 0 0 139 0 0 139 0 0 139 0 0 139 0 0 139 0 0 139 0 0 139 0 0 139 0 0 139 0 0 139 0 0 139 0 0 139 0 0 139 0 0 139 0 0 139 0 0 139 0 0 139 0 0 139 0 0 139 0 0 139 0 0 139 0 0 139 0 0 139 0 0 139 0 0 139 0 0 139 0 0 139 0 0 139 0 0 139 0 0 139 0 0 139 0 0 139 0 0 139 0 0 
139 0 0 143 7 8 143 7 8 143 7 8 143 7 8 139 0 0 143 7 8 139 0 0 139 0 0 143 7 8 139 0 0 139 0 0 143 7 8 143 7 8 143 7 8 143 7 8 139 0 0 139 0 0 139 0 0 143 7 8 143 7 8 143 7 8 143 7 8 143 7 8 139 0 0 139 0 0 139 0 0 139 0 0 139 0 0 139 0 0 139 0 0 139 0 0 139 0 0 139 0 0 139 0 0 139 0 0 139 0 0 139 0 0 139 0 0 139 0 0 139 0 0 139 0 0 139 0 0 139 0 0 139 0 0 139 0 0 139 0 0 139 0 0 139 0 0 139 0 0 139 0 0 139 0 0 139 0 0 139 0 0 139 0 0 139 0 0 139 0 0 139 0 0 139 0 0 139 0 0 139 0 0 139 0 0 139 0 0 139 0 0 139 0 0 139 0 0 139 0 0 139 0 0 139 0 0 139 0 0 139 0 0 139 0 0 139 0 0 139 0 0 139 0 0 139 0 0 139 0 0 139 0 0 139 0 0 139 0 0 139 0 0 139 0 0 139 0 0 139 0 0 139 0 0 139 0 0 139 0 0 139 0 0 139 0 0 139 0 0 139 0 0 139 0 0 139 0 0 139 0 0 139 0 0 139 0 0 139 0 0 139 0 0 139 0 0 139 0 0 139 0 0 139 0 0 139 0 0 139 0 0 139 0 0 139 0 0 139 0 0 139 0 0 139 0 0 139 0 0 139 0 0 139 0 0 139 0 0 139 0 0 139 0 0 139 0 0 139 0 0 139 0 0 139 0 0 139 0 0 139 0 0 139 0 0 139 0 0 139 0 0 139 0 0 139 0 0 139 0 0 139 0 0 139 0 0 139 0 0 139 0 0 139 0 0 139 0 0 139 0 0 139 0 0 139 0 0 139 0 0 139 0 0 139 0 0 139 0 0 139 0 0 139 0 0 139 0 0 139 0 0 139 0 0 139 0 0 139 0 0 139 0 0 139 0 0 139 0 0 139 0 0 139 0 0 139 0 0 139 0 0 139 0 0 139 0 0 139 0 0 139 0 0 139 0 0 139 0 0 139 0 0 139 0 0 139 0 0 139 0 0 139 0 0 139 0 0 139 0 0 139 0 0 139 0 0 139 0 0 139 0 0 139 0 0 139 0 0 139 0 0 139 0 0 139 0 0 139 0 0 139 0 0 139 0 0 139 0 0 139 0 0 139 0 0 139 0 0 139 0 0 139 0 0 139 0 0 139 0 0 139 0 0 139 0 0 139 0 0 139 0 0 139 0 0 139 0 0 139 0 0 139 0 0 139 0 0 139 0 0 139 0 0 139 0 0 139 0 0 139 0 0 139 0 0 139 0 0 139 0 0 139 0 0 139 0 0 139 0 0 139 0 0 139 0 0 139 0 0 139 0 0 139 0 0 139 0 0 139 0 0 139 0 0 139 0 0 139 0 0 139 0 0 139 0 0 139 0 0 
139 0 0 143 7 8 143 7 8 143 7 8 143 7 8 139 0 0 143 7 8 139 0 0 139 0 0 143 7 8 139 0 0 139 0 0 143 7 8 143 7 8 143 7 8 143 7 8 139 0 0 139 0 0 139 0 0 143 7 8 143 7 8 143 7 8 143 7 8 143 7 8 139 0 0 139 0 0 139 0 0 139 0 0 139 0 0 139 0 0 139 0 0 139 0 0 139 0 0 139 0 0 139 0 0 139 0 0 139 0 0 139 0 0 139 0 0 139 0 0 139 0 0 139 0 0 139 0 0 139 0 0 139 0 0 139 0 0 139 0 0 139 0 0 139 0 0 139 0 0 139 0 0 139 0 0 139 0 0 139 0 0 139 0 0 139 0 0 139 0 0 139 0 0 139 0 0 139 0 0 139 0 0 139 0 0 139 0 0 139 0 0 139 0 0 139 0 0 139 0 0 139 0 0 139 0 0 139 0 0 139 0 0 139 0 0 139 0 0 139 0 0 139 0 0 139 0 0 139 0 0 139 0 0 139 0 0 139 0 0 139 0 0 139 0 0 139 0 0 139 0 0 139 0 0 139 0 0 139 0 0 139 0 0 139 0 0 139 0 0 139 0 0 139 0 0 139 0 0 139 0 0 139 0 0 139 0 0 139 0 0 139 0 0 139 0 0 139 0 0 139 0 0 139 0 0 139 0 0 139 0 0 139 0 0 139 0 0 139 0 0 139 0 0 139 0 0 139 0 0 139 0 0 139 0 0 139 0 0 139 0 0 139 0 0 139 0 0 139 0 0 139 0 0 139 0 0 139 0 0 139 0 0 139 0 0 139 0 0 139 0 0 139 0 0 139 0 0 139 0 0 139 0 0 139 0 0 139 0 0 139 0 0 139 0 0 139 0 0 139 0 0 139 0 0 139 0 0 139 0 0 139 0 0 139 0 0 139 0 0 139 0 0 139 0 0 139 0 0 139 0 0 139 0 0 139 0 0 139 0 0 139 0 0 139 0 0 139 0 0 139 0 0 139 0 0 139 0 0 139 0 0 139 0 0 139 0 0 139 0 0 139 0 0 139 0 0 139 0 0 139 0 0 139 0 0 139 0 0 139 0 0 139 0 0 139 0 0 139 0 0 139 0 0 139 0 0 139 0 0 139 0 0 139 0 0 139 0 0 139 0 0 139 0 0 139 0 0 139 0 0 139 0 0 139 0 0 139 0 0 139 0 0 139 0 0 139 0 0 139 0 0 139 0 0 139 0 0 139 0 0 139 0 0 139 0 0 139 0 0 139 0 0 139 0 0 139 0 0 139 0 0 139 0 0 139 0 0 139 0 0 139 0 0 139 0 0 139 0 0 139 0 0 139 0 0 139 0 0 139 0 0 139 0 0 139 0 0 139 0 0 139 0 0 139 0 0 139 0 0 139 0 0 139 0 0 139 0 0 139 0 0 139 0 0 139 0 0 139 0 0 139 0 0 139 0 0 139 0 0 
139 0 0 139 0 0 139 0 0 139 0 0 143 7 8 139 0 0 139 0 0 139 0 0 143 7 8 139 0 0 139 0 0 139 0 0 143 7 8 139 0 0 143 7 8 139 0 0 143 7 8 143 7 8 139 0 0 139 0 0 139 0 0 143 7 8 143 7 8 143 7 8 139 0 0 143 7 8 139 0 0 139 0 0 139 0 0 139 0 0 139 0 0 139 0 0 139 0 0 139 0 0 139 0 0 139 0 0 139 0 0 139 0 0 139 0 0 139 0 0 139 0 0 139 0 0 139 0 0 139 0 0 139 0 0 139 0 0 139 0 0 139 0 0 139 0 0 139 0 0 139 0 0 139 0 0 139 0 0 139 0 0 139 0 0 139 0 0 139 0 0 139 0 0 139 0 0 139 0 0 139 0 0 139 0 0 139 0 0 139 0 0 139 0 0 139 0 0 139 0 0 139 0 0 139 0 0 139 0 0 139 0 0 139 0 0 139 0 0 139 0 0 139 0 0 139 0 0 139 0 0 139 0 0 139 0 0 139 0 0 139 0 0 139 0 0 139 0 0 139 0 0 139 0 0 139 0 0 139 0 0 139 0 0 139 0 0 139 0 0 139 0 0 139 0 0 139 0 0 139 0 0 139 0 0 139 0 0 139 0 0 139 0 0 139 0 0 139 0 0 139 0 0 139 0 0 139 0 0 139 0 0 139 0 0 139 0 0 139 0 0 139 0 0 139 0 0 139 0 0 139 0 0 139 0 0 139 0 0 139 0 0 139 0 0 139 0 0 139 0 0 139 0 0 139 0 0 139 0 0 139 0 0 139 0 0 139 0 0 139 0 0 139 0 0 139 0 0 139 0 0 139 0 0 139 0 0 139 0 0 139 0 0 139 0 0 139 0 0 139 0 0 139 0 0 139 0 0 139 0 0 139 0 0 139 0 0 139 0 0 139 0 0 139 0 0 139 0 0 139 0 0 139 0 0 139 0 0 139 0 0 139 0 0 139 0 0 139 0 0 139 0 0 139 0 0 139 0 0 139 0 0 139 0 0 139 0 0 139 0 0 139 0 0 139 0 0 139 0 0 139 0 0 139 0 0 139 0 0 139 0 0 139 0 0 139 0 0 139 0 0 139 0 0 139 0 0 139 0 0 139 0 0 139 0 0 139 0 0 139 0 0 139 0 0 139 0 0 139 0 0 139 0 0 139 0 0 139 0 0 139 0 0 139 0 0 139 0 0 139 0 0 139 0 0 139 0 0 139 0 0 139 0 0 139 0 0 139 0 0 139 0 0 139 0 0 139 0 0 139 0 0 139 0 0 139 0 0 139 0 0 139 0 0 139 0 0 139 0 0 139 0 0 139 0 0 139 0 0 139 0 0 139 0 0 139 0 0 139 0 0 139 0 0 139 0 0 139 0 0 139 0 0 139 0 0 139 0 0 139 0 0 139 0 0 139 0 0 139 0 0 139 0 0 139 0 0 139 0 0 
139 0 0 139 0 0 139 0 0 139 0 0 143 7 8 139 0 0 139 0 0 139 0 0 143 7 8 139 0 0 139 0 0 139 0 0 143 7 8 139 0 0 143 7 8 139 0 0 143 7 8 143 7 8 139 0 0 139 0 0 139 0 0 143 7 8 143 7 8 143 7 8 139 0 0 143 7 8 139 0 0 139 0 0 139 0 0 139 0 0 139 0 0 139 0 0 139 0 0 139 0 0 139 0 0 139 0 0 139 0 0 139 0 0 139 0 0 139 0 0 139 0 0 139 0 0 139 0 0 139 0 0 139 0 0 139 0 0 139 0 0 139 0 0 139 0 0 139 0 0 139 0 0 139 0 0 139 0 0 139 0 0 139 0 0 139 0 0 139 0 0 139 0 0 139 0 0 139 0 0 139 0 0 139 0 0 139 0 0 139 0 0 139 0 0 139 0 0 139 0 0 139 0 0 139 0 0 139 0 0 139 0 0 139 0 0 139 0 0 139 0 0 139 0 0 139 0 0 139 0 0 139 0 0 139 0 0 139 0 0 139 0 0 139 0 0 139 0 0 139 0 0 139 0 0 139 0 0 139 0 0 139 0 0 139 0 0 139 0 0 139 0 0 139 0 0 139 0 0 139 0 0 139 0 0 139 0 0 139 0 0 139 0 0 139 0 0 139 0 0 139 0 0 139 0 0 139 0 0 139 0 0 139 0 0 139 0 0 139 0 0 139 0 0 139 0 0 139 0 0 139 0 0 139 0 0 139 0 0 139 0 0 139 0 0 139 0 0 139 0 0 139 0 0 139 0 0 139 0 0 139 0 0 139 0 0 139 0 0 139 0 0 139 0 0 139 0 0 139 0 0 139 0 0 139 0 0 139 0 0 139 0 0 139 0 0 139 0 0 139 0 0 139 0 0 139 0 0 139 0 0 139 0 0 139 0 0 139 0 0 139 0 0 139 0 0 139 0 0 139 0 0 139 0 0 139 0 0 139 0 0 139 0 0 139 0 0 139 0 0 139 0 0 139 0 0 139 0 0 139 0 0 139 0 0 139 0 0 139 0 0 139 0 0 139 0 0 139 0 0 139 0 0 139 0 0 139 0 0 139 0 0 139 0 0 139 0 0 139 0 0 139 0 0 139 0 0 139 0 0 139 0 0 139 0 0 139 0 0 139 0 0 139 0 0 139 0 0 139 0 0 139 0 0 139 0 0 139 0 0 139 0 0 139 0 0 139 0 0 139 0 0 139 0 0 139 0 0 139 0 0 139 0 0 139 0 0 139 0 0 139 0 0 139 0 0 139 0 0 139 0 0 139 0 0 139 0 0 139 0 0 139 0 0 139 0 0 139 0 0 139 0 0 139 0 0 139 0 0 139 0 0 139 0 0 139 0 0 139 0 0 139 0 0 139 0 0 139 0 0 139 0 0 139 0 0 139 0 0 139 0 0 139 0 0 139 0 0 139 0 0 139 0 0 139 0 0 139 0 0 
139 0 0 139 0 0 143 7 8 139 0 0 143 7 8 143 7 8 139 0 0 139 0 0 139 0 0 143 7 8 143 7 8 139 0 0 143 7 8 139 0 0 143 7 8 139 0 0 143 7 8 139 0 0 143 7 8 139 0 0 139 0 0 139 0 0 139 0 0 139 0 0 143 7 8 143 7 8 139 0 0 139 0 0 139 0 0 143 7 8 139 0 0 139 0 0 143 7 8 139 0 0 139 0 0 139 0 0 139 0 0 139 0 0 139 0 0 139 0 0 139 0 0 139 0 0 139 0 0 139 0 0 139 0 0 139 0 0 139 0 0 139 0 0 139 0 0 139 0 0 139 0 0 139 0 0 139 0 0 139 0 0 139 0 0 139 0 0 139 0 0 139 0 0 139 0 0 139 0 0 139 0 0 139 0 0 139 0 0 139 0 0 139 0 0 139 0 0 139 0 0 139 0 0 139 0 0 139 0 0 139 0 0 139 0 0 139 0 0 139 0 0 139 0 0 139 0 0 139 0 0 139 0 0 139 0 0 139 0 0 139 0 0 139 0 0 139 0 0 139 0 0 139 0 0 139 0 0 139 0 0 139 0 0 139 0 0 139 0 0 139 0 0 139 0 0 139 0 0 139 0 0 139 0 0 139 0 0 139 0 0 139 0 0 139 0 0 139 0 0 139 0 0 139 0 0 139 0 0 139 0 0 139 0 0 139 0 0 139 0 0 139 0 0 139 0 0 139 0 0 139 0 0 139 0 0 139 0 0 139 0 0 139 0 0 139 0 0 139 0 0 139 0 0 139 0 0 139 0 0 139 0 0 139 0 0 139 0 0 139 0 0 139 0 0 139 0 0 139 0 0 139 0 0 139 0 0 139 0 0 139 0 0 139 0 0 139 0 0 139 0 0 139 0 0 139 0 0 139 0 0 139 0 0 139 0 0 139 0 0 139 0 0 139 0 0 139 0 0 139 0 0 139 0 0 139 0 0 139 0 0 139 0 0 139 0 0 139 0 0 139 0 0 139 0 0 139 0 0 139 0 0 139 0 0 139 0 0 139 0 0 139 0 0 139 0 0 139 0 0 139 0 0 139 0 0 139 0 0 139 0 0 139 0 0 139 0 0 139 0 0 139 0 0 139 0 0 139 0 0 139 0 0 139 0 0 139 0 0 139 0 0 139 0 0 139 0 0 139 0 0 139 0 0 139 0 0 139 0 0 139 0 0 139 0 0 139 0 0 139 0 0 139 0 0 139 0 0 139 0 0 139 0 0 139 0 0 139 0 0 139 0 0 139 0 0 139 0 0 139 0 0 139 0 0 139 0 0 139 0 0 139 0 0 139 0 0 139 0 0 139 0 0 139 0 0 139 0 0 139 0 0 139 0 0 139 0 0 139 0 0 139 0 0 139 0 0 139 0 0 139 0 0 139 0 0 139 0 0 139 0 0 139 0 0 139 0 0 139 0 0 139 0 0 139 0 0 139 0 0 
139 0 0 139 0 0 143 7 8 139 0 0 143 7 8 143 7 8 139 0 0 139 0 0 139 0 0 143 7 8 143 7 8 139 0 0 143 7 8 139 0 0 143 7 8 139 0 0 143 7 8 139 0 0 143 7 8 139 0 0 139 0 0 139 0 0 139 0 0 139 0 0 143 7 8 143 7 8 139 0 0 139 0 0 139 0 0 143 7 8 139 0 0 139 0 0 143 7 8 139 0 0 139 0 0 139 0 0 139 0 0 139 0 0 139 0 0 139 0 0 139 0 0 139 0 0 139 0 0 139 0 0 139 0 0 139 0 0 139 0 0 139 0 0 139 0 0 139 0 0 139 0 0 139 0 0 139 0 0 139 0 0 139 0 0 139 0 0 139 0 0 139 0 0 139 0 0 139 0 0 139 0 0 139 0 0 139 0 0 139 0 0 139 0 0 139 0 0 139 0 0 139 0 0 139 0 0 139 0 0 139 0 0 139 0 0 139 0 0 139 0 0 139 0 0 139 0 0 139 0 0 139 0 0 139 0 0 139 0 0 139 0 0 139 0 0 139 0 0 139 0 0 139 0 0 139 0 0 139 0 0 139 0 0 139 0 0 139 0 0 139 0 0 139 0 0 139 0 0 139 0 0 139 0 0 139 0 0 139 0 0 139 0 0 139 0 0 139 0 0 139 0 0 139 0 0 139 0 0 139 0 0 139 0 0 139 0 0 139 0 0 139 0 0 139 0 0 139 0 0 139 0 0 139 0 0 139 0 0 139 0 0 139 0 0 139 0 0 139 0 0 139 0 0 139 0 0 139 0 0 139 0 0 139 0 0 139 0 0 139 0 0 139 0 0 139 0 0 139 0 0 139 0 0 139 0 0 139 0 0 139 0 0 139 0 0 139 0 0 139 0 0 139 0 0 139 0 0 139 0 0 139 0 0 139 0 0 139 0 0 139 0 0 139 0 0 139 0 0 139 0 0 139 0 0 139 0 0 139 0 0 139 0 0 139 0 0 139 0 0 139 0 0 139 0 0 139 0 0 139 0 0 139 0 0 139 0 0 139 0 0 139 0 0 139 0 0 139 0 0 139 0 0 139 0 0 139 0 0 139 0 0 139 0 0 139 0 0 139 0 0 139 0 0 139 0 0 139 0 0 139 0 0 139 0 0 139 0 0 139 0 0 139 0 0 139 0 0 139 0 0 139 0 0 139 0 0 139 0 0 139 0 0 139 0 0 139 0 0 139 0 0 139 0 0 139 0 0 139 0 0 139 0 0 139 0 0 139 0 0 139 0 0 139 0 0 139 0 0 139 0 0 139 0 0 139 0 0 139 0 0 139 0 0 139 0 0 139 0 0 139 0 0 139 0 0 139 0 0 139 0 0 139 0 0 139 0 0 139 0 0 139 0 0 139 0 0 139 0 0 139 0 0 139 0 0 139 0 0 139 0 0 139 0 0 139 0 0 139 0 0 139 0 0 139 0 0 139 0 0 
143 7 8 139 0 0 143 7 8 139 0 0 139 0 0 143 7 8 139 0 0 143 7 8 143 7 8 143 7 8 143 7 8 143 7 8 139 0 0 139 0 0 143 7 8 139 0 0 139 0 0 143 7 8 139 0 0 139 0 0 139 0 0 139 0 0 139 0 0 139 0 0 139 0 0 139 0 0 139 0 0 139 0 0 139 0 0 139 0 0 139 0 0 139 0 0 139 0 0 139 0 0 139 0 0 139 0 0 139 0 0 139 0 0 139 0 0 139 0 0 139 0 0 139 0 0 139 0 0 139 0 0 139 0 0 139 0 0 139 0 0 143 7 8 139 0 0 139 0 0 139 0 0 139 0 0 139 0 0 139 0 0 139 0 0 139 0 0 139 0 0 139 0 0 139 0 0 139 0 0 139 0 0 139 0 0 139 0 0 139 0 0 139 0 0 139 0 0 139 0 0 139 0 0 139 0 0 139 0 0 139 0 0 139 0 0 139 0 0 139 0 0 139 0 0 139 0 0 139 0 0 139 0 0 139 0 0 139 0 0 139 0 0 139 0 0 139 0 0 139 0 0 139 0 0 139 0 0 139 0 0 139 0 0 139 0 0 139 0 0 139 0 0 139 0 0 139 0 0 139 0 0 139 0 0 139 0 0 139 0 0 139 0 0 139 0 0 139 0 0 139 0 0 139 0 0 139 0 0 139 0 0 139 0 0 139 0 0 139 0 0 139 0 0 139 0 0 139 0 0 139 0 0 139 0 0 139 0 0 139 0 0 139 0 0 139 0 0 139 0 0 139 0 0 139 0 0 139 0 0 139 0 0 139 0 0 139 0 0 139 0 0 139 0 0 139 0 0 139 0 0 139 0 0 139 0 0 139 0 0 139 0 0 139 0 0 139 0 0 139 0 0 139 0 0 139 0 0 139 0 0 139 0 0 139 0 0 139 0 0 139 0 0 139 0 0 139 0 0 139 0 0 139 0 0 139 0 0 139 0 0 139 0 0 139 0 0 139 0 0 139 0 0 139 0 0 139 0 0 139 0 0 139 0 0 139 0 0 139 0 0 139 0 0 139 0 0 139 0 0 139 0 0 139 0 0 139 0 0 139 0 0 139 0 0 139 0 0 139 0 0 139 0 0 139 0 0 139 0 0 139 0 0 139 0 0 139 0 0 139 0 0 139 0 0 139 0 0 139 0 0 139 0 0 139 0 0 139 0 0 139 0 0 139 0 0 139 0 0 139 0 0 139 0 0 139 0 0 139 0 0 139 0 0 139 0 0 139 0 0 139 0 0 139 0 0 139 0 0 139 0 0 139 0 0 139 0 0 139 0 0 139 0 0 139 0 0 139 0 0 139 0 0 139 0 0 139 0 0 139 0 0 139 0 0 139 0 0 139 0 0 139 0 0 139 0 0 139 0 0 139 0 0 139 0 0 139 0 0 139 0 0 139 0 0 139 0 0 139 0 0 139 0 0 139 0 0 139 0 0 
143 7 8 139 0 0 143 7 8 139 0 0 139 0 0 143 7 8 139 0 0 143 7 8 143 7 8 143 7 8 143 7 8 143 7 8 139 0 0 139 0 0 143 7 8 139 0 0 139 0 0 143 7 8 139 0 0 139 0 0 139 0 0 139 0 0 139 0 0 139 0 0 139 0 0 139 0 0 139 0 0 139 0 0 139 0 0 139 0 0 139 0 0 139 0 0 139 0 0 139 0 0 139 0 0 139 0 0 139 0 0 139 0 0 139 0 0 139 0 0 139 0 0 139 0 0 139 0 0 139 0 0 139 0 0 139 0 0 139 0 0 143 7 8 139 0 0 139 0 0 139 0 0 139 0 0 139 0 0 139 0 0 139 0 0 139 0 0 139 0 0 139 0 0 139 0 0 139 0 0 139 0 0 139 0 0 139 0 0 139 0 0 139 0 0 139 0 0 139 0 0 139 0 0 139 0 0 139 0 0 139 0 0 139 0 0 139 0 0 139 0 0 139 0 0 139 0 0 139 0 0 139 0 0 139 0 0 139 0 0 139 0 0 139 0 0 139 0 0 139 0 0 139 0 0 139 0 0 139 0 0 139 0 0 139 0 0 139 0 0 139 0 0 139 0 0 139 0 0 139 0 0 139 0 0 139 0 0 139 0 0 139 0 0 139 0 0 139 0 0 139 0 0 139 0 0 139 0 0 139 0 0 139 0 0 139 0 0 139 0 0 139 0 0 139 0 0 139 0 0 139 0 0 139 0 0 139 0 0 139 0 0 139 0 0 139 0 0 139 0 0 139 0 0 139 0 0 139 0 0 139 0 0 139 0 0 139 0 0 139 0 0 139 0 0 139 0 0 139 0 0 139 0 0 139 0 0 139 0 0 139 0 0 139 0 0 139 0 0 139 0 0 139 0 0 139 0 0 139 0 0 139 0 0 139 0 0 139 0 0 139 0 0 139 0 0 139 0 0 139 0 0 139 0 0 139 0 0 139 0 0 139 0 0 139 0 0 139 0 0 139 0 0 139 0 0 139 0 0 139 0 0 139 0 0 139 0 0 139 0 0 139 0 0 139 0 0 139 0 0 139 0 0 139 0 0 139 0 0 139 0 0 139 0 0 139 0 0 139 0 0 139 0 0 139 0 0 139 0 0 139 0 0 139 0 0 139 0 0 139 0 0 139 0 0 139 0 0 139 0 0 139 0 0 139 0 0 139 0 0 139 0 0 139 0 0 139 0 0 139 0 0 139 0 0 139 0 0 139 0 0 139 0 0 139 0 0 139 0 0 139 0 0 139 0 0 139 0 0 139 0 0 139 0 0 139 0 0 139 0 0 139 0 0 139 0 0 139 0 0 139 0 0 139 0 0 139 0 0 139 0 0 139 0 0 139 0 0 139 0 0 139 0 0 139 0 0 139 0 0 139 0 0 139 0 0 139 0 0 139 0 0 139 0 0 139 0 0 139 0 0 139 0 0 139 0 0 139 0 0 
139 0 0 143 7 8 143 7 8 143 7 8 143 7 8 143 7 8 143 7 8 143 7 8 139 0 0 139 0 0 143 7 8 139 0 0 143 7 8 143 7 8 143 7 8 139 0 0 139 0 0 139 0 0 139 0 0 139 0 0 143 7 8 143 7 8 139 0 0 143 7 8 139 0 0 143 7 8 143 7 8 139 0 0 139 0 0 143 7 8 143 7 8 139 0 0 139 0 0 139 0 0 139 0 0 139 0 0 139 0 0 143 7 8 139 0 0 139 0 0 139 0 0 139 0 0 139 0 0 139 0 0 139 0 0 139 0 0 139 0 0 139 0 0 139 0 0 139 0 0 139 0 0 139 0 0 139 0 0 139 0 0 139 0 0 139 0 0 139 0 0 139 0 0 139 0 0 139 0 0 139 0 0 139 0 0 139 0 0 139 0 0 139 0 0 139 0 0 139 0 0 139 0 0 139 0 0 139 0 0 139 0 0 139 0 0 139 0 0 139 0 0 139 0 0 139 0 0 139 0 0 139 0 0 139 0 0 139 0 0 139 0 0 139 0 0 139 0 0 139 0 0 139 0 0 139 0 0 139 0 0 139 0 0 139 0 0 139 0 0 139 0 0 139 0 0 139 0 0 139 0 0 139 0 0 139 0 0 139 0 0 139 0 0 139 0 0 139 0 0 139 0 0 139 0 0 139 0 0 139 0 0 139 0 0 139 0 0 139 0 0 139 0 0 139 0 0 139 0 0 139 0 0 139 0 0 139 0 0 139 0 0 139 0 0 139 0 0 139 0 0 139 0 0 139 0 0 139 0 0 139 0 0 139 0 0 139 0 0 139 0 0 139 0 0 139 0 0 139 0 0 139 0 0 139 0 0 139 0 0 139 0 0 139 0 0 139 0 0 139 0 0 139 0 0 139 0 0 139 0 0 139 0 0 139 0 0 139 0 0 139 0 0 139 0 0 139 0 0 139 0 0 139 0 0 139 0 0 139 0 0 139 0 0 139 0 0 139 0 0 139 0 0 139 0 0 139 0 0 139 0 0 139 0 0 139 0 0 139 0 0 139 0 0 139 0 0 139 0 0 139 0 0 139 0 0 139 0 0 139 0 0 139 0 0 139 0 0 139 0 0 139 0 0 139 0 0 139 0 0 139 0 0 139 0 0 139 0 0 139 0 0 139 0 0 139 0 0 139 0 0 139 0 0 139 0 0 139 0 0 139 0 0 139 0 0 139 0 0 139 0 0 139 0 0 139 0 0 139 0 0 139 0 0 139 0 0 139 0 0 139 0 0 139 0 0 139 0 0 139 0 0 139 0 0 139 0 0 139 0 0 139 0 0 139 0 0 139 0 0 139 0 0 139 0 0 139 0 0 139 0 0 139 0 0 139 0 0 139 0 0 139 0 0 139 0 0 139 0 0 139 0 0 139 0 0 139 0 0 139 0 0 139 0 0 139 0 0 139 0 0 139 0 0 139 0 0 139 0 0 
139 0 0 143 7 8 143 7 8 143 7 8 143 7 8 143 7 8 143 7 8 143 7 8 139 0 0 139 0 0 143 7 8 139 0 0 143 7 8 143 7 8 143 7 8 139 0 0 139 0 0 139 0 0 139 0 0 139 0 0 143 7 8 143 7 8 139 0 0 143 7 8 139 0 0 143 7 8 143 7 8 139 0 0 139 0 0 143 7 8 143 7 8 139 0 0 139 0 0 139 0 0 139 0 0 139 0 0 139 0 0 143 7 8 139 0 0 139 0 0 139 0 0 139 0 0 139 0 0 139 0 0 139 0 0 139 0 0 139 0 0 139 0 0 139 0 0 139 0 0 139 0 0 139 0 0 139 0 0 139 0 0 139 0 0 139 0 0 139 0 0 139 0 0 139 0 0 139 0 0 139 0 0 139 0 0 139 0 0 139 0 0 139 0 0 139 0 0 139 0 0 139 0 0 139 0 0 139 0 0 139 0 0 139 0 0 139 0 0 139 0 0 139 0 0 139 0 0 139 0 0 139 0 0 139 0 0 139 0 0 139 0 0 139 0 0 139 0 0 139 0 0 139 0 0 139 0 0 139 0 0 139 0 0 139 0 0 139 0 0 139 0 0 139 0 0 139 0 0 139 0 0 139 0 0 139 0 0 139 0 0 139 0 0 139 0 0 139 0 0 139 0 0 139 0 0 139 0 0 139 0 0 139 0 0 139 0 0 139 0 0 139 0 0 139 0 0 139 0 0 139 0 0 139 0 0 139 0 0 139 0 0 139 0 0 139 0 0 139 0 0 139 0 0 139 0 0 139 0 0 139 0 0 139 0 0 139 0 0 139 0 0 139 0 0 139 0 0 139 0 0 139 0 0 139 0 0 139 0 0 139 0 0 139 0 0 139 0 0 139 0 0 139 0 0 139 0 0 139 0 0 139 0 0 139 0 0 139 0 0 139 0 0 139 0 0 139 0 0 139 0 0 139 0 0 139 0 0 139 0 0 139 0 0 139 0 0 139 0 0 139 0 0 139 0 0 139 0 0 139 0 0 139 0 0 139 0 0 139 0 0 139 0 0 139 0 0 139 0 0 139 0 0 139 0 0 139 0 0 139 0 0 139 0 0 139 0 0 139 0 0 139 0 0 139 0 0 139 0 0 139 0 0 139 0 0 139 0 0 139 0 0 139 0 0 139 0 0 139 0 0 139 0 0 139 0 0 139 0 0 139 0 0 139 0 0 139 0 0 139 0 0 139 0 0 139 0 0 139 0 0 139 0 0 139 0 0 139 0 0 139 0 0 139 0 0 139 0 0 139 0 0 139 0 0 139 0 0 139 0 0 139 0 0 139 0 0 139 0 0 139 0 0 139 0 0 139 0 0 139 0 0 139 0 0 139 0 0 139 0 0 139 0 0 139 0 0 139 0 0 139 0 0 139 0 0 139 0 0 139 0 0 139 0 0 139 0 0 139 0 0 139 0 0 139 0 0 139 0 0 
139 0 0 139 0 0 139 0 0 143 7 8 143 7 8 143 7 8 139 0 0 143 7 8 143 7 8 143 7 8 139 0 0 139 0 0 143 7 8 143 7 8 143 7 8 143 7 8 139 0 0 139 0 0 139 0 0 143 7 8 143 7 8 143 7 8 143 7 8 143 7 8 143 7 8 139 0 0 139 0 0 139 0 0 139 0 0 139 0 0 139 0 0 143 7 8 139 0 0 139 0 0 139 0 0 139 0 0 139 0 0 139 0 0 139 0 0 143 7 8 139 0 0 139 0 0 139 0 0 139 0 0 139 0 0 139 0 0 139 0 0 139 0 0 139 0 0 139 0 0 139 0 0 139 0 0 139 0 0 139 0 0 139 0 0 139 0 0 139 0 0 139 0 0 139 0 0 139 0 0 139 0 0 139 0 0 139 0 0 139 0 0 139 0 0 139 0 0 139 0 0 139 0 0 139 0 0 139 0 0 139 0 0 139 0 0 139 0 0 139 0 0 139 0 0 139 0 0 139 0 0 139 0 0 139 0 0 139 0 0 139 0 0 139 0 0 139 0 0 139 0 0 139 0 0 139 0 0 139 0 0 139 0 0 139 0 0 139 0 0 139 0 0 139 0 0 139 0 0 139 0 0 139 0 0 139 0 0 139 0 0 139 0 0 139 0 0 139 0 0 139 0 0 139 0 0 139 0 0 139 0 0 139 0 0 139 0 0 139 0 0 139 0 0 139 0 0 139 0 0 139 0 0 139 0 0 139 0 0 139 0 0 139 0 0 139 0 0 139 0 0 139 0 0 139 0 0 139 0 0 139 0 0 139 0 0 139 0 0 139 0 0 139 0 0 139 0 0 139 0 0 139 0 0 139 0 0 139 0 0 139 0 0 139 0 0 139 0 0 139 0 0 139 0 0 139 0 0 139 0 0 139 0 0 139 0 0 139 0 0 139 0 0 139 0 0 139 0 0 139 0 0 139 0 0 139 0 0 139 0 0 139 0 0 139 0 0 139 0 0 139 0 0 139 0 0 139 0 0 139 0 0 139 0 0 139 0 0 139 0 0 139 0 0 139 0 0 139 0 0 139 0 0 139 0 0 139 0 0 139 0 0 139 0 0 139 0 0 139 0 0 139 0 0 139 0 0 139 0 0 139 0 0 139 0 0 139 0 0 139 0 0 139 0 0 139 0 0 139 0 0 139 0 0 139 0 0 139 0 0 139 0 0 139 0 0 139 0 0 139 0 0 139 0 0 139 0 0 139 0 0 139 0 0 139 0 0 139 0 0 139 0 0 139 0 0 139 0 0 139 0 0 139 0 0 139 0 0 139 0 0 139 0 0 139 0 0 139 0 0 139 0 0 139 0 0 139 0 0 139 0 0 139 0 0 139 0 0 139 0 0 139 0 0 139 0 0 139 0 0 139 0 0 139 0 0 139 0 0 139 0 0 139 0 0 139 0 0 139 0 0 139 0 0 139 0 0 139 0 0 
139 0 0 139 0 0 139 0 0 143 7 8 143 7 8 143 7 8 139 0 0 143 7 8 143 7 8 143 7 8 139 0 0 139 0 0 143 7 8 143 7 8 143 7 8 143 7 8 139 0 0 139 0 0 139 0 0 143 7 8 143 7 8 143 7 8 143 7 8 143 7 8 143 7 8 139 0 0 139 0 0 139 0 0 139 0 0 139 0 0 139 0 0 143 7 8 139 0 0 139 0 0 139 0 0 139 0 0 139 0 0 139 0 0 139 0 0 143 7 8 139 0 0 139 0 0 139 0 0 139 0 0 139 0 0 139 0 0 139 0 0 139 0 0 139 0 0 139 0 0 139 0 0 139 0 0 139 0 0 139 0 0 139 0 0 139 0 0 139 0 0 139 0 0 139 0 0 139 0 0 139 0 0 139 0 0 139 0 0 139 0 0 139 0 0 139 0 0 139 0 0 139 0 0 139 0 0 139 0 0 139 0 0 139 0 0 139 0 0 139 0 0 139 0 0 139 0 0 139 0 0 139 0 0 139 0 0 139 0 0 139 0 0 139 0 0 139 0 0 139 0 0 139 0 0 139 0 0 139 0 0 139 0 0 139 0 0 139 0 0 139 0 0 139 0 0 139 0 0 139 0 0 139 0 0 139 0 0 139 0 0 139 0 0 139 0 0 139 0 0 139 0 0 139 0 0 139 0 0 139 0 0 139 0 0 139 0 0 139 0 0 139 0 0 139 0 0 139 0 0 139 0 0 139 0 0 139 0 0 139 0 0 139 0 0 139 0 0 139 0 0 139 0 0 139 0 0 139 0 0 139 0 0 139 0 0 139 0 0 139 0 0 139 0 0 139 0 0 139 0 0 139 0 0 139 0 0 139 0 0 139 0 0 139 0 0 139 0 0 139 0 0 139 0 0 139 0 0 139 0 0 139 0 0 139 0 0 139 0 0 139 0 0 139 0 0 139 0 0 139 0 0 139 0 0 139 0 0 139 0 0 139 0 0 139 0 0 139 0 0 139 0 0 139 0 0 139 0 0 139 0 0 139 0 0 139 0 0 139 0 0 139 0 0 139 0 0 139 0 0 139 0 0 139 0 0 139 0 0 139 0 0 139 0 0 139 0 0 139 0 0 139 0 0 139 0 0 139 0 0 139 0 0 139 0 0 139 0 0 139 0 0 139 0 0 139 0 0 139 0 0 139 0 0 139 0 0 139 0 0 139 0 0 139 0 0 139 0 0 139 0 0 139 0 0 139 0 0 139 0 0 139 0 0 139 0 0 139 0 0 139 0 0 139 0 0 139 0 0 139 0 0 139 0 0 139 0 0 139 0 0 139 0 0 139 0 0 139 0 0 139 0 0 139 0 0 139 0 0 139 0 0 139 0 0 139 0 0 139 0 0 139 0 0 139 0 0 139 0 0 139 0 0 139 0 0 139 0 0 139 0 0 139 0 0 139 0 0 139 0 0 139 0 0 139 0 0 139 0 0 
139 0 0 143 7 8 139 0 0 143 7 8 143 7 8 143 7 8 139 0 0 139 0 0 139 0 0 139 0 0 139 0 0 139 0 0 143 7 8 139 0 0 139 0 0 139 0 0 139 0 0 143 7 8 143 7 8 139 0 0 139 0 0 143 7 8 139 0 0 139 0 0 139 0 0 139 0 0 139 0 0 139 0 0 139 0 0 139 0 0 139 0 0 139 0 0 139 0 0 139 0 0 139 0 0 139 0 0 139 0 0 139 0 0 139 0 0 139 0 0 139 0 0 139 0 0 139 0 0 139 0 0 139 0 0 139 0 0 139 0 0 139 0 0 139 0 0 139 0 0 139 0 0 139 0 0 139 0 0 139 0 0 139 0 0 139 0 0 139 0 0 139 0 0 139 0 0 139 0 0 139 0 0 139 0 0 139 0 0 139 0 0 139 0 0 139 0 0 139 0 0 139 0 0 139 0 0 139 0 0 139 0 0 139 0 0 139 0 0 139 0 0 139 0 0 139 0 0 139 0 0 139 0 0 139 0 0 139 0 0 139 0 0 139 0 0 139 0 0 139 0 0 139 0 0 139 0 0 139 0 0 139 0 0 139 0 0 139 0 0 139 0 0 139 0 0 139 0 0 139 0 0 139 0 0 139 0 0 139 0 0 139 0 0 139 0 0 139 0 0 139 0 0 139 0 0 139 0 0 139 0 0 139 0 0 139 0 0 139 0 0 139 0 0 139 0 0 139 0 0 139 0 0 139 0 0 139 0 0 139 0 0 139 0 0 139 0 0 139 0 0 139 0 0 139 0 0 139 0 0 139 0 0 139 0 0 139 0 0 139 0 0 139 0 0 139 0 0 139 0 0 139 0 0 139 0 0 139 0 0 139 0 0 139 0 0 139 0 0 139 0 0 139 0 0 139 0 0 139 0 0 139 0 0 139 0 0 139 0 0 139 0 0 139 0 0 139 0 0 139 0 0 139 0 0 139 0 0 139 0 0 139 0 0 139 0 0 139 0 0 139 0 0 139 0 0 139 0 0 139 0 0 139 0 0 139 0 0 139 0 0 139 0 0 139 0 0 139 0 0 139 0 0 139 0 0 139 0 0 139 0 0 139 0 0 139 0 0 139 0 0 139 0 0 139 0 0 139 0 0 139 0 0 139 0 0 139 0 0 139 0 0 139 0 0 139 0 0 139 0 0 139 0 0 139 0 0 139 0 0 139 0 0 139 0 0 139 0 0 139 0 0 139 0 0 139 0 0 139 0 0 139 0 0 139 0 0 139 0 0 139 0 0 139 0 0 139 0 0 139 0 0 139 0 0 139 0 0 139 0 0 139 0 0 139 0 0 139 0 0 139 0 0 139 0 0 139 0 0 139 0 0 139 0 0 139 0 0 139 0 0 139 0 0 139 0 0 139 0 0 139 0 0 139 0 0 139 0 0 139 0 0 139 0 0 139 0 0 139 0 0 139 0 0 139 0 0 139 0 0 
139 0 0 143 7 8 139 0 0 143 7 8 143 7 8 143 7 8 139 0 0 139 0 0 139 0 0 139 0 0 139 0 0 139 0 0 143 7 8 139 0 0 139 0 0 139 0 0 139 0 0 143 7 8 143 7 8 139 0 0 139 0 0 143 7 8 139 0 0 139 0 0 139 0 0 139 0 0 139 0 0 139 0 0 139 0 0 139 0 0 139 0 0 139 0 0 139 0 0 139 0 0 139 0 0 139 0 0 139 0 0 139 0 0 139 0 0 139 0 0 139 0 0 139 0 0 139 0 0 139 0 0 139 0 0 139 0 0 139 0 0 139 0 0 139 0 0 139 0 0 139 0 0 139 0 0 139 0 0 139 0 0 139 0 0 139 0 0 139 0 0 139 0 0 139 0 0 139 0 0 139 0 0 139 0 0 139 0 0 139 0 0 139 0 0 139 0 0 139 0 0 139 0 0 139 0 0 139 0 0 139 0 0 139 0 0 139 0 0 139 0 0 139 0 0 139 0 0 139 0 0 139 0 0 139 0 0 139 0 0 139 0 0 139 0 0 139 0 0 139 0 0 139 0 0 139 0 0 139 0 0 139 0 0 139 0 0 139 0 0 139 0 0 139 0 0 139 0 0 139 0 0 139 0 0 139 0 0 139 0 0 139 0 0 139 0 0 139 0 0 139 0 0 139 0 0 139 0 0 139 0 0 139 0 0 139 0 0 139 0 0 139 0 0 139 0 0 139 0 0 139 0 0 139 0 0 139 0 0 139 0 0 139 0 0 139 0 0 139 0 0 139 0 0 139 0 0 139 0 0 139 0 0 139 0 0 139 0 0 139 0 0 139 0 0 139 0 0 139 0 0 139 0 0 139 0 0 139 0 0 139 0 0 139 0 0 139 0 0 139 0 0 139 0 0 139 0 0 139 0 0 139 0 0 139 0 0 139 0 0 139 0 0 139 0 0 139 0 0 139 0 0 139 0 0 139 0 0 139 0 0 139 0 0 139 0 0 139 0 0 139 0 0 139 0 0 139 0 0 139 0 0 139 0 0 139 0 0 139 0 0 139 0 0 139 0 0 139 0 0 139 0 0 139 0 0 139 0 0 139 0 0 139 0 0 139 0 0 139 0 0 139 0 0 139 0 0 139 0 0 139 0 0 139 0 0 139 0 0 139 0 0 139 0 0 139 0 0 139 0 0 139 0 0 139 0 0 139 0 0 139 0 0 139 0 0 139 0 0 139 0 0 139 0 0 139 0 0 139 0 0 139 0 0 139 0 0 139 0 0 139 0 0 139 0 0 139 0 0 139 0 0 139 0 0 139 0 0 139 0 0 139 0 0 139 0 0 139 0 0 139 0 0 139 0 0 139 0 0 139 0 0 139 0 0 139 0 0 139 0 0 139 0 0 139 0 0 139 0 0 139 0 0 139 0 0 139 0 0 139 0 0 139 0 0 139 0 0 139 0 0 139 0 0 139 0 0 139 0 0 
139 0 0 139 0 0 139 0 0 143 7 8 139 0 0 139 0 0 139 0 0 139 0 0 143 7 8 139 0 0 139 0 0 143 7 8 143 7 8 143 7 8 143 7 8 143 7 8 139 0 0 139 0 0 139 0 0 139 0 0 139 0 0 139 0 0 139 0 0 139 0 0 139 0 0 139 0 0 139 0 0 139 0 0 139 0 0 139 0 0 139 0 0 139 0 0 139 0 0 139 0 0 139 0 0 139 0 0 139 0 0 139 0 0 139 0 0 139 0 0 139 0 0 139 0 0 139 0 0 139 0 0 139 0 0 139 0 0 139 0 0 139 0 0 139 0 0 139 0 0 139 0 0 139 0 0 139 0 0 139 0 0 139 0 0 139 0 0 139 0 0 139 0 0 139 0 0 139 0 0 139 0 0 139 0 0 139 0 0 139 0 0 139 0 0 139 0 0 139 0 0 139 0 0 139 0 0 139 0 0 139 0 0 139 0 0 139 0 0 139 0 0 139 0 0 139 0 0 139 0 0 139 0 0 139 0 0 139 0 0 139 0 0 139 0 0 139 0 0 139 0 0 139 0 0 139 0 0 139 0 0 139 0 0 139 0 0 139 0 0 139 0 0 139 0 0 139 0 0 139 0 0 139 0 0 139 0 0 139 0 0 139 0 0 139 0 0 139 0 0 139 0 0 139 0 0 139 0 0 139 0 0 139 0 0 139 0 0 139 0 0 139 0 0 139 0 0 139 0 0 139 0 0 139 0 0 139 0 0 139 0 0 139 0 0 139 0 0 139 0 0 139 0 0 139 0 0 139 0 0 139 0 0 139 0 0 139 0 0 139 0 0 139 0 0 139 0 0 139 0 0 139 0 0 139 0 0 139 0 0 139 0 0 139 0 0 139 0 0 139 0 0 139 0 0 139 0 0 139 0 0 139 0 0 139 0 0 139 0 0 139 0 0 139 0 0 139 0 0 139 0 0 139 0 0 139 0 0 139 0 0 139 0 0 139 0 0 139 0 0 139 0 0 139 0 0 139 0 0 139 0 0 139 0 0 139 0 0 139 0 0 139 0 0 139 0 0 139 0 0 139 0 0 139 0 0 139 0 0 139 0 0 139 0 0 139 0 0 139 0 0 139 0 0 139 0 0 139 0 0 139 0 0 139 0 0 139 0 0 139 0 0 139 0 0 139 0 0 139 0 0 139 0 0 139 0 0 139 0 0 139 0 0 139 0 0 139 0 0 139 0 0 139 0 0 139 0 0 139 0 0 139 0 0 139 0 0 139 0 0 139 0 0 139 0 0 139 0 0 139 0 0 139 0 0 139 0 0 139 0 0 139 0 0 139 0 0 139 0 0 139 0 0 139 0 0 139 0 0 139 0 0 139 0 0 139 0 0 139 0 0 139 0 0 139 0 0 139 0 0 139 0 0 139 0 0 139 0 0 139 0 0 139 0 0 139 0 0 139 0 0 139 0 0 139 0 0 139 0 0 
139 0 0 139 0 0 139 0 0 143 7 8 139 0 0 139 0 0 139 0 0 139 0 0 143 7 8 139 0 0 139 0 0 143 7 8 143 7 8 143 7 8 143 7 8 143 7 8 139 0 0 139 0 0 139 0 0 139 0 0 139 0 0 139 0 0 139 0 0 139 0 0 139 0 0 139 0 0 139 0 0 139 0 0 139 0 0 139 0 0 139 0 0 139 0 0 139 0 0 139 0 0 139 0 0 139 0 0 139 0 0 139 0 0 139 0 0 139 0 0 139 0 0 139 0 0 139 0 0 139 0 0 139 0 0 139 0 0 139 0 0 139 0 0 139 0 0 139 0 0 139 0 0 139 0 0 139 0 0 139 0 0 139 0 0 139 0 0 139 0 0 139 0 0 139 0 0 139 0 0 139 0 0 139 0 0 139 0 0 139 0 0 139 0 0 139 0 0 139 0 0 139 0 0 139 0 0 139 0 0 139 0 0 139 0 0 139 0 0 139 0 0 139 0 0 139 0 0 139 0 0 139 0 0 139 0 0 139 0 0 139 0 0 139 0 0 139 0 0 139 0 0 139 0 0 139 0 0 139 0 0 139 0 0 139 0 0 139 0 0 139 0 0 139 0 0 139 0 0 139 0 0 139 0 0 139 0 0 139 0 0 139 0 0 139 0 0 139 0 0 139 0 0 139 0 0 139 0 0 139 0 0 139 0 0 139 0 0 139 0 0 139 0 0 139 0 0 139 0 0 139 0 0 139 0 0 139 0 0 139 0 0 139 0 0 139 0 0 139 0 0 139 0 0 139 0 0 139 0 0 139 0 0 139 0 0 139 0 0 139 0 0 139 0 0 139 0 0 139 0 0 139 0 0 139 0 0 139 0 0 139 0 0 139 0 0 139 0 0 139 0 0 139 0 0 139 0 0 139 0 0 139 0 0 139 0 0 139 0 0 139 0 0 139 0 0 139 0 0 139 0 0 139 0 0 139 0 0 139 0 0 139 0 0 139 0 0 139 0 0 139 0 0 139 0 0 139 0 0 139 0 0 139 0 0 139 0 0 139 0 0 139 0 0 139 0 0 139 0 0 139 0 0 139 0 0 139 0 0 139 0 0 139 0 0 139 0 0 139 0 0 139 0 0 139 0 0 139 0 0 139 0 0 139 0 0 139 0 0 139 0 0 139 0 0 139 0 0 139 0 0 139 0 0 139 0 0 139 0 0 139 0 0 139 0 0 139 0 0 139 0 0 139 0 0 139 0 0 139 0 0 139 0 0 139 0 0 139 0 0 139 0 0 139 0 0 139 0 0 139 0 0 139 0 0 139 0 0 139 0 0 139 0 0 139 0 0 139 0 0 139 0 0 139 0 0 139 0 0 139 0 0 139 0 0 139 0 0 139 0 0 139 0 0 139 0 0 139 0 0 139 0 0 139 0 0 139 0 0 139 0 0 139 0 0 139 0 0 139 0 0 139 0 0 139 0 0 139 0 0 
139 0 0 143 7 8 139 0 0 139 0 0 143 7 8 139 0 0 139 0 0 139 0 0 143 7 8 139 0 0 143 7 8 139 0 0 139 0 0 139 0 0 139 0 0 143 7 8 139 0 0 139 0 0 143 7 8 143 7 8 139 0 0 139 0 0 139 0 0 139 0 0 139 0 0 139 0 0 139 0 0 143 7 8 139 0 0 139 0 0 139 0 0 143 7 8 139 0 0 139 0 0 139 0 0 139 0 0 139 0 0 139 0 0 139 0 0 139 0 0 139 0 0 139 0 0 139 0 0 139 0 0 139 0 0 139 0 0 139 0 0 139 0 0 139 0 0 139 0 0 139 0 0 139 0 0 139 0 0 139 0 0 139 0 0 139 0 0 139 0 0 139 0 0 139 0 0 139 0 0 139 0 0 139 0 0 139 0 0 139 0 0 139 0 0 139 0 0 139 0 0 139 0 0 139 0 0 139 0 0 139 0 0 139 0 0 139 0 0 139 0 0 139 0 0 139 0 0 139 0 0 139 0 0 139 0 0 139 0 0 139 0 0 139 0 0 139 0 0 139 0 0 139 0 0 139 0 0 139 0 0 139 0 0 139 0 0 139 0 0 139 0 0 139 0 0 139 0 0 139 0 0 139 0 0 139 0 0 139 0 0 139 0 0 139 0 0 139 0 0 139 0 0 139 0 0 139 0 0 139 0 0 139 0 0 139 0 0 139 0 0 139 0 0 139 0 0 139 0 0 139 0 0 139 0 0 139 0 0 139 0 0 139 0 0 139 0 0 139 0 0 139 0 0 139 0 0 139 0 0 139 0 0 139 0 0 139 0 0 139 0 0 139 0 0 139 0 0 139 0 0 139 0 0 139 0 0 139 0 0 139 0 0 139 0 0 139 0 0 139 0 0 139 0 0 139 0 0 139 0 0 139 0 0 139 0 0 139 0 0 139 0 0 139 0 0 139 0 0 139 0 0 139 0 0 139 0 0 139 0 0 139 0 0 139 0 0 139 0 0 139 0 0 139 0 0 139 0 0 139 0 0 139 0 0 139 0 0 139 0 0 139 0 0 139 0 0 139 0 0 139 0 0 139 0 0 139 0 0 139 0 0 139 0 0 139 0 0 139 0 0 139 0 0 139 0 0 139 0 0 139 0 0 139 0 0 139 0 0 139 0 0 139 0 0 139 0 0 139 0 0 139 0 0 139 0 0 139 0 0 139 0 0 139 0 0 139 0 0 139 0 0 139 0 0 139 0 0 139 0 0 139 0 0 139 0 0 139 0 0 139 0 0 139 0 0 139 0 0 139 0 0 139 0 0 139 0 0 139 0 0 139 0 0 139 0 0 139 0 0 139 0 0 139 0 0 139 0 0 139 0 0 139 0 0 139 0 0 139 0 0 139 0 0 139 0 0 139 0 0 139 0 0 139 0 0 139 0 0 139 0 0 139 0 0 139 0 0 139 0 0 139 0 0 139 0 0 139 0 0 
139 0 0 143 7 8 139 0 0 139 0 0 143 7 8 139 0 0 139 0 0 139 0 0 143 7 8 139 0 0 143 7 8 139 0 0 139 0 0 139 0 0 139 0 0 143 7 8 139 0 0 139 0 0 143 7 8 143 7 8 139 0 0 139 0 0 139 0 0 139 0 0 139 0 0 139 0 0 139 0 0 143 7 8 139 0 0 139 0 0 139 0 0 143 7 8 139 0 0 139 0 0 139 0 0 139 0 0 139 0 0 139 0 0 139 0 0 139 0 0 139 0 0 139 0 0 139 0 0 139 0 0 139 0 0 139 0 0 139 0 0 139 0 0 139 0 0 139 0 0 139 0 0 139 0 0 139 0 0 139 0 0 139 0 0 139 0 0 139 0 0 139 0 0 139 0 0 139 0 0 139 0 0 139 0 0 139 0 0 139 0 0 139 0 0 139 0 0 139 0 0 139 0 0 139 0 0 139 0 0 139 0 0 139 0 0 139 0 0 139 0 0 139 0 0 139 0 0 139 0 0 139 0 0 139 0 0 139 0 0 139 0 0 139 0 0 139 0 0 139 0 0 139 0 0 139 0 0 139 0 0 139 0 0 139 0 0 139 0 0 139 0 0 139 0 0 139 0 0 139 0 0 139 0 0 139 0 0 139 0 0 139 0 0 139 0 0 139 0 0 139 0 0 139 0 0 139 0 0 139 0 0 139 0 0 139 0 0 139 0 0 139 0 0 139 0 0 139 0 0 139 0 0 139 0 0 139 0 0 139 0 0 139 0 0 139 0 0 139 0 0 139 0 0 139 0 0 139 0 0 139 0 0 139 0 0 139 0 0 139 0 0 139 0 0 139 0 0 139 0 0 139 0 0 139 0 0 139 0 0 139 0 0 139 0 0 139 0 0 139 0 0 139 0 0 139 0 0 139 0 0 139 0 0 139 0 0 139 0 0 139 0 0 139 0 0 139 0 0 139 0 0 139 0 0 139 0 0 139 0 0 139 0 0 139 0 0 139 0 0 139 0 0 139 0 0 139 0 0 139 0 0 139 0 0 139 0 0 139 0 0 139 0 0 139 0 0 139 0 0 139 0 0 139 0 0 139 0 0 139 0 0 139 0 0 139 0 0 139 0 0 139 0 0 139 0 0 139 0 0 139 0 0 139 0 0 139 0 0 139 0 0 139 0 0 139 0 0 139 0 0 139 0 0 139 0 0 139 0 0 139 0 0 139 0 0 139 0 0 139 0 0 139 0 0 139 0 0 139 0 0 139 0 0 139 0 0 139 0 0 139 0 0 139 0 0 139 0 0 139 0 0 139 0 0 139 0 0 139 0 0 139 0 0 139 0 0 139 0 0 139 0 0 139 0 0 139 0 0 139 0 0 139 0 0 139 0 0 139 0 0 139 0 0 139 0 0 139 0 0 139 0 0 139 0 0 139 0 0 139 0 0 139 0 0 139 0 0 139 0 0 139 0 0 139 0 0 139 0 0 
143 7 8 139 0 0 143 7 8 139 0 0 139 0 0 143 7 8 139 0 0 139 0 0 139 0 0 143 7 8 143 7 8 139 0 0 139 0 0 139 0 0 139 0 0 139 0 0 139 0 0 139 0 0 139 0 0 139 0 0 139 0 0 143 7 8 143 7 8 143 7 8 139 0 0 143 7 8 139 0 0 139 0 0 143 7 8 139 0 0 139 0 0 139 0 0 143 7 8 139 0 0 139 0 0 139 0 0 143 7 8 139 0 0 139 0 0 139 0 0 139 0 0 139 0 0 139 0 0 139 0 0 139 0 0 139 0 0 143 7 8 139 0 0 139 0 0 139 0 0 139 0 0 139 0 0 139 0 0 139 0 0 139 0 0 139 0 0 139 0 0 139 0 0 139 0 0 139 0 0 139 0 0 139 0 0 139 0 0 139 0 0 139 0 0 139 0 0 139 0 0 139 0 0 139 0 0 139 0 0 139 0 0 139 0 0 139 0 0 139 0 0 139 0 0 139 0 0 139 0 0 139 0 0 139 0 0 139 0 0 139 0 0 139 0 0 139 0 0 139 0 0 139 0 0 139 0 0 139 0 0 139 0 0 139 0 0 139 0 0 139 0 0 139 0 0 139 0 0 139 0 0 139 0 0 139 0 0 139 0 0 139 0 0 139 0 0 139 0 0 139 0 0 139 0 0 139 0 0 139 0 0 139 0 0 139 0 0 139 0 0 139 0 0 139 0 0 139 0 0 139 0 0 139 0 0 139 0 0 139 0 0 139 0 0 139 0 0 139 0 0 139 0 0 139 0 0 139 0 0 139 0 0 139 0 0 139 0 0 139 0 0 139 0 0 139 0 0 139 0 0 139 0 0 139 0 0 139 0 0 139 0 0 139 0 0 139 0 0 139 0 0 139 0 0 139 0 0 139 0 0 139 0 0 139 0 0 139 0 0 139 0 0 139 0 0 139 0 0 139 0 0 139 0 0 139 0 0 139 0 0 139 0 0 139 0 0 139 0 0 139 0 0 139 0 0 139 0 0 139 0 0 139 0 0 139 0 0 139 0 0 139 0 0 139 0 0 139 0 0 139 0 0 139 0 0 139 0 0 139 0 0 139 0 0 139 0 0 139 0 0 139 0 0 139 0 0 139 0 0 139 0 0 139 0 0 139 0 0 139 0 0 139 0 0 139 0 0 139 0 0 139 0 0 139 0 0 139 0 0 139 0 0 139 0 0 139 0 0 139 0 0 139 0 0 139 0 0 139 0 0 139 0 0 139 0 0 139 0 0 139 0 0 139 0 0 139 0 0 139 0 0 139 0 0 139 0 0 139 0 0 139 0 0 139 0 0 139 0 0 139 0 0 139 0 0 139 0 0 139 0 0 139 0 0 139 0 0 139 0 0 139 0 0 139 0 0 139 0 0 139 0 0 139 0 0 139 0 0 139 0 0 139 0 0 139 0 0 139 0 0 139 0 0 139 0 0 139 0 0 
143 7 8 139 0 0 143 7 8 139 0 0 139 0 0 143 7 8 139 0 0 139 0 0 139 0 0 143 7 8 143 7 8 139 0 0 139 0 0 139 0 0 139 0 0 139 0 0 139 0 0 139 0 0 139 0 0 139 0 0 139 0 0 143 7 8 143 7 8 143 7 8 139 0 0 143 7 8 139 0 0 139 0 0 143 7 8 139 0 0 139 0 0 139 0 0 143 7 8 139 0 0 139 0 0 139 0 0 143 7 8 139 0 0 139 0 0 139 0 0 139 0 0 139 0 0 139 0 0 139 0 0 139 0 0 139 0 0 143 7 8 139 0 0 139 0 0 139 0 0 139 0 0 139 0 0 139 0 0 139 0 0 139 0 0 139 0 0 139 0 0 139 0 0 139 0 0 139 0 0 139 0 0 139 0 0 139 0 0 139 0 0 139 0 0 139 0 0 139 0 0 139 0 0 139 0 0 139 0 0 139 0 0 139 0 0 139 0 0 139 0 0 139 0 0 139 0 0 139 0 0 139 0 0 139 0 0 139 0 0 139 0 0 139 0 0 139 0 0 139 0 0 139 0 0 139 0 0 139 0 0 139 0 0 139 0 0 139 0 0 139 0 0 139 0 0 139 0 0 139 0 0 139 0 0 139 0 0 139 0 0 139 0 0 139 0 0 139 0 0 139 0 0 139 0 0 139 0 0 139 0 0 139 0 0 139 0 0 139 0 0 139 0 0 139 0 0 139 0 0 139 0 0 139 0 0 139 0 0 139 0 0 139 0 0 139 0 0 139 0 0 139 0 0 139 0 0 139 0 0 139 0 0 139 0 0 139 0 0 139 0 0 139 0 0 139 0 0 139 0 0 139 0 0 139 0 0 139 0 0 139 0 0 139 0 0 139 0 0 139 0 0 139 0 0 139 0 0 139 0 0 139 0 0 139 0 0 139 0 0 139 0 0 139 0 0 139 0 0 139 0 0 139 0 0 139 0 0 139 0 0 139 0 0 139 0 0 139 0 0 139 0 0 139 0 0 139 0 0 139 0 0 139 0 0 139 0 0 139 0 0 139 0 0 139 0 0 139 0 0 139 0 0 139 0 0 139 0 0 139 0 0 139 0 0 139 0 0 139 0 0 139 0 0 139 0 0 139 0 0 139 0 0 139 0 0 139 0 0 139 0 0 139 0 0 139 0 0 139 0 0 139 0 0 139 0 0 139 0 0 139 0 0 139 0 0 139 0 0 139 0 0 139 0 0 139 0 0 139 0 0 139 0 0 139 0 0 139 0 0 139 0 0 139 0 0 139 0 0 139 0 0 139 0 0 139 0 0 139 0 0 139 0 0 139 0 0 139 0 0 139 0 0 139 0 0 139 0 0 139 0 0 139 0 0 139 0 0 139 0 0 139 0 0 139 0 0 139 0 0 139 0 0 139 0 0 139 0 0 139 0 0 139 0 0 139 0 0 139 0 0 139 0 0 139 0 0 139 0 0 
139 0 0 139 0 0 139 0 0 139 0 0 139 0 0 143 7 8 139 0 0 143 7 8 143 7 8 139 0 0 139 0 0 143 7 8 139 0 0 139 0 0 139 0 0 139 0 0 139 0 0 139 0 0 139 0 0 139 0 0 139 0 0 139 0 0 143 7 8 139 0 0 139 0 0 139 0 0 139 0 0 139 0 0 139 0 0 139 0 0 139 0 0 139 0 0 139 0 0 139 0 0 139 0 0 139 0 0 139 0 0 139 0 0 139 0 0 139 0 0 139 0 0 139 0 0 139 0 0 139 0 0 139 0 0 139 0 0 139 0 0 139 0 0 139 0 0 139 0 0 139 0 0 139 0 0 139 0 0 139 0 0 139 0 0 139 0 0 139 0 0 139 0 0 139 0 0 139 0 0 139 0 0 139 0 0 139 0 0 139 0 0 139 0 0 139 0 0 139 0 0 139 0 0 139 0 0 139 0 0 139 0 0 139 0 0 139 0 0 139 0 0 139 0 0 139 0 0 139 0 0 139 0 0 139 0 0 139 0 0 139 0 0 139 0 0 139 0 0 139 0 0 139 0 0 139 0 0 139 0 0 139 0 0 139 0 0 139 0 0 139 0 0 139 0 0 139 0 0 139 0 0 139 0 0 139 0 0 139 0 0 139 0 0 139 0 0 139 0 0 139 0 0 139 0 0 139 0 0 139 0 0 139 0 0 139 0 0 139 0 0 139 0 0 139 0 0 139 0 0 139 0 0 139 0 0 139 0 0 139 0 0 139 0 0 139 0 0 139 0 0 139 0 0 139 0 0 139 0 0 139 0 0 139 0 0 139 0 0 139 0 0 139 0 0 139 0 0 139 0 0 139 0 0 139 0 0 139 0 0 139 0 0 139 0 0 139 0 0 139 0 0 139 0 0 139 0 0 139 0 0 139 0 0 139 0 0 139 0 0 139 0 0 139 0 0 139 0 0 139 0 0 139 0 0 139 0 0 139 0 0 139 0 0 139 0 0 139 0 0 139 0 0 139 0 0 139 0 0 139 0 0 139 0 0 139 0 0 139 0 0 139 0 0 139 0 0 139 0 0 139 0 0 139 0 0 139 0 0 139 0 0 139 0 0 139 0 0 139 0 0 139 0 0 139 0 0 139 0 0 139 0 0 139 0 0 139 0 0 139 0 0 139 0 0 139 0 0 139 0 0 139 0 0 139 0 0 139 0 0 139 0 0 139 0 0 139 0 0 139 0 0 139 0 0 139 0 0 139 0 0 139 0 0 139 0 0 139 0 0 139 0 0 139 0 0 139 0 0 139 0 0 139 0 0 139 0 0 139 0 0 139 0 0 139 0 0 139 0 0 139 0 0 139 0 0 139 0 0 139 0 0 139 0 0 139 0 0 139 0 0 139 0 0 139 0 0 139 0 0 139 0 0 139 0 0 139 0 0 139 0 0 139 0 0 139 0 0 139 0 0 139 0 0 139 0 0 139 0 0 
139 0 0 139 0 0 139 0 0 139 0 0 139 0 0 143 7 8 139 0 0 143 7 8 143 7 8 139 0 0 139 0 0 143 7 8 139 0 0 139 0 0 139 0 0 139 0 0 139 0 0 139 0 0 139 0 0 139 0 0 139 0 0 139 0 0 143 7 8 139 0 0 139 0 0 139 0 0 139 0 0 139 0 0 139 0 0 139 0 0 139 0 0 139 0 0 139 0 0 139 0 0 139 0 0 139 0 0 139 0 0 139 0 0 139 0 0 139 0 0 139 0 0 139 0 0 139 0 0 139 0 0 139 0 0 139 0 0 139 0 0 139 0 0 139 0 0 139 0 0 139 0 0 139 0 0 139 0 0 139 0 0 139 0 0 139 0 0 139 0 0 139 0 0 139 0 0 139 0 0 139 0 0 139 0 0 139 0 0 139 0 0 139 0 0 139 0 0 139 0 0 139 0 0 139 0 0 139 0 0 139 0 0 139 0 0 139 0 0 139 0 0 139 0 0 139 0 0 139 0 0 139 0 0 139 0 0 139 0 0 139 0 0 139 0 0 139 0 0 139 0 0 139 0 0 139 0 0 139 0 0 139 0 0 139 0 0 139 0 0 139 0 0 139 0 0 139 0 0 139 0 0 139 0 0 139 0 0 139 0 0 139 0 0 139 0 0 139 0 0 139 0 0 139 0 0 139 0 0 139 0 0 139 0 0 139 0 0 139 0 0 139 0 0 139 0 0 139 0 0 139 0 0 139 0 0 139 0 0 139 0 0 139 0 0 139 0 0 139 0 0 139 0 0 139 0 0 139 0 0 139 0 0 139 0 0 139 0 0 139 0 0 139 0 0 139 0 0 139 0 0 139 0 0 139 0 0 139 0 0 139 0 0 139 0 0 139 0 0 139 0 0 139 0 0 139 0 0 139 0 0 139 0 0 139 0 0 139 0 0 139 0 0 139 0 0 139 0 0 139 0 0 139 0 0 139 0 0 139 0 0 139 0 0 139 0 0 139 0 0 139 0 0 139 0 0 139 0 0 139 0 0 139 0 0 139 0 0 139 0 0 139 0 0 139 0 0 139 0 0 139 0 0 139 0 0 139 0 0 139 0 0 139 0 0 139 0 0 139 0 0 139 0 0 139 0 0 139 0 0 139 0 0 139 0 0 139 0 0 139 0 0 139 0 0 139 0 0 139 0 0 139 0 0 139 0 0 139 0 0 139 0 0 139 0 0 139 0 0 139 0 0 139 0 0 139 0 0 139 0 0 139 0 0 139 0 0 139 0 0 139 0 0 139 0 0 139 0 0 139 0 0 139 0 0 139 0 0 139 0 0 139 0 0 139 0 0 139 0 0 139 0 0 139 0 0 139 0 0 139 0 0 139 0 0 139 0 0 139 0 0 139 0 0 139 0 0 139 0 0 139 0 0 139 0 0 139 0 0 139 0 0 139 0 0 139 0 0 139 0 0 139 0 0 139 0 0 139 0 0 
139 0 0 139 0 0 139 0 0 139 0 0 139 0 0 139 0 0 139 0 0 139 0 0 143 7 8 139 0 0 139 0 0 139 0 0 143 7 8 143 7 8 139 0 0 139 0 0 139 0 0 143 7 8 139 0 0 139 0 0 139 0 0 139 0 0 139 0 0 139 0 0 139 0 0 139 0 0 139 0 0 139 0 0 139 0 0 139 0 0 139 0 0 139 0 0 139 0 0 139 0 0 139 0 0 139 0 0 139 0 0 139 0 0 139 0 0 139 0 0 139 0 0 139 0 0 139 0 0 139 0 0 139 0 0 139 0 0 139 0 0 139 0 0 139 0 0 139 0 0 139 0 0 139 0 0 139 0 0 139 0 0 139 0 0 139 0 0 139 0 0 139 0 0 139 0 0 139 0 0 139 0 0 139 0 0 139 0 0 139 0 0 139 0 0 139 0 0 139 0 0 139 0 0 139 0 0 139 0 0 139 0 0 139 0 0 139 0 0 139 0 0 139 0 0 139 0 0 139 0 0 139 0 0 139 0 0 139 0 0 139 0 0 139 0 0 139 0 0 139 0 0 139 0 0 139 0 0 139 0 0 139 0 0 139 0 0 139 0 0 139 0 0 139 0 0 139 0 0 139 0 0 139 0 0 139 0 0 139 0 0 139 0 0 139 0 0 139 0 0 139 0 0 139 0 0 139 0 0 139 0 0 139 0 0 139 0 0 139 0 0 139 0 0 139 0 0 139 0 0 139 0 0 139 0 0 139 0 0 139 0 0 139 0 0 139 0 0 139 0 0 139 0 0 139 0 0 139 0 0 139 0 0 139 0 0 139 0 0 139 0 0 139 0 0 139 0 0 139 0 0 139 0 0 139 0 0 139 0 0 139 0 0 139 0 0 139 0 0 139 0 0 139 0 0 139 0 0 139 0 0 139 0 0 139 0 0 139 0 0 139 0 0 139 0 0 139 0 0 139 0 0 139 0 0 139 0 0 139 0 0 139 0 0 139 0 0 139 0 0 139 0 0 139 0 0 139 0 0 139 0 0 139 0 0 139 0 0 139 0 0 139 0 0 139 0 0 139 0 0 139 0 0 139 0 0 139 0 0 139 0 0 139 0 0 139 0 0 139 0 0 139 0 0 139 0 0 139 0 0 139 0 0 139 0 0 139 0 0 139 0 0 139 0 0 139 0 0 139 0 0 139 0 0 139 0 0 139 0 0 139 0 0 139 0 0 139 0 0 139 0 0 139 0 0 139 0 0 139 0 0 139 0 0 139 0 0 139 0 0 139 0 0 139 0 0 139 0 0 139 0 0 139 0 0 139 0 0 139 0 0 139 0 0 139 0 0 139 0 0 139 0 0 139 0 0 139 0 0 139 0 0 139 0 0 139 0 0 139 0 0 139 0 0 139 0 0 139 0 0 139 0 0 139 0 0 139 0 0 139 0 0 139 0 0 139 0 0 139 0 0 139 0 0 139 0 0 139 0 0 
139 0 0 139 0 0 139 0 0 139 0 0 139 0 0 139 0 0 139 0 0 139 0 0 143 7 8 139 0 0 139 0 0 139 0 0 143 7 8 143 7 8 139 0 0 139 0 0 139 0 0 143 7 8 139 0 0 139 0 0 139 0 0 139 0 0 139 0 0 139 0 0 139 0 0 139 0 0 139 0 0 139 0 0 139 0 0 139 0 0 139 0 0 139 0 0 139 0 0 139 0 0 139 0 0 139 0 0 139 0 0 139 0 0 139 0 0 139 0 0 139 0 0 139 0 0 139 0 0 139 0 0 139 0 0 139 0 0 139 0 0 139 0 0 139 0 0 139 0 0 139 0 0 139 0 0 139 0 0 139 0 0 139 0 0 139 0 0 139 0 0 139 0 0 139 0 0 139 0 0 139 0 0 139 0 0 139 0 0 139 0 0 139 0 0 139 0 0 139 0 0 139 0 0 139 0 0 139 0 0 139 0 0 139 0 0 139 0 0 139 0 0 139 0 0 139 0 0 139 0 0 139 0 0 139 0 0 139 0 0 139 0 0 139 0 0 139 0 0 139 0 0 139 0 0 139 0 0 139 0 0 139 0 0 139 0 0 139 0 0 139 0 0 139 0 0 139 0 0 139 0 0 139 0 0 139 0 0 139 0 0 139 0 0 139 0 0 139 0 0 139 0 0 139 0 0 139 0 0 139 0 0 139 0 0 139 0 0 139 0 0 139 0 0 139 0 0 139 0 0 139 0 0 139 0 0 139 0 0 139 0 0 139 0 0 139 0 0 139 0 0 139 0 0 139 0 0 139 0 0 139 0 0 139 0 0 139 0 0 139 0 0 139 0 0 139 0 0 139 0 0 139 0 0 139 0 0 139 0 0 139 0 0 139 0 0 139 0 0 139 0 0 139 0 0 139 0 0 139 0 0 139 0 0 139 0 0 139 0 0 139 0 0 139 0 0 139 0 0 139 0 0 139 0 0 139 0 0 139 0 0 139 0 0 139 0 0 139 0 0 139 0 0 139 0 0 139 0 0 139 0 0 139 0 0 139 0 0 139 0 0 139 0 0 139 0 0 139 0 0 139 0 0 139 0 0 139 0 0 139 0 0 139 0 0 139 0 0 139 0 0 139 0 0 139 0 0 139 0 0 139 0 0 139 0 0 139 0 0 139 0 0 139 0 0 139 0 0 139 0 0 139 0 0 139 0 0 139 0 0 139 0 0 139 0 0 139 0 0 139 0 0 139 0 0 139 0 0 139 0 0 139 0 0 139 0 0 139 0 0 139 0 0 139 0 0 139 0 0 139 0 0 139 0 0 139 0 0 139 0 0 139 0 0 139 0 0 139 0 0 139 0 0 139 0 0 139 0 0 139 0 0 139 0 0 139 0 0 139 0 0 139 0 0 139 0 0 139 0 0 139 0 0 139 0 0 139 0 0 139 0 0 139 0 0 139 0 0 139 0 0 139 0 0 139 0 0 139 0 0 
139 0 0 139 0 0 139 0 0 139 0 0 139 0 0 143 7 8 143 7 8 139 0 0 139 0 0 139 0 0 139 0 0 139 0 0 139 0 0 139 0 0 139 0 0 143 7 8 139 0 0 139 0 0 143 7 8 139 0 0 139 0 0 139 0 0 139 0 0 139 0 0 139 0 0 139 0 0 139 0 0 139 0 0 139 0 0 139 0 0 139 0 0 139 0 0 139 0 0 139 0 0 139 0 0 139 0 0 139 0 0 143 7 8 139 0 0 139 0 0 139 0 0 139 0 0 139 0 0 139 0 0 139 0 0 139 0 0 139 0 0 139 0 0 139 0 0 139 0 0 139 0 0 139 0 0 139 0 0 139 0 0 139 0 0 139 0 0 139 0 0 139 0 0 139 0 0 139 0 0 139 0 0 139 0 0 139 0 0 139 0 0 139 0 0 139 0 0 139 0 0 139 0 0 139 0 0 139 0 0 139 0 0 139 0 0 139 0 0 139 0 0 139 0 0 139 0 0 139 0 0 139 0 0 139 0 0 139 0 0 139 0 0 139 0 0 139 0 0 139 0 0 139 0 0 139 0 0 139 0 0 139 0 0 139 0 0 139 0 0 139 0 0 139 0 0 139 0 0 139 0 0 139 0 0 139 0 0 139 0 0 139 0 0 139 0 0 139 0 0 139 0 0 139 0 0 139 0 0 139 0 0 139 0 0 139 0 0 139 0 0 139 0 0 139 0 0 139 0 0 139 0 0 139 0 0 139 0 0 139 0 0 139 0 0 139 0 0 139 0 0 139 0 0 139 0 0 139 0 0 139 0 0 139 0 0 139 0 0 139 0 0 139 0 0 139 0 0 139 0 0 139 0 0 139 0 0 139 0 0 139 0 0 139 0 0 139 0 0 139 0 0 139 0 0 139 0 0 139 0 0 139 0 0 139 0 0 139 0 0 139 0 0 139 0 0 139 0 0 139 0 0 139 0 0 139 0 0 139 0 0 139 0 0 139 0 0 139 0 0 139 0 0 139 0 0 139 0 0 139 0 0 139 0 0 139 0 0 139 0 0 139 0 0 139 0 0 139 0 0 139 0 0 139 0 0 139 0 0 139 0 0 139 0 0 139 0 0 139 0 0 139 0 0 139 0 0 139 0 0 139 0 0 139 0 0 139 0 0 139 0 0 139 0 0 139 0 0 139 0 0 139 0 0 139 0 0 139 0 0 139 0 0 139 0 0 139 0 0 139 0 0 139 0 0 139 0 0 139 0 0 139 0 0 139 0 0 139 0 0 139 0 0 139 0 0 139 0 0 139 0 0 139 0 0 139 0 0 139 0 0 139 0 0 139 0 0 139 0 0 139 0 0 139 0 0 139 0 0 139 0 0 139 0 0 139 0 0 139 0 0 139 0 0 139 0 0 139 0 0 139 0 0 139 0 0 139 0 0 139 0 0 139 0 0 139 0 0 139 0 0 139 0 0 139 0 0 139 0 0 
139 0 0 139 0 0 139 0 0 139 0 0 139 0 0 143 7 8 143 7 8 139 0 0 139 0 0 139 0 0 139 0 0 139 0 0 139 0 0 139 0 0 139 0 0 143 7 8 139 0 0 139 0 0 143 7 8 139 0 0 139 0 0 139 0 0 139 0 0 139 0 0 139 0 0 139 0 0 139 0 0 139 0 0 139 0 0 139 0 0 139 0 0 139 0 0 139 0 0 139 0 0 139 0 0 139 0 0 139 0 0 143 7 8 139 0 0 139 0 0 139 0 0 139 0 0 139 0 0 139 0 0 139 0 0 139 0 0 139 0 0 139 0 0 139 0 0 139 0 0 139 0 0 139 0 0 139 0 0 139 0 0 139 0 0 139 0 0 139 0 0 139 0 0 139 0 0 139 0 0 139 0 0 139 0 0 139 0 0 139 0 0 139 0 0 139 0 0 139 0 0 139 0 0 139 0 0 139 0 0 139 0 0 139 0 0 139 0 0 139 0 0 139 0 0 139 0 0 139 0 0 139 0 0 139 0 0 139 0 0 139 0 0 139 0 0 139 0 0 139 0 0 139 0 0 139 0 0 139 0 0 139 0 0 139 0 0 139 0 0 139 0 0 139 0 0 139 0 0 139 0 0 139 0 0 139 0 0 139 0 0 139 0 0 139 0 0 139 0 0 139 0 0 139 0 0 139 0 0 139 0 0 139 0 0 139 0 0 139 0 0 139 0 0 139 0 0 139 0 0 139 0 0 139 0 0 139 0 0 139 0 0 139 0 0 139 0 0 139 0 0 139 0 0 139 0 0 139 0 0 139 0 0 139 0 0 139 0 0 139 0 0 139 0 0 139 0 0 139 0 0 139 0 0 139 0 0 139 0 0 139 0 0 139 0 0 139 0 0 139 0 0 139 0 0 139 0 0 139 0 0 139 0 0 139 0 0 139 0 0 139 0 0 139 0 0 139 0 0 139 0 0 139 0 0 139 0 0 139 0 0 139 0 0 139 0 0 139 0 0 139 0 0 139 0 0 139 0 0 139 0 0 139 0 0 139 0 0 139 0 0 139 0 0 139 0 0 139 0 0 139 0 0 139 0 0 139 0 0 139 0 0 139 0 0 139 0 0 139 0 0 139 0 0 139 0 0 139 0 0 139 0 0 139 0 0 139 0 0 139 0 0 139 0 0 139 0 0 139 0 0 139 0 0 139 0 0 139 0 0 139 0 0 139 0 0 139 0 0 139 0 0 139 0 0 139 0 0 139 0 0 139 0 0 139 0 0 139 0 0 139 0 0 139 0 0 139 0 0 139 0 0 139 0 0 139 0 0 139 0 0 139 0 0 139 0 0 139 0 0 139 0 0 139 0 0 139 0 0 139 0 0 139 0 0 139 0 0 139 0 0 139 0 0 139 0 0 139 0 0 139 0 0 139 0 0 139 0 0 139 0 0 139 0 0 139 0 0 139 0 0 139 0 0 139 0 0 139 0 0 
139 0 0 139 0 0 139 0 0 139 0 0 139 0 0 143 7 8 143 7 8 139 0 0 139 0 0 139 0 0 139 0 0 139 0 0 139 0 0 139 0 0 139 0 0 139 0 0 139 0 0 139 0 0 139 0 0 139 0 0 139 0 0 139 0 0 143 7 8 139 0 0 139 0 0 139 0 0 139 0 0 139 0 0 139 0 0 139 0 0 139 0 0 139 0 0 139 0 0 139 0 0 139 0 0 139 0 0 139 0 0 139 0 0 139 0 0 139 0 0 139 0 0 139 0 0 139 0 0 139 0 0 139 0 0 139 0 0 139 0 0 139 0 0 139 0 0 139 0 0 139 0 0 139 0 0 139 0 0 139 0 0 139 0 0 139 0 0 139 0 0 139 0 0 139 0 0 139 0 0 139 0 0 139 0 0 139 0 0 139 0 0 139 0 0 139 0 0 139 0 0 139 0 0 139 0 0 139 0 0 139 0 0 139 0 0 139 0 0 139 0 0 139 0 0 139 0 0 139 0 0 139 0 0 139 0 0 139 0 0 139 0 0 139 0 0 139 0 0 139 0 0 139 0 0 139 0 0 139 0 0 139 0 0 139 0 0 139 0 0 139 0 0 139 0 0 139 0 0 139 0 0 139 0 0 139 0 0 139 0 0 139 0 0 139 0 0 139 0 0 139 0 0 139 0 0 139 0 0 139 0 0 139 0 0 139 0 0 139 0 0 139 0 0 139 0 0 139 0 0 139 0 0 139 0 0 139 0 0 139 0 0 139 0 0 139 0 0 139 0 0 139 0 0 139 0 0 139 0 0 139 0 0 139 0 0 139 0 0 139 0 0 139 0 0 139 0 0 139 0 0 139 0 0 139 0 0 139 0 0 139 0 0 139 0 0 139 0 0 139 0 0 139 0 0 139 0 0 139 0 0 139 0 0 139 0 0 139 0 0 139 0 0 139 0 0 139 0 0 139 0 0 139 0 0 139 0 0 139 0 0 139 0 0 139 0 0 139 0 0 139 0 0 139 0 0 139 0 0 139 0 0 139 0 0 139 0 0 139 0 0 139 0 0 139 0 0 139 0 0 139 0 0 139 0 0 139 0 0 139 0 0 139 0 0 139 0 0 139 0 0 139 0 0 139 0 0 139 0 0 139 0 0 139 0 0 139 0 0 139 0 0 139 0 0 139 0 0 139 0 0 139 0 0 139 0 0 139 0 0 139 0 0 139 0 0 139 0 0 139 0 0 139 0 0 139 0 0 139 0 0 139 0 0 139 0 0 139 0 0 139 0 0 139 0 0 139 0 0 139 0 0 139 0 0 139 0 0 139 0 0 139 0 0 139 0 0 139 0 0 139 0 0 139 0 0 139 0 0 139 0 0 139 0 0 139 0 0 139 0 0 139 0 0 139 0 0 139 0 0 139 0 0 139 0 0 139 0 0 139 0 0 139 0 0 139 0 0 139 0 0 139 0 0 139 0 0 139 0 0 
139 0 0 139 0 0 139 0 0 139 0 0 139 0 0 143 7 8 143 7 8 139 0 0 139 0 0 139 0 0 139 0 0 139 0 0 139 0 0 139 0 0 139 0 0 139 0 0 139 0 0 139 0 0 139 0 0 139 0 0 139 0 0 139 0 0 143 7 8 139 0 0 139 0 0 139 0 0 139 0 0 139 0 0 139 0 0 139 0 0 139 0 0 139 0 0 139 0 0 139 0 0 139 0 0 139 0 0 139 0 0 139 0 0 139 0 0 139 0 0 139 0 0 139 0 0 139 0 0 139 0 0 139 0 0 139 0 0 139 0 0 139 0 0 139 0 0 139 0 0 139 0 0 139 0 0 139 0 0 139 0 0 139 0 0 139 0 0 139 0 0 139 0 0 139 0 0 139 0 0 139 0 0 139 0 0 139 0 0 139 0 0 139 0 0 139 0 0 139 0 0 139 0 0 139 0 0 139 0 0 139 0 0 139 0 0 139 0 0 139 0 0 139 0 0 139 0 0 139 0 0 139 0 0 139 0 0 139 0 0 139 0 0 139 0 0 139 0 0 139 0 0 139 0 0 139 0 0 139 0 0 139 0 0 139 0 0 139 0 0 139 0 0 139 0 0 139 0 0 139 0 0 139 0 0 139 0 0 139 0 0 139 0 0 139 0 0 139 0 0 139 0 0 139 0 0 139 0 0 139 0 0 139 0 0 139 0 0 139 0 0 139 0 0 139 0 0 139 0 0 139 0 0 139 0 0 139 0 0 139 0 0 139 0 0 139 0 0 139 0 0 139 0 0 139 0 0 139 0 0 139 0 0 139 0 0 139 0 0 139 0 0 139 0 0 139 0 0 139 0 0 139 0 0 139 0 0 139 0 0 139 0 0 139 0 0 139 0 0 139 0 0 139 0 0 139 0 0 139 0 0 139 0 0 139 0 0 139 0 0 139 0 0 139 0 0 139 0 0 139 0 0 139 0 0 139 0 0 139 0 0 139 0 0 139 0 0 139 0 0 139 0 0 139 0 0 139 0 0 139 0 0 139 0 0 139 0 0 139 0 0 139 0 0 139 0 0 139 0 0 139 0 0 139 0 0 139 0 0 139 0 0 139 0 0 139 0 0 139 0 0 139 0 0 139 0 0 139 0 0 139 0 0 139 0 0 139 0 0 139 0 0 139 0 0 139 0 0 139 0 0 139 0 0 139 0 0 139 0 0 139 0 0 139 0 0 139 0 0 139 0 0 139 0 0 139 0 0 139 0 0 139 0 0 139 0 0 139 0 0 139 0 0 139 0 0 139 0 0 139 0 0 139 0 0 139 0 0 139 0 0 139 0 0 139 0 0 139 0 0 139 0 0 139 0 0 139 0 0 139 0 0 139 0 0 139 0 0 139 0 0 139 0 0 139 0 0 139 0 0 139 0 0 139 0 0 139 0 0 139 0 0 139 0 0 139 0 0 139 0 0 139 0 0 139 0 0 139 0 0 
139 0 0 139 0 0 139 0 0 139 0 0 139 0 0 143 7 8 139 0 0 139 0 0 139 0 0 143 7 8 139 0 0 139 0 0 139 0 0 139 0 0 139 0 0 143 7 8 139 0 0 139 0 0 139 0 0 139 0 0 139 0 0 139 0 0 143 7 8 139 0 0 139 0 0 143 7 8 139 0 0 139 0 0 139 0 0 139 0 0 139 0 0 139 0 0 139 0 0 139 0 0 139 0 0 139 0 0 139 0 0 143 7 8 139 0 0 139 0 0 139 0 0 139 0 0 139 0 0 139 0 0 139 0 0 139 0 0 139 0 0 139 0 0 139 0 0 139 0 0 139 0 0 139 0 0 139 0 0 139 0 0 139 0 0 143 7 8 139 0 0 139 0 0 139 0 0 139 0 0 139 0 0 139 0 0 139 0 0 139 0 0 139 0 0 139 0 0 139 0 0 139 0 0 139 0 0 139 0 0 139 0 0 139 0 0 139 0 0 139 0 0 139 0 0 139 0 0 139 0 0 139 0 0 139 0 0 139 0 0 139 0 0 139 0 0 139 0 0 139 0 0 139 0 0 139 0 0 139 0 0 139 0 0 139 0 0 139 0 0 139 0 0 139 0 0 139 0 0 139 0 0 139 0 0 139 0 0 139 0 0 139 0 0 139 0 0 139 0 0 139 0 0 139 0 0 139 0 0 139 0 0 139 0 0 139 0 0 139 0 0 139 0 0 139 0 0 139 0 0 139 0 0 139 0 0 139 0 0 139 0 0 139 0 0 139 0 0 139 0 0 139 0 0 139 0 0 139 0 0 139 0 0 139 0 0 139 0 0 139 0 0 139 0 0 139 0 0 139 0 0 139 0 0 139 0 0 139 0 0 139 0 0 139 0 0 139 0 0 139 0 0 139 0 0 139 0 0 139 0 0 139 0 0 139 0 0 139 0 0 139 0 0 139 0 0 139 0 0 139 0 0 139 0 0 139 0 0 139 0 0 139 0 0 139 0 0 139 0 0 139 0 0 139 0 0 139 0 0 139 0 0 139 0 0 139 0 0 139 0 0 139 0 0 139 0 0 139 0 0 139 0 0 139 0 0 139 0 0 139 0 0 139 0 0 139 0 0 139 0 0 139 0 0 139 0 0 139 0 0 139 0 0 139 0 0 139 0 0 139 0 0 139 0 0 139 0 0 139 0 0 139 0 0 139 0 0 139 0 0 139 0 0 139 0 0 139 0 0 139 0 0 139 0 0 139 0 0 139 0 0 139 0 0 139 0 0 139 0 0 139 0 0 139 0 0 139 0 0 139 0 0 139 0 0 139 0 0 139 0 0 139 0 0 139 0 0 139 0 0 139 0 0 139 0 0 139 0 0 139 0 0 139 0 0 139 0 0 139 0 0 139 0 0 139 0 0 139 0 0 139 0 0 139 0 0 139 0 0 139 0 0 139 0 0 139 0 0 139 0 0 139 0 0 139 0 0 139 0 0 
139 0 0 139 0 0 139 0 0 139 0 0 139 0 0 143 7 8 139 0 0 139 0 0 139 0 0 143 7 8 139 0 0 139 0 0 139 0 0 139 0 0 139 0 0 143 7 8 139 0 0 139 0 0 139 0 0 139 0 0 139 0 0 139 0 0 143 7 8 139 0 0 139 0 0 143 7 8 139 0 0 139 0 0 139 0 0 139 0 0 139 0 0 139 0 0 139 0 0 139 0 0 139 0 0 139 0 0 139 0 0 143 7 8 139 0 0 139 0 0 139 0 0 139 0 0 139 0 0 139 0 0 139 0 0 139 0 0 139 0 0 139 0 0 139 0 0 139 0 0 139 0 0 139 0 0 139 0 0 139 0 0 139 0 0 143 7 8 139 0 0 139 0 0 139 0 0 139 0 0 139 0 0 139 0 0 139 0 0 139 0 0 139 0 0 139 0 0 139 0 0 139 0 0 139 0 0 139 0 0 139 0 0 139 0 0 139 0 0 139 0 0 139 0 0 139 0 0 139 0 0 139 0 0 139 0 0 139 0 0 139 0 0 139 0 0 139 0 0 139 0 0 139 0 0 139 0 0 139 0 0 139 0 0 139 0 0 139 0 0 139 0 0 139 0 0 139 0 0 139 0 0 139 0 0 139 0 0 139 0 0 139 0 0 139 0 0 139 0 0 139 0 0 139 0 0 139 0 0 139 0 0 139 0 0 139 0 0 139 0 0 139 0 0 139 0 0 139 0 0 139 0 0 139 0 0 139 0 0 139 0 0 139 0 0 139 0 0 139 0 0 139 0 0 139 0 0 139 0 0 139 0 0 139 0 0 139 0 0 139 0 0 139 0 0 139 0 0 139 0 0 139 0 0 139 0 0 139 0 0 139 0 0 139 0 0 139 0 0 139 0 0 139 0 0 139 0 0 139 0 0 139 0 0 139 0 0 139 0 0 139 0 0 139 0 0 139 0 0 139 0 0 139 0 0 139 0 0 139 0 0 139 0 0 139 0 0 139 0 0 139 0 0 139 0 0 139 0 0 139 0 0 139 0 0 139 0 0 139 0 0 139 0 0 139 0 0 139 0 0 139 0 0 139 0 0 139 0 0 139 0 0 139 0 0 139 0 0 139 0 0 139 0 0 139 0 0 139 0 0 139 0 0 139 0 0 139 0 0 139 0 0 139 0 0 139 0 0 139 0 0 139 0 0 139 0 0 139 0 0 139 0 0 139 0 0 139 0 0 139 0 0 139 0 0 139 0 0 139 0 0 139 0 0 139 0 0 139 0 0 139 0 0 139 0 0 139 0 0 139 0 0 139 0 0 139 0 0 139 0 0 139 0 0 139 0 0 139 0 0 139 0 0 139 0 0 139 0 0 139 0 0 139 0 0 139 0 0 139 0 0 139 0 0 139 0 0 139 0 0 139 0 0 139 0 0 139 0 0 139 0 0 139 0 0 139 0 0 139 0 0 139 0 0 139 0 0 139 0 0 
139 0 0 139 0 0 139 0 0 139 0 0 139 0 0 139 0 0 139 0 0 139 0 0 139 0 0 139 0 0 139 0 0 139 0 0 143 7 8 139 0 0 139 0 0 139 0 0 139 0 0 143 7 8 143 7 8 143 7 8 139 0 0 139 0 0 139 0 0 139 0 0 139 0 0 143 7 8 139 0 0 139 0 0 139 0 0 139 0 0 139 0 0 139 0 0 139 0 0 143 7 8 139 0 0 139 0 0 139 0 0 139 0 0 139 0 0 139 0 0 139 0 0 139 0 0 139 0 0 139 0 0 139 0 0 139 0 0 139 0 0 139 0 0 139 0 0 139 0 0 139 0 0 139 0 0 139 0 0 139 0 0 139 0 0 139 0 0 139 0 0 139 0 0 139 0 0 139 0 0 139 0 0 139 0 0 139 0 0 139 0 0 139 0 0 139 0 0 139 0 0 139 0 0 139 0 0 139 0 0 139 0 0 139 0 0 139 0 0 139 0 0 139 0 0 139 0 0 139 0 0 139 0 0 139 0 0 139 0 0 139 0 0 139 0 0 139 0 0 139 0 0 139 0 0 139 0 0 139 0 0 139 0 0 139 0 0 139 0 0 139 0 0 139 0 0 139 0 0 139 0 0 139 0 0 139 0 0 139 0 0 139 0 0 139 0 0 139 0 0 139 0 0 139 0 0 139 0 0 139 0 0 139 0 0 139 0 0 139 0 0 139 0 0 139 0 0 139 0 0 139 0 0 139 0 0 139 0 0 139 0 0 139 0 0 139 0 0 139 0 0 139 0 0 139 0 0 139 0 0 139 0 0 139 0 0 139 0 0 139 0 0 139 0 0 139 0 0 139 0 0 139 0 0 139 0 0 139 0 0 139 0 0 139 0 0 139 0 0 139 0 0 139 0 0 139 0 0 139 0 0 139 0 0 139 0 0 139 0 0 139 0 0 139 0 0 139 0 0 139 0 0 139 0 0 139 0 0 139 0 0 139 0 0 139 0 0 139 0 0 139 0 0 139 0 0 139 0 0 139 0 0 139 0 0 139 0 0 139 0 0 139 0 0 139 0 0 139 0 0 139 0 0 139 0 0 139 0 0 139 0 0 139 0 0 139 0 0 139 0 0 139 0 0 139 0 0 139 0 0 139 0 0 139 0 0 139 0 0 139 0 0 139 0 0 139 0 0 139 0 0 139 0 0 139 0 0 139 0 0 139 0 0 139 0 0 139 0 0 139 0 0 139 0 0 139 0 0 139 0 0 139 0 0 139 0 0 139 0 0 139 0 0 139 0 0 139 0 0 139 0 0 139 0 0 139 0 0 139 0 0 139 0 0 139 0 0 139 0 0 139 0 0 139 0 0 139 0 0 139 0 0 139 0 0 139 0 0 139 0 0 139 0 0 139 0 0 139 0 0 139 0 0 139 0 0 139 0 0 139 0 0 139 0 0 139 0 0 139 0 0 139 0 0 139 0 0 139 0 0 
139 0 0 139 0 0 139 0 0 139 0 0 139 0 0 139 0 0 139 0 0 139 0 0 139 0 0 139 0 0 139 0 0 139 0 0 143 7 8 139 0 0 139 0 0 139 0 0 139 0 0 143 7 8 143 7 8 143 7 8 139 0 0 139 0 0 139 0 0 139 0 0 139 0 0 143 7 8 139 0 0 139 0 0 139 0 0 139 0 0 139 0 0 139 0 0 139 0 0 143 7 8 139 0 0 139 0 0 139 0 0 139 0 0 139 0 0 139 0 0 139 0 0 139 0 0 139 0 0 139 0 0 139 0 0 139 0 0 139 0 0 139 0 0 139 0 0 139 0 0 139 0 0 139 0 0 139 0 0 139 0 0 139 0 0 139 0 0 139 0 0 139 0 0 139 0 0 139 0 0 139 0 0 139 0 0 139 0 0 139 0 0 139 0 0 139 0 0 139 0 0 139 0 0 139 0 0 139 0 0 139 0 0 139 0 0 139 0 0 139 0 0 139 0 0 139 0 0 139 0 0 139 0 0 139 0 0 139 0 0 139 0 0 139 0 0 139 0 0 139 0 0 139 0 0 139 0 0 139 0 0 139 0 0 139 0 0 139 0 0 139 0 0 139 0 0 139 0 0 139 0 0 139 0 0 139 0 0 139 0 0 139 0 0 139 0 0 139 0 0 139 0 0 139 0 0 139 0 0 139 0 0 139 0 0 139 0 0 139 0 0 139 0 0 139 0 0 139 0 0 139 0 0 139 0 0 139 0 0 139 0 0 139 0 0 139 0 0 139 0 0 139 0 0 139 0 0 139 0 0 139 0 0 139 0 0 139 0 0 139 0 0 139 0 0 139 0 0 139 0 0 139 0 0 139 0 0 139 0 0 139 0 0 139 0 0 139 0 0 139 0 0 139 0 0 139 0 0 139 0 0 139 0 0 139 0 0 139 0 0 139 0 0 139 0 0 139 0 0 139 0 0 139 0 0 139 0 0 139 0 0 139 0 0 139 0 0 139 0 0 139 0 0 139 0 0 139 0 0 139 0 0 139 0 0 139 0 0 139 0 0 139 0 0 139 0 0 139 0 0 139 0 0 139 0 0 139 0 0 139 0 0 139 0 0 139 0 0 139 0 0 139 0 0 139 0 0 139 0 0 139 0 0 139 0 0 139 0 0 139 0 0 139 0 0 139 0 0 139 0 0 139 0 0 139 0 0 139 0 0 139 0 0 139 0 0 139 0 0 139 0 0 139 0 0 139 0 0 139 0 0 139 0 0 139 0 0 139 0 0 139 0 0 139 0 0 139 0 0 139 0 0 139 0 0 139 0 0 139 0 0 139 0 0 139 0 0 139 0 0 139 0 0 139 0 0 139 0 0 139 0 0 139 0 0 139 0 0 139 0 0 139 0 0 139 0 0 139 0 0 139 0 0 139 0 0 139 0 0 139 0 0 139 0 0 139 0 0 139 0 0 139 0 0 139 0 0 139 0 0 
139 0 0 139 0 0 139 0 0 139 0 0 139 0 0 139 0 0 139 0 0 139 0 0 139 0 0 139 0 0 139 0 0 139 0 0 139 0 0 139 0 0 139 0 0 139 0 0 139 0 0 139 0 0 139 0 0 139 0 0 139 0 0 143 7 8 143 7 8 139 0 0 139 0 0 139 0 0 139 0 0 139 0 0 139 0 0 143 7 8 139 0 0 139 0 0 139 0 0 139 0 0 139 0 0 139 0 0 139 0 0 139 0 0 139 0 0 139 0 0 139 0 0 139 0 0 139 0 0 139 0 0 139 0 0 139 0 0 139 0 0 139 0 0 139 0 0 139 0 0 139 0 0 139 0 0 139 0 0 139 0 0 139 0 0 139 0 0 139 0 0 139 0 0 139 0 0 139 0 0 139 0 0 139 0 0 139 0 0 139 0 0 139 0 0 139 0 0 139 0 0 139 0 0 139 0 0 139 0 0 139 0 0 139 0 0 139 0 0 139 0 0 139 0 0 139 0 0 139 0 0 139 0 0 139 0 0 139 0 0 139 0 0 139 0 0 139 0 0 139 0 0 139 0 0 139 0 0 139 0 0 139 0 0 139 0 0 139 0 0 139 0 0 139 0 0 139 0 0 139 0 0 139 0 0 139 0 0 139 0 0 139 0 0 139 0 0 139 0 0 139 0 0 139 0 0 139 0 0 139 0 0 139 0 0 139 0 0 139 0 0 139 0 0 139 0 0 139 0 0 139 0 0 139 0 0 139 0 0 139 0 0 139 0 0 139 0 0 139 0 0 139 0 0 139 0 0 139 0 0 139 0 0 139 0 0 139 0 0 139 0 0 139 0 0 139 0 0 139 0 0 139 0 0 139 0 0 139 0 0 139 0 0 139 0 0 139 0 0 139 0 0 139 0 0 139 0 0 139 0 0 139 0 0 139 0 0 139 0 0 139 0 0 139 0 0 139 0 0 139 0 0 139 0 0 139 0 0 139 0 0 139 0 0 139 0 0 139 0 0 139 0 0 139 0 0 139 0 0 139 0 0 139 0 0 139 0 0 139 0 0 139 0 0 139 0 0 139 0 0 139 0 0 139 0 0 139 0 0 139 0 0 139 0 0 139 0 0 139 0 0 139 0 0 139 0 0 139 0 0 139 0 0 139 0 0 139 0 0 139 0 0 139 0 0 139 0 0 139 0 0 139 0 0 139 0 0 139 0 0 139 0 0 139 0 0 139 0 0 139 0 0 139 0 0 139 0 0 139 0 0 139 0 0 139 0 0 139 0 0 139 0 0 139 0 0 139 0 0 139 0 0 139 0 0 139 0 0 139 0 0 139 0 0 139 0 0 139 0 0 139 0 0 139 0 0 139 0 0 139 0 0 139 0 0 139 0 0 139 0 0 139 0 0 139 0 0 139 0 0 139 0 0 139 0 0 139 0 0 139 0 0 139 0 0 139 0 0 139 0 0 139 0 0 139 0 0 139 0 0 
139 0 0 139 0 0 139 0 0 139 0 0 139 0 0 139 0 0 139 0 0 139 0 0 139 0 0 139 0 0 139 0 0 139 0 0 139 0 0 139 0 0 139 0 0 139 0 0 139 0 0 139 0 0 139 0 0 139 0 0 139 0 0 143 7 8 143 7 8 139 0 0 139 0 0 139 0 0 139 0 0 139 0 0 139 0 0 143 7 8 139 0 0 139 0 0 139 0 0 139 0 0 139 0 0 139 0 0 139 0 0 139 0 0 139 0 0 139 0 0 139 0 0 139 0 0 139 0 0 139 0 0 139 0 0 139 0 0 139 0 0 139 0 0 139 0 0 139 0 0 139 0 0 139 0 0 139 0 0 139 0 0 139 0 0 139 0 0 139 0 0 139 0 0 139 0 0 139 0 0 139 0 0 139 0 0 139 0 0 139 0 0 139 0 0 139 0 0 139 0 0 139 0 0 139 0 0 139 0 0 139 0 0 139 0 0 139 0 0 139 0 0 139 0 0 139 0 0 139 0 0 139 0 0 139 0 0 139 0 0 139 0 0 139 0 0 139 0 0 139 0 0 139 0 0 139 0 0 139 0 0 139 0 0 139 0 0 139 0 0 139 0 0 139 0 0 139 0 0 139 0 0 139 0 0 139 0 0 139 0 0 139 0 0 139 0 0 139 0 0 139 0 0 139 0 0 139 0 0 139 0 0 139 0 0 139 0 0 139 0 0 139 0 0 139 0 0 139 0 0 139 0 0 139 0 0 139 0 0 139 0 0 139 0 0 139 0 0 139 0 0 139 0 0 139 0 0 139 0 0 139 0 0 139 0 0 139 0 0 139 0 0 139 0 0 139 0 0 139 0 0 139 0 0 139 0 0 139 0 0 139 0 0 139 0 0 139 0 0 139 0 0 139 0 0 139 0 0 139 0 0 139 0 0 139 0 0 139 0 0 139 0 0 139 0 0 139 0 0 139 0 0 139 0 0 139 0 0 139 0 0 139 0 0 139 0 0 139 0 0 139 0 0 139 0 0 139 0 0 139 0 0 139 0 0 139 0 0 139 0 0 139 0 0 139 0 0 139 0 0 139 0 0 139 0 0 139 0 0 139 0 0 139 0 0 139 0 0 139 0 0 139 0 0 139 0 0 139 0 0 139 0 0 139 0 0 139 0 0 139 0 0 139 0 0 139 0 0 139 0 0 139 0 0 139 0 0 139 0 0 139 0 0 139 0 0 139 0 0 139 0 0 139 0 0 139 0 0 139 0 0 139 0 0 139 0 0 139 0 0 139 0 0 139 0 0 139 0 0 139 0 0 139 0 0 139 0 0 139 0 0 139 0 0 139 0 0 139 0 0 139 0 0 139 0 0 139 0 0 139 0 0 139 0 0 139 0 0 139 0 0 139 0 0 139 0 0 139 0 0 139 0 0 139 0 0 139 0 0 139 0 0 139 0 0 139 0 0 139 0 0 139 0 0 139 0 0 139 0 0 
139 0 0 139 0 0 139 0 0 139 0 0 139 0 0 139 0 0 139 0 0 139 0 0 139 0 0 139 0 0 139 0 0 139 0 0 139 0 0 139 0 0 139 0 0 139 0 0 139 0 0 139 0 0 139 0 0 139 0 0 143 7 8 139 0 0 139 0 0 139 0 0 139 0 0 139 0 0 139 0 0 139 0 0 139 0 0 139 0 0 139 0 0 139 0 0 139 0 0 139 0 0 139 0 0 139 0 0 139 0 0 139 0 0 139 0 0 139 0 0 139 0 0 139 0 0 139 0 0 139 0 0 139 0 0 139 0 0 139 0 0 139 0 0 139 0 0 139 0 0 139 0 0 139 0 0 139 0 0 139 0 0 139 0 0 139 0 0 139 0 0 139 0 0 139 0 0 139 0 0 139 0 0 139 0 0 139 0 0 139 0 0 139 0 0 139 0 0 139 0 0 139 0 0 139 0 0 139 0 0 139 0 0 139 0 0 139 0 0 139 0 0 139 0 0 139 0 0 139 0 0 139 0 0 139 0 0 139 0 0 139 0 0 139 0 0 139 0 0 139 0 0 139 0 0 139 0 0 139 0 0 139 0 0 139 0 0 139 0 0 139 0 0 139 0 0 139 0 0 139 0 0 139 0 0 139 0 0 139 0 0 139 0 0 139 0 0 139 0 0 139 0 0 139 0 0 139 0 0 139 0 0 139 0 0 139 0 0 139 0 0 139 0 0 139 0 0 139 0 0 139 0 0 139 0 0 139 0 0 139 0 0 139 0 0 139 0 0 139 0 0 139 0 0 139 0 0 139 0 0 139 0 0 139 0 0 139 0 0 139 0 0 139 0 0 139 0 0 139 0 0 139 0 0 139 0 0 139 0 0 139 0 0 139 0 0 139 0 0 139 0 0 139 0 0 139 0 0 139 0 0 139 0 0 139 0 0 139 0 0 139 0 0 139 0 0 139 0 0 139 0 0 139 0 0 139 0 0 139 0 0 139 0 0 139 0 0 139 0 0 139 0 0 139 0 0 139 0 0 139 0 0 139 0 0 139 0 0 139 0 0 139 0 0 139 0 0 139 0 0 139 0 0 139 0 0 139 0 0 139 0 0 139 0 0 139 0 0 139 0 0 139 0 0 139 0 0 139 0 0 139 0 0 139 0 0 139 0 0 139 0 0 139 0 0 139 0 0 139 0 0 139 0 0 139 0 0 139 0 0 139 0 0 139 0 0 139 0 0 139 0 0 139 0 0 139 0 0 139 0 0 139 0 0 139 0 0 139 0 0 139 0 0 139 0 0 139 0 0 139 0 0 139 0 0 139 0 0 139 0 0 139 0 0 139 0 0 139 0 0 139 0 0 139 0 0 139 0 0 139 0 0 139 0 0 139 0 0 139 0 0 139 0 0 139 0 0 139 0 0 139 0 0 139 0 0 139 0 0 139 0 0 139 0 0 139 0 0 139 0 0 139 0 0 139 0 0 139 0 0 
139 0 0 139 0 0 139 0 0 139 0 0 139 0 0 139 0 0 139 0 0 139 0 0 139 0 0 139 0 0 139 0 0 139 0 0 139 0 0 139 0 0 139 0 0 139 0 0 139 0 0 139 0 0 139 0 0 139 0 0 143 7 8 139 0 0 139 0 0 139 0 0 139 0 0 139 0 0 139 0 0 139 0 0 139 0 0 139 0 0 139 0 0 139 0 0 139 0 0 139 0 0 139 0 0 139 0 0 139 0 0 139 0 0 139 0 0 139 0 0 139 0 0 139 0 0 139 0 0 139 0 0 139 0 0 139 0 0 139 0 0 139 0 0 139 0 0 139 0 0 139 0 0 139 0 0 139 0 0 139 0 0 139 0 0 139 0 0 139 0 0 139 0 0 139 0 0 139 0 0 139 0 0 139 0 0 139 0 0 139 0 0 139 0 0 139 0 0 139 0 0 139 0 0 139 0 0 139 0 0 139 0 0 139 0 0 139 0 0 139 0 0 139 0 0 139 0 0 139 0 0 139 0 0 139 0 0 139 0 0 139 0 0 139 0 0 139 0 0 139 0 0 139 0 0 139 0 0 139 0 0 139 0 0 139 0 0 139 0 0 139 0 0 139 0 0 139 0 0 139 0 0 139 0 0 139 0 0 139 0 0 139 0 0 139 0 0 139 0 0 139 0 0 139 0 0 139 0 0 139 0 0 139 0 0 139 0 0 139 0 0 139 0 0 139 0 0 139 0 0 139 0 0 139 0 0 139 0 0 139 0 0 139 0 0 139 0 0 139 0 0 139 0 0 139 0 0 139 0 0 139 0 0 139 0 0 139 0 0 139 0 0 139 0 0 139 0 0 139 0 0 139 0 0 139 0 0 139 0 0 139 0 0 139 0 0 139 0 0 139 0 0 139 0 0 139 0 0 139 0 0 139 0 0 139 0 0 139 0 0 139 0 0 139 0 0 139 0 0 139 0 0 139 0 0 139 0 0 139 0 0 139 0 0 139 0 0 139 0 0 139 0 0 139 0 0 139 0 0 139 0 0 139 0 0 139 0 0 139 0 0 139 0 0 139 0 0 139 0 0 139 0 0 139 0 0 139 0 0 139 0 0 139 0 0 139 0 0 139 0 0 139 0 0 139 0 0 139 0 0 139 0 0 139 0 0 139 0 0 139 0 0 139 0 0 139 0 0 139 0 0 139 0 0 139 0 0 139 0 0 139 0 0 139 0 0 139 0 0 139 0 0 139 0 0 139 0 0 139 0 0 139 0 0 139 0 0 139 0 0 139 0 0 139 0 0 139 0 0 139 0 0 139 0 0 139 0 0 139 0 0 139 0 0 139 0 0 139 0 0 139 0 0 139 0 0 139 0 0 139 0 0 139 0 0 139 0 0 139 0 0 139 0 0 139 0 0 139 0 0 139 0 0 139 0 0 139 0 0 139 0 0 139 0 0 139 0 0 139 0 0 139 0 0 139 0 0 139 0 0 
139 0 0 139 0 0 139 0 0 139 0 0 139 0 0 139 0 0 139 0 0 139 0 0 139 0 0 139 0 0 139 0 0 139 0 0 143 7 8 139 0 0 139 0 0 139 0 0 139 0 0 139 0 0 139 0 0 139 0 0 139 0 0 139 0 0 139 0 0 139 0 0 139 0 0 139 0 0 139 0 0 139 0 0 139 0 0 143 7 8 139 0 0 139 0 0 139 0 0 139 0 0 139 0 0 139 0 0 139 0 0 139 0 0 139 0 0 139 0 0 139 0 0 139 0 0 139 0 0 139 0 0 139 0 0 139 0 0 139 0 0 139 0 0 139 0 0 139 0 0 139 0 0 139 0 0 139 0 0 139 0 0 139 0 0 139 0 0 139 0 0 139 0 0 139 0 0 139 0 0 139 0 0 139 0 0 139 0 0 139 0 0 139 0 0 139 0 0 139 0 0 139 0 0 139 0 0 139 0 0 139 0 0 139 0 0 139 0 0 139 0 0 139 0 0 139 0 0 139 0 0 139 0 0 139 0 0 139 0 0 139 0 0 139 0 0 139 0 0 139 0 0 139 0 0 139 0 0 139 0 0 139 0 0 139 0 0 139 0 0 139 0 0 139 0 0 139 0 0 139 0 0 139 0 0 139 0 0 139 0 0 139 0 0 139 0 0 143 7 8 139 0 0 139 0 0 139 0 0 139 0 0 139 0 0 139 0 0 139 0 0 139 0 0 139 0 0 139 0 0 139 0 0 139 0 0 139 0 0 139 0 0 139 0 0 139 0 0 139 0 0 139 0 0 139 0 0 139 0 0 139 0 0 139 0 0 139 0 0 139 0 0 139 0 0 139 0 0 139 0 0 139 0 0 139 0 0 139 0 0 139 0 0 139 0 0 139 0 0 139 0 0 139 0 0 139 0 0 139 0 0 139 0 0 139 0 0 139 0 0 139 0 0 139 0 0 139 0 0 139 0 0 139 0 0 139 0 0 139 0 0 139 0 0 139 0 0 139 0 0 139 0 0 139 0 0 139 0 0 139 0 0 139 0 0 139 0 0 139 0 0 139 0 0 139 0 0 139 0 0 139 0 0 139 0 0 139 0 0 139 0 0 139 0 0 139 0 0 139 0 0 139 0 0 139 0 0 139 0 0 139 0 0 139 0 0 139 0 0 139 0 0 139 0 0 139 0 0 139 0 0 139 0 0 139 0 0 139 0 0 139 0 0 139 0 0 139 0 0 139 0 0 139 0 0 139 0 0 139 0 0 139 0 0 139 0 0 139 0 0 139 0 0 139 0 0 139 0 0 139 0 0 139 0 0 139 0 0 139 0 0 139 0 0 139 0 0 139 0 0 139 0 0 139 0 0 139 0 0 139 0 0 139 0 0 139 0 0 139 0 0 139 0 0 139 0 0 139 0 0 139 0 0 139 0 0 139 0 0 139 0 0 139 0 0 139 0 0 139 0 0 139 0 0 139 0 0 139 0 0 
139 0 0 139 0 0 139 0 0 139 0 0 139 0 0 139 0 0 139 0 0 139 0 0 139 0 0 139 0 0 139 0 0 139 0 0 143 7 8 139 0 0 139 0 0 139 0 0 139 0 0 139 0 0 139 0 0 139 0 0 139 0 0 139 0 0 139 0 0 139 0 0 139 0 0 139 0 0 139 0 0 139 0 0 139 0 0 143 7 8 139 0 0 139 0 0 139 0 0 139 0 0 139 0 0 139 0 0 139 0 0 139 0 0 139 0 0 139 0 0 139 0 0 139 0 0 139 0 0 139 0 0 139 0 0 139 0 0 139 0 0 139 0 0 139 0 0 139 0 0 139 0 0 139 0 0 139 0 0 139 0 0 139 0 0 139 0 0 139 0 0 139 0 0 139 0 0 139 0 0 139 0 0 139 0 0 139 0 0 139 0 0 139 0 0 139 0 0 139 0 0 139 0 0 139 0 0 139 0 0 139 0 0 139 0 0 139 0 0 139 0 0 139 0 0 139 0 0 139 0 0 139 0 0 139 0 0 139 0 0 139 0 0 139 0 0 139 0 0 139 0 0 139 0 0 139 0 0 139 0 0 139 0 0 139 0 0 139 0 0 139 0 0 139 0 0 139 0 0 139 0 0 139 0 0 139 0 0 139 0 0 139 0 0 139 0 0 143 7 8 139 0 0 139 0 0 139 0 0 139 0 0 139 0 0 139 0 0 139 0 0 139 0 0 139 0 0 139 0 0 139 0 0 139 0 0 139 0 0 139 0 0 139 0 0 139 0 0 139 0 0 139 0 0 139 0 0 139 0 0 139 0 0 139 0 0 139 0 0 139 0 0 139 0 0 139 0 0 139 0 0 139 0 0 139 0 0 139 0 0 139 0 0 139 0 0 139 0 0 139 0 0 139 0 0 139 0 0 139 0 0 139 0 0 139 0 0 139 0 0 139 0 0 139 0 0 139 0 0 139 0 0 139 0 0 139 0 0 139 0 0 139 0 0 139 0 0 139 0 0 139 0 0 139 0 0 139 0 0 139 0 0 139 0 0 139 0 0 139 0 0 139 0 0 139 0 0 139 0 0 139 0 0 139 0 0 139 0 0 139 0 0 139 0 0 139 0 0 139 0 0 139 0 0 139 0 0 139 0 0 139 0 0 139 0 0 139 0 0 139 0 0 139 0 0 139 0 0 139 0 0 139 0 0 139 0 0 139 0 0 139 0 0 139 0 0 139 0 0 139 0 0 139 0 0 139 0 0 139 0 0 139 0 0 139 0 0 139 0 0 139 0 0 139 0 0 139 0 0 139 0 0 139 0 0 139 0 0 139 0 0 139 0 0 139 0 0 139 0 0 139 0 0 139 0 0 139 0 0 139 0 0 139 0 0 139 0 0 139 0 0 139 0 0 139 0 0 139 0 0 139 0 0 139 0 0 139 0 0 139 0 0 139 0 0 139 0 0 139 0 0 139 0 0 139 0 0 139 0 0 
139 0 0 139 0 0 139 0 0 139 0 0 139 0 0 139 0 0 139 0 0 139 0 0 139 0 0 139 0 0 139 0 0 139 0 0 139 0 0 139 0 0 139 0 0 139 0 0 139 0 0 143 7 8 139 0 0 139 0 0 139 0 0 139 0 0 139 0 0 139 0 0 139 0 0 139 0 0 139 0 0 139 0 0 139 0 0 139 0 0 139 0 0 139 0 0 139 0 0 139 0 0 139 0 0 139 0 0 139 0 0 139 0 0 139 0 0 139 0 0 139 0 0 143 7 8 139 0 0 139 0 0 139 0 0 139 0 0 139 0 0 139 0 0 139 0 0 139 0 0 139 0 0 139 0 0 139 0 0 139 0 0 139 0 0 139 0 0 139 0 0 139 0 0 139 0 0 139 0 0 139 0 0 139 0 0 139 0 0 139 0 0 139 0 0 139 0 0 139 0 0 139 0 0 139 0 0 139 0 0 139 0 0 139 0 0 139 0 0 139 0 0 139 0 0 139 0 0 139 0 0 139 0 0 139 0 0 139 0 0 139 0 0 139 0 0 139 0 0 139 0 0 139 0 0 139 0 0 139 0 0 139 0 0 139 0 0 139 0 0 139 0 0 139 0 0 139 0 0 139 0 0 139 0 0 139 0 0 139 0 0 139 0 0 139 0 0 139 0 0 139 0 0 139 0 0 139 0 0 139 0 0 139 0 0 139 0 0 139 0 0 139 0 0 139 0 0 139 0 0 139 0 0 139 0 0 139 0 0 139 0 0 139 0 0 139 0 0 139 0 0 139 0 0 139 0 0 139 0 0 139 0 0 139 0 0 139 0 0 139 0 0 139 0 0 139 0 0 139 0 0 139 0 0 139 0 0 139 0 0 139 0 0 139 0 0 139 0 0 139 0 0 139 0 0 139 0 0 139 0 0 139 0 0 139 0 0 139 0 0 139 0 0 139 0 0 139 0 0 139 0 0 139 0 0 139 0 0 139 0 0 139 0 0 139 0 0 139 0 0 139 0 0 139 0 0 139 0 0 139 0 0 139 0 0 139 0 0 139 0 0 139 0 0 139 0 0 139 0 0 139 0 0 139 0 0 139 0 0 139 0 0 139 0 0 139 0 0 139 0 0 139 0 0 139 0 0 139 0 0 139 0 0 139 0 0 139 0 0 139 0 0 139 0 0 139 0 0 139 0 0 139 0 0 139 0 0 139 0 0 139 0 0 139 0 0 139 0 0 139 0 0 139 0 0 139 0 0 139 0 0 139 0 0 139 0 0 139 0 0 139 0 0 139 0 0 139 0 0 139 0 0 139 0 0 139 0 0 139 0 0 139 0 0 139 0 0 139 0 0 139 0 0 139 0 0 139 0 0 139 0 0 139 0 0 139 0 0 139 0 0 139 0 0 139 0 0 139 0 0 139 0 0 139 0 0 139 0 0 139 0 0 139 0 0 139 0 0 139 0 0 139 0 0 139 0 0 139 0 0 
139 0 0 139 0 0 139 0 0 139 0 0 139 0 0 139 0 0 139 0 0 139 0 0 139 0 0 139 0 0 139 0 0 139 0 0 139 0 0 139 0 0 139 0 0 139 0 0 139 0 0 143 7 8 139 0 0 139 0 0 139 0 0 139 0 0 139 0 0 139 0 0 139 0 0 139 0 0 139 0 0 139 0 0 139 0 0 139 0 0 139 0 0 139 0 0 139 0 0 139 0 0 139 0 0 139 0 0 139 0 0 139 0 0 139 0 0 139 0 0 139 0 0 143 7 8 139 0 0 139 0 0 139 0 0 139 0 0 139 0 0 139 0 0 139 0 0 139 0 0 139 0 0 139 0 0 139 0 0 139 0 0 139 0 0 139 0 0 139 0 0 139 0 0 139 0 0 139 0 0 139 0 0 139 0 0 139 0 0 139 0 0 139 0 0 139 0 0 139 0 0 139 0 0 139 0 0 139 0 0 139 0 0 139 0 0 139 0 0 139 0 0 139 0 0 139 0 0 139 0 0 139 0 0 139 0 0 139 0 0 139 0 0 139 0 0 139 0 0 139 0 0 139 0 0 139 0 0 139 0 0 139 0 0 139 0 0 139 0 0 139 0 0 139 0 0 139 0 0 139 0 0 139 0 0 139 0 0 139 0 0 139 0 0 139 0 0 139 0 0 139 0 0 139 0 0 139 0 0 139 0 0 139 0 0 139 0 0 139 0 0 139 0 0 139 0 0 139 0 0 139 0 0 139 0 0 139 0 0 139 0 0 139 0 0 139 0 0 139 0 0 139 0 0 139 0 0 139 0 0 139 0 0 139 0 0 139 0 0 139 0 0 139 0 0 139 0 0 139 0 0 139 0 0 139 0 0 139 0 0 139 0 0 139 0 0 139 0 0 139 0 0 139 0 0 139 0 0 139 0 0 139 0 0 139 0 0 139 0 0 139 0 0 139 0 0 139 0 0 139 0 0 139 0 0 139 0 0 139 0 0 139 0 0 139 0 0 139 0 0 139 0 0 139 0 0 139 0 0 139 0 0 139 0 0 139 0 0 139 0 0 139 0 0 139 0 0 139 0 0 139 0 0 139 0 0 139 0 0 139 0 0 139 0 0 139 0 0 139 0 0 139 0 0 139 0 0 139 0 0 139 0 0 139 0 0 139 0 0 139 0 0 139 0 0 139 0 0 139 0 0 139 0 0 139 0 0 139 0 0 139 0 0 139 0 0 139 0 0 139 0 0 139 0 0 139 0 0 139 0 0 139 0 0 139 0 0 139 0 0 139 0 0 139 0 0 139 0 0 139 0 0 139 0 0 139 0 0 139 0 0 139 0 0 139 0 0 139 0 0 139 0 0 139 0 0 139 0 0 139 0 0 139 0 0 139 0 0 139 0 0 139 0 0 139 0 0 139 0 0 139 0 0 139 0 0 139 0 0 139 0 0 139 0 0 139 0 0 139 0 0 139 0 0 139 0 0 139 0 0 
