P3
220 242
255
255 201 210 255 201 210 255 201 210 255 201 210 255 201 210 255 201 210 255 202 211 255 202 211 255 205 214 255 205 214 255 205 214 255 205 214 255 205 214 255 205 214 255 205 214 255 202 211 255 202 211 255 206 215 255 206 215 255 205 214 255 205 214 255 205 214 255 206 215 255 205 214 255 206 215 255 206 215 255 206 215 255 205 214 255 205 214 255 206 215 255 206 215 255 206 215 255 206 215 255 206 215 255 206 215 255 206 215 255 206 215 255 206 215 255 206 215 255 206 215 255 206 215 255 206 215 255 206 215 255 206 215 255 206 215 255 206 215 255 206 215 255 206 215 255 206 215 255 205 214 255 206 215 255 206 215 255 206 215 255 206 215 255 206 215 255 206 215 255 206 215 255 206 215 255 206 215 255 208 216 255 209 217 255 209 217 255 208 216 255 208 216 255 209 217 255 212 219 255 213 220 255 214 221 255 210 218 255 208 216 255 209 217 255 208 216 255 208 216 255 206 215 255 206 215 255 208 216 255 208 216 255 206 215 255 208 216 255 209 217 255 209 217 255 210 218 255 213 220 255 216 222 255 220 226 255 224 229 255 226 231 255 230 235 255 238 241 255 240 242 255 242 245 255 240 242 255 238 241 255 240 242 255 240 242 255 238 241 255 240 242 255 240 242 255 240 242 255 240 242 255 240 242 255 240 242 255 240 242 255 238 241 255 242 245 255 238 241 255 238 241 255 240 242 255 240 242 255 240 242 255 240 242 255 242 245 255 242 245 255 242 245 255 244 246 255 242 245 255 242 245 255 238 241 255 232 236 255 224 229 255 213 220 255 212 219 255 210 218 255 213 220 255 209 217 255 206 215 255 206 215 255 206 215 255 206 215 255 206 215 255 206 215 255 208 216 255 208 216 255 208 216 255 208 216 255 206 215 255 206 215 255 206 215 255 206 215 255 206 215 255 206 215 255 206 215 255 206 215 255 206 215 255 206 215 255 206 215 255 205 214 255 205 214 255 205 214 255 206 215 255 206 215 255 206 215 255 206 215 255 206 215 255 205 214 255 205 214 255 205 214 255 205 214 255 205 214 255 205 214 255 205 214 255 205 214 255 205 214 255 205 214 255 205 214 255 202 211 255 205 214 255 202 211 255 202 211 255 202 211 255 202 211 255 202 211 255 202 211 255 202 211 255 202 211 255 202 211 255 201 210 255 201 210 255 201 210 255 201 210 255 201 210 255 200 209 255 200 209 255 200 209 255 200 209 255 200 209 255 200 209 255 200 209 255 200 209 255 200 209 255 200 209 255 200 209 255 200 209 255 200 209 255 200 209 255 198 208 255 198 208 255 198 208 255 200 209 255 198 208 255 198 208 255 198 208 255 198 208 255 198 208 255 198 208 255 198 208 255 198 208 255 196 206 255 196 206 255 196 206 255 196 206 255 196 206 255 196 206 255 193 204 255 193 204 255 196 206 255 196 206 255 193 204 255 198 208 255 196 206 
255 201 210 255 201 210 255 201 210 255 201 210 255 201 210 255 201 210 255 202 211 255 202 211 255 205 214 255 205 214 255 205 214 255 205 214 255 205 214 255 205 214 255 205 214 255 202 211 255 202 211 255 206 215 255 206 215 255 205 214 255 205 214 255 205 214 255 206 215 255 205 214 255 206 215 255 206 215 255 206 215 255 205 214 255 205 214 255 206 215 255 206 215 255 206 215 255 206 215 255 206 215 255 206 215 255 206 215 255 206 215 255 206 215 255 206 215 255 206 215 255 206 215 255 206 215 255 206 215 255 206 215 255 206 215 255 206 215 255 206 215 255 206 215 255 206 215 255 205 214 255 206 215 255 206 215 255 206 215 255 206 215 255 206 215 255 206 215 255 206 215 255 206 215 255 206 215 255 208 216 255 209 217 255 209 217 255 208 216 255 208 216 255 209 217 255 212 219 255 213 220 255 214 221 255 210 218 255 208 216 255 209 217 255 208 216 255 208 216 255 206 215 255 206 215 255 208 216 255 208 216 255 206 215 255 208 216 255 209 217 255 209 217 255 210 218 255 213 220 255 216 222 255 220 226 255 224 229 255 226 231 255 230 235 255 238 241 255 240 242 255 242 245 255 240 242 255 238 241 255 240 242 255 240 242 255 238 241 255 240 242 255 240 242 255 240 242 255 240 242 255 240 242 255 240 242 255 240 242 255 238 241 255 242 245 255 238 241 255 238 241 255 240 242 255 240 242 255 240 242 255 240 242 255 242 245 255 242 245 255 242 245 255 244 246 255 242 245 255 242 245 255 238 241 255 232 236 255 224 229 255 213 220 255 212 219 255 210 218 255 213 220 255 209 217 255 206 215 255 206 215 255 206 215 255 206 215 255 206 215 255 206 215 255 208 216 255 208 216 255 208 216 255 208 216 255 206 215 255 206 215 255 206 215 255 206 215 255 206 215 255 206 215 255 206 215 255 206 215 255 206 215 255 206 215 255 206 215 255 205 214 255 205 214 255 205 214 255 206 215 255 206 215 255 206 215 255 206 215 255 206 215 255 205 214 255 205 214 255 205 214 255 205 214 255 205 214 255 205 214 255 205 214 255 205 214 255 205 214 255 205 214 255 205 214 255 202 211 255 205 214 255 202 211 255 202 211 255 202 211 255 202 211 255 202 211 255 202 211 255 202 211 255 202 211 255 202 211 255 201 210 255 201 210 255 201 210 255 201 210 255 201 210 255 200 209 255 200 209 255 200 209 255 200 209 255 200 209 255 200 209 255 200 209 255 200 209 255 200 209 255 200 209 255 200 209 255 200 209 255 200 209 255 200 209 255 198 208 255 198 208 255 198 208 255 200 209 255 198 208 255 198 208 255 198 208 255 198 208 255 198 208 255 198 208 255 198 208 255 198 208 255 196 206 255 196 206 255 196 206 255 196 206 255 196 206 255 196 206 255 193 204 255 193 204 255 196 206 255 196 206 255 193 204 255 198 208 255 196 206 
255 200 209 255 200 209 255 200 209 255 200 209 255 201 210 255 201 210 255 201 210 255 201 210 255 202 211 255 202 211 255 202 211 255 202 211 255 202 211 255 202 211 255 202 211 255 202 211 255 202 211 255 205 214 255 205 214 255 205 214 255 205 214 255 205 214 255 205 214 255 205 214 255 205 214 255 205 214 255 205 214 255 205 214 255 205 214 255 205 214 255 205 214 255 205 214 255 205 214 255 205 214 255 205 214 255 205 214 255 205 214 255 205 214 255 205 214 255 205 214 255 205 214 255 205 214 255 206 215 255 206 215 255 206 215 255 206 215 255 206 215 255 206 215 255 205 214 255 205 214 255 205 214 255 205 214 255 206 215 255 208 216 255 206 215 255 205 214 255 216 222 255 226 231 255 236 239 255 238 241 255 238 241 255 238 241 255 237 240 255 237 240 255 237 240 255 237 240 255 238 241 255 238 241 255 238 241 255 237 240 255 238 241 255 238 241 255 240 242 255 238 241 255 237 240 255 237 240 255 238 241 255 238 241 255 238 241 255 238 241 255 238 241 255 238 241 255 238 241 255 238 241 255 238 241 255 238 241 255 236 239 255 240 242 255 242 245 255 240 242 255 238 241 255 238 241 255 238 241 255 237 240 255 234 238 255 234 238 255 238 241 255 240 242 255 240 242 255 238 241 255 238 241 255 237 240 255 238 241 255 240 242 255 233 237 255 238 241 255 237 240 255 237 240 255 237 240 255 232 236 255 229 233 255 234 238 255 232 236 255 234 238 255 234 238 255 233 237 255 237 240 255 240 242 255 240 242 255 233 237 255 238 241 255 238 241 255 228 232 255 234 238 255 237 240 255 236 239 255 234 238 255 225 230 255 212 219 255 206 215 255 206 215 255 208 216 255 206 215 255 206 215 255 206 215 255 206 215 255 206 215 255 206 215 255 206 215 255 206 215 255 206 215 255 206 215 255 206 215 255 206 215 255 206 215 255 205 214 255 205 214 255 205 214 255 205 214 255 205 214 255 205 214 255 205 214 255 205 214 255 205 214 255 205 214 255 202 211 255 202 211 255 202 211 255 202 211 255 202 211 255 202 211 255 202 211 255 202 211 255 202 211 255 202 211 255 202 211 255 202 211 255 201 210 255 201 210 255 200 209 255 200 209 255 200 209 255 200 209 255 200 209 255 200 209 255 200 209 255 200 209 255 200 209 255 200 209 255 200 209 255 200 209 255 200 209 255 200 209 255 198 208 255 198 208 255 198 208 255 198 208 255 198 208 255 196 206 255 196 206 255 196 206 255 198 208 255 198 208 255 196 206 255 196 206 255 196 206 255 196 206 255 196 206 255 196 206 255 196 206 255 196 206 255 196 206 255 196 206 255 193 204 255 193 204 255 193 204 255 193 204 249 187 198 255 193 204 255 193 204 249 187 198 249 187 198 249 187 198 255 193 204 249 187 198 255 193 204 249 187 198 255 193 204 255 193 204 255 193 204 
255 200 209 255 200 209 255 200 209 255 200 209 255 201 210 255 201 210 255 201 210 255 201 210 255 202 211 255 202 211 255 202 211 255 202 211 255 202 211 255 202 211 255 202 211 255 202 211 255 202 211 255 205 214 255 205 214 255 205 214 255 205 214 255 205 214 255 205 214 255 205 214 255 205 214 255 205 214 255 205 214 255 205 214 255 205 214 255 205 214 255 205 214 255 205 214 255 205 214 255 205 214 255 205 214 255 205 214 255 205 214 255 205 214 255 205 214 255 205 214 255 205 214 255 205 214 255 206 215 255 206 215 255 206 215 255 206 215 255 206 215 255 206 215 255 205 214 255 205 214 255 205 214 255 205 214 255 206 215 255 208 216 255 206 215 255 205 214 255 216 222 255 226 231 255 236 239 255 238 241 255 238 241 255 238 241 255 237 240 255 237 240 255 237 240 255 237 240 255 238 241 255 238 241 255 238 241 255 237 240 255 238 241 255 238 241 255 240 242 255 238 241 255 237 240 255 237 240 255 238 241 255 238 241 255 238 241 255 238 241 255 238 241 255 238 241 255 238 241 255 238 241 255 238 241 255 238 241 255 236 239 255 240 242 255 242 245 255 240 242 255 238 241 255 238 241 255 238 241 255 237 240 255 234 238 255 234 238 255 238 241 255 240 242 255 240 242 255 238 241 255 238 241 255 237 240 255 238 241 255 240 242 255 233 237 255 238 241 255 237 240 255 237 240 255 237 240 255 232 236 255 229 233 255 234 238 255 232 236 255 234 238 255 234 238 255 233 237 255 237 240 255 240 242 255 240 242 255 233 237 255 238 241 255 238 241 255 228 232 255 234 238 255 237 240 255 236 239 255 234 238 255 225 230 255 212 219 255 206 215 255 206 215 255 208 216 255 206 215 255 206 215 255 206 215 255 206 215 255 206 215 255 206 215 255 206 215 255 206 215 255 206 215 255 206 215 255 206 215 255 206 215 255 206 215 255 205 214 255 205 214 255 205 214 255 205 214 255 205 214 255 205 214 255 205 214 255 205 214 255 205 214 255 205 214 255 202 211 255 202 211 255 202 211 255 202 211 255 202 211 255 202 211 255 202 211 255 202 211 255 202 211 255 202 211 255 202 211 255 202 211 255 201 210 255 201 210 255 200 209 255 200 209 255 200 209 255 200 209 255 200 209 255 200 209 255 200 209 255 200 209 255 200 209 255 200 209 255 200 209 255 200 209 255 200 209 255 200 209 255 198 208 255 198 208 255 198 208 255 198 208 255 198 208 255 196 206 255 196 206 255 196 206 255 198 208 255 198 208 255 196 206 255 196 206 255 196 206 255 196 206 255 196 206 255 196 206 255 196 206 255 196 206 255 196 206 255 196 206 255 193 204 255 193 204 255 193 204 255 193 204 249 187 198 255 193 204 255 193 204 249 187 198 249 187 198 249 187 198 255 193 204 249 187 198 255 193 204 249 187 198 255 193 204 255 193 204 255 193 204 
255 200 209 255 200 209 255 200 209 255 200 209 255 201 210 255 201 210 255 201 210 255 201 210 255 201 210 255 201 210 255 202 211 255 202 211 255 202 211 255 202 211 255 202 211 255 205 214 255 205 214 255 205 214 255 205 214 255 205 214 255 202 211 255 202 211 255 202 211 255 202 211 255 202 211 255 205 214 255 205 214 255 205 214 255 205 214 255 205 214 255 205 214 255 205 214 255 202 211 255 202 211 255 202 211 255 202 211 255 202 211 255 205 214 255 205 214 255 205 214 255 205 214 255 205 214 255 205 214 255 205 214 255 205 214 255 205 214 255 205 214 255 205 214 255 205 214 255 205 214 255 205 214 255 209 217 255 232 236 255 244 246 255 236 239 255 236 239 255 237 240 255 237 240 255 237 240 255 237 240 255 237 240 255 237 240 255 237 240 255 237 240 255 238 241 255 237 240 255 238 241 255 238 241 255 234 238 255 225 230 255 226 231 255 232 236 255 236 239 255 238 241 255 238 241 255 238 241 255 238 241 255 238 241 255 238 241 255 238 241 255 238 241 255 238 241 255 238 241 255 237 240 255 234 238 255 237 240 255 238 241 255 238 241 255 237 240 255 233 237 255 237 240 255 238 241 255 238 241 255 238 241 255 237 240 255 238 241 255 238 241 255 234 238 255 238 241 255 234 238 255 236 239 255 234 238 255 216 222 255 237 240 255 232 236 255 224 229 255 230 235 255 232 236 255 233 237 255 230 235 255 226 231 255 229 233 255 226 231 255 233 237 255 230 235 255 225 230 255 234 238 255 233 237 255 237 240 255 229 233 255 232 236 255 230 235 255 232 236 255 232 236 255 229 233 255 234 238 255 232 236 255 240 242 255 238 241 255 237 240 255 238 241 255 237 240 255 212 219 255 209 217 255 208 216 255 206 215 255 206 215 255 206 215 255 206 215 255 206 215 255 205 214 255 206 215 255 205 214 255 205 214 255 205 214 255 205 214 255 205 214 255 205 214 255 205 214 255 205 214 255 205 214 255 205 214 255 205 214 255 205 214 255 205 214 255 202 211 255 202 211 255 202 211 255 202 211 255 202 211 255 202 211 255 202 211 255 202 211 255 202 211 255 201 210 255 201 210 255 201 210 255 201 210 255 200 209 255 200 209 255 200 209 255 200 209 255 200 209 255 200 209 255 200 209 255 200 209 255 200 209 255 200 209 255 198 208 255 198 208 255 198 208 255 198 208 255 198 208 255 196 206 255 196 206 255 196 206 255 196 206 255 198 208 255 198 208 255 198 208 255 196 206 255 196 206 255 196 206 255 196 206 255 196 206 255 196 206 255 196 206 255 196 206 255 196 206 255 196 206 255 193 204 255 196 206 255 196 206 255 193 204 255 193 204 255 193 204 255 193 204 249 187 198 249 187 198 249 187 198 249 187 198 249 187 198 249 187 198 249 187 198 249 187 198 249 187 198 249 187 198 255 193 204 255 193 204 255 193 204 
255 200 209 255 200 209 255 200 209 255 200 209 255 201 210 255 201 210 255 201 210 255 201 210 255 201 210 255 201 210 255 202 211 255 202 211 255 202 211 255 202 211 255 202 211 255 205 214 255 205 214 255 205 214 255 205 214 255 205 214 255 202 211 255 202 211 255 202 211 255 202 211 255 202 211 255 205 214 255 205 214 255 205 214 255 205 214 255 205 214 255 205 214 255 205 214 255 202 211 255 202 211 255 202 211 255 202 211 255 202 211 255 205 214 255 205 214 255 205 214 255 205 214 255 205 214 255 205 214 255 205 214 255 205 214 255 205 214 255 205 214 255 205 214 255 205 214 255 205 214 255 205 214 255 209 217 255 232 236 255 244 246 255 236 239 255 236 239 255 237 240 255 237 240 255 237 240 255 237 240 255 237 240 255 237 240 255 237 240 255 237 240 255 238 241 255 237 240 255 238 241 255 238 241 255 234 238 255 225 230 255 226 231 255 232 236 255 236 239 255 238 241 255 238 241 255 238 241 255 238 241 255 238 241 255 238 241 255 238 241 255 238 241 255 238 241 255 238 241 255 237 240 255 234 238 255 237 240 255 238 241 255 238 241 255 237 240 255 233 237 255 237 240 255 238 241 255 238 241 255 238 241 255 237 240 255 238 241 255 238 241 255 234 238 255 238 241 255 234 238 255 236 239 255 234 238 255 216 222 255 237 240 255 232 236 255 224 229 255 230 235 255 232 236 255 233 237 255 230 235 255 226 231 255 229 233 255 226 231 255 233 237 255 230 235 255 225 230 255 234 238 255 233 237 255 237 240 255 229 233 255 232 236 255 230 235 255 232 236 255 232 236 255 229 233 255 234 238 255 232 236 255 240 242 255 238 241 255 237 240 255 238 241 255 237 240 255 212 219 255 209 217 255 208 216 255 206 215 255 206 215 255 206 215 255 206 215 255 206 215 255 205 214 255 206 215 255 205 214 255 205 214 255 205 214 255 205 214 255 205 214 255 205 214 255 205 214 255 205 214 255 205 214 255 205 214 255 205 214 255 205 214 255 205 214 255 202 211 255 202 211 255 202 211 255 202 211 255 202 211 255 202 211 255 202 211 255 202 211 255 202 211 255 201 210 255 201 210 255 201 210 255 201 210 255 200 209 255 200 209 255 200 209 255 200 209 255 200 209 255 200 209 255 200 209 255 200 209 255 200 209 255 200 209 255 198 208 255 198 208 255 198 208 255 198 208 255 198 208 255 196 206 255 196 206 255 196 206 255 196 206 255 198 208 255 198 208 255 198 208 255 196 206 255 196 206 255 196 206 255 196 206 255 196 206 255 196 206 255 196 206 255 196 206 255 196 206 255 196 206 255 193 204 255 196 206 255 196 206 255 193 204 255 193 204 255 193 204 255 193 204 249 187 198 249 187 198 249 187 198 249 187 198 249 187 198 249 187 198 249 187 198 249 187 198 249 187 198 249 187 198 255 193 204 255 193 204 255 193 204 
255 196 206 255 198 208 255 198 208 255 198 208 255 200 209 255 198 208 255 200 209 255 201 210 255 201 210 255 201 210 255 201 210 255 202 211 255 201 210 255 201 210 255 201 210 255 201 210 255 201 210 255 201 210 255 201 210 255 201 210 255 201 210 255 201 210 255 202 211 255 202 211 255 202 211 255 202 211 255 202 211 255 202 211 255 202 211 255 202 211 255 202 211 255 202 211 255 202 211 255 202 211 255 202 211 255 202 211 255 202 211 255 202 211 255 202 211 255 205 214 255 205 214 255 205 214 255 205 214 255 205 214 255 205 214 255 205 214 255 206 215 255 205 214 255 206 215 255 213 220 255 237 240 255 237 240 255 236 239 255 237 240 255 236 239 255 237 240 255 237 240 255 237 240 255 237 240 255 237 240 255 237 240 255 237 240 255 237 240 255 237 240 255 237 240 255 237 240 255 237 240 255 234 238 255 236 239 255 236 239 255 232 236 255 228 232 255 216 222 255 232 236 255 238 241 255 237 240 255 237 240 255 237 240 255 237 240 255 238 241 255 238 241 255 238 241 255 238 241 255 238 241 255 238 241 255 238 241 255 238 241 255 238 241 255 238 241 255 238 241 255 238 241 255 238 241 255 238 241 255 238 241 255 238 241 255 238 241 255 240 242 255 236 239 255 237 240 255 240 242 255 238 241 255 236 239 255 232 236 255 226 231 255 237 240 255 236 239 255 230 235 255 238 241 255 237 240 255 237 240 255 230 235 255 238 241 255 237 240 255 237 240 255 229 233 255 228 232 255 237 240 255 238 241 255 240 242 255 238 241 255 238 241 255 232 236 255 234 238 255 237 240 255 236 239 255 237 240 255 236 239 255 237 240 255 237 240 255 238 241 255 238 241 255 238 241 255 240 242 255 238 241 255 233 237 255 208 216 255 206 215 255 206 215 255 205 214 255 205 214 255 205 214 255 205 214 255 205 214 255 205 214 255 205 214 255 205 214 255 205 214 255 205 214 255 202 211 255 202 211 255 202 211 255 202 211 255 202 211 255 202 211 255 202 211 255 202 211 255 201 210 255 202 211 255 202 211 255 201 210 255 201 210 255 201 210 255 201 210 255 201 210 255 201 210 255 200 209 255 200 209 255 200 209 255 200 209 255 200 209 255 200 209 255 198 208 255 198 208 255 198 208 255 200 209 255 198 208 255 198 208 255 198 208 255 198 208 255 198 208 255 198 208 255 198 208 255 198 208 255 196 206 255 196 206 255 196 206 255 196 206 255 196 206 255 196 206 255 196 206 255 196 206 255 196 206 255 196 206 255 193 204 255 193 204 255 193 204 255 193 204 255 193 204 255 193 204 255 193 204 255 193 204 255 193 204 255 193 204 255 193 204 249 187 198 249 187 198 249 187 198 249 187 198 249 187 198 249 187 198 244 183 194 244 183 194 244 183 194 249 187 198 249 187 198 249 187 198 249 187 198 249 187 198 255 193 204 249 187 198 
255 196 206 255 198 208 255 198 208 255 198 208 255 200 209 255 198 208 255 200 209 255 201 210 255 201 210 255 201 210 255 201 210 255 202 211 255 201 210 255 201 210 255 201 210 255 201 210 255 201 210 255 201 210 255 201 210 255 201 210 255 201 210 255 201 210 255 202 211 255 202 211 255 202 211 255 202 211 255 202 211 255 202 211 255 202 211 255 202 211 255 202 211 255 202 211 255 202 211 255 202 211 255 202 211 255 202 211 255 202 211 255 202 211 255 202 211 255 205 214 255 205 214 255 205 214 255 205 214 255 205 214 255 205 214 255 205 214 255 206 215 255 205 214 255 206 215 255 213 220 255 237 240 255 237 240 255 236 239 255 237 240 255 236 239 255 237 240 255 237 240 255 237 240 255 237 240 255 237 240 255 237 240 255 237 240 255 237 240 255 237 240 255 237 240 255 237 240 255 237 240 255 234 238 255 236 239 255 236 239 255 232 236 255 228 232 255 216 222 255 232 236 255 238 241 255 237 240 255 237 240 255 237 240 255 237 240 255 238 241 255 238 241 255 238 241 255 238 241 255 238 241 255 238 241 255 238 241 255 238 241 255 238 241 255 238 241 255 238 241 255 238 241 255 238 241 255 238 241 255 238 241 255 238 241 255 238 241 255 240 242 255 236 239 255 237 240 255 240 242 255 238 241 255 236 239 255 232 236 255 226 231 255 237 240 255 236 239 255 230 235 255 238 241 255 237 240 255 237 240 255 230 235 255 238 241 255 237 240 255 237 240 255 229 233 255 228 232 255 237 240 255 238 241 255 240 242 255 238 241 255 238 241 255 232 236 255 234 238 255 237 240 255 236 239 255 237 240 255 236 239 255 237 240 255 237 240 255 238 241 255 238 241 255 238 241 255 240 242 255 238 241 255 233 237 255 208 216 255 206 215 255 206 215 255 205 214 255 205 214 255 205 214 255 205 214 255 205 214 255 205 214 255 205 214 255 205 214 255 205 214 255 205 214 255 202 211 255 202 211 255 202 211 255 202 211 255 202 211 255 202 211 255 202 211 255 202 211 255 201 210 255 202 211 255 202 211 255 201 210 255 201 210 255 201 210 255 201 210 255 201 210 255 201 210 255 200 209 255 200 209 255 200 209 255 200 209 255 200 209 255 200 209 255 198 208 255 198 208 255 198 208 255 200 209 255 198 208 255 198 208 255 198 208 255 198 208 255 198 208 255 198 208 255 198 208 255 198 208 255 196 206 255 196 206 255 196 206 255 196 206 255 196 206 255 196 206 255 196 206 255 196 206 255 196 206 255 196 206 255 193 204 255 193 204 255 193 204 255 193 204 255 193 204 255 193 204 255 193 204 255 193 204 255 193 204 255 193 204 255 193 204 249 187 198 249 187 198 249 187 198 249 187 198 249 187 198 249 187 198 244 183 194 244 183 194 244 183 194 249 187 198 249 187 198 249 187 198 249 187 198 249 187 198 255 193 204 249 187 198 
255 196 206 255 196 206 255 196 206 255 196 206 255 196 206 255 198 208 255 198 208 255 198 208 255 200 209 255 201 210 255 200 209 255 200 209 255 200 209 255 200 209 255 200 209 255 200 209 255 200 209 255 200 209 255 200 209 255 200 209 255 200 209 255 200 209 255 201 210 255 201 210 255 201 210 255 201 210 255 201 210 255 201 210 255 202 211 255 202 211 255 202 211 255 202 211 255 202 211 255 201 210 255 202 211 255 202 211 255 202 211 255 202 211 255 202 211 255 202 211 255 202 211 255 202 211 255 202 211 255 202 211 255 201 210 255 202 211 255 206 215 255 226 231 255 236 239 255 236 239 255 236 239 255 236 239 255 236 239 255 236 239 255 237 240 255 237 240 255 236 239 255 236 239 255 236 239 255 236 239 255 236 239 255 237 240 255 237 240 255 237 240 255 236 239 255 236 239 255 234 238 255 230 235 255 230 235 255 230 235 255 232 236 255 225 230 255 228 232 255 222 228 255 232 236 255 236 239 255 237 240 255 237 240 255 237 240 255 238 241 255 238 241 255 238 241 255 238 241 255 238 241 255 238 241 255 238 241 255 238 241 255 237 240 255 237 240 255 238 241 255 236 239 255 238 241 255 238 241 255 238 241 255 237 240 255 238 241 255 238 241 255 238 241 255 238 241 255 238 241 255 238 241 255 238 241 255 238 241 255 216 222 255 236 239 255 238 241 255 237 240 255 236 239 255 240 242 255 238 241 255 238 241 255 238 241 255 238 241 255 237 240 255 234 238 255 237 240 255 240 242 255 238 241 255 238 241 255 238 241 255 238 241 255 233 237 255 236 239 255 238 241 255 238 241 255 238 241 255 238 241 255 238 241 255 238 241 255 238 241 255 238 241 255 238 241 255 238 241 255 238 241 255 238 241 255 238 241 255 238 241 255 217 224 255 206 215 255 206 215 255 205 214 255 205 214 255 205 214 255 205 214 255 205 214 255 205 214 255 205 214 255 202 211 255 202 211 255 202 211 255 202 211 255 202 211 255 202 211 255 202 211 255 202 211 255 202 211 255 202 211 255 201 210 255 201 210 255 201 210 255 201 210 255 201 210 255 201 210 255 201 210 255 201 210 255 200 209 255 200 209 255 200 209 255 198 208 255 198 208 255 198 208 255 198 208 255 198 208 255 198 208 255 198 208 255 198 208 255 198 208 255 198 208 255 198 208 255 198 208 255 198 208 255 196 206 255 196 206 255 196 206 255 196 206 255 196 206 255 196 206 255 196 206 255 193 204 255 193 204 255 193 204 255 193 204 255 193 204 255 193 204 255 193 204 255 193 204 255 193 204 255 193 204 255 193 204 255 193 204 249 187 198 249 187 198 249 187 198 249 187 198 249 187 198 249 187 198 249 187 198 249 187 198 249 187 198 249 187 198 244 183 194 244 183 194 244 183 194 249 187 198 249 187 198 249 187 198 249 187 198 249 187 198 255 193 204 249 187 198 
255 196 206 255 196 206 255 196 206 255 196 206 255 196 206 255 198 208 255 198 208 255 198 208 255 200 209 255 201 210 255 200 209 255 200 209 255 200 209 255 200 209 255 200 209 255 200 209 255 200 209 255 200 209 255 200 209 255 200 209 255 200 209 255 200 209 255 201 210 255 201 210 255 201 210 255 201 210 255 201 210 255 201 210 255 202 211 255 202 211 255 202 211 255 202 211 255 202 211 255 201 210 255 202 211 255 202 211 255 202 211 255 202 211 255 202 211 255 202 211 255 202 211 255 202 211 255 202 211 255 202 211 255 201 210 255 202 211 255 206 215 255 226 231 255 236 239 255 236 239 255 236 239 255 236 239 255 236 239 255 236 239 255 237 240 255 237 240 255 236 239 255 236 239 255 236 239 255 236 239 255 236 239 255 237 240 255 237 240 255 237 240 255 236 239 255 236 239 255 234 238 255 230 235 255 230 235 255 230 235 255 232 236 255 225 230 255 228 232 255 222 228 255 232 236 255 236 239 255 237 240 255 237 240 255 237 240 255 238 241 255 238 241 255 238 241 255 238 241 255 238 241 255 238 241 255 238 241 255 238 241 255 237 240 255 237 240 255 238 241 255 236 239 255 238 241 255 238 241 255 238 241 255 237 240 255 238 241 255 238 241 255 238 241 255 238 241 255 238 241 255 238 241 255 238 241 255 238 241 255 216 222 255 236 239 255 238 241 255 237 240 255 236 239 255 240 242 255 238 241 255 238 241 255 238 241 255 238 241 255 237 240 255 234 238 255 237 240 255 240 242 255 238 241 255 238 241 255 238 241 255 238 241 255 233 237 255 236 239 255 238 241 255 238 241 255 238 241 255 238 241 255 238 241 255 238 241 255 238 241 255 238 241 255 238 241 255 238 241 255 238 241 255 238 241 255 238 241 255 238 241 255 217 224 255 206 215 255 206 215 255 205 214 255 205 214 255 205 214 255 205 214 255 205 214 255 205 214 255 205 214 255 202 211 255 202 211 255 202 211 255 202 211 255 202 211 255 202 211 255 202 211 255 202 211 255 202 211 255 202 211 255 201 210 255 201 210 255 201 210 255 201 210 255 201 210 255 201 210 255 201 210 255 201 210 255 200 209 255 200 209 255 200 209 255 198 208 255 198 208 255 198 208 255 198 208 255 198 208 255 198 208 255 198 208 255 198 208 255 198 208 255 198 208 255 198 208 255 198 208 255 198 208 255 196 206 255 196 206 255 196 206 255 196 206 255 196 206 255 196 206 255 196 206 255 193 204 255 193 204 255 193 204 255 193 204 255 193 204 255 193 204 255 193 204 255 193 204 255 193 204 255 193 204 255 193 204 255 193 204 249 187 198 249 187 198 249 187 198 249 187 198 249 187 198 249 187 198 249 187 198 249 187 198 249 187 198 249 187 198 244 183 194 244 183 194 244 183 194 249 187 198 249 187 198 249 187 198 249 187 198 249 187 198 255 193 204 249 187 198 
255 196 206 255 196 206 255 196 206 255 196 206 255 196 206 255 196 206 255 196 206 255 196 206 255 196 206 255 196 206 255 196 206 255 196 206 255 198 208 255 198 208 255 198 208 255 198 208 255 198 208 255 200 209 255 200 209 255 200 209 255 200 209 255 200 209 255 200 209 255 200 209 255 201 210 255 201 210 255 201 210 255 201 210 255 201 210 255 201 210 255 201 210 255 201 210 255 201 210 255 201 210 255 201 210 255 201 210 255 201 210 255 202 211 255 202 211 255 202 211 255 202 211 255 202 211 255 205 214 255 201 210 255 202 211 255 213 220 255 236 239 255 234 238 255 236 239 255 236 239 255 236 239 255 236 239 255 236 239 255 236 239 255 236 239 255 236 239 255 236 239 255 236 239 255 236 239 255 236 239 255 236 239 255 237 240 255 234 238 255 230 235 255 228 232 255 228 232 255 228 232 255 230 235 255 234 238 255 236 239 255 237 240 255 237 240 255 233 237 255 236 239 255 237 240 255 237 240 255 237 240 255 237 240 255 237 240 255 237 240 255 237 240 255 238 241 255 238 241 255 237 240 255 238 241 255 237 240 255 233 237 255 210 218 255 205 214 255 196 206 255 212 219 255 210 218 227 171 181 255 202 211 255 213 220 255 233 237 255 238 241 255 238 241 255 222 228 255 232 236 255 238 241 255 238 241 255 238 241 255 238 241 255 236 239 255 238 241 255 238 241 255 238 241 255 238 241 255 238 241 255 238 241 255 238 241 255 238 241 255 237 240 255 238 241 255 238 241 255 238 241 255 238 241 255 238 241 255 238 241 255 238 241 255 236 239 255 238 241 255 237 240 255 238 241 255 238 241 255 238 241 255 238 241 255 238 241 255 238 241 255 238 241 255 238 241 255 238 241 255 238 241 255 238 241 255 238 241 255 238 241 255 238 241 255 238 241 255 214 221 255 205 214 255 205 214 255 205 214 255 205 214 255 202 211 255 202 211 255 202 211 255 202 211 255 202 211 255 202 211 255 202 211 255 202 211 255 202 211 255 202 211 255 201 210 255 201 210 255 201 210 255 201 210 255 201 210 255 201 210 255 201 210 255 201 210 255 201 210 255 201 210 255 200 209 255 200 209 255 200 209 255 200 209 255 198 208 255 198 208 255 198 208 255 198 208 255 198 208 255 198 208 255 198 208 255 198 208 255 198 208 255 198 208 255 196 206 255 196 206 255 196 206 255 196 206 255 196 206 255 196 206 255 196 206 255 196 206 255 196 206 255 196 206 255 193 204 255 193 204 255 193 204 255 193 204 255 193 204 255 193 204 255 193 204 255 193 204 255 193 204 255 193 204 249 187 198 249 187 198 249 187 198 249 187 198 249 187 198 249 187 198 249 187 198 249 187 198 249 187 198 249 187 198 249 187 198 244 183 194 244 183 194 244 183 194 244 183 194 244 183 194 244 183 194 249 187 198 249 187 198 249 187 198 255 193 204 249 187 198 
255 196 206 255 196 206 255 196 206 255 196 206 255 196 206 255 196 206 255 196 206 255 196 206 255 196 206 255 196 206 255 196 206 255 196 206 255 198 208 255 198 208 255 198 208 255 198 208 255 198 208 255 200 209 255 200 209 255 200 209 255 200 209 255 200 209 255 200 209 255 200 209 255 201 210 255 201 210 255 201 210 255 201 210 255 201 210 255 201 210 255 201 210 255 201 210 255 201 210 255 201 210 255 201 210 255 201 210 255 201 210 255 202 211 255 202 211 255 202 211 255 202 211 255 202 211 255 205 214 255 201 210 255 202 211 255 213 220 255 236 239 255 234 238 255 236 239 255 236 239 255 236 239 255 236 239 255 236 239 255 236 239 255 236 239 255 236 239 255 236 239 255 236 239 255 236 239 255 236 239 255 236 239 255 237 240 255 234 238 255 230 235 255 228 232 255 228 232 255 228 232 255 230 235 255 234 238 255 236 239 255 237 240 255 237 240 255 233 237 255 236 239 255 237 240 255 237 240 255 237 240 255 237 240 255 237 240 255 237 240 255 237 240 255 238 241 255 238 241 255 237 240 255 238 241 255 237 240 255 233 237 255 210 218 255 205 214 255 196 206 255 212 219 255 210 218 227 171 181 255 202 211 255 213 220 255 233 237 255 238 241 255 238 241 255 222 228 255 232 236 255 238 241 255 238 241 255 238 241 255 238 241 255 236 239 255 238 241 255 238 241 255 238 241 255 238 241 255 238 241 255 238 241 255 238 241 255 238 241 255 237 240 255 238 241 255 238 241 255 238 241 255 238 241 255 238 241 255 238 241 255 238 241 255 236 239 255 238 241 255 237 240 255 238 241 255 238 241 255 238 241 255 238 241 255 238 241 255 238 241 255 238 241 255 238 241 255 238 241 255 238 241 255 238 241 255 238 241 255 238 241 255 238 241 255 238 241 255 214 221 255 205 214 255 205 214 255 205 214 255 205 214 255 202 211 255 202 211 255 202 211 255 202 211 255 202 211 255 202 211 255 202 211 255 202 211 255 202 211 255 202 211 255 201 210 255 201 210 255 201 210 255 201 210 255 201 210 255 201 210 255 201 210 255 201 210 255 201 210 255 201 210 255 200 209 255 200 209 255 200 209 255 200 209 255 198 208 255 198 208 255 198 208 255 198 208 255 198 208 255 198 208 255 198 208 255 198 208 255 198 208 255 198 208 255 196 206 255 196 206 255 196 206 255 196 206 255 196 206 255 196 206 255 196 206 255 196 206 255 196 206 255 196 206 255 193 204 255 193 204 255 193 204 255 193 204 255 193 204 255 193 204 255 193 204 255 193 204 255 193 204 255 193 204 249 187 198 249 187 198 249 187 198 249 187 198 249 187 198 249 187 198 249 187 198 249 187 198 249 187 198 249 187 198 249 187 198 244 183 194 244 183 194 244 183 194 244 183 194 244 183 194 244 183 194 249 187 198 249 187 198 249 187 198 255 193 204 249 187 198 
255 196 206 255 196 206 255 196 206 255 196 206 255 196 206 255 198 208 255 198 208 255 196 206 255 196 206 255 196 206 255 196 206 255 196 206 255 196 206 255 196 206 255 196 206 255 198 208 255 198 208 255 200 209 255 200 209 255 200 209 255 200 209 255 200 209 255 200 209 255 200 209 255 200 209 255 200 209 255 200 209 255 201 210 255 201 210 255 201 210 255 201 210 255 201 210 255 201 210 255 201 210 255 201 210 255 201 210 255 201 210 255 202 211 255 201 210 255 201 210 255 201 210 255 201 210 255 202 211 255 212 219 255 234 238 255 233 237 255 236 239 255 236 239 255 234 238 255 236 239 255 236 239 255 236 239 255 236 239 255 236 239 255 236 239 255 236 239 255 236 239 255 236 239 255 236 239 255 236 239 255 236 239 255 236 239 255 236 239 255 237 240 255 238 241 255 236 239 255 234 238 255 233 237 255 236 239 255 237 240 255 237 240 255 236 239 255 238 241 255 237 240 255 238 241 255 238 241 255 238 241 255 238 241 255 237 240 255 237 240 255 237 240 255 238 241 255 238 241 255 237 240 255 236 239 255 237 240 255 233 237 255 224 229 249 187 198 244 183 194 222 167 177 255 213 220 255 221 227 255 193 204 255 196 206 255 213 220 255 228 232 255 236 239 255 234 238 255 200 209 255 225 230 255 240 242 255 238 241 255 238 241 255 238 241 255 238 241 255 238 241 255 238 241 255 238 241 255 238 241 255 238 241 255 238 241 255 238 241 255 238 241 255 238 241 255 238 241 255 238 241 255 238 241 255 238 241 255 238 241 255 237 240 255 238 241 255 238 241 255 238 241 255 238 241 255 238 241 255 238 241 255 238 241 255 238 241 255 238 241 255 238 241 255 238 241 255 238 241 255 238 241 255 238 241 255 238 241 255 238 241 255 238 241 255 238 241 255 238 241 255 234 238 255 205 214 255 202 211 255 202 211 255 202 211 255 202 211 255 202 211 255 202 211 255 202 211 255 202 211 255 202 211 255 202 211 255 202 211 255 202 211 255 201 210 255 201 210 255 201 210 255 201 210 255 201 210 255 201 210 255 201 210 255 201 210 255 201 210 255 201 210 255 200 209 255 200 209 255 200 209 255 198 208 255 198 208 255 198 208 255 198 208 255 198 208 255 198 208 255 198 208 255 198 208 255 198 208 255 198 208 255 198 208 255 196 206 255 196 206 255 196 206 255 196 206 255 196 206 255 196 206 255 196 206 255 196 206 255 196 206 255 196 206 255 193 204 255 193 204 255 193 204 255 193 204 255 193 204 255 193 204 255 193 204 255 193 204 255 193 204 255 193 204 249 187 198 249 187 198 249 187 198 249 187 198 249 187 198 249 187 198 249 187 198 249 187 198 249 187 198 249 187 198 244 183 194 244 183 194 244 183 194 244 183 194 244 183 194 244 183 194 244 183 194 244 183 194 249 187 198 249 187 198 255 193 204 255 193 204 
255 196 206 255 196 206 255 196 206 255 196 206 255 196 206 255 198 208 255 198 208 255 196 206 255 196 206 255 196 206 255 196 206 255 196 206 255 196 206 255 196 206 255 196 206 255 198 208 255 198 208 255 200 209 255 200 209 255 200 209 255 200 209 255 200 209 255 200 209 255 200 209 255 200 209 255 200 209 255 200 209 255 201 210 255 201 210 255 201 210 255 201 210 255 201 210 255 201 210 255 201 210 255 201 210 255 201 210 255 201 210 255 202 211 255 201 210 255 201 210 255 201 210 255 201 210 255 202 211 255 212 219 255 234 238 255 233 237 255 236 239 255 236 239 255 234 238 255 236 239 255 236 239 255 236 239 255 236 239 255 236 239 255 236 239 255 236 239 255 236 239 255 236 239 255 236 239 255 236 239 255 236 239 255 236 239 255 236 239 255 237 240 255 238 241 255 236 239 255 234 238 255 233 237 255 236 239 255 237 240 255 237 240 255 236 239 255 238 241 255 237 240 255 238 241 255 238 241 255 238 241 255 238 241 255 237 240 255 237 240 255 237 240 255 238 241 255 238 241 255 237 240 255 236 239 255 237 240 255 233 237 255 224 229 249 187 198 244 183 194 222 167 177 255 213 220 255 221 227 255 193 204 255 196 206 255 213 220 255 228 232 255 236 239 255 234 238 255 200 209 255 225 230 255 240 242 255 238 241 255 238 241 255 238 241 255 238 241 255 238 241 255 238 241 255 238 241 255 238 241 255 238 241 255 238 241 255 238 241 255 238 241 255 238 241 255 238 241 255 238 241 255 238 241 255 238 241 255 238 241 255 237 240 255 238 241 255 238 241 255 238 241 255 238 241 255 238 241 255 238 241 255 238 241 255 238 241 255 238 241 255 238 241 255 238 241 255 238 241 255 238 241 255 238 241 255 238 241 255 238 241 255 238 241 255 238 241 255 238 241 255 234 238 255 205 214 255 202 211 255 202 211 255 202 211 255 202 211 255 202 211 255 202 211 255 202 211 255 202 211 255 202 211 255 202 211 255 202 211 255 202 211 255 201 210 255 201 210 255 201 210 255 201 210 255 201 210 255 201 210 255 201 210 255 201 210 255 201 210 255 201 210 255 200 209 255 200 209 255 200 209 255 198 208 255 198 208 255 198 208 255 198 208 255 198 208 255 198 208 255 198 208 255 198 208 255 198 208 255 198 208 255 198 208 255 196 206 255 196 206 255 196 206 255 196 206 255 196 206 255 196 206 255 196 206 255 196 206 255 196 206 255 196 206 255 193 204 255 193 204 255 193 204 255 193 204 255 193 204 255 193 204 255 193 204 255 193 204 255 193 204 255 193 204 249 187 198 249 187 198 249 187 198 249 187 198 249 187 198 249 187 198 249 187 198 249 187 198 249 187 198 249 187 198 244 183 194 244 183 194 244 183 194 244 183 194 244 183 194 244 183 194 244 183 194 244 183 194 249 187 198 249 187 198 255 193 204 255 193 204 
255 198 208 255 198 208 255 198 208 255 198 208 255 198 208 255 198 208 255 198 208 255 196 206 255 196 206 255 196 206 255 196 206 255 196 206 255 196 206 255 196 206 255 196 206 255 198 208 255 198 208 255 200 209 255 200 209 255 198 208 255 200 209 255 200 209 255 200 209 255 200 209 255 200 209 255 200 209 255 200 209 255 201 210 255 201 210 255 201 210 255 201 210 255 201 210 255 201 210 255 201 210 255 201 210 255 201 210 255 201 210 255 201 210 255 201 210 255 200 209 255 201 210 255 201 210 255 228 232 255 236 239 255 234 238 255 234 238 255 234 238 255 234 238 255 236 239 255 236 239 255 236 239 255 236 239 255 236 239 255 236 239 255 236 239 255 236 239 255 236 239 255 236 239 255 236 239 255 236 239 255 236 239 255 236 239 255 236 239 255 236 239 255 236 239 255 237 240 255 237 240 255 237 240 255 237 240 255 237 240 255 237 240 255 237 240 255 237 240 255 237 240 255 238 241 255 238 241 255 238 241 255 238 241 255 237 240 255 237 240 255 237 240 255 238 241 255 238 241 255 237 240 255 236 239 255 224 229 255 228 232 255 234 238 255 228 232 255 221 227 255 225 230 255 216 222 255 193 204 217 163 172 255 198 208 249 187 198 255 208 216 255 228 232 255 206 215 255 206 215 157 118 125 255 228 232 255 238 241 255 238 241 255 238 241 255 238 241 255 238 241 255 238 241 255 238 241 255 238 241 255 238 241 255 238 241 255 238 241 255 238 241 255 238 241 255 238 241 255 238 241 255 238 241 255 238 241 255 238 241 255 238 241 255 238 241 255 238 241 255 238 241 255 238 241 255 237 240 255 237 240 255 238 241 255 238 241 255 238 241 255 238 241 255 238 241 255 238 241 255 238 241 255 238 241 255 238 241 255 238 241 255 238 241 255 238 241 255 238 241 255 237 240 255 242 245 255 212 219 255 206 215 255 202 211 255 202 211 255 202 211 255 202 211 255 202 211 255 201 210 255 201 210 255 201 210 255 201 210 255 201 210 255 201 210 255 201 210 255 201 210 255 201 210 255 201 210 255 201 210 255 201 210 255 200 209 255 200 209 255 200 209 255 200 209 255 200 209 255 200 209 255 198 208 255 198 208 255 198 208 255 198 208 255 198 208 255 198 208 255 198 208 255 198 208 255 198 208 255 198 208 255 198 208 255 196 206 255 196 206 255 196 206 255 193 204 255 193 204 255 193 204 255 193 204 255 193 204 255 193 204 255 193 204 255 193 204 255 193 204 255 193 204 255 193 204 255 193 204 255 193 204 255 193 204 249 187 198 255 193 204 255 193 204 249 187 198 249 187 198 249 187 198 249 187 198 249 187 198 249 187 198 249 187 198 249 187 198 249 187 198 249 187 198 244 183 194 244 183 194 244 183 194 244 183 194 244 183 194 244 183 194 244 183 194 244 183 194 249 187 198 249 187 198 255 193 204 255 193 204 
255 198 208 255 198 208 255 198 208 255 198 208 255 198 208 255 198 208 255 198 208 255 196 206 255 196 206 255 196 206 255 196 206 255 196 206 255 196 206 255 196 206 255 196 206 255 198 208 255 198 208 255 200 209 255 200 209 255 198 208 255 200 209 255 200 209 255 200 209 255 200 209 255 200 209 255 200 209 255 200 209 255 201 210 255 201 210 255 201 210 255 201 210 255 201 210 255 201 210 255 201 210 255 201 210 255 201 210 255 201 210 255 201 210 255 201 210 255 200 209 255 201 210 255 201 210 255 228 232 255 236 239 255 234 238 255 234 238 255 234 238 255 234 238 255 236 239 255 236 239 255 236 239 255 236 239 255 236 239 255 236 239 255 236 239 255 236 239 255 236 239 255 236 239 255 236 239 255 236 239 255 236 239 255 236 239 255 236 239 255 236 239 255 236 239 255 237 240 255 237 240 255 237 240 255 237 240 255 237 240 255 237 240 255 237 240 255 237 240 255 237 240 255 238 241 255 238 241 255 238 241 255 238 241 255 237 240 255 237 240 255 237 240 255 238 241 255 238 241 255 237 240 255 236 239 255 224 229 255 228 232 255 234 238 255 228 232 255 221 227 255 225 230 255 216 222 255 193 204 217 163 172 255 198 208 249 187 198 255 208 216 255 228 232 255 206 215 255 206 215 157 118 125 255 228 232 255 238 241 255 238 241 255 238 241 255 238 241 255 238 241 255 238 241 255 238 241 255 238 241 255 238 241 255 238 241 255 238 241 255 238 241 255 238 241 255 238 241 255 238 241 255 238 241 255 238 241 255 238 241 255 238 241 255 238 241 255 238 241 255 238 241 255 238 241 255 237 240 255 237 240 255 238 241 255 238 241 255 238 241 255 238 241 255 238 241 255 238 241 255 238 241 255 238 241 255 238 241 255 238 241 255 238 241 255 238 241 255 238 241 255 237 240 255 242 245 255 212 219 255 206 215 255 202 211 255 202 211 255 202 211 255 202 211 255 202 211 255 201 210 255 201 210 255 201 210 255 201 210 255 201 210 255 201 210 255 201 210 255 201 210 255 201 210 255 201 210 255 201 210 255 201 210 255 200 209 255 200 209 255 200 209 255 200 209 255 200 209 255 200 209 255 198 208 255 198 208 255 198 208 255 198 208 255 198 208 255 198 208 255 198 208 255 198 208 255 198 208 255 198 208 255 198 208 255 196 206 255 196 206 255 196 206 255 193 204 255 193 204 255 193 204 255 193 204 255 193 204 255 193 204 255 193 204 255 193 204 255 193 204 255 193 204 255 193 204 255 193 204 255 193 204 255 193 204 249 187 198 255 193 204 255 193 204 249 187 198 249 187 198 249 187 198 249 187 198 249 187 198 249 187 198 249 187 198 249 187 198 249 187 198 249 187 198 244 183 194 244 183 194 244 183 194 244 183 194 244 183 194 244 183 194 244 183 194 244 183 194 249 187 198 249 187 198 255 193 204 255 193 204 
255 198 208 255 198 208 255 198 208 255 198 208 255 198 208 255 198 208 255 198 208 255 198 208 255 198 208 255 198 208 255 196 206 255 196 206 255 196 206 255 196 206 255 196 206 255 198 208 255 198 208 255 200 209 255 200 209 255 198 208 255 198 208 255 198 208 255 200 209 255 200 209 255 200 209 255 200 209 255 200 209 255 200 209 255 200 209 255 200 209 255 200 209 255 200 209 255 200 209 255 200 209 255 200 209 255 201 210 255 201 210 255 201 210 255 201 210 255 201 210 255 202 211 255 232 236 255 233 237 255 233 237 255 234 238 255 234 238 255 234 238 255 234 238 255 234 238 255 234 238 255 236 239 255 236 239 255 236 239 255 236 239 255 236 239 255 236 239 255 236 239 255 236 239 255 236 239 255 236 239 255 236 239 255 236 239 255 236 239 255 236 239 255 236 239 255 236 239 255 237 240 255 237 240 255 237 240 255 237 240 255 237 240 255 237 240 255 237 240 255 237 240 255 237 240 255 237 240 255 237 240 255 237 240 255 237 240 255 237 240 255 237 240 255 238 241 255 234 238 255 229 233 255 233 237 255 228 232 255 228 232 255 216 222 255 220 226 255 229 233 255 229 233 255 216 222 255 212 219 255 198 208 211 159 168 206 155 164 244 183 194 255 196 206 255 202 211 249 187 198 217 163 172 249 187 198 255 234 238 255 237 240 255 237 240 255 238 241 255 237 240 255 237 240 255 238 241 255 238 241 255 238 241 255 238 241 255 238 241 255 238 241 255 238 241 255 238 241 255 238 241 255 238 241 255 238 241 255 238 241 255 238 241 255 238 241 255 238 241 255 236 239 255 232 236 255 225 230 255 236 239 255 238 241 255 238 241 255 237 240 255 237 240 255 237 240 255 238 241 255 238 241 255 237 240 255 238 241 255 238 241 255 238 241 255 238 241 255 237 240 255 237 240 255 237 240 255 238 241 255 222 228 255 205 214 255 202 211 255 201 210 255 201 210 255 201 210 255 201 210 255 201 210 255 201 210 255 201 210 255 201 210 255 201 210 255 201 210 255 201 210 255 201 210 255 201 210 255 201 210 255 201 210 255 200 209 255 200 209 255 200 209 255 200 209 255 200 209 255 200 209 255 198 208 255 198 208 255 198 208 255 198 208 255 198 208 255 198 208 255 198 208 255 198 208 255 196 206 255 196 206 255 196 206 255 196 206 255 196 206 255 196 206 255 196 206 255 193 204 255 193 204 255 193 204 255 193 204 255 193 204 255 193 204 255 193 204 255 193 204 255 193 204 255 193 204 249 187 198 249 187 198 249 187 198 249 187 198 249 187 198 249 187 198 249 187 198 249 187 198 249 187 198 249 187 198 249 187 198 249 187 198 249 187 198 249 187 198 249 187 198 249 187 198 244 183 194 244 183 194 244 183 194 244 183 194 244 183 194 244 183 194 244 183 194 249 187 198 249 187 198 249 187 198 255 193 204 255 193 204 
255 198 208 255 198 208 255 198 208 255 198 208 255 198 208 255 198 208 255 198 208 255 198 208 255 198 208 255 198 208 255 196 206 255 196 206 255 196 206 255 196 206 255 196 206 255 198 208 255 198 208 255 200 209 255 200 209 255 198 208 255 198 208 255 198 208 255 200 209 255 200 209 255 200 209 255 200 209 255 200 209 255 200 209 255 200 209 255 200 209 255 200 209 255 200 209 255 200 209 255 200 209 255 200 209 255 201 210 255 201 210 255 201 210 255 201 210 255 201 210 255 202 211 255 232 236 255 233 237 255 233 237 255 234 238 255 234 238 255 234 238 255 234 238 255 234 238 255 234 238 255 236 239 255 236 239 255 236 239 255 236 239 255 236 239 255 236 239 255 236 239 255 236 239 255 236 239 255 236 239 255 236 239 255 236 239 255 236 239 255 236 239 255 236 239 255 236 239 255 237 240 255 237 240 255 237 240 255 237 240 255 237 240 255 237 240 255 237 240 255 237 240 255 237 240 255 237 240 255 237 240 255 237 240 255 237 240 255 237 240 255 237 240 255 238 241 255 234 238 255 229 233 255 233 237 255 228 232 255 228 232 255 216 222 255 220 226 255 229 233 255 229 233 255 216 222 255 212 219 255 198 208 211 159 168 206 155 164 244 183 194 255 196 206 255 202 211 249 187 198 217 163 172 249 187 198 255 234 238 255 237 240 255 237 240 255 238 241 255 237 240 255 237 240 255 238 241 255 238 241 255 238 241 255 238 241 255 238 241 255 238 241 255 238 241 255 238 241 255 238 241 255 238 241 255 238 241 255 238 241 255 238 241 255 238 241 255 238 241 255 236 239 255 232 236 255 225 230 255 236 239 255 238 241 255 238 241 255 237 240 255 237 240 255 237 240 255 238 241 255 238 241 255 237 240 255 238 241 255 238 241 255 238 241 255 238 241 255 237 240 255 237 240 255 237 240 255 238 241 255 222 228 255 205 214 255 202 211 255 201 210 255 201 210 255 201 210 255 201 210 255 201 210 255 201 210 255 201 210 255 201 210 255 201 210 255 201 210 255 201 210 255 201 210 255 201 210 255 201 210 255 201 210 255 200 209 255 200 209 255 200 209 255 200 209 255 200 209 255 200 209 255 198 208 255 198 208 255 198 208 255 198 208 255 198 208 255 198 208 255 198 208 255 198 208 255 196 206 255 196 206 255 196 206 255 196 206 255 196 206 255 196 206 255 196 206 255 193 204 255 193 204 255 193 204 255 193 204 255 193 204 255 193 204 255 193 204 255 193 204 255 193 204 255 193 204 249 187 198 249 187 198 249 187 198 249 187 198 249 187 198 249 187 198 249 187 198 249 187 198 249 187 198 249 187 198 249 187 198 249 187 198 249 187 198 249 187 198 249 187 198 249 187 198 244 183 194 244 183 194 244 183 194 244 183 194 244 183 194 244 183 194 244 183 194 249 187 198 249 187 198 249 187 198 255 193 204 255 193 204 
255 198 208 255 198 208 255 198 208 255 198 208 255 198 208 255 198 208 255 198 208 255 198 208 255 198 208 255 198 208 255 196 206 255 196 206 255 196 206 255 196 206 255 198 208 255 198 208 255 198 208 255 200 209 255 200 209 255 198 208 255 198 208 255 198 208 255 200 209 255 200 209 255 200 209 255 200 209 255 200 209 255 200 209 255 200 209 255 200 209 255 200 209 255 200 209 255 200 209 255 200 209 255 200 209 255 200 209 255 200 209 255 200 209 255 201 210 255 202 211 255 233 237 255 234 238 255 234 238 255 234 238 255 234 238 255 234 238 255 234 238 255 234 238 255 234 238 255 236 239 255 236 239 255 236 239 255 236 239 255 236 239 255 236 239 255 236 239 255 236 239 255 236 239 255 236 239 255 236 239 255 236 239 255 236 239 255 236 239 255 236 239 255 236 239 255 236 239 255 237 240 255 237 240 255 237 240 255 237 240 255 237 240 255 237 240 255 237 240 255 237 240 255 237 240 255 237 240 255 237 240 255 237 240 255 238 241 255 237 240 255 237 240 255 236 239 255 234 238 255 236 239 255 228 232 255 224 229 255 217 224 255 213 220 255 221 227 255 209 217 255 200 209 255 210 218 255 196 206 249 187 198 222 167 177 206 155 164 206 155 164 222 167 177 222 167 177 249 187 198 206 155 164 200 151 159 255 201 210 255 237 240 255 238 241 255 238 241 255 238 241 255 238 241 255 238 241 255 238 241 255 237 240 255 238 241 255 238 241 255 238 241 255 238 241 255 237 240 255 238 241 255 237 240 255 238 241 255 238 241 255 238 241 255 237 240 255 237 240 255 236 239 255 233 237 255 220 226 255 236 239 255 238 241 255 237 240 255 237 240 255 237 240 255 237 240 255 236 239 255 237 240 255 238 241 255 238 241 255 237 240 255 238 241 255 238 241 255 237 240 255 237 240 255 237 240 255 237 240 255 238 241 255 222 228 255 202 211 255 201 210 255 201 210 255 201 210 255 201 210 255 201 210 255 201 210 255 201 210 255 201 210 255 201 210 255 201 210 255 201 210 255 200 209 255 200 209 255 201 210 255 201 210 255 200 209 255 200 209 255 200 209 255 200 209 255 200 209 255 200 209 255 198 208 255 198 208 255 198 208 255 198 208 255 198 208 255 198 208 255 198 208 255 198 208 255 198 208 255 196 206 255 196 206 255 196 206 255 196 206 255 196 206 255 196 206 255 193 204 255 193 204 255 193 204 255 193 204 255 193 204 255 193 204 255 193 204 255 193 204 255 193 204 255 193 204 249 187 198 249 187 198 249 187 198 249 187 198 249 187 198 249 187 198 249 187 198 249 187 198 249 187 198 249 187 198 249 187 198 249 187 198 249 187 198 249 187 198 249 187 198 249 187 198 249 187 198 244 183 194 244 183 194 244 183 194 244 183 194 244 183 194 244 183 194 249 187 198 249 187 198 249 187 198 255 193 204 255 193 204 
255 198 208 255 198 208 255 198 208 255 198 208 255 198 208 255 198 208 255 198 208 255 198 208 255 198 208 255 198 208 255 196 206 255 196 206 255 196 206 255 196 206 255 198 208 255 198 208 255 198 208 255 200 209 255 200 209 255 198 208 255 198 208 255 198 208 255 200 209 255 200 209 255 200 209 255 200 209 255 200 209 255 200 209 255 200 209 255 200 209 255 200 209 255 200 209 255 200 209 255 200 209 255 200 209 255 200 209 255 200 209 255 200 209 255 201 210 255 202 211 255 233 237 255 234 238 255 234 238 255 234 238 255 234 238 255 234 238 255 234 238 255 234 238 255 234 238 255 236 239 255 236 239 255 236 239 255 236 239 255 236 239 255 236 239 255 236 239 255 236 239 255 236 239 255 236 239 255 236 239 255 236 239 255 236 239 255 236 239 255 236 239 255 236 239 255 236 239 255 237 240 255 237 240 255 237 240 255 237 240 255 237 240 255 237 240 255 237 240 255 237 240 255 237 240 255 237 240 255 237 240 255 237 240 255 238 241 255 237 240 255 237 240 255 236 239 255 234 238 255 236 239 255 228 232 255 224 229 255 217 224 255 213 220 255 221 227 255 209 217 255 200 209 255 210 218 255 196 206 249 187 198 222 167 177 206 155 164 206 155 164 222 167 177 222 167 177 249 187 198 206 155 164 200 151 159 255 201 210 255 237 240 255 238 241 255 238 241 255 238 241 255 238 241 255 238 241 255 238 241 255 237 240 255 238 241 255 238 241 255 238 241 255 238 241 255 237 240 255 238 241 255 237 240 255 238 241 255 238 241 255 238 241 255 237 240 255 237 240 255 236 239 255 233 237 255 220 226 255 236 239 255 238 241 255 237 240 255 237 240 255 237 240 255 237 240 255 236 239 255 237 240 255 238 241 255 238 241 255 237 240 255 238 241 255 238 241 255 237 240 255 237 240 255 237 240 255 237 240 255 238 241 255 222 228 255 202 211 255 201 210 255 201 210 255 201 210 255 201 210 255 201 210 255 201 210 255 201 210 255 201 210 255 201 210 255 201 210 255 201 210 255 200 209 255 200 209 255 201 210 255 201 210 255 200 209 255 200 209 255 200 209 255 200 209 255 200 209 255 200 209 255 198 208 255 198 208 255 198 208 255 198 208 255 198 208 255 198 208 255 198 208 255 198 208 255 198 208 255 196 206 255 196 206 255 196 206 255 196 206 255 196 206 255 196 206 255 193 204 255 193 204 255 193 204 255 193 204 255 193 204 255 193 204 255 193 204 255 193 204 255 193 204 255 193 204 249 187 198 249 187 198 249 187 198 249 187 198 249 187 198 249 187 198 249 187 198 249 187 198 249 187 198 249 187 198 249 187 198 249 187 198 249 187 198 249 187 198 249 187 198 249 187 198 249 187 198 244 183 194 244 183 194 244 183 194 244 183 194 244 183 194 244 183 194 249 187 198 249 187 198 249 187 198 255 193 204 255 193 204 
255 198 208 255 198 208 255 200 209 255 200 209 255 200 209 255 198 208 255 198 208 255 198 208 255 198 208 255 196 206 255 198 208 255 198 208 255 198 208 255 198 208 255 198 208 255 200 209 255 200 209 255 200 209 255 200 209 255 200 209 255 200 209 255 200 209 255 200 209 255 200 209 255 200 209 255 200 209 255 200 209 255 200 209 255 200 209 255 200 209 255 200 209 255 200 209 255 200 209 255 200 209 255 200 209 255 200 209 255 201 210 255 201 210 255 209 217 255 234 238 255 233 237 255 234 238 255 234 238 255 234 238 255 234 238 255 234 238 255 234 238 255 234 238 255 234 238 255 236 239 255 236 239 255 236 239 255 236 239 255 236 239 255 236 239 255 236 239 255 236 239 255 236 239 255 236 239 255 236 239 255 236 239 255 236 239 255 236 239 255 236 239 255 237 240 255 237 240 255 237 240 255 237 240 255 237 240 255 237 240 255 237 240 255 237 240 255 237 240 255 237 240 255 237 240 255 237 240 255 237 240 255 237 240 255 238 241 255 236 239 255 234 238 255 238 241 255 234 238 255 232 236 255 208 216 255 208 216 255 206 215 255 198 208 244 183 194 255 209 217 255 226 231 255 217 224 255 201 210 222 167 177 200 151 159 206 155 164 200 151 159 206 155 164 222 167 177 211 159 168 244 183 194 206 155 164 211 159 168 255 221 227 255 237 240 255 238 241 255 238 241 255 238 241 255 238 241 255 238 241 255 238 241 255 237 240 255 238 241 255 238 241 255 238 241 255 237 240 255 234 238 255 238 241 255 237 240 255 237 240 255 238 241 255 238 241 255 238 241 255 238 241 255 236 239 255 232 236 255 230 235 255 236 239 255 237 240 255 237 240 255 237 240 255 237 240 255 229 233 255 234 238 255 237 240 255 238 241 255 238 241 255 238 241 255 238 241 255 238 241 255 238 241 255 238 241 255 237 240 255 238 241 255 242 245 255 221 227 255 205 214 255 202 211 255 201 210 255 201 210 255 201 210 255 201 210 255 201 210 255 201 210 255 201 210 255 201 210 255 200 209 255 200 209 255 200 209 255 201 210 255 201 210 255 200 209 255 200 209 255 200 209 255 200 209 255 200 209 255 200 209 255 198 208 255 198 208 255 198 208 255 198 208 255 198 208 255 198 208 255 198 208 255 198 208 255 198 208 255 196 206 255 196 206 255 196 206 255 196 206 255 196 206 255 196 206 255 193 204 255 193 204 255 193 204 255 193 204 255 193 204 255 193 204 255 193 204 255 193 204 255 193 204 255 193 204 255 193 204 255 193 204 255 193 204 249 187 198 255 193 204 255 193 204 249 187 198 249 187 198 249 187 198 249 187 198 249 187 198 249 187 198 249 187 198 249 187 198 249 187 198 249 187 198 249 187 198 249 187 198 244 183 194 244 183 194 244 183 194 244 183 194 244 183 194 249 187 198 249 187 198 249 187 198 255 193 204 255 196 206 
255 198 208 255 198 208 255 200 209 255 200 209 255 200 209 255 198 208 255 198 208 255 198 208 255 198 208 255 196 206 255 198 208 255 198 208 255 198 208 255 198 208 255 198 208 255 200 209 255 200 209 255 200 209 255 200 209 255 200 209 255 200 209 255 200 209 255 200 209 255 200 209 255 200 209 255 200 209 255 200 209 255 200 209 255 200 209 255 200 209 255 200 209 255 200 209 255 200 209 255 200 209 255 200 209 255 200 209 255 201 210 255 201 210 255 209 217 255 234 238 255 233 237 255 234 238 255 234 238 255 234 238 255 234 238 255 234 238 255 234 238 255 234 238 255 234 238 255 236 239 255 236 239 255 236 239 255 236 239 255 236 239 255 236 239 255 236 239 255 236 239 255 236 239 255 236 239 255 236 239 255 236 239 255 236 239 255 236 239 255 236 239 255 237 240 255 237 240 255 237 240 255 237 240 255 237 240 255 237 240 255 237 240 255 237 240 255 237 240 255 237 240 255 237 240 255 237 240 255 237 240 255 237 240 255 238 241 255 236 239 255 234 238 255 238 241 255 234 238 255 232 236 255 208 216 255 208 216 255 206 215 255 198 208 244 183 194 255 209 217 255 226 231 255 217 224 255 201 210 222 167 177 200 151 159 206 155 164 200 151 159 206 155 164 222 167 177 211 159 168 244 183 194 206 155 164 211 159 168 255 221 227 255 237 240 255 238 241 255 238 241 255 238 241 255 238 241 255 238 241 255 238 241 255 237 240 255 238 241 255 238 241 255 238 241 255 237 240 255 234 238 255 238 241 255 237 240 255 237 240 255 238 241 255 238 241 255 238 241 255 238 241 255 236 239 255 232 236 255 230 235 255 236 239 255 237 240 255 237 240 255 237 240 255 237 240 255 229 233 255 234 238 255 237 240 255 238 241 255 238 241 255 238 241 255 238 241 255 238 241 255 238 241 255 238 241 255 237 240 255 238 241 255 242 245 255 221 227 255 205 214 255 202 211 255 201 210 255 201 210 255 201 210 255 201 210 255 201 210 255 201 210 255 201 210 255 201 210 255 200 209 255 200 209 255 200 209 255 201 210 255 201 210 255 200 209 255 200 209 255 200 209 255 200 209 255 200 209 255 200 209 255 198 208 255 198 208 255 198 208 255 198 208 255 198 208 255 198 208 255 198 208 255 198 208 255 198 208 255 196 206 255 196 206 255 196 206 255 196 206 255 196 206 255 196 206 255 193 204 255 193 204 255 193 204 255 193 204 255 193 204 255 193 204 255 193 204 255 193 204 255 193 204 255 193 204 255 193 204 255 193 204 255 193 204 249 187 198 255 193 204 255 193 204 249 187 198 249 187 198 249 187 198 249 187 198 249 187 198 249 187 198 249 187 198 249 187 198 249 187 198 249 187 198 249 187 198 249 187 198 244 183 194 244 183 194 244 183 194 244 183 194 244 183 194 249 187 198 249 187 198 249 187 198 255 193 204 255 196 206 
255 198 208 255 198 208 255 200 209 255 200 209 255 198 208 255 198 208 255 198 208 255 198 208 255 198 208 255 198 208 255 198 208 255 198 208 255 198 208 255 198 208 255 200 209 255 200 209 255 200 209 255 200 209 255 200 209 255 200 209 255 200 209 255 200 209 255 200 209 255 200 209 255 200 209 255 200 209 255 200 209 255 200 209 255 200 209 255 200 209 255 200 209 255 200 209 255 200 209 255 201 210 255 201 210 255 201 210 255 200 209 255 214 221 255 237 240 255 234 238 255 234 238 255 234 238 255 234 238 255 234 238 255 234 238 255 234 238 255 233 237 255 233 237 255 234 238 255 234 238 255 234 238 255 234 238 255 236 239 255 236 239 255 236 239 255 236 239 255 234 238 255 234 238 255 234 238 255 236 239 255 236 239 255 236 239 255 236 239 255 236 239 255 236 239 255 236 239 255 236 239 255 237 240 255 237 240 255 237 240 255 237 240 255 237 240 255 237 240 255 238 241 255 238 241 255 236 239 255 237 240 255 237 240 255 237 240 255 236 239 255 232 236 255 230 235 255 232 236 255 233 237 255 237 240 255 225 230 255 198 208 255 201 210 255 209 217 206 155 164 200 151 159 255 216 222 255 210 218 222 167 177 200 151 159 195 147 155 200 151 159 200 151 159 211 159 168 222 167 177 233 175 185 206 155 164 206 155 164 222 167 177 255 222 228 255 237 240 255 237 240 255 238 241 255 238 241 255 238 241 255 238 241 255 238 241 255 238 241 255 237 240 255 236 239 255 237 240 255 236 239 255 234 238 255 233 237 255 238 241 255 238 241 255 234 238 255 237 240 255 233 237 255 236 239 255 230 235 255 232 236 255 237 240 255 237 240 255 237 240 255 238 241 255 238 241 255 224 229 255 236 239 255 238 241 255 238 241 255 237 240 255 238 241 255 238 241 255 238 241 255 238 241 255 238 241 255 237 240 255 237 240 255 237 240 255 242 245 255 210 218 255 202 211 255 201 210 255 201 210 255 201 210 255 201 210 255 201 210 255 201 210 255 201 210 255 201 210 255 201 210 255 201 210 255 201 210 255 201 210 255 201 210 255 200 209 255 200 209 255 200 209 255 200 209 255 200 209 255 200 209 255 198 208 255 198 208 255 198 208 255 198 208 255 198 208 255 198 208 255 198 208 255 198 208 255 198 208 255 198 208 255 198 208 255 196 206 255 196 206 255 196 206 255 196 206 255 196 206 255 193 204 255 193 204 255 193 204 255 193 204 255 193 204 255 193 204 255 193 204 255 193 204 255 193 204 255 193 204 255 193 204 255 193 204 255 193 204 255 193 204 255 193 204 255 193 204 255 193 204 255 193 204 255 193 204 255 193 204 255 193 204 255 193 204 249 187 198 249 187 198 249 187 198 249 187 198 249 187 198 249 187 198 249 187 198 249 187 198 249 187 198 249 187 198 249 187 198 249 187 198 255 193 204 255 196 206 255 196 206 
255 198 208 255 198 208 255 200 209 255 200 209 255 198 208 255 198 208 255 198 208 255 198 208 255 198 208 255 198 208 255 198 208 255 198 208 255 198 208 255 198 208 255 200 209 255 200 209 255 200 209 255 200 209 255 200 209 255 200 209 255 200 209 255 200 209 255 200 209 255 200 209 255 200 209 255 200 209 255 200 209 255 200 209 255 200 209 255 200 209 255 200 209 255 200 209 255 200 209 255 201 210 255 201 210 255 201 210 255 200 209 255 214 221 255 237 240 255 234 238 255 234 238 255 234 238 255 234 238 255 234 238 255 234 238 255 234 238 255 233 237 255 233 237 255 234 238 255 234 238 255 234 238 255 234 238 255 236 239 255 236 239 255 236 239 255 236 239 255 234 238 255 234 238 255 234 238 255 236 239 255 236 239 255 236 239 255 236 239 255 236 239 255 236 239 255 236 239 255 236 239 255 237 240 255 237 240 255 237 240 255 237 240 255 237 240 255 237 240 255 238 241 255 238 241 255 236 239 255 237 240 255 237 240 255 237 240 255 236 239 255 232 236 255 230 235 255 232 236 255 233 237 255 237 240 255 225 230 255 198 208 255 201 210 255 209 217 206 155 164 200 151 159 255 216 222 255 210 218 222 167 177 200 151 159 195 147 155 200 151 159 200 151 159 211 159 168 222 167 177 233 175 185 206 155 164 206 155 164 222 167 177 255 222 228 255 237 240 255 237 240 255 238 241 255 238 241 255 238 241 255 238 241 255 238 241 255 238 241 255 237 240 255 236 239 255 237 240 255 236 239 255 234 238 255 233 237 255 238 241 255 238 241 255 234 238 255 237 240 255 233 237 255 236 239 255 230 235 255 232 236 255 237 240 255 237 240 255 237 240 255 238 241 255 238 241 255 224 229 255 236 239 255 238 241 255 238 241 255 237 240 255 238 241 255 238 241 255 238 241 255 238 241 255 238 241 255 237 240 255 237 240 255 237 240 255 242 245 255 210 218 255 202 211 255 201 210 255 201 210 255 201 210 255 201 210 255 201 210 255 201 210 255 201 210 255 201 210 255 201 210 255 201 210 255 201 210 255 201 210 255 201 210 255 200 209 255 200 209 255 200 209 255 200 209 255 200 209 255 200 209 255 198 208 255 198 208 255 198 208 255 198 208 255 198 208 255 198 208 255 198 208 255 198 208 255 198 208 255 198 208 255 198 208 255 196 206 255 196 206 255 196 206 255 196 206 255 196 206 255 193 204 255 193 204 255 193 204 255 193 204 255 193 204 255 193 204 255 193 204 255 193 204 255 193 204 255 193 204 255 193 204 255 193 204 255 193 204 255 193 204 255 193 204 255 193 204 255 193 204 255 193 204 255 193 204 255 193 204 255 193 204 255 193 204 249 187 198 249 187 198 249 187 198 249 187 198 249 187 198 249 187 198 249 187 198 249 187 198 249 187 198 249 187 198 249 187 198 249 187 198 255 193 204 255 196 206 255 196 206 
255 200 209 255 200 209 255 200 209 255 200 209 255 200 209 255 198 208 255 196 206 255 198 208 255 198 208 255 198 208 255 198 208 255 198 208 255 198 208 255 198 208 255 198 208 255 200 209 255 200 209 255 200 209 255 200 209 255 200 209 255 200 209 255 200 209 255 200 209 255 200 209 255 200 209 255 200 209 255 200 209 255 201 210 255 201 210 255 201 210 255 201 210 255 201 210 255 201 210 255 201 210 255 201 210 255 201 210 255 201 210 255 206 215 255 214 221 255 234 238 255 234 238 255 234 238 255 234 238 255 234 238 255 234 238 255 234 238 255 234 238 255 234 238 255 236 239 255 236 239 255 236 239 255 236 239 255 236 239 255 236 239 255 236 239 255 234 238 255 232 236 255 236 239 255 224 229 255 206 215 255 212 219 255 233 237 255 237 240 255 236 239 255 237 240 255 237 240 255 237 240 255 236 239 255 228 232 255 238 241 255 237 240 255 237 240 255 237 240 255 237 240 255 237 240 255 237 240 255 233 237 255 237 240 255 236 239 255 232 236 255 236 239 255 226 231 255 224 229 255 225 230 255 228 232 255 237 240 255 229 233 255 222 228 255 222 228 255 205 214 200 151 159 206 155 164 233 175 185 255 201 210 195 147 155 195 147 155 195 147 155 195 147 155 200 151 159 206 155 164 211 159 168 217 163 172 200 151 159 195 147 155 255 208 216 255 233 237 255 238 241 255 237 240 255 238 241 255 238 241 255 238 241 255 238 241 255 237 240 255 236 239 255 238 241 255 234 238 255 237 240 255 230 235 255 237 240 255 237 240 255 237 240 255 237 240 255 238 241 255 233 237 255 237 240 255 236 239 255 234 238 255 238 241 255 237 240 255 237 240 255 238 241 255 238 241 255 230 235 255 237 240 255 237 240 255 237 240 255 237 240 255 237 240 255 237 240 255 237 240 255 237 240 255 237 240 255 237 240 255 237 240 255 237 240 255 237 240 255 234 238 255 205 214 255 201 210 255 201 210 255 201 210 255 201 210 255 201 210 255 201 210 255 201 210 255 201 210 255 201 210 255 201 210 255 201 210 255 201 210 255 201 210 255 201 210 255 201 210 255 201 210 255 200 209 255 200 209 255 200 209 255 198 208 255 198 208 255 198 208 255 198 208 255 198 208 255 198 208 255 198 208 255 198 208 255 198 208 255 198 208 255 198 208 255 198 208 255 196 206 255 196 206 255 196 206 255 196 206 255 196 206 255 196 206 255 196 206 255 196 206 255 196 206 255 193 204 255 193 204 255 193 204 255 193 204 255 193 204 255 193 204 255 193 204 255 193 204 255 193 204 255 193 204 255 193 204 255 193 204 255 193 204 255 193 204 255 193 204 255 193 204 255 193 204 255 193 204 255 193 204 255 193 204 255 193 204 255 193 204 249 187 198 249 187 198 249 187 198 249 187 198 249 187 198 249 187 198 255 193 204 255 193 204 255 196 206 255 198 208 
255 200 209 255 200 209 255 200 209 255 200 209 255 200 209 255 198 208 255 196 206 255 198 208 255 198 208 255 198 208 255 198 208 255 198 208 255 198 208 255 198 208 255 198 208 255 200 209 255 200 209 255 200 209 255 200 209 255 200 209 255 200 209 255 200 209 255 200 209 255 200 209 255 200 209 255 200 209 255 200 209 255 201 210 255 201 210 255 201 210 255 201 210 255 201 210 255 201 210 255 201 210 255 201 210 255 201 210 255 201 210 255 206 215 255 214 221 255 234 238 255 234 238 255 234 238 255 234 238 255 234 238 255 234 238 255 234 238 255 234 238 255 234 238 255 236 239 255 236 239 255 236 239 255 236 239 255 236 239 255 236 239 255 236 239 255 234 238 255 232 236 255 236 239 255 224 229 255 206 215 255 212 219 255 233 237 255 237 240 255 236 239 255 237 240 255 237 240 255 237 240 255 236 239 255 228 232 255 238 241 255 237 240 255 237 240 255 237 240 255 237 240 255 237 240 255 237 240 255 233 237 255 237 240 255 236 239 255 232 236 255 236 239 255 226 231 255 224 229 255 225 230 255 228 232 255 237 240 255 229 233 255 222 228 255 222 228 255 205 214 200 151 159 206 155 164 233 175 185 255 201 210 195 147 155 195 147 155 195 147 155 195 147 155 200 151 159 206 155 164 211 159 168 217 163 172 200 151 159 195 147 155 255 208 216 255 233 237 255 238 241 255 237 240 255 238 241 255 238 241 255 238 241 255 238 241 255 237 240 255 236 239 255 238 241 255 234 238 255 237 240 255 230 235 255 237 240 255 237 240 255 237 240 255 237 240 255 238 241 255 233 237 255 237 240 255 236 239 255 234 238 255 238 241 255 237 240 255 237 240 255 238 241 255 238 241 255 230 235 255 237 240 255 237 240 255 237 240 255 237 240 255 237 240 255 237 240 255 237 240 255 237 240 255 237 240 255 237 240 255 237 240 255 237 240 255 237 240 255 234 238 255 205 214 255 201 210 255 201 210 255 201 210 255 201 210 255 201 210 255 201 210 255 201 210 255 201 210 255 201 210 255 201 210 255 201 210 255 201 210 255 201 210 255 201 210 255 201 210 255 201 210 255 200 209 255 200 209 255 200 209 255 198 208 255 198 208 255 198 208 255 198 208 255 198 208 255 198 208 255 198 208 255 198 208 255 198 208 255 198 208 255 198 208 255 198 208 255 196 206 255 196 206 255 196 206 255 196 206 255 196 206 255 196 206 255 196 206 255 196 206 255 196 206 255 193 204 255 193 204 255 193 204 255 193 204 255 193 204 255 193 204 255 193 204 255 193 204 255 193 204 255 193 204 255 193 204 255 193 204 255 193 204 255 193 204 255 193 204 255 193 204 255 193 204 255 193 204 255 193 204 255 193 204 255 193 204 255 193 204 249 187 198 249 187 198 249 187 198 249 187 198 249 187 198 249 187 198 255 193 204 255 193 204 255 196 206 255 198 208 
255 200 209 255 200 209 255 200 209 255 200 209 255 200 209 255 198 208 255 198 208 255 198 208 255 198 208 255 198 208 255 198 208 255 198 208 255 200 209 255 200 209 255 200 209 255 200 209 255 200 209 255 200 209 255 200 209 255 200 209 255 200 209 255 200 209 255 200 209 255 200 209 255 200 209 255 200 209 255 200 209 255 201 210 255 201 210 255 201 210 255 201 210 255 200 209 255 201 210 255 201 210 255 200 209 255 201 210 255 205 214 255 230 235 255 234 238 255 234 238 255 234 238 255 234 238 255 234 238 255 234 238 255 234 238 255 234 238 255 234 238 255 234 238 255 234 238 255 236 239 255 236 239 255 236 239 255 236 239 255 236 239 255 236 239 255 236 239 255 236 239 255 236 239 255 233 237 255 228 232 211 159 168 146 110 116 217 163 172 255 212 219 255 234 238 255 234 238 255 226 231 255 237 240 255 236 239 255 229 233 255 237 240 255 236 239 255 237 240 255 237 240 255 238 241 255 237 240 255 237 240 255 237 240 255 237 240 255 237 240 255 230 235 255 228 232 255 214 221 255 226 231 255 210 218 255 226 231 255 230 235 255 237 240 255 220 226 255 228 232 233 175 185 195 147 155 200 151 159 200 151 159 217 163 172 195 147 155 200 151 159 200 151 159 200 151 159 200 151 159 249 187 198 200 151 159 195 147 155 195 147 155 206 155 164 255 214 221 255 216 222 255 237 240 255 238 241 255 237 240 255 237 240 255 238 241 255 238 241 255 229 233 255 237 240 255 236 239 255 236 239 255 237 240 255 232 236 255 237 240 255 238 241 255 238 241 255 237 240 255 238 241 255 237 240 255 237 240 255 236 239 255 237 240 255 237 240 255 237 240 255 237 240 255 236 239 255 221 227 255 237 240 255 237 240 255 237 240 255 237 240 255 237 240 255 237 240 255 237 240 255 237 240 255 237 240 255 237 240 255 237 240 255 237 240 255 237 240 255 238 241 255 213 220 255 202 211 255 201 210 255 201 210 255 201 210 255 201 210 255 201 210 255 201 210 255 201 210 255 201 210 255 201 210 255 201 210 255 201 210 255 201 210 255 201 210 255 201 210 255 201 210 255 200 209 255 200 209 255 200 209 255 200 209 255 198 208 255 198 208 255 198 208 255 198 208 255 198 208 255 198 208 255 198 208 255 198 208 255 198 208 255 198 208 255 198 208 255 198 208 255 196 206 255 196 206 255 196 206 255 196 206 255 196 206 255 196 206 255 196 206 255 196 206 255 193 204 255 193 204 255 193 204 255 193 204 255 193 204 255 193 204 255 193 204 255 193 204 255 193 204 255 193 204 255 193 204 255 193 204 255 193 204 255 193 204 255 193 204 255 193 204 255 193 204 255 193 204 255 193 204 255 193 204 249 187 198 249 187 198 249 187 198 249 187 198 249 187 198 249 187 198 255 193 204 255 193 204 255 193 204 255 193 204 255 196 206 255 198 208 
255 200 209 255 200 209 255 200 209 255 200 209 255 200 209 255 198 208 255 198 208 255 198 208 255 198 208 255 198 208 255 198 208 255 198 208 255 200 209 255 200 209 255 200 209 255 200 209 255 200 209 255 200 209 255 200 209 255 200 209 255 200 209 255 200 209 255 200 209 255 200 209 255 200 209 255 200 209 255 200 209 255 201 210 255 201 210 255 201 210 255 201 210 255 200 209 255 201 210 255 201 210 255 200 209 255 201 210 255 205 214 255 230 235 255 234 238 255 234 238 255 234 238 255 234 238 255 234 238 255 234 238 255 234 238 255 234 238 255 234 238 255 234 238 255 234 238 255 236 239 255 236 239 255 236 239 255 236 239 255 236 239 255 236 239 255 236 239 255 236 239 255 236 239 255 233 237 255 228 232 211 159 168 146 110 116 217 163 172 255 212 219 255 234 238 255 234 238 255 226 231 255 237 240 255 236 239 255 229 233 255 237 240 255 236 239 255 237 240 255 237 240 255 238 241 255 237 240 255 237 240 255 237 240 255 237 240 255 237 240 255 230 235 255 228 232 255 214 221 255 226 231 255 210 218 255 226 231 255 230 235 255 237 240 255 220 226 255 228 232 233 175 185 195 147 155 200 151 159 200 151 159 217 163 172 195 147 155 200 151 159 200 151 159 200 151 159 200 151 159 249 187 198 200 151 159 195 147 155 195 147 155 206 155 164 255 214 221 255 216 222 255 237 240 255 238 241 255 237 240 255 237 240 255 238 241 255 238 241 255 229 233 255 237 240 255 236 239 255 236 239 255 237 240 255 232 236 255 237 240 255 238 241 255 238 241 255 237 240 255 238 241 255 237 240 255 237 240 255 236 239 255 237 240 255 237 240 255 237 240 255 237 240 255 236 239 255 221 227 255 237 240 255 237 240 255 237 240 255 237 240 255 237 240 255 237 240 255 237 240 255 237 240 255 237 240 255 237 240 255 237 240 255 237 240 255 237 240 255 238 241 255 213 220 255 202 211 255 201 210 255 201 210 255 201 210 255 201 210 255 201 210 255 201 210 255 201 210 255 201 210 255 201 210 255 201 210 255 201 210 255 201 210 255 201 210 255 201 210 255 201 210 255 200 209 255 200 209 255 200 209 255 200 209 255 198 208 255 198 208 255 198 208 255 198 208 255 198 208 255 198 208 255 198 208 255 198 208 255 198 208 255 198 208 255 198 208 255 198 208 255 196 206 255 196 206 255 196 206 255 196 206 255 196 206 255 196 206 255 196 206 255 196 206 255 193 204 255 193 204 255 193 204 255 193 204 255 193 204 255 193 204 255 193 204 255 193 204 255 193 204 255 193 204 255 193 204 255 193 204 255 193 204 255 193 204 255 193 204 255 193 204 255 193 204 255 193 204 255 193 204 255 193 204 249 187 198 249 187 198 249 187 198 249 187 198 249 187 198 249 187 198 255 193 204 255 193 204 255 193 204 255 193 204 255 196 206 255 198 208 
255 200 209 255 200 209 255 200 209 255 200 209 255 200 209 255 198 208 255 198 208 255 198 208 255 198 208 255 198 208 255 198 208 255 198 208 255 200 209 255 200 209 255 200 209 255 200 209 255 200 209 255 200 209 255 200 209 255 200 209 255 200 209 255 200 209 255 200 209 255 200 209 255 200 209 255 200 209 255 200 209 255 201 210 255 201 210 255 201 210 255 200 209 255 200 209 255 201 210 255 201 210 255 202 211 255 222 228 255 234 238 255 233 237 255 233 237 255 234 238 255 234 238 255 234 238 255 234 238 255 234 238 255 234 238 255 234 238 255 234 238 255 234 238 255 234 238 255 236 239 255 236 239 255 236 239 255 236 239 255 236 239 255 236 239 255 236 239 255 237 240 255 237 240 255 233 237 255 226 231 255 230 235 255 234 238 255 214 221 206 155 164 200 151 159 222 167 177 255 202 211 255 233 237 255 233 237 255 237 240 255 234 238 255 232 236 255 217 224 255 237 240 255 230 235 255 214 221 255 237 240 255 237 240 255 232 236 255 238 241 255 233 237 255 225 230 255 226 231 255 225 230 255 237 240 255 217 224 255 225 230 255 228 232 255 233 237 255 232 236 255 226 231 255 196 206 200 151 159 184 138 146 249 187 198 217 163 172 200 151 159 200 151 159 206 155 164 206 155 164 255 212 219 200 151 159 200 151 159 200 151 159 184 138 146 255 205 214 211 159 168 255 228 232 255 238 241 255 236 239 255 234 238 255 238 241 255 238 241 255 236 239 255 237 240 255 224 229 255 237 240 255 240 242 255 224 229 255 238 241 255 238 241 255 237 240 255 237 240 255 237 240 255 237 240 255 237 240 255 237 240 255 238 241 255 238 241 255 238 241 255 238 241 255 237 240 255 237 240 255 237 240 255 237 240 255 237 240 255 237 240 255 237 240 255 237 240 255 237 240 255 237 240 255 237 240 255 237 240 255 237 240 255 237 240 255 237 240 255 237 240 255 236 239 255 229 233 255 216 222 255 208 216 255 202 211 255 202 211 255 201 210 255 201 210 255 201 210 255 201 210 255 201 210 255 201 210 255 201 210 255 201 210 255 201 210 255 201 210 255 201 210 255 200 209 255 200 209 255 200 209 255 200 209 255 200 209 255 198 208 255 198 208 255 198 208 255 198 208 255 198 208 255 198 208 255 198 208 255 198 208 255 198 208 255 198 208 255 198 208 255 198 208 255 196 206 255 196 206 255 196 206 255 196 206 255 196 206 255 196 206 255 196 206 255 193 204 255 193 204 255 193 204 255 196 206 255 193 204 255 193 204 255 193 204 255 193 204 255 193 204 255 193 204 255 193 204 255 193 204 255 193 204 255 193 204 255 193 204 255 193 204 255 193 204 255 193 204 255 193 204 255 193 204 255 193 204 255 193 204 255 193 204 255 193 204 255 193 204 255 193 204 255 193 204 255 193 204 255 193 204 255 193 204 255 196 206 255 198 208 
255 200 209 255 200 209 255 200 209 255 200 209 255 200 209 255 198 208 255 198 208 255 198 208 255 198 208 255 198 208 255 198 208 255 198 208 255 200 209 255 200 209 255 200 209 255 200 209 255 200 209 255 200 209 255 200 209 255 200 209 255 200 209 255 200 209 255 200 209 255 200 209 255 200 209 255 200 209 255 200 209 255 201 210 255 201 210 255 201 210 255 200 209 255 200 209 255 201 210 255 201 210 255 202 211 255 222 228 255 234 238 255 233 237 255 233 237 255 234 238 255 234 238 255 234 238 255 234 238 255 234 238 255 234 238 255 234 238 255 234 238 255 234 238 255 234 238 255 236 239 255 236 239 255 236 239 255 236 239 255 236 239 255 236 239 255 236 239 255 237 240 255 237 240 255 233 237 255 226 231 255 230 235 255 234 238 255 214 221 206 155 164 200 151 159 222 167 177 255 202 211 255 233 237 255 233 237 255 237 240 255 234 238 255 232 236 255 217 224 255 237 240 255 230 235 255 214 221 255 237 240 255 237 240 255 232 236 255 238 241 255 233 237 255 225 230 255 226 231 255 225 230 255 237 240 255 217 224 255 225 230 255 228 232 255 233 237 255 232 236 255 226 231 255 196 206 200 151 159 184 138 146 249 187 198 217 163 172 200 151 159 200 151 159 206 155 164 206 155 164 255 212 219 200 151 159 200 151 159 200 151 159 184 138 146 255 205 214 211 159 168 255 228 232 255 238 241 255 236 239 255 234 238 255 238 241 255 238 241 255 236 239 255 237 240 255 224 229 255 237 240 255 240 242 255 224 229 255 238 241 255 238 241 255 237 240 255 237 240 255 237 240 255 237 240 255 237 240 255 237 240 255 238 241 255 238 241 255 238 241 255 238 241 255 237 240 255 237 240 255 237 240 255 237 240 255 237 240 255 237 240 255 237 240 255 237 240 255 237 240 255 237 240 255 237 240 255 237 240 255 237 240 255 237 240 255 237 240 255 237 240 255 236 239 255 229 233 255 216 222 255 208 216 255 202 211 255 202 211 255 201 210 255 201 210 255 201 210 255 201 210 255 201 210 255 201 210 255 201 210 255 201 210 255 201 210 255 201 210 255 201 210 255 200 209 255 200 209 255 200 209 255 200 209 255 200 209 255 198 208 255 198 208 255 198 208 255 198 208 255 198 208 255 198 208 255 198 208 255 198 208 255 198 208 255 198 208 255 198 208 255 198 208 255 196 206 255 196 206 255 196 206 255 196 206 255 196 206 255 196 206 255 196 206 255 193 204 255 193 204 255 193 204 255 196 206 255 193 204 255 193 204 255 193 204 255 193 204 255 193 204 255 193 204 255 193 204 255 193 204 255 193 204 255 193 204 255 193 204 255 193 204 255 193 204 255 193 204 255 193 204 255 193 204 255 193 204 255 193 204 255 193 204 255 193 204 255 193 204 255 193 204 255 193 204 255 193 204 255 193 204 255 193 204 255 196 206 255 198 208 
255 200 209 255 200 209 255 200 209 255 200 209 255 200 209 255 200 209 255 198 208 255 198 208 255 198 208 255 198 208 255 198 208 255 198 208 255 198 208 255 200 209 255 200 209 255 200 209 255 200 209 255 200 209 255 200 209 255 200 209 255 200 209 255 200 209 255 200 209 255 200 209 255 200 209 255 200 209 255 200 209 255 201 210 255 201 210 255 201 210 255 201 210 255 201 210 255 201 210 255 202 211 255 222 228 255 234 238 255 233 237 255 234 238 255 234 238 255 234 238 255 234 238 255 234 238 255 234 238 255 234 238 255 234 238 255 234 238 255 234 238 255 234 238 255 234 238 255 236 239 255 236 239 255 236 239 255 236 239 255 236 239 255 234 238 255 232 236 255 224 229 255 200 209 255 212 219 255 213 220 227 171 181 255 193 204 195 147 155 255 212 219 255 213 220 217 163 172 227 171 181 179 134 142 255 202 211 255 236 239 255 232 236 255 234 238 255 237 240 255 196 206 255 238 241 255 238 241 255 232 236 255 238 241 255 237 240 255 232 236 255 230 235 255 234 238 255 226 231 255 233 237 255 216 222 255 236 239 255 232 236 255 232 236 255 228 232 255 237 240 255 234 238 255 236 239 255 216 222 195 147 155 244 183 194 200 151 159 195 147 155 195 147 155 206 155 164 211 159 168 255 193 204 195 147 155 200 151 159 200 151 159 200 151 159 211 159 168 217 163 172 244 183 194 255 236 239 255 221 227 255 228 232 255 234 238 255 238 241 255 233 237 255 225 230 255 225 230 255 238 241 255 237 240 255 236 239 255 233 237 255 238 241 255 238 241 255 238 241 255 237 240 255 237 240 255 237 240 255 237 240 255 237 240 255 237 240 255 237 240 255 238 241 255 238 241 255 238 241 255 238 241 255 238 241 255 237 240 255 237 240 255 237 240 255 237 240 255 237 240 255 237 240 255 237 240 255 237 240 255 237 240 255 237 240 255 237 240 255 237 240 255 237 240 255 237 240 255 237 240 255 237 240 255 238 241 255 233 237 255 224 229 255 209 217 255 201 210 255 201 210 255 201 210 255 201 210 255 201 210 255 201 210 255 201 210 255 202 211 255 202 211 255 202 211 255 201 210 255 201 210 255 200 209 255 200 209 255 200 209 255 200 209 255 200 209 255 200 209 255 200 209 255 200 209 255 200 209 255 198 208 255 198 208 255 198 208 255 198 208 255 198 208 255 198 208 255 198 208 255 198 208 255 196 206 255 198 208 255 196 206 255 196 206 255 196 206 255 196 206 255 196 206 255 196 206 255 196 206 255 193 204 255 196 206 255 196 206 255 196 206 255 196 206 255 193 204 255 193 204 255 193 204 255 193 204 255 193 204 255 193 204 255 193 204 255 193 204 255 193 204 255 193 204 255 193 204 255 193 204 255 193 204 255 193 204 255 193 204 255 193 204 255 193 204 255 193 204 255 193 204 255 193 204 255 196 206 255 196 206 
255 200 209 255 200 209 255 200 209 255 200 209 255 200 209 255 200 209 255 198 208 255 198 208 255 198 208 255 198 208 255 198 208 255 198 208 255 198 208 255 200 209 255 200 209 255 200 209 255 200 209 255 200 209 255 200 209 255 200 209 255 200 209 255 200 209 255 200 209 255 200 209 255 200 209 255 200 209 255 200 209 255 201 210 255 201 210 255 201 210 255 201 210 255 201 210 255 201 210 255 202 211 255 222 228 255 234 238 255 233 237 255 234 238 255 234 238 255 234 238 255 234 238 255 234 238 255 234 238 255 234 238 255 234 238 255 234 238 255 234 238 255 234 238 255 234 238 255 236 239 255 236 239 255 236 239 255 236 239 255 236 239 255 234 238 255 232 236 255 224 229 255 200 209 255 212 219 255 213 220 227 171 181 255 193 204 195 147 155 255 212 219 255 213 220 217 163 172 227 171 181 179 134 142 255 202 211 255 236 239 255 232 236 255 234 238 255 237 240 255 196 206 255 238 241 255 238 241 255 232 236 255 238 241 255 237 240 255 232 236 255 230 235 255 234 238 255 226 231 255 233 237 255 216 222 255 236 239 255 232 236 255 232 236 255 228 232 255 237 240 255 234 238 255 236 239 255 216 222 195 147 155 244 183 194 200 151 159 195 147 155 195 147 155 206 155 164 211 159 168 255 193 204 195 147 155 200 151 159 200 151 159 200 151 159 211 159 168 217 163 172 244 183 194 255 236 239 255 221 227 255 228 232 255 234 238 255 238 241 255 233 237 255 225 230 255 225 230 255 238 241 255 237 240 255 236 239 255 233 237 255 238 241 255 238 241 255 238 241 255 237 240 255 237 240 255 237 240 255 237 240 255 237 240 255 237 240 255 237 240 255 238 241 255 238 241 255 238 241 255 238 241 255 238 241 255 237 240 255 237 240 255 237 240 255 237 240 255 237 240 255 237 240 255 237 240 255 237 240 255 237 240 255 237 240 255 237 240 255 237 240 255 237 240 255 237 240 255 237 240 255 237 240 255 238 241 255 233 237 255 224 229 255 209 217 255 201 210 255 201 210 255 201 210 255 201 210 255 201 210 255 201 210 255 201 210 255 202 211 255 202 211 255 202 211 255 201 210 255 201 210 255 200 209 255 200 209 255 200 209 255 200 209 255 200 209 255 200 209 255 200 209 255 200 209 255 200 209 255 198 208 255 198 208 255 198 208 255 198 208 255 198 208 255 198 208 255 198 208 255 198 208 255 196 206 255 198 208 255 196 206 255 196 206 255 196 206 255 196 206 255 196 206 255 196 206 255 196 206 255 193 204 255 196 206 255 196 206 255 196 206 255 196 206 255 193 204 255 193 204 255 193 204 255 193 204 255 193 204 255 193 204 255 193 204 255 193 204 255 193 204 255 193 204 255 193 204 255 193 204 255 193 204 255 193 204 255 193 204 255 193 204 255 193 204 255 193 204 255 193 204 255 193 204 255 196 206 255 196 206 
255 200 209 255 200 209 255 201 210 255 201 210 255 201 210 255 200 209 255 198 208 255 198 208 255 198 208 255 198 208 255 198 208 255 198 208 255 198 208 255 200 209 255 200 209 255 200 209 255 200 209 255 200 209 255 200 209 255 200 209 255 200 209 255 200 209 255 200 209 255 200 209 255 200 209 255 200 209 255 200 209 255 200 209 255 201 210 255 208 216 255 228 232 255 225 230 255 232 236 255 234 238 255 234 238 255 234 238 255 234 238 255 234 238 255 234 238 255 234 238 255 234 238 255 234 238 255 234 238 255 234 238 255 234 238 255 234 238 255 234 238 255 236 239 255 234 238 255 234 238 255 234 238 255 234 238 255 232 236 255 232 236 255 224 229 255 226 231 255 222 228 217 163 172 179 134 142 184 138 146 206 155 164 211 159 168 227 171 181 179 134 142 184 138 146 244 183 194 255 214 221 179 134 142 184 138 146 184 138 146 255 208 216 255 225 230 255 230 235 255 230 235 255 213 220 255 242 245 255 233 237 255 228 232 255 238 241 255 237 240 255 205 214 255 228 232 255 237 240 255 196 206 255 238 241 255 232 236 255 237 240 255 233 237 255 229 233 255 237 240 255 237 240 255 238 241 255 236 239 255 208 216 195 147 155 206 155 164 195 147 155 255 205 214 211 159 168 233 175 185 255 193 204 200 151 159 200 151 159 206 155 164 206 155 164 255 200 209 249 187 198 255 201 210 255 222 228 255 217 224 255 216 222 255 232 236 255 236 239 255 236 239 255 213 220 255 220 226 255 233 237 255 237 240 255 238 241 255 237 240 255 238 241 255 238 241 255 238 241 255 238 241 255 238 241 255 238 241 255 238 241 255 238 241 255 238 241 255 238 241 255 238 241 255 238 241 255 237 240 255 237 240 255 237 240 255 238 241 255 238 241 255 237 240 255 237 240 255 237 240 255 237 240 255 237 240 255 237 240 255 237 240 255 237 240 255 237 240 255 237 240 255 237 240 255 237 240 255 237 240 255 237 240 255 237 240 255 237 240 255 237 240 255 236 239 255 236 239 255 230 235 255 232 236 255 233 237 255 234 238 255 236 239 255 236 239 255 236 239 255 236 239 255 236 239 255 236 239 255 234 238 255 234 238 255 234 238 255 233 237 255 232 236 255 226 231 255 221 227 255 210 218 255 202 211 255 201 210 255 200 209 255 200 209 255 200 209 255 198 208 255 198 208 255 198 208 255 198 208 255 198 208 255 198 208 255 198 208 255 196 206 255 196 206 255 196 206 255 196 206 255 196 206 255 196 206 255 196 206 255 193 204 255 196 206 255 196 206 255 196 206 255 196 206 255 196 206 255 196 206 255 196 206 255 196 206 255 196 206 255 193 204 255 193 204 255 193 204 255 193 204 255 193 204 255 193 204 255 193 204 255 193 204 255 193 204 255 193 204 255 193 204 255 193 204 255 193 204 255 193 204 255 196 206 255 193 204 249 187 198 
255 200 209 255 200 209 255 201 210 255 201 210 255 201 210 255 200 209 255 198 208 255 198 208 255 198 208 255 198 208 255 198 208 255 198 208 255 198 208 255 200 209 255 200 209 255 200 209 255 200 209 255 200 209 255 200 209 255 200 209 255 200 209 255 200 209 255 200 209 255 200 209 255 200 209 255 200 209 255 200 209 255 200 209 255 201 210 255 208 216 255 228 232 255 225 230 255 232 236 255 234 238 255 234 238 255 234 238 255 234 238 255 234 238 255 234 238 255 234 238 255 234 238 255 234 238 255 234 238 255 234 238 255 234 238 255 234 238 255 234 238 255 236 239 255 234 238 255 234 238 255 234 238 255 234 238 255 232 236 255 232 236 255 224 229 255 226 231 255 222 228 217 163 172 179 134 142 184 138 146 206 155 164 211 159 168 227 171 181 179 134 142 184 138 146 244 183 194 255 214 221 179 134 142 184 138 146 184 138 146 255 208 216 255 225 230 255 230 235 255 230 235 255 213 220 255 242 245 255 233 237 255 228 232 255 238 241 255 237 240 255 205 214 255 228 232 255 237 240 255 196 206 255 238 241 255 232 236 255 237 240 255 233 237 255 229 233 255 237 240 255 237 240 255 238 241 255 236 239 255 208 216 195 147 155 206 155 164 195 147 155 255 205 214 211 159 168 233 175 185 255 193 204 200 151 159 200 151 159 206 155 164 206 155 164 255 200 209 249 187 198 255 201 210 255 222 228 255 217 224 255 216 222 255 232 236 255 236 239 255 236 239 255 213 220 255 220 226 255 233 237 255 237 240 255 238 241 255 237 240 255 238 241 255 238 241 255 238 241 255 238 241 255 238 241 255 238 241 255 238 241 255 238 241 255 238 241 255 238 241 255 238 241 255 238 241 255 237 240 255 237 240 255 237 240 255 238 241 255 238 241 255 237 240 255 237 240 255 237 240 255 237 240 255 237 240 255 237 240 255 237 240 255 237 240 255 237 240 255 237 240 255 237 240 255 237 240 255 237 240 255 237 240 255 237 240 255 237 240 255 237 240 255 236 239 255 236 239 255 230 235 255 232 236 255 233 237 255 234 238 255 236 239 255 236 239 255 236 239 255 236 239 255 236 239 255 236 239 255 234 238 255 234 238 255 234 238 255 233 237 255 232 236 255 226 231 255 221 227 255 210 218 255 202 211 255 201 210 255 200 209 255 200 209 255 200 209 255 198 208 255 198 208 255 198 208 255 198 208 255 198 208 255 198 208 255 198 208 255 196 206 255 196 206 255 196 206 255 196 206 255 196 206 255 196 206 255 196 206 255 193 204 255 196 206 255 196 206 255 196 206 255 196 206 255 196 206 255 196 206 255 196 206 255 196 206 255 196 206 255 193 204 255 193 204 255 193 204 255 193 204 255 193 204 255 193 204 255 193 204 255 193 204 255 193 204 255 193 204 255 193 204 255 193 204 255 193 204 255 193 204 255 196 206 255 193 204 249 187 198 
255 200 209 255 200 209 255 201 210 255 201 210 255 201 210 255 200 209 255 200 209 255 198 208 255 198 208 255 198 208 255 198 208 255 198 208 255 198 208 255 200 209 255 200 209 255 200 209 255 200 209 255 200 209 255 200 209 255 198 208 255 201 210 255 208 216 255 225 230 255 217 224 255 212 219 255 214 221 255 217 224 255 222 228 255 229 233 255 234 238 255 234 238 255 234 238 255 234 238 255 234 238 255 234 238 255 234 238 255 234 238 255 234 238 255 234 238 255 234 238 255 234 238 255 234 238 255 234 238 255 234 238 255 234 238 255 234 238 255 234 238 255 234 238 255 234 238 255 236 239 255 237 240 255 236 239 255 234 238 255 234 238 255 233 237 255 236 239 227 171 181 233 175 185 157 118 125 206 155 164 206 155 164 200 151 159 179 134 142 179 134 142 184 138 146 184 138 146 179 134 142 233 175 185 227 171 181 184 138 146 184 138 146 255 202 211 255 236 239 255 193 204 255 201 210 255 234 238 255 240 242 255 224 229 255 216 222 255 222 228 255 234 238 255 224 229 255 237 240 255 237 240 255 226 231 255 240 242 255 234 238 255 233 237 255 234 238 255 240 242 255 240 242 255 238 241 255 240 242 255 213 220 206 155 164 244 183 194 206 155 164 206 155 164 255 214 221 255 198 208 255 196 206 200 151 159 200 151 159 206 155 164 233 175 185 255 206 215 255 200 209 255 212 219 255 222 228 255 236 239 255 225 230 255 209 217 255 237 240 255 238 241 255 232 236 255 216 222 255 216 222 255 238 241 255 238 241 255 238 241 255 237 240 255 237 240 255 237 240 255 238 241 255 238 241 255 238 241 255 238 241 255 238 241 255 238 241 255 238 241 255 238 241 255 238 241 255 238 241 255 238 241 255 238 241 255 238 241 255 238 241 255 237 240 255 237 240 255 237 240 255 237 240 255 237 240 255 237 240 255 237 240 255 237 240 255 237 240 255 237 240 255 237 240 255 237 240 255 237 240 255 237 240 255 237 240 255 237 240 255 237 240 255 237 240 255 237 240 255 237 240 255 236 239 255 237 240 255 236 239 255 236 239 255 236 239 255 236 239 255 236 239 255 236 239 255 236 239 255 234 238 255 234 238 255 234 238 255 234 238 255 234 238 255 234 238 255 234 238 255 234 238 255 234 238 255 236 239 255 232 236 255 221 227 255 208 216 255 198 208 255 198 208 255 198 208 255 198 208 255 196 206 255 198 208 255 198 208 255 196 206 255 196 206 255 196 206 255 196 206 255 196 206 255 196 206 255 196 206 255 196 206 255 196 206 255 196 206 255 196 206 255 196 206 255 196 206 255 196 206 255 196 206 255 196 206 255 196 206 255 196 206 255 196 206 255 193 204 255 193 204 255 193 204 255 193 204 255 193 204 255 193 204 255 193 204 255 193 204 255 193 204 255 193 204 255 193 204 255 193 204 255 196 206 255 193 204 255 193 204 
255 200 209 255 200 209 255 201 210 255 201 210 255 201 210 255 200 209 255 200 209 255 198 208 255 198 208 255 198 208 255 198 208 255 198 208 255 198 208 255 200 209 255 200 209 255 200 209 255 200 209 255 200 209 255 200 209 255 198 208 255 201 210 255 208 216 255 225 230 255 217 224 255 212 219 255 214 221 255 217 224 255 222 228 255 229 233 255 234 238 255 234 238 255 234 238 255 234 238 255 234 238 255 234 238 255 234 238 255 234 238 255 234 238 255 234 238 255 234 238 255 234 238 255 234 238 255 234 238 255 234 238 255 234 238 255 234 238 255 234 238 255 234 238 255 234 238 255 236 239 255 237 240 255 236 239 255 234 238 255 234 238 255 233 237 255 236 239 227 171 181 233 175 185 157 118 125 206 155 164 206 155 164 200 151 159 179 134 142 179 134 142 184 138 146 184 138 146 179 134 142 233 175 185 227 171 181 184 138 146 184 138 146 255 202 211 255 236 239 255 193 204 255 201 210 255 234 238 255 240 242 255 224 229 255 216 222 255 222 228 255 234 238 255 224 229 255 237 240 255 237 240 255 226 231 255 240 242 255 234 238 255 233 237 255 234 238 255 240 242 255 240 242 255 238 241 255 240 242 255 213 220 206 155 164 244 183 194 206 155 164 206 155 164 255 214 221 255 198 208 255 196 206 200 151 159 200 151 159 206 155 164 233 175 185 255 206 215 255 200 209 255 212 219 255 222 228 255 236 239 255 225 230 255 209 217 255 237 240 255 238 241 255 232 236 255 216 222 255 216 222 255 238 241 255 238 241 255 238 241 255 237 240 255 237 240 255 237 240 255 238 241 255 238 241 255 238 241 255 238 241 255 238 241 255 238 241 255 238 241 255 238 241 255 238 241 255 238 241 255 238 241 255 238 241 255 238 241 255 238 241 255 237 240 255 237 240 255 237 240 255 237 240 255 237 240 255 237 240 255 237 240 255 237 240 255 237 240 255 237 240 255 237 240 255 237 240 255 237 240 255 237 240 255 237 240 255 237 240 255 237 240 255 237 240 255 237 240 255 237 240 255 236 239 255 237 240 255 236 239 255 236 239 255 236 239 255 236 239 255 236 239 255 236 239 255 236 239 255 234 238 255 234 238 255 234 238 255 234 238 255 234 238 255 234 238 255 234 238 255 234 238 255 234 238 255 236 239 255 232 236 255 221 227 255 208 216 255 198 208 255 198 208 255 198 208 255 198 208 255 196 206 255 198 208 255 198 208 255 196 206 255 196 206 255 196 206 255 196 206 255 196 206 255 196 206 255 196 206 255 196 206 255 196 206 255 196 206 255 196 206 255 196 206 255 196 206 255 196 206 255 196 206 255 196 206 255 196 206 255 196 206 255 196 206 255 193 204 255 193 204 255 193 204 255 193 204 255 193 204 255 193 204 255 193 204 255 193 204 255 193 204 255 193 204 255 193 204 255 193 204 255 196 206 255 193 204 255 193 204 
255 200 209 255 200 209 255 201 210 255 201 210 255 201 210 255 201 210 255 200 209 255 200 209 255 198 208 255 198 208 255 198 208 255 198 208 255 200 209 255 200 209 255 200 209 255 200 209 255 200 209 255 201 210 255 205 214 255 214 221 255 226 231 255 233 237 255 233 237 255 234 238 255 233 237 255 233 237 255 234 238 255 234 238 255 234 238 255 234 238 255 234 238 255 234 238 255 234 238 255 234 238 255 234 238 255 234 238 255 234 238 255 234 238 255 236 239 255 236 239 255 236 239 255 236 239 255 236 239 255 236 239 255 234 238 255 236 239 255 236 239 255 236 239 255 237 240 255 237 240 255 237 240 255 237 240 255 236 239 255 233 237 255 234 238 255 221 227 255 216 222 255 221 227 255 220 226 255 232 236 255 216 222 233 175 185 179 134 142 157 118 125 184 138 146 184 138 146 200 151 159 179 134 142 184 138 146 195 147 155 184 138 146 184 138 146 255 226 231 255 212 219 255 217 224 227 171 181 255 233 237 255 240 242 255 202 211 255 229 233 255 205 214 255 217 224 255 225 230 255 238 241 255 212 219 255 238 241 255 236 239 255 236 239 255 240 242 255 240 242 255 238 241 255 240 242 255 238 241 255 238 241 255 202 211 255 232 236 206 155 164 255 232 236 255 237 240 255 213 220 244 183 194 200 151 159 200 151 159 195 147 155 255 214 221 217 163 172 255 229 233 255 233 237 255 226 231 255 237 240 255 237 240 255 196 206 255 238 241 255 240 242 255 230 235 255 209 217 255 230 235 255 238 241 255 238 241 255 238 241 255 237 240 255 236 239 255 238 241 255 237 240 255 238 241 255 237 240 255 237 240 255 238 241 255 238 241 255 238 241 255 238 241 255 238 241 255 237 240 255 237 240 255 238 241 255 237 240 255 237 240 255 237 240 255 237 240 255 237 240 255 237 240 255 237 240 255 237 240 255 237 240 255 237 240 255 237 240 255 237 240 255 238 241 255 238 241 255 237 240 255 237 240 255 237 240 255 237 240 255 237 240 255 237 240 255 237 240 255 237 240 255 237 240 255 237 240 255 236 239 255 236 239 255 236 239 255 236 239 255 236 239 255 236 239 255 236 239 255 236 239 255 236 239 255 234 238 255 234 238 255 234 238 255 234 238 255 234 238 255 234 238 255 234 238 255 234 238 255 234 238 255 234 238 255 233 237 255 234 238 255 232 236 255 214 221 255 202 211 255 200 209 255 198 208 255 198 208 255 198 208 255 196 206 255 196 206 255 196 206 255 196 206 255 196 206 255 196 206 255 196 206 255 196 206 255 196 206 255 196 206 255 196 206 255 196 206 255 196 206 255 196 206 255 196 206 255 196 206 255 196 206 255 196 206 255 193 204 255 193 204 255 193 204 255 193 204 255 193 204 255 193 204 255 193 204 255 193 204 255 193 204 255 193 204 255 193 204 255 193 204 255 196 206 255 196 206 255 193 204 
255 200 209 255 200 209 255 201 210 255 201 210 255 201 210 255 201 210 255 200 209 255 200 209 255 198 208 255 198 208 255 198 208 255 198 208 255 200 209 255 200 209 255 200 209 255 200 209 255 200 209 255 201 210 255 205 214 255 214 221 255 226 231 255 233 237 255 233 237 255 234 238 255 233 237 255 233 237 255 234 238 255 234 238 255 234 238 255 234 238 255 234 238 255 234 238 255 234 238 255 234 238 255 234 238 255 234 238 255 234 238 255 234 238 255 236 239 255 236 239 255 236 239 255 236 239 255 236 239 255 236 239 255 234 238 255 236 239 255 236 239 255 236 239 255 237 240 255 237 240 255 237 240 255 237 240 255 236 239 255 233 237 255 234 238 255 221 227 255 216 222 255 221 227 255 220 226 255 232 236 255 216 222 233 175 185 179 134 142 157 118 125 184 138 146 184 138 146 200 151 159 179 134 142 184 138 146 195 147 155 184 138 146 184 138 146 255 226 231 255 212 219 255 217 224 227 171 181 255 233 237 255 240 242 255 202 211 255 229 233 255 205 214 255 217 224 255 225 230 255 238 241 255 212 219 255 238 241 255 236 239 255 236 239 255 240 242 255 240 242 255 238 241 255 240 242 255 238 241 255 238 241 255 202 211 255 232 236 206 155 164 255 232 236 255 237 240 255 213 220 244 183 194 200 151 159 200 151 159 195 147 155 255 214 221 217 163 172 255 229 233 255 233 237 255 226 231 255 237 240 255 237 240 255 196 206 255 238 241 255 240 242 255 230 235 255 209 217 255 230 235 255 238 241 255 238 241 255 238 241 255 237 240 255 236 239 255 238 241 255 237 240 255 238 241 255 237 240 255 237 240 255 238 241 255 238 241 255 238 241 255 238 241 255 238 241 255 237 240 255 237 240 255 238 241 255 237 240 255 237 240 255 237 240 255 237 240 255 237 240 255 237 240 255 237 240 255 237 240 255 237 240 255 237 240 255 237 240 255 237 240 255 238 241 255 238 241 255 237 240 255 237 240 255 237 240 255 237 240 255 237 240 255 237 240 255 237 240 255 237 240 255 237 240 255 237 240 255 236 239 255 236 239 255 236 239 255 236 239 255 236 239 255 236 239 255 236 239 255 236 239 255 236 239 255 234 238 255 234 238 255 234 238 255 234 238 255 234 238 255 234 238 255 234 238 255 234 238 255 234 238 255 234 238 255 233 237 255 234 238 255 232 236 255 214 221 255 202 211 255 200 209 255 198 208 255 198 208 255 198 208 255 196 206 255 196 206 255 196 206 255 196 206 255 196 206 255 196 206 255 196 206 255 196 206 255 196 206 255 196 206 255 196 206 255 196 206 255 196 206 255 196 206 255 196 206 255 196 206 255 196 206 255 196 206 255 193 204 255 193 204 255 193 204 255 193 204 255 193 204 255 193 204 255 193 204 255 193 204 255 193 204 255 193 204 255 193 204 255 193 204 255 196 206 255 196 206 255 193 204 
255 200 209 255 200 209 255 200 209 255 201 210 255 201 210 255 201 210 255 200 209 255 200 209 255 198 208 255 198 208 255 198 208 255 198 208 255 198 208 255 201 210 255 206 215 255 201 210 255 206 215 255 237 240 255 233 237 255 233 237 255 236 239 255 233 237 255 233 237 255 233 237 255 233 237 255 234 238 255 234 238 255 234 238 255 234 238 255 234 238 255 234 238 255 234 238 255 234 238 255 234 238 255 234 238 255 234 238 255 234 238 255 236 239 255 236 239 255 236 239 255 236 239 255 236 239 255 236 239 255 236 239 255 236 239 255 236 239 255 236 239 255 237 240 255 237 240 255 237 240 255 237 240 255 234 238 255 232 236 255 230 235 255 205 214 255 198 208 255 221 227 249 187 198 222 167 177 211 159 168 211 159 168 195 147 155 217 163 172 255 196 206 179 134 142 184 138 146 179 134 142 184 138 146 222 167 177 184 138 146 200 151 159 206 155 164 200 151 159 255 208 216 233 175 185 255 217 224 255 201 210 255 240 242 255 240 242 255 233 237 255 222 228 255 232 236 255 230 235 255 240 242 255 228 232 255 238 241 255 233 237 255 238 241 255 238 241 255 238 241 255 238 241 255 238 241 255 238 241 255 240 242 255 232 236 255 226 231 255 213 220 255 242 245 255 217 224 255 228 232 255 202 211 211 159 168 211 159 168 255 229 233 255 232 236 255 201 210 255 229 233 255 238 241 255 238 241 255 238 241 255 232 236 255 198 208 255 242 245 255 240 242 255 221 227 255 226 231 255 240 242 255 237 240 255 240 242 255 238 241 255 238 241 255 238 241 255 240 242 255 238 241 255 238 241 255 238 241 255 238 241 255 238 241 255 238 241 255 238 241 255 238 241 255 238 241 255 238 241 255 238 241 255 238 241 255 238 241 255 238 241 255 238 241 255 238 241 255 237 240 255 237 240 255 238 241 255 237 240 255 238 241 255 238 241 255 238 241 255 237 240 255 237 240 255 237 240 255 237 240 255 237 240 255 237 240 255 237 240 255 237 240 255 237 240 255 237 240 255 237 240 255 237 240 255 237 240 255 236 239 255 236 239 255 236 239 255 236 239 255 236 239 255 236 239 255 236 239 255 236 239 255 236 239 255 236 239 255 236 239 255 236 239 255 234 238 255 234 238 255 234 238 255 234 238 255 234 238 255 234 238 255 234 238 255 234 238 255 234 238 255 234 238 255 233 237 255 234 238 255 233 237 255 214 221 255 200 209 255 200 209 255 198 208 255 198 208 255 198 208 255 196 206 255 196 206 255 196 206 255 196 206 255 196 206 255 196 206 255 198 208 255 198 208 255 196 206 255 196 206 255 196 206 255 196 206 255 196 206 255 196 206 255 196 206 255 196 206 255 196 206 255 196 206 255 193 204 255 193 204 255 193 204 255 193 204 255 193 204 255 193 204 255 193 204 255 193 204 255 196 206 255 196 206 255 196 206 255 193 204 
255 200 209 255 200 209 255 200 209 255 201 210 255 201 210 255 201 210 255 200 209 255 200 209 255 198 208 255 198 208 255 198 208 255 198 208 255 198 208 255 201 210 255 206 215 255 201 210 255 206 215 255 237 240 255 233 237 255 233 237 255 236 239 255 233 237 255 233 237 255 233 237 255 233 237 255 234 238 255 234 238 255 234 238 255 234 238 255 234 238 255 234 238 255 234 238 255 234 238 255 234 238 255 234 238 255 234 238 255 234 238 255 236 239 255 236 239 255 236 239 255 236 239 255 236 239 255 236 239 255 236 239 255 236 239 255 236 239 255 236 239 255 237 240 255 237 240 255 237 240 255 237 240 255 234 238 255 232 236 255 230 235 255 205 214 255 198 208 255 221 227 249 187 198 222 167 177 211 159 168 211 159 168 195 147 155 217 163 172 255 196 206 179 134 142 184 138 146 179 134 142 184 138 146 222 167 177 184 138 146 200 151 159 206 155 164 200 151 159 255 208 216 233 175 185 255 217 224 255 201 210 255 240 242 255 240 242 255 233 237 255 222 228 255 232 236 255 230 235 255 240 242 255 228 232 255 238 241 255 233 237 255 238 241 255 238 241 255 238 241 255 238 241 255 238 241 255 238 241 255 240 242 255 232 236 255 226 231 255 213 220 255 242 245 255 217 224 255 228 232 255 202 211 211 159 168 211 159 168 255 229 233 255 232 236 255 201 210 255 229 233 255 238 241 255 238 241 255 238 241 255 232 236 255 198 208 255 242 245 255 240 242 255 221 227 255 226 231 255 240 242 255 237 240 255 240 242 255 238 241 255 238 241 255 238 241 255 240 242 255 238 241 255 238 241 255 238 241 255 238 241 255 238 241 255 238 241 255 238 241 255 238 241 255 238 241 255 238 241 255 238 241 255 238 241 255 238 241 255 238 241 255 238 241 255 238 241 255 237 240 255 237 240 255 238 241 255 237 240 255 238 241 255 238 241 255 238 241 255 237 240 255 237 240 255 237 240 255 237 240 255 237 240 255 237 240 255 237 240 255 237 240 255 237 240 255 237 240 255 237 240 255 237 240 255 237 240 255 236 239 255 236 239 255 236 239 255 236 239 255 236 239 255 236 239 255 236 239 255 236 239 255 236 239 255 236 239 255 236 239 255 236 239 255 234 238 255 234 238 255 234 238 255 234 238 255 234 238 255 234 238 255 234 238 255 234 238 255 234 238 255 234 238 255 233 237 255 234 238 255 233 237 255 214 221 255 200 209 255 200 209 255 198 208 255 198 208 255 198 208 255 196 206 255 196 206 255 196 206 255 196 206 255 196 206 255 196 206 255 198 208 255 198 208 255 196 206 255 196 206 255 196 206 255 196 206 255 196 206 255 196 206 255 196 206 255 196 206 255 196 206 255 196 206 255 193 204 255 193 204 255 193 204 255 193 204 255 193 204 255 193 204 255 193 204 255 193 204 255 196 206 255 196 206 255 196 206 255 193 204 
255 200 209 255 200 209 255 200 209 255 201 210 255 201 210 255 201 210 255 200 209 255 198 208 255 198 208 255 198 208 255 198 208 255 198 208 255 198 208 255 230 235 255 233 237 255 232 236 255 234 238 255 234 238 255 216 222 255 216 222 255 221 227 255 230 235 255 233 237 255 233 237 255 233 237 255 233 237 255 233 237 255 234 238 255 234 238 255 234 238 255 234 238 255 234 238 255 234 238 255 234 238 255 234 238 255 234 238 255 236 239 255 236 239 255 236 239 255 237 240 255 236 239 255 236 239 255 236 239 255 236 239 255 237 240 255 236 239 255 234 238 255 233 237 255 226 231 255 226 231 255 225 230 255 224 229 222 167 177 249 187 198 255 209 217 255 216 222 233 175 185 211 159 168 249 187 198 255 193 204 211 159 168 211 159 168 200 151 159 211 159 168 233 175 185 195 147 155 200 151 159 195 147 155 184 138 146 184 138 146 195 147 155 184 138 146 195 147 155 255 201 210 249 187 198 255 212 219 255 225 230 255 238 241 255 234 238 255 229 233 255 236 239 255 234 238 255 237 240 255 237 240 255 238 241 255 237 240 255 238 241 255 238 241 255 238 241 255 238 241 255 238 241 255 238 241 255 238 241 255 238 241 255 238 241 255 238 241 255 238 241 255 240 242 255 240 242 255 228 232 233 175 185 255 193 204 255 234 238 255 240 242 255 224 229 255 213 220 255 240 242 255 236 239 255 240 242 255 240 242 255 230 235 255 236 239 255 240 242 255 238 241 255 238 241 255 234 238 255 238 241 255 240 242 255 238 241 255 237 240 255 237 240 255 238 241 255 234 238 255 238 241 255 238 241 255 238 241 255 238 241 255 238 241 255 238 241 255 238 241 255 238 241 255 238 241 255 238 241 255 240 242 255 233 237 255 240 242 255 238 241 255 237 240 255 238 241 255 238 241 255 237 240 255 237 240 255 238 241 255 238 241 255 237 240 255 238 241 255 237 240 255 237 240 255 237 240 255 237 240 255 237 240 255 237 240 255 237 240 255 237 240 255 237 240 255 237 240 255 237 240 255 236 239 255 236 239 255 236 239 255 236 239 255 236 239 255 236 239 255 236 239 255 236 239 255 236 239 255 236 239 255 236 239 255 236 239 255 236 239 255 236 239 255 236 239 255 236 239 255 234 238 255 234 238 255 234 238 255 234 238 255 234 238 255 234 238 255 234 238 255 234 238 255 234 238 255 234 238 255 233 237 255 233 237 255 233 237 255 221 227 255 202 211 255 196 206 255 198 208 255 196 206 255 198 208 255 198 208 255 198 208 255 198 208 255 198 208 255 198 208 255 198 208 255 198 208 255 198 208 255 198 208 255 198 208 255 198 208 255 196 206 255 196 206 255 196 206 255 196 206 255 196 206 255 196 206 255 196 206 255 193 204 255 193 204 255 193 204 255 193 204 255 196 206 255 196 206 255 198 208 255 198 208 255 196 206 255 193 204 
255 200 209 255 200 209 255 200 209 255 201 210 255 201 210 255 201 210 255 200 209 255 198 208 255 198 208 255 198 208 255 198 208 255 198 208 255 198 208 255 230 235 255 233 237 255 232 236 255 234 238 255 234 238 255 216 222 255 216 222 255 221 227 255 230 235 255 233 237 255 233 237 255 233 237 255 233 237 255 233 237 255 234 238 255 234 238 255 234 238 255 234 238 255 234 238 255 234 238 255 234 238 255 234 238 255 234 238 255 236 239 255 236 239 255 236 239 255 237 240 255 236 239 255 236 239 255 236 239 255 236 239 255 237 240 255 236 239 255 234 238 255 233 237 255 226 231 255 226 231 255 225 230 255 224 229 222 167 177 249 187 198 255 209 217 255 216 222 233 175 185 211 159 168 249 187 198 255 193 204 211 159 168 211 159 168 200 151 159 211 159 168 233 175 185 195 147 155 200 151 159 195 147 155 184 138 146 184 138 146 195 147 155 184 138 146 195 147 155 255 201 210 249 187 198 255 212 219 255 225 230 255 238 241 255 234 238 255 229 233 255 236 239 255 234 238 255 237 240 255 237 240 255 238 241 255 237 240 255 238 241 255 238 241 255 238 241 255 238 241 255 238 241 255 238 241 255 238 241 255 238 241 255 238 241 255 238 241 255 238 241 255 240 242 255 240 242 255 228 232 233 175 185 255 193 204 255 234 238 255 240 242 255 224 229 255 213 220 255 240 242 255 236 239 255 240 242 255 240 242 255 230 235 255 236 239 255 240 242 255 238 241 255 238 241 255 234 238 255 238 241 255 240 242 255 238 241 255 237 240 255 237 240 255 238 241 255 234 238 255 238 241 255 238 241 255 238 241 255 238 241 255 238 241 255 238 241 255 238 241 255 238 241 255 238 241 255 238 241 255 240 242 255 233 237 255 240 242 255 238 241 255 237 240 255 238 241 255 238 241 255 237 240 255 237 240 255 238 241 255 238 241 255 237 240 255 238 241 255 237 240 255 237 240 255 237 240 255 237 240 255 237 240 255 237 240 255 237 240 255 237 240 255 237 240 255 237 240 255 237 240 255 236 239 255 236 239 255 236 239 255 236 239 255 236 239 255 236 239 255 236 239 255 236 239 255 236 239 255 236 239 255 236 239 255 236 239 255 236 239 255 236 239 255 236 239 255 236 239 255 234 238 255 234 238 255 234 238 255 234 238 255 234 238 255 234 238 255 234 238 255 234 238 255 234 238 255 234 238 255 233 237 255 233 237 255 233 237 255 221 227 255 202 211 255 196 206 255 198 208 255 196 206 255 198 208 255 198 208 255 198 208 255 198 208 255 198 208 255 198 208 255 198 208 255 198 208 255 198 208 255 198 208 255 198 208 255 198 208 255 196 206 255 196 206 255 196 206 255 196 206 255 196 206 255 196 206 255 196 206 255 193 204 255 193 204 255 193 204 255 193 204 255 196 206 255 196 206 255 198 208 255 198 208 255 196 206 255 193 204 
255 200 209 255 200 209 255 200 209 255 201 210 255 201 210 255 201 210 255 200 209 255 200 209 255 198 208 255 198 208 255 198 208 255 198 208 255 198 208 255 232 236 255 232 236 255 228 232 255 224 229 222 167 177 255 196 206 255 209 217 255 222 228 255 228 232 255 232 236 255 233 237 255 233 237 255 233 237 255 233 237 255 233 237 255 234 238 255 234 238 255 234 238 255 234 238 255 234 238 255 234 238 255 234 238 255 234 238 255 236 239 255 236 239 255 236 239 255 236 239 255 236 239 255 236 239 255 233 237 255 225 230 255 233 237 255 200 209 255 221 227 255 234 238 255 206 215 255 196 206 244 183 194 233 175 185 255 205 214 244 183 194 244 183 194 222 167 177 255 196 206 255 200 209 255 221 227 255 201 210 217 163 172 200 151 159 184 138 146 206 155 164 200 151 159 200 151 159 227 171 181 179 134 142 184 138 146 195 147 155 200 151 159 195 147 155 244 183 194 206 155 164 255 232 236 195 147 155 255 229 233 255 234 238 255 236 239 255 238 241 255 238 241 255 238 241 255 238 241 255 238 241 255 238 241 255 237 240 255 238 241 255 238 241 255 238 241 255 238 241 255 238 241 255 238 241 255 238 241 255 238 241 255 238 241 255 238 241 255 238 241 255 240 242 255 240 242 255 222 228 255 202 211 249 187 198 255 246 248 255 240 242 255 236 239 255 216 222 255 238 241 255 240 242 255 240 242 255 238 241 255 238 241 255 240 242 255 238 241 255 238 241 255 232 236 255 232 236 255 229 233 255 229 233 255 232 236 255 228 232 255 234 238 255 240 242 255 233 237 255 240 242 255 238 241 255 240 242 255 238 241 255 238 241 255 238 241 255 238 241 255 238 241 255 236 239 255 238 241 255 238 241 255 230 235 255 238 241 255 238 241 255 238 241 255 230 235 255 233 237 255 233 237 255 224 229 255 234 238 255 238 241 255 238 241 255 238 241 255 237 240 255 237 240 255 237 240 255 237 240 255 237 240 255 237 240 255 237 240 255 237 240 255 237 240 255 237 240 255 236 239 255 236 239 255 236 239 255 236 239 255 236 239 255 236 239 255 236 239 255 236 239 255 236 239 255 236 239 255 236 239 255 236 239 255 236 239 255 236 239 255 236 239 255 236 239 255 236 239 255 234 238 255 234 238 255 234 238 255 234 238 255 234 238 255 234 238 255 234 238 255 234 238 255 234 238 255 233 237 255 233 237 255 232 236 255 233 237 255 232 236 255 233 237 255 228 232 255 201 210 255 198 208 255 198 208 255 198 208 255 198 208 255 198 208 255 198 208 255 198 208 255 198 208 255 198 208 255 198 208 255 198 208 255 198 208 255 198 208 255 196 206 255 196 206 255 196 206 255 196 206 255 196 206 255 196 206 255 196 206 255 193 204 255 193 204 255 193 204 255 196 206 255 196 206 255 196 206 255 198 208 255 198 208 255 196 206 255 193 204 
255 200 209 255 200 209 255 200 209 255 201 210 255 201 210 255 201 210 255 200 209 255 200 209 255 198 208 255 198 208 255 198 208 255 198 208 255 198 208 255 232 236 255 232 236 255 228 232 255 224 229 222 167 177 255 196 206 255 209 217 255 222 228 255 228 232 255 232 236 255 233 237 255 233 237 255 233 237 255 233 237 255 233 237 255 234 238 255 234 238 255 234 238 255 234 238 255 234 238 255 234 238 255 234 238 255 234 238 255 236 239 255 236 239 255 236 239 255 236 239 255 236 239 255 236 239 255 233 237 255 225 230 255 233 237 255 200 209 255 221 227 255 234 238 255 206 215 255 196 206 244 183 194 233 175 185 255 205 214 244 183 194 244 183 194 222 167 177 255 196 206 255 200 209 255 221 227 255 201 210 217 163 172 200 151 159 184 138 146 206 155 164 200 151 159 200 151 159 227 171 181 179 134 142 184 138 146 195 147 155 200 151 159 195 147 155 244 183 194 206 155 164 255 232 236 195 147 155 255 229 233 255 234 238 255 236 239 255 238 241 255 238 241 255 238 241 255 238 241 255 238 241 255 238 241 255 237 240 255 238 241 255 238 241 255 238 241 255 238 241 255 238 241 255 238 241 255 238 241 255 238 241 255 238 241 255 238 241 255 238 241 255 240 242 255 240 242 255 222 228 255 202 211 249 187 198 255 246 248 255 240 242 255 236 239 255 216 222 255 238 241 255 240 242 255 240 242 255 238 241 255 238 241 255 240 242 255 238 241 255 238 241 255 232 236 255 232 236 255 229 233 255 229 233 255 232 236 255 228 232 255 234 238 255 240 242 255 233 237 255 240 242 255 238 241 255 240 242 255 238 241 255 238 241 255 238 241 255 238 241 255 238 241 255 236 239 255 238 241 255 238 241 255 230 235 255 238 241 255 238 241 255 238 241 255 230 235 255 233 237 255 233 237 255 224 229 255 234 238 255 238 241 255 238 241 255 238 241 255 237 240 255 237 240 255 237 240 255 237 240 255 237 240 255 237 240 255 237 240 255 237 240 255 237 240 255 237 240 255 236 239 255 236 239 255 236 239 255 236 239 255 236 239 255 236 239 255 236 239 255 236 239 255 236 239 255 236 239 255 236 239 255 236 239 255 236 239 255 236 239 255 236 239 255 236 239 255 236 239 255 234 238 255 234 238 255 234 238 255 234 238 255 234 238 255 234 238 255 234 238 255 234 238 255 234 238 255 233 237 255 233 237 255 232 236 255 233 237 255 232 236 255 233 237 255 228 232 255 201 210 255 198 208 255 198 208 255 198 208 255 198 208 255 198 208 255 198 208 255 198 208 255 198 208 255 198 208 255 198 208 255 198 208 255 198 208 255 198 208 255 196 206 255 196 206 255 196 206 255 196 206 255 196 206 255 196 206 255 196 206 255 193 204 255 193 204 255 193 204 255 196 206 255 196 206 255 196 206 255 198 208 255 198 208 255 196 206 255 193 204 
255 200 209 255 200 209 255 200 209 255 201 210 255 201 210 255 201 210 255 200 209 255 200 209 255 200 209 255 200 209 255 198 208 255 198 208 255 200 209 255 216 222 255 220 226 200 151 159 157 118 125 179 134 142 200 151 159 255 206 215 255 208 216 255 214 221 255 214 221 255 232 236 255 229 233 255 232 236 255 233 237 255 234 238 255 234 238 255 234 238 255 234 238 255 234 238 255 234 238 255 234 238 255 234 238 255 234 238 255 236 239 255 236 239 255 236 239 255 236 239 255 236 239 255 232 236 255 237 240 255 228 232 255 234 238 255 236 239 255 232 236 255 221 227 255 222 228 233 175 185 200 151 159 179 134 142 255 198 208 255 205 214 195 147 155 184 138 146 206 155 164 255 210 218 255 217 224 255 212 219 227 171 181 195 147 155 184 138 146 184 138 146 200 151 159 227 171 181 184 138 146 255 193 204 184 138 146 184 138 146 184 138 146 244 183 194 255 208 216 255 200 209 255 240 242 255 206 215 255 237 240 255 236 239 255 238 241 255 238 241 255 238 241 255 238 241 255 237 240 255 238 241 255 238 241 255 238 241 255 238 241 255 238 241 255 238 241 255 238 241 255 238 241 255 238 241 255 240 242 255 240 242 255 240 242 255 242 245 255 230 235 255 240 242 255 240 242 255 226 231 255 224 229 255 210 218 255 245 247 255 242 245 255 205 214 255 237 240 255 240 242 255 238 241 255 240 242 255 238 241 255 238 241 255 238 241 255 240 242 255 240 242 255 236 239 255 230 235 255 238 241 255 232 236 255 236 239 255 237 240 255 237 240 255 238 241 255 238 241 255 238 241 255 238 241 255 240 242 255 240 242 255 238 241 255 238 241 255 238 241 255 238 241 255 242 245 255 237 240 255 228 232 255 234 238 255 237 240 255 238 241 255 221 227 255 225 230 255 217 224 255 225 230 255 236 239 255 237 240 255 238 241 255 238 241 255 238 241 255 237 240 255 237 240 255 237 240 255 237 240 255 237 240 255 237 240 255 237 240 255 237 240 255 237 240 255 236 239 255 236 239 255 236 239 255 236 239 255 236 239 255 236 239 255 236 239 255 236 239 255 236 239 255 236 239 255 236 239 255 236 239 255 236 239 255 236 239 255 236 239 255 236 239 255 236 239 255 236 239 255 236 239 255 234 238 255 234 238 255 234 238 255 234 238 255 234 238 255 234 238 255 234 238 255 233 237 255 233 237 255 232 236 255 232 236 255 232 236 255 232 236 255 233 237 255 230 235 255 233 237 255 213 220 255 201 210 255 198 208 255 198 208 255 198 208 255 198 208 255 198 208 255 198 208 255 198 208 255 198 208 255 198 208 255 198 208 255 198 208 255 198 208 255 198 208 255 198 208 255 198 208 255 198 208 255 196 206 255 196 206 255 196 206 255 196 206 255 196 206 255 196 206 255 196 206 255 196 206 255 198 208 255 198 208 255 196 206 255 193 204 
255 200 209 255 200 209 255 200 209 255 201 210 255 201 210 255 201 210 255 200 209 255 200 209 255 200 209 255 200 209 255 198 208 255 198 208 255 200 209 255 216 222 255 220 226 200 151 159 157 118 125 179 134 142 200 151 159 255 206 215 255 208 216 255 214 221 255 214 221 255 232 236 255 229 233 255 232 236 255 233 237 255 234 238 255 234 238 255 234 238 255 234 238 255 234 238 255 234 238 255 234 238 255 234 238 255 234 238 255 236 239 255 236 239 255 236 239 255 236 239 255 236 239 255 232 236 255 237 240 255 228 232 255 234 238 255 236 239 255 232 236 255 221 227 255 222 228 233 175 185 200 151 159 179 134 142 255 198 208 255 205 214 195 147 155 184 138 146 206 155 164 255 210 218 255 217 224 255 212 219 227 171 181 195 147 155 184 138 146 184 138 146 200 151 159 227 171 181 184 138 146 255 193 204 184 138 146 184 138 146 184 138 146 244 183 194 255 208 216 255 200 209 255 240 242 255 206 215 255 237 240 255 236 239 255 238 241 255 238 241 255 238 241 255 238 241 255 237 240 255 238 241 255 238 241 255 238 241 255 238 241 255 238 241 255 238 241 255 238 241 255 238 241 255 238 241 255 240 242 255 240 242 255 240 242 255 242 245 255 230 235 255 240 242 255 240 242 255 226 231 255 224 229 255 210 218 255 245 247 255 242 245 255 205 214 255 237 240 255 240 242 255 238 241 255 240 242 255 238 241 255 238 241 255 238 241 255 240 242 255 240 242 255 236 239 255 230 235 255 238 241 255 232 236 255 236 239 255 237 240 255 237 240 255 238 241 255 238 241 255 238 241 255 238 241 255 240 242 255 240 242 255 238 241 255 238 241 255 238 241 255 238 241 255 242 245 255 237 240 255 228 232 255 234 238 255 237 240 255 238 241 255 221 227 255 225 230 255 217 224 255 225 230 255 236 239 255 237 240 255 238 241 255 238 241 255 238 241 255 237 240 255 237 240 255 237 240 255 237 240 255 237 240 255 237 240 255 237 240 255 237 240 255 237 240 255 236 239 255 236 239 255 236 239 255 236 239 255 236 239 255 236 239 255 236 239 255 236 239 255 236 239 255 236 239 255 236 239 255 236 239 255 236 239 255 236 239 255 236 239 255 236 239 255 236 239 255 236 239 255 236 239 255 234 238 255 234 238 255 234 238 255 234 238 255 234 238 255 234 238 255 234 238 255 233 237 255 233 237 255 232 236 255 232 236 255 232 236 255 232 236 255 233 237 255 230 235 255 233 237 255 213 220 255 201 210 255 198 208 255 198 208 255 198 208 255 198 208 255 198 208 255 198 208 255 198 208 255 198 208 255 198 208 255 198 208 255 198 208 255 198 208 255 198 208 255 198 208 255 198 208 255 198 208 255 196 206 255 196 206 255 196 206 255 196 206 255 196 206 255 196 206 255 196 206 255 196 206 255 198 208 255 198 208 255 196 206 255 193 204 
255 200 209 255 200 209 255 201 210 255 201 210 255 202 211 255 201 210 255 201 210 255 200 209 255 200 209 255 200 209 255 198 208 255 198 208 255 200 209 249 187 198 244 183 194 195 147 155 200 151 159 179 134 142 179 134 142 179 134 142 211 159 168 227 171 181 255 198 208 255 209 217 255 233 237 255 233 237 255 233 237 255 234 238 255 234 238 255 234 238 255 234 238 255 234 238 255 234 238 255 234 238 255 234 238 255 236 239 255 236 239 255 236 239 255 236 239 255 236 239 255 236 239 255 236 239 255 237 240 255 236 239 255 237 240 255 236 239 255 237 240 255 222 228 222 167 177 195 147 155 211 159 168 255 198 208 233 175 185 255 208 216 255 232 236 255 201 210 211 159 168 195 147 155 227 171 181 255 196 206 195 147 155 206 155 164 184 138 146 195 147 155 195 147 155 255 205 214 206 155 164 200 151 159 222 167 177 217 163 172 255 209 217 217 163 172 255 228 232 255 216 222 255 242 245 255 234 238 255 222 228 255 238 241 255 238 241 255 238 241 255 238 241 255 238 241 255 238 241 255 238 241 255 238 241 255 238 241 255 238 241 255 238 241 255 238 241 255 238 241 255 238 241 255 238 241 255 238 241 255 240 242 255 240 242 255 240 242 255 238 241 255 240 242 255 242 245 255 213 220 255 193 204 255 230 235 255 238 241 255 220 226 255 232 236 255 240 242 255 240 242 255 240 242 255 240 242 255 240 242 255 240 242 255 240 242 255 240 242 255 238 241 255 238 241 255 240 242 255 238 241 255 240 242 255 240 242 255 240 242 255 240 242 255 240 242 255 240 242 255 238 241 255 238 241 255 238 241 255 238 241 255 240 242 255 240 242 255 240 242 255 240 242 255 232 236 255 225 230 255 220 226 255 242 245 255 240 242 255 216 222 255 225 230 255 221 227 255 233 237 255 220 226 255 237 240 255 238 241 255 238 241 255 238 241 255 238 241 255 238 241 255 237 240 255 237 240 255 237 240 255 237 240 255 237 240 255 237 240 255 236 239 255 236 239 255 236 239 255 236 239 255 236 239 255 236 239 255 236 239 255 236 239 255 236 239 255 236 239 255 236 239 255 236 239 255 236 239 255 236 239 255 236 239 255 236 239 255 236 239 255 234 238 255 236 239 255 236 239 255 234 238 255 234 238 255 234 238 255 234 238 255 234 238 255 234 238 255 233 237 255 233 237 255 233 237 255 233 237 255 232 236 255 232 236 255 232 236 255 232 236 255 232 236 255 232 236 255 232 236 255 232 236 255 233 237 255 206 215 255 198 208 255 198 208 255 198 208 255 198 208 255 198 208 255 198 208 255 198 208 255 198 208 255 198 208 255 198 208 255 198 208 255 198 208 255 198 208 255 198 208 255 198 208 255 198 208 255 198 208 255 198 208 255 198 208 255 198 208 255 198 208 255 198 208 255 198 208 255 198 208 255 198 208 255 198 208 255 193 204 
255 200 209 255 200 209 255 201 210 255 201 210 255 202 211 255 201 210 255 201 210 255 200 209 255 200 209 255 200 209 255 198 208 255 198 208 255 200 209 249 187 198 244 183 194 195 147 155 200 151 159 179 134 142 179 134 142 179 134 142 211 159 168 227 171 181 255 198 208 255 209 217 255 233 237 255 233 237 255 233 237 255 234 238 255 234 238 255 234 238 255 234 238 255 234 238 255 234 238 255 234 238 255 234 238 255 236 239 255 236 239 255 236 239 255 236 239 255 236 239 255 236 239 255 236 239 255 237 240 255 236 239 255 237 240 255 236 239 255 237 240 255 222 228 222 167 177 195 147 155 211 159 168 255 198 208 233 175 185 255 208 216 255 232 236 255 201 210 211 159 168 195 147 155 227 171 181 255 196 206 195 147 155 206 155 164 184 138 146 195 147 155 195 147 155 255 205 214 206 155 164 200 151 159 222 167 177 217 163 172 255 209 217 217 163 172 255 228 232 255 216 222 255 242 245 255 234 238 255 222 228 255 238 241 255 238 241 255 238 241 255 238 241 255 238 241 255 238 241 255 238 241 255 238 241 255 238 241 255 238 241 255 238 241 255 238 241 255 238 241 255 238 241 255 238 241 255 238 241 255 240 242 255 240 242 255 240 242 255 238 241 255 240 242 255 242 245 255 213 220 255 193 204 255 230 235 255 238 241 255 220 226 255 232 236 255 240 242 255 240 242 255 240 242 255 240 242 255 240 242 255 240 242 255 240 242 255 240 242 255 238 241 255 238 241 255 240 242 255 238 241 255 240 242 255 240 242 255 240 242 255 240 242 255 240 242 255 240 242 255 238 241 255 238 241 255 238 241 255 238 241 255 240 242 255 240 242 255 240 242 255 240 242 255 232 236 255 225 230 255 220 226 255 242 245 255 240 242 255 216 222 255 225 230 255 221 227 255 233 237 255 220 226 255 237 240 255 238 241 255 238 241 255 238 241 255 238 241 255 238 241 255 237 240 255 237 240 255 237 240 255 237 240 255 237 240 255 237 240 255 236 239 255 236 239 255 236 239 255 236 239 255 236 239 255 236 239 255 236 239 255 236 239 255 236 239 255 236 239 255 236 239 255 236 239 255 236 239 255 236 239 255 236 239 255 236 239 255 236 239 255 234 238 255 236 239 255 236 239 255 234 238 255 234 238 255 234 238 255 234 238 255 234 238 255 234 238 255 233 237 255 233 237 255 233 237 255 233 237 255 232 236 255 232 236 255 232 236 255 232 236 255 232 236 255 232 236 255 232 236 255 232 236 255 233 237 255 206 215 255 198 208 255 198 208 255 198 208 255 198 208 255 198 208 255 198 208 255 198 208 255 198 208 255 198 208 255 198 208 255 198 208 255 198 208 255 198 208 255 198 208 255 198 208 255 198 208 255 198 208 255 198 208 255 198 208 255 198 208 255 198 208 255 198 208 255 198 208 255 198 208 255 198 208 255 198 208 255 193 204 
255 200 209 255 200 209 255 201 210 255 201 210 255 202 211 255 202 211 255 201 210 255 200 209 255 200 209 255 200 209 255 200 209 255 200 209 255 200 209 255 200 209 255 200 209 200 151 159 179 134 142 157 118 125 200 151 159 206 155 164 217 163 172 233 175 185 255 208 216 255 222 228 255 232 236 255 233 237 255 234 238 255 234 238 255 234 238 255 234 238 255 234 238 255 234 238 255 234 238 255 236 239 255 234 238 255 236 239 255 236 239 255 236 239 255 236 239 255 236 239 255 236 239 255 236 239 255 236 239 255 236 239 255 237 240 255 237 240 255 237 240 255 205 214 255 233 237 255 214 221 255 209 217 217 163 172 195 147 155 195 147 155 200 151 159 255 198 208 184 138 146 200 151 159 200 151 159 195 147 155 200 151 159 255 208 216 255 232 236 255 232 236 184 138 146 227 171 181 217 163 172 211 159 168 255 201 210 255 210 218 255 205 214 255 208 216 255 206 215 255 210 218 255 238 241 255 225 230 255 233 237 255 238 241 255 238 241 255 238 241 255 238 241 255 238 241 255 238 241 255 240 242 255 238 241 255 238 241 255 232 236 255 234 238 255 234 238 255 238 241 255 238 241 255 238 241 255 238 241 255 240 242 255 240 242 255 240 242 255 240 242 255 240 242 255 242 245 255 222 228 255 212 219 255 242 245 255 238 241 255 238 241 255 238 241 255 240 242 255 240 242 255 240 242 255 240 242 255 240 242 255 240 242 255 240 242 255 240 242 255 240 242 255 240 242 255 240 242 255 240 242 255 240 242 255 240 242 255 240 242 255 240 242 255 240 242 255 240 242 255 240 242 255 240 242 255 240 242 255 238 241 255 238 241 255 238 241 255 240 242 255 224 229 255 210 218 255 193 204 255 230 235 255 238 241 255 228 232 255 225 230 255 221 227 255 216 222 255 228 232 255 238 241 255 220 226 255 237 240 255 238 241 255 237 240 255 237 240 255 237 240 255 237 240 255 237 240 255 237 240 255 237 240 255 237 240 255 237 240 255 237 240 255 236 239 255 236 239 255 236 239 255 236 239 255 236 239 255 236 239 255 236 239 255 236 239 255 236 239 255 236 239 255 236 239 255 236 239 255 236 239 255 236 239 255 236 239 255 236 239 255 236 239 255 234 238 255 234 238 255 234 238 255 234 238 255 234 238 255 234 238 255 234 238 255 234 238 255 234 238 255 234 238 255 233 237 255 233 237 255 232 236 255 232 236 255 232 236 255 232 236 255 232 236 255 232 236 255 232 236 255 232 236 255 232 236 255 232 236 255 217 224 255 201 210 255 200 209 255 200 209 255 200 209 255 198 208 255 198 208 255 198 208 255 198 208 255 198 208 255 198 208 255 198 208 255 198 208 255 198 208 255 198 208 255 198 208 255 198 208 255 198 208 255 198 208 255 198 208 255 198 208 255 198 208 255 200 209 255 200 209 255 198 208 255 198 208 255 193 204 
255 200 209 255 200 209 255 201 210 255 201 210 255 202 211 255 202 211 255 201 210 255 200 209 255 200 209 255 200 209 255 200 209 255 200 209 255 200 209 255 200 209 255 200 209 200 151 159 179 134 142 157 118 125 200 151 159 206 155 164 217 163 172 233 175 185 255 208 216 255 222 228 255 232 236 255 233 237 255 234 238 255 234 238 255 234 238 255 234 238 255 234 238 255 234 238 255 234 238 255 236 239 255 234 238 255 236 239 255 236 239 255 236 239 255 236 239 255 236 239 255 236 239 255 236 239 255 236 239 255 236 239 255 237 240 255 237 240 255 237 240 255 205 214 255 233 237 255 214 221 255 209 217 217 163 172 195 147 155 195 147 155 200 151 159 255 198 208 184 138 146 200 151 159 200 151 159 195 147 155 200 151 159 255 208 216 255 232 236 255 232 236 184 138 146 227 171 181 217 163 172 211 159 168 255 201 210 255 210 218 255 205 214 255 208 216 255 206 215 255 210 218 255 238 241 255 225 230 255 233 237 255 238 241 255 238 241 255 238 241 255 238 241 255 238 241 255 238 241 255 240 242 255 238 241 255 238 241 255 232 236 255 234 238 255 234 238 255 238 241 255 238 241 255 238 241 255 238 241 255 240 242 255 240 242 255 240 242 255 240 242 255 240 242 255 242 245 255 222 228 255 212 219 255 242 245 255 238 241 255 238 241 255 238 241 255 240 242 255 240 242 255 240 242 255 240 242 255 240 242 255 240 242 255 240 242 255 240 242 255 240 242 255 240 242 255 240 242 255 240 242 255 240 242 255 240 242 255 240 242 255 240 242 255 240 242 255 240 242 255 240 242 255 240 242 255 240 242 255 238 241 255 238 241 255 238 241 255 240 242 255 224 229 255 210 218 255 193 204 255 230 235 255 238 241 255 228 232 255 225 230 255 221 227 255 216 222 255 228 232 255 238 241 255 220 226 255 237 240 255 238 241 255 237 240 255 237 240 255 237 240 255 237 240 255 237 240 255 237 240 255 237 240 255 237 240 255 237 240 255 237 240 255 236 239 255 236 239 255 236 239 255 236 239 255 236 239 255 236 239 255 236 239 255 236 239 255 236 239 255 236 239 255 236 239 255 236 239 255 236 239 255 236 239 255 236 239 255 236 239 255 236 239 255 234 238 255 234 238 255 234 238 255 234 238 255 234 238 255 234 238 255 234 238 255 234 238 255 234 238 255 234 238 255 233 237 255 233 237 255 232 236 255 232 236 255 232 236 255 232 236 255 232 236 255 232 236 255 232 236 255 232 236 255 232 236 255 232 236 255 217 224 255 201 210 255 200 209 255 200 209 255 200 209 255 198 208 255 198 208 255 198 208 255 198 208 255 198 208 255 198 208 255 198 208 255 198 208 255 198 208 255 198 208 255 198 208 255 198 208 255 198 208 255 198 208 255 198 208 255 198 208 255 198 208 255 200 209 255 200 209 255 198 208 255 198 208 255 193 204 
255 201 210 255 201 210 255 201 210 255 201 210 255 202 211 255 202 211 255 201 210 255 200 209 255 200 209 255 200 209 255 200 209 255 200 209 255 200 209 255 200 209 255 202 211 227 171 181 157 118 125 179 134 142 179 134 142 184 138 146 184 138 146 184 138 146 184 138 146 184 138 146 157 118 125 255 198 208 255 193 204 255 224 229 255 233 237 255 234 238 255 234 238 255 234 238 255 234 238 255 234 238 255 234 238 255 236 239 255 236 239 255 236 239 255 236 239 255 236 239 255 236 239 255 236 239 255 236 239 255 237 240 255 237 240 255 237 240 255 237 240 255 237 240 255 237 240 255 230 235 195 147 155 195 147 155 200 151 159 184 138 146 200 151 159 195 147 155 211 159 168 217 163 172 200 151 159 195 147 155 200 151 159 195 147 155 195 147 155 211 159 168 217 163 172 244 183 194 255 214 221 179 134 142 255 198 208 255 198 208 255 234 238 255 209 217 195 147 155 255 205 214 255 238 241 255 237 240 255 237 240 255 238 241 255 238 241 255 238 241 255 238 241 255 238 241 255 238 241 255 240 242 255 238 241 255 238 241 255 240 242 255 236 239 255 238 241 255 240 242 255 240 242 255 238 241 255 238 241 255 240 242 255 240 242 255 240 242 255 240 242 255 240 242 255 238 241 255 232 236 255 240 242 255 238 241 255 238 241 255 240 242 255 238 241 255 240 242 255 240 242 255 240 242 255 240 242 255 240 242 255 240 242 255 240 242 255 240 242 255 240 242 255 240 242 255 240 242 255 240 242 255 240 242 255 240 242 255 240 242 255 240 242 255 240 242 255 240 242 255 240 242 255 240 242 255 238 241 255 237 240 255 229 233 255 234 238 255 232 236 255 196 206 222 167 177 255 206 215 255 220 226 255 214 221 255 234 238 255 213 220 255 206 215 255 222 228 255 226 231 255 232 236 255 240 242 255 237 240 255 238 241 255 237 240 255 237 240 255 237 240 255 237 240 255 237 240 255 237 240 255 237 240 255 237 240 255 237 240 255 237 240 255 236 239 255 236 239 255 236 239 255 236 239 255 236 239 255 236 239 255 236 239 255 236 239 255 236 239 255 232 236 255 213 220 255 209 217 255 221 227 255 222 228 255 229 233 255 234 238 255 236 239 255 234 238 255 234 238 255 234 238 255 234 238 255 234 238 255 234 238 255 234 238 255 234 238 255 234 238 255 234 238 255 233 237 255 233 237 255 232 236 255 232 236 255 232 236 255 232 236 255 232 236 255 232 236 255 232 236 255 232 236 255 232 236 255 232 236 255 232 236 255 222 228 255 201 210 255 200 209 255 200 209 255 200 209 255 200 209 255 198 208 255 198 208 255 198 208 255 198 208 255 198 208 255 198 208 255 198 208 255 198 208 255 198 208 255 198 208 255 198 208 255 198 208 255 198 208 255 198 208 255 200 209 255 200 209 255 200 209 255 200 209 255 198 208 255 196 206 
255 201 210 255 201 210 255 201 210 255 201 210 255 202 211 255 202 211 255 201 210 255 200 209 255 200 209 255 200 209 255 200 209 255 200 209 255 200 209 255 200 209 255 202 211 227 171 181 157 118 125 179 134 142 179 134 142 184 138 146 184 138 146 184 138 146 184 138 146 184 138 146 157 118 125 255 198 208 255 193 204 255 224 229 255 233 237 255 234 238 255 234 238 255 234 238 255 234 238 255 234 238 255 234 238 255 236 239 255 236 239 255 236 239 255 236 239 255 236 239 255 236 239 255 236 239 255 236 239 255 237 240 255 237 240 255 237 240 255 237 240 255 237 240 255 237 240 255 230 235 195 147 155 195 147 155 200 151 159 184 138 146 200 151 159 195 147 155 211 159 168 217 163 172 200 151 159 195 147 155 200 151 159 195 147 155 195 147 155 211 159 168 217 163 172 244 183 194 255 214 221 179 134 142 255 198 208 255 198 208 255 234 238 255 209 217 195 147 155 255 205 214 255 238 241 255 237 240 255 237 240 255 238 241 255 238 241 255 238 241 255 238 241 255 238 241 255 238 241 255 240 242 255 238 241 255 238 241 255 240 242 255 236 239 255 238 241 255 240 242 255 240 242 255 238 241 255 238 241 255 240 242 255 240 242 255 240 242 255 240 242 255 240 242 255 238 241 255 232 236 255 240 242 255 238 241 255 238 241 255 240 242 255 238 241 255 240 242 255 240 242 255 240 242 255 240 242 255 240 242 255 240 242 255 240 242 255 240 242 255 240 242 255 240 242 255 240 242 255 240 242 255 240 242 255 240 242 255 240 242 255 240 242 255 240 242 255 240 242 255 240 242 255 240 242 255 238 241 255 237 240 255 229 233 255 234 238 255 232 236 255 196 206 222 167 177 255 206 215 255 220 226 255 214 221 255 234 238 255 213 220 255 206 215 255 222 228 255 226 231 255 232 236 255 240 242 255 237 240 255 238 241 255 237 240 255 237 240 255 237 240 255 237 240 255 237 240 255 237 240 255 237 240 255 237 240 255 237 240 255 237 240 255 236 239 255 236 239 255 236 239 255 236 239 255 236 239 255 236 239 255 236 239 255 236 239 255 236 239 255 232 236 255 213 220 255 209 217 255 221 227 255 222 228 255 229 233 255 234 238 255 236 239 255 234 238 255 234 238 255 234 238 255 234 238 255 234 238 255 234 238 255 234 238 255 234 238 255 234 238 255 234 238 255 233 237 255 233 237 255 232 236 255 232 236 255 232 236 255 232 236 255 232 236 255 232 236 255 232 236 255 232 236 255 232 236 255 232 236 255 232 236 255 222 228 255 201 210 255 200 209 255 200 209 255 200 209 255 200 209 255 198 208 255 198 208 255 198 208 255 198 208 255 198 208 255 198 208 255 198 208 255 198 208 255 198 208 255 198 208 255 198 208 255 198 208 255 198 208 255 198 208 255 200 209 255 200 209 255 200 209 255 200 209 255 198 208 255 196 206 
255 201 210 255 201 210 255 201 210 255 202 211 255 202 211 255 202 211 255 201 210 255 200 209 255 200 209 255 200 209 255 200 209 255 200 209 255 201 210 255 202 211 222 167 177 244 183 194 255 216 222 179 134 142 179 134 142 179 134 142 184 138 146 184 138 146 184 138 146 184 138 146 184 138 146 184 138 146 255 209 217 244 183 194 255 198 208 255 233 237 255 234 238 255 234 238 255 234 238 255 234 238 255 234 238 255 234 238 255 236 239 255 236 239 255 236 239 255 236 239 255 236 239 255 237 240 255 237 240 255 237 240 255 237 240 255 237 240 255 237 240 255 236 239 255 214 221 217 163 172 195 147 155 195 147 155 195 147 155 195 147 155 200 151 159 200 151 159 195 147 155 206 155 164 200 151 159 255 206 215 200 151 159 211 159 168 206 155 164 195 147 155 195 147 155 184 138 146 255 225 230 255 237 240 255 234 238 255 226 231 227 171 181 255 237 240 255 233 237 255 238 241 255 238 241 255 238 241 255 237 240 255 238 241 255 238 241 255 238 241 255 238 241 255 238 241 255 238 241 255 238 241 255 238 241 255 238 241 255 240 242 255 228 232 255 240 242 255 236 239 255 237 240 255 240 242 255 240 242 255 240 242 255 240 242 255 240 242 255 240 242 255 240 242 255 240 242 255 240 242 255 240 242 255 240 242 255 240 242 255 240 242 255 238 241 255 226 231 255 238 241 255 240 242 255 240 242 255 240 242 255 240 242 255 240 242 255 240 242 255 240 242 255 240 242 255 237 240 255 242 245 255 240 242 255 240 242 255 240 242 255 240 242 255 237 240 255 240 242 255 240 242 255 240 242 255 228 232 255 240 242 255 238 241 255 230 235 222 167 177 233 175 185 255 209 217 255 214 221 255 193 204 255 213 220 255 200 209 255 201 210 255 224 229 255 198 208 255 233 237 255 238 241 255 238 241 255 238 241 255 238 241 255 238 241 255 238 241 255 237 240 255 237 240 255 238 241 255 237 240 255 237 240 255 237 240 255 237 240 255 237 240 255 237 240 255 237 240 255 236 239 255 236 239 255 236 239 255 236 239 255 236 239 255 236 239 255 236 239 255 236 239 255 236 239 255 238 241 255 237 240 255 236 239 255 236 239 255 236 239 255 236 239 255 236 239 255 236 239 255 234 238 255 234 238 255 234 238 255 234 238 255 234 238 255 234 238 255 234 238 255 234 238 255 233 237 255 233 237 255 233 237 255 233 237 255 233 237 255 233 237 255 232 236 255 232 236 255 232 236 255 232 236 255 232 236 255 232 236 255 232 236 255 232 236 255 226 231 255 201 210 255 200 209 255 200 209 255 200 209 255 200 209 255 200 209 255 200 209 255 200 209 255 200 209 255 198 208 255 198 208 255 198 208 255 200 209 255 200 209 255 200 209 255 200 209 255 198 208 255 198 208 255 200 209 255 200 209 255 200 209 255 200 209 255 200 209 255 196 206 
255 201 210 255 201 210 255 201 210 255 202 211 255 202 211 255 202 211 255 201 210 255 200 209 255 200 209 255 200 209 255 200 209 255 200 209 255 201 210 255 202 211 222 167 177 244 183 194 255 216 222 179 134 142 179 134 142 179 134 142 184 138 146 184 138 146 184 138 146 184 138 146 184 138 146 184 138 146 255 209 217 244 183 194 255 198 208 255 233 237 255 234 238 255 234 238 255 234 238 255 234 238 255 234 238 255 234 238 255 236 239 255 236 239 255 236 239 255 236 239 255 236 239 255 237 240 255 237 240 255 237 240 255 237 240 255 237 240 255 237 240 255 236 239 255 214 221 217 163 172 195 147 155 195 147 155 195 147 155 195 147 155 200 151 159 200 151 159 195 147 155 206 155 164 200 151 159 255 206 215 200 151 159 211 159 168 206 155 164 195 147 155 195 147 155 184 138 146 255 225 230 255 237 240 255 234 238 255 226 231 227 171 181 255 237 240 255 233 237 255 238 241 255 238 241 255 238 241 255 237 240 255 238 241 255 238 241 255 238 241 255 238 241 255 238 241 255 238 241 255 238 241 255 238 241 255 238 241 255 240 242 255 228 232 255 240 242 255 236 239 255 237 240 255 240 242 255 240 242 255 240 242 255 240 242 255 240 242 255 240 242 255 240 242 255 240 242 255 240 242 255 240 242 255 240 242 255 240 242 255 240 242 255 238 241 255 226 231 255 238 241 255 240 242 255 240 242 255 240 242 255 240 242 255 240 242 255 240 242 255 240 242 255 240 242 255 237 240 255 242 245 255 240 242 255 240 242 255 240 242 255 240 242 255 237 240 255 240 242 255 240 242 255 240 242 255 228 232 255 240 242 255 238 241 255 230 235 222 167 177 233 175 185 255 209 217 255 214 221 255 193 204 255 213 220 255 200 209 255 201 210 255 224 229 255 198 208 255 233 237 255 238 241 255 238 241 255 238 241 255 238 241 255 238 241 255 238 241 255 237 240 255 237 240 255 238 241 255 237 240 255 237 240 255 237 240 255 237 240 255 237 240 255 237 240 255 237 240 255 236 239 255 236 239 255 236 239 255 236 239 255 236 239 255 236 239 255 236 239 255 236 239 255 236 239 255 238 241 255 237 240 255 236 239 255 236 239 255 236 239 255 236 239 255 236 239 255 236 239 255 234 238 255 234 238 255 234 238 255 234 238 255 234 238 255 234 238 255 234 238 255 234 238 255 233 237 255 233 237 255 233 237 255 233 237 255 233 237 255 233 237 255 232 236 255 232 236 255 232 236 255 232 236 255 232 236 255 232 236 255 232 236 255 232 236 255 226 231 255 201 210 255 200 209 255 200 209 255 200 209 255 200 209 255 200 209 255 200 209 255 200 209 255 200 209 255 198 208 255 198 208 255 198 208 255 200 209 255 200 209 255 200 209 255 200 209 255 198 208 255 198 208 255 200 209 255 200 209 255 200 209 255 200 209 255 200 209 255 196 206 
255 201 210 255 201 210 255 201 210 255 202 211 255 202 211 255 205 214 255 202 211 255 201 210 255 201 210 255 200 209 255 200 209 255 200 209 255 200 209 255 202 211 227 171 181 255 229 233 255 209 217 179 134 142 184 138 146 184 138 146 184 138 146 195 147 155 184 138 146 184 138 146 184 138 146 195 147 155 206 155 164 255 232 236 255 193 204 255 221 227 255 234 238 255 234 238 255 234 238 255 234 238 255 234 238 255 234 238 255 234 238 255 236 239 255 236 239 255 236 239 255 236 239 255 237 240 255 237 240 255 236 239 255 237 240 255 237 240 255 238 241 255 226 231 200 151 159 200 151 159 200 151 159 200 151 159 200 151 159 200 151 159 200 151 159 200 151 159 195 147 155 195 147 155 195 147 155 200 151 159 222 167 177 200 151 159 227 171 181 255 196 206 200 151 159 255 200 209 255 236 239 255 238 241 255 212 219 195 147 155 255 236 239 255 238 241 255 236 239 255 238 241 255 238 241 255 238 241 255 238 241 255 234 238 255 238 241 255 238 241 255 238 241 255 238 241 255 240 242 255 240 242 255 236 239 255 232 236 255 212 219 255 226 231 255 225 230 255 242 245 255 238 241 255 240 242 255 238 241 255 240 242 255 240 242 255 240 242 255 240 242 255 240 242 255 240 242 255 240 242 255 240 242 255 240 242 255 240 242 255 222 228 255 228 232 255 240 242 255 240 242 255 240 242 255 240 242 255 240 242 255 240 242 255 240 242 255 240 242 255 240 242 255 240 242 255 240 242 255 238 241 255 240 242 255 240 242 255 240 242 255 240 242 255 240 242 255 242 245 255 234 238 255 228 232 255 237 240 255 224 229 255 220 226 217 163 172 244 183 194 249 187 198 255 205 214 227 171 181 255 216 222 255 214 221 233 175 185 255 221 227 255 236 239 255 240 242 255 240 242 255 240 242 255 240 242 255 238 241 255 238 241 255 238 241 255 238 241 255 238 241 255 238 241 255 238 241 255 238 241 255 237 240 255 237 240 255 237 240 255 237 240 255 237 240 255 237 240 255 237 240 255 237 240 255 237 240 255 236 239 255 236 239 255 236 239 255 237 240 255 237 240 255 237 240 255 237 240 255 236 239 255 236 239 255 236 239 255 236 239 255 236 239 255 236 239 255 236 239 255 236 239 255 236 239 255 234 238 255 234 238 255 234 238 255 234 238 255 234 238 255 234 238 255 233 237 255 233 237 255 233 237 255 232 236 255 232 236 255 232 236 255 232 236 255 232 236 255 232 236 255 232 236 255 232 236 255 232 236 255 221 227 255 225 230 255 233 237 255 232 236 255 202 211 255 200 209 255 200 209 255 200 209 255 200 209 255 200 209 255 200 209 255 200 209 255 200 209 255 200 209 255 200 209 255 200 209 255 200 209 255 200 209 255 200 209 255 200 209 255 200 209 255 200 209 255 200 209 255 200 209 255 200 209 255 200 209 255 196 206 
255 201 210 255 201 210 255 201 210 255 202 211 255 202 211 255 205 214 255 202 211 255 201 210 255 201 210 255 200 209 255 200 209 255 200 209 255 200 209 255 202 211 227 171 181 255 229 233 255 209 217 179 134 142 184 138 146 184 138 146 184 138 146 195 147 155 184 138 146 184 138 146 184 138 146 195 147 155 206 155 164 255 232 236 255 193 204 255 221 227 255 234 238 255 234 238 255 234 238 255 234 238 255 234 238 255 234 238 255 234 238 255 236 239 255 236 239 255 236 239 255 236 239 255 237 240 255 237 240 255 236 239 255 237 240 255 237 240 255 238 241 255 226 231 200 151 159 200 151 159 200 151 159 200 151 159 200 151 159 200 151 159 200 151 159 200 151 159 195 147 155 195 147 155 195 147 155 200 151 159 222 167 177 200 151 159 227 171 181 255 196 206 200 151 159 255 200 209 255 236 239 255 238 241 255 212 219 195 147 155 255 236 239 255 238 241 255 236 239 255 238 241 255 238 241 255 238 241 255 238 241 255 234 238 255 238 241 255 238 241 255 238 241 255 238 241 255 240 242 255 240 242 255 236 239 255 232 236 255 212 219 255 226 231 255 225 230 255 242 245 255 238 241 255 240 242 255 238 241 255 240 242 255 240 242 255 240 242 255 240 242 255 240 242 255 240 242 255 240 242 255 240 242 255 240 242 255 240 242 255 222 228 255 228 232 255 240 242 255 240 242 255 240 242 255 240 242 255 240 242 255 240 242 255 240 242 255 240 242 255 240 242 255 240 242 255 240 242 255 238 241 255 240 242 255 240 242 255 240 242 255 240 242 255 240 242 255 242 245 255 234 238 255 228 232 255 237 240 255 224 229 255 220 226 217 163 172 244 183 194 249 187 198 255 205 214 227 171 181 255 216 222 255 214 221 233 175 185 255 221 227 255 236 239 255 240 242 255 240 242 255 240 242 255 240 242 255 238 241 255 238 241 255 238 241 255 238 241 255 238 241 255 238 241 255 238 241 255 238 241 255 237 240 255 237 240 255 237 240 255 237 240 255 237 240 255 237 240 255 237 240 255 237 240 255 237 240 255 236 239 255 236 239 255 236 239 255 237 240 255 237 240 255 237 240 255 237 240 255 236 239 255 236 239 255 236 239 255 236 239 255 236 239 255 236 239 255 236 239 255 236 239 255 236 239 255 234 238 255 234 238 255 234 238 255 234 238 255 234 238 255 234 238 255 233 237 255 233 237 255 233 237 255 232 236 255 232 236 255 232 236 255 232 236 255 232 236 255 232 236 255 232 236 255 232 236 255 232 236 255 221 227 255 225 230 255 233 237 255 232 236 255 202 211 255 200 209 255 200 209 255 200 209 255 200 209 255 200 209 255 200 209 255 200 209 255 200 209 255 200 209 255 200 209 255 200 209 255 200 209 255 200 209 255 200 209 255 200 209 255 200 209 255 200 209 255 200 209 255 200 209 255 200 209 255 200 209 255 196 206 
255 202 211 255 202 211 255 202 211 255 202 211 255 205 214 255 205 214 255 202 211 255 201 210 255 201 210 255 201 210 255 201 210 255 201 210 255 201 210 255 201 210 227 171 181 255 209 217 217 163 172 184 138 146 184 138 146 184 138 146 184 138 146 195 147 155 184 138 146 195 147 155 195 147 155 195 147 155 195 147 155 200 151 159 255 200 209 249 187 198 255 237 240 255 234 238 255 234 238 255 234 238 255 234 238 255 234 238 255 236 239 255 236 239 255 236 239 255 236 239 255 236 239 255 236 239 255 237 240 255 237 240 255 236 239 255 236 239 255 234 238 217 163 172 255 213 220 206 155 164 206 155 164 200 151 159 200 151 159 200 151 159 200 151 159 200 151 159 200 151 159 200 151 159 200 151 159 200 151 159 195 147 155 217 163 172 255 220 226 255 193 204 255 221 227 255 234 238 255 236 239 255 232 236 233 175 185 255 228 232 255 237 240 255 234 238 255 238 241 255 237 240 255 237 240 255 237 240 255 229 233 255 234 238 255 238 241 255 238 241 255 238 241 255 238 241 255 240 242 255 222 228 255 229 233 255 229 233 206 155 164 255 229 233 255 225 230 255 234 238 255 232 236 255 238 241 255 240 242 255 238 241 255 240 242 255 240 242 255 240 242 255 240 242 255 240 242 255 240 242 255 240 242 255 206 215 255 233 237 255 240 242 255 238 241 255 238 241 255 238 241 255 238 241 255 240 242 255 240 242 255 240 242 255 240 242 255 240 242 255 240 242 255 240 242 255 238 241 255 240 242 255 240 242 255 240 242 255 240 242 255 240 242 255 240 242 255 238 241 255 234 238 255 193 204 255 205 214 211 159 168 211 159 168 249 187 198 255 196 206 249 187 198 222 167 177 233 175 185 255 230 235 255 234 238 255 201 210 255 193 204 255 196 206 255 193 204 233 175 185 255 230 235 255 224 229 255 236 239 255 236 239 255 238 241 255 238 241 255 238 241 255 238 241 255 238 241 255 238 241 255 238 241 255 237 240 255 237 240 255 237 240 255 237 240 255 237 240 255 237 240 255 237 240 255 237 240 255 237 240 255 237 240 255 237 240 255 237 240 255 237 240 255 237 240 255 236 239 255 236 239 255 236 239 255 236 239 255 237 240 255 236 239 255 234 238 255 234 238 255 234 238 255 234 238 255 236 239 255 234 238 255 234 238 255 234 238 255 234 238 255 234 238 255 234 238 255 233 237 255 233 237 255 233 237 255 233 237 255 233 237 255 232 236 255 233 237 255 232 236 255 232 236 255 229 233 255 225 230 255 225 230 255 226 231 255 209 217 255 236 239 255 222 228 255 201 210 255 200 209 255 201 210 255 200 209 255 200 209 255 201 210 255 201 210 255 201 210 255 201 210 255 201 210 255 201 210 255 201 210 255 200 209 255 200 209 255 200 209 255 200 209 255 200 209 255 201 210 255 201 210 255 201 210 255 200 209 255 198 208 
255 202 211 255 202 211 255 202 211 255 202 211 255 205 214 255 205 214 255 202 211 255 201 210 255 201 210 255 201 210 255 201 210 255 201 210 255 201 210 255 201 210 227 171 181 255 209 217 217 163 172 184 138 146 184 138 146 184 138 146 184 138 146 195 147 155 184 138 146 195 147 155 195 147 155 195 147 155 195 147 155 200 151 159 255 200 209 249 187 198 255 237 240 255 234 238 255 234 238 255 234 238 255 234 238 255 234 238 255 236 239 255 236 239 255 236 239 255 236 239 255 236 239 255 236 239 255 237 240 255 237 240 255 236 239 255 236 239 255 234 238 217 163 172 255 213 220 206 155 164 206 155 164 200 151 159 200 151 159 200 151 159 200 151 159 200 151 159 200 151 159 200 151 159 200 151 159 200 151 159 195 147 155 217 163 172 255 220 226 255 193 204 255 221 227 255 234 238 255 236 239 255 232 236 233 175 185 255 228 232 255 237 240 255 234 238 255 238 241 255 237 240 255 237 240 255 237 240 255 229 233 255 234 238 255 238 241 255 238 241 255 238 241 255 238 241 255 240 242 255 222 228 255 229 233 255 229 233 206 155 164 255 229 233 255 225 230 255 234 238 255 232 236 255 238 241 255 240 242 255 238 241 255 240 242 255 240 242 255 240 242 255 240 242 255 240 242 255 240 242 255 240 242 255 206 215 255 233 237 255 240 242 255 238 241 255 238 241 255 238 241 255 238 241 255 240 242 255 240 242 255 240 242 255 240 242 255 240 242 255 240 242 255 240 242 255 238 241 255 240 242 255 240 242 255 240 242 255 240 242 255 240 242 255 240 242 255 238 241 255 234 238 255 193 204 255 205 214 211 159 168 211 159 168 249 187 198 255 196 206 249 187 198 222 167 177 233 175 185 255 230 235 255 234 238 255 201 210 255 193 204 255 196 206 255 193 204 233 175 185 255 230 235 255 224 229 255 236 239 255 236 239 255 238 241 255 238 241 255 238 241 255 238 241 255 238 241 255 238 241 255 238 241 255 237 240 255 237 240 255 237 240 255 237 240 255 237 240 255 237 240 255 237 240 255 237 240 255 237 240 255 237 240 255 237 240 255 237 240 255 237 240 255 237 240 255 236 239 255 236 239 255 236 239 255 236 239 255 237 240 255 236 239 255 234 238 255 234 238 255 234 238 255 234 238 255 236 239 255 234 238 255 234 238 255 234 238 255 234 238 255 234 238 255 234 238 255 233 237 255 233 237 255 233 237 255 233 237 255 233 237 255 232 236 255 233 237 255 232 236 255 232 236 255 229 233 255 225 230 255 225 230 255 226 231 255 209 217 255 236 239 255 222 228 255 201 210 255 200 209 255 201 210 255 200 209 255 200 209 255 201 210 255 201 210 255 201 210 255 201 210 255 201 210 255 201 210 255 201 210 255 200 209 255 200 209 255 200 209 255 200 209 255 200 209 255 201 210 255 201 210 255 201 210 255 200 209 255 198 208 
255 202 211 255 202 211 255 202 211 255 202 211 255 205 214 255 206 215 255 205 214 255 202 211 255 201 210 255 201 210 255 201 210 255 201 210 255 201 210 255 201 210 255 202 211 206 155 164 255 196 206 255 193 204 184 138 146 184 138 146 184 138 146 184 138 146 184 138 146 184 138 146 233 175 185 255 196 206 184 138 146 195 147 155 195 147 155 249 187 198 255 226 231 255 237 240 255 234 238 255 234 238 255 234 238 255 234 238 255 236 239 255 236 239 255 236 239 255 236 239 255 236 239 255 236 239 255 237 240 255 237 240 255 236 239 255 238 241 255 221 227 255 237 240 255 205 214 255 222 228 255 210 218 206 155 164 200 151 159 200 151 159 200 151 159 200 151 159 195 147 155 195 147 155 200 151 159 211 159 168 227 171 181 233 175 185 255 225 230 255 236 239 255 234 238 255 232 236 255 233 237 255 221 227 255 224 229 255 225 230 255 238 241 255 234 238 255 225 230 255 229 233 255 240 242 255 238 241 255 233 237 255 236 239 255 240 242 255 236 239 255 240 242 255 238 241 255 238 241 255 234 238 255 224 229 255 242 245 249 187 198 255 226 231 255 237 240 255 193 204 255 242 245 255 240 242 255 233 237 255 237 240 255 240 242 255 242 245 255 221 227 255 216 222 255 224 229 255 220 226 255 232 236 255 242 245 255 242 245 255 237 240 255 196 206 255 217 224 255 224 229 255 233 237 255 240 242 255 240 242 255 240 242 255 240 242 255 240 242 255 240 242 255 240 242 255 240 242 255 238 241 255 238 241 255 238 241 255 238 241 255 234 238 255 198 208 217 163 172 217 163 172 206 155 164 211 159 168 217 163 172 206 155 164 211 159 168 206 155 164 211 159 168 211 159 168 211 159 168 211 159 168 217 163 172 227 171 181 217 163 172 255 193 204 255 212 219 255 224 229 255 237 240 255 238 241 255 238 241 255 238 241 255 238 241 255 237 240 255 238 241 255 238 241 255 238 241 255 238 241 255 238 241 255 237 240 255 237 240 255 237 240 255 237 240 255 237 240 255 237 240 255 237 240 255 237 240 255 237 240 255 237 240 255 237 240 255 237 240 255 237 240 255 236 239 255 236 239 255 236 239 255 236 239 255 234 238 255 228 232 255 226 231 255 228 232 255 228 232 255 225 230 255 230 235 255 232 236 255 234 238 255 234 238 255 234 238 255 234 238 255 234 238 255 234 238 255 233 237 255 233 237 255 233 237 255 232 236 255 233 237 255 233 237 255 233 237 255 228 232 255 225 230 255 228 232 255 226 231 255 224 229 255 225 230 255 209 217 255 205 214 255 236 239 255 216 222 255 205 214 255 201 210 255 201 210 255 201 210 255 201 210 255 201 210 255 201 210 255 201 210 255 201 210 255 201 210 255 201 210 255 201 210 255 201 210 255 201 210 255 201 210 255 201 210 255 201 210 255 201 210 255 201 210 255 200 209 255 198 208 
255 202 211 255 202 211 255 202 211 255 202 211 255 205 214 255 206 215 255 205 214 255 202 211 255 201 210 255 201 210 255 201 210 255 201 210 255 201 210 255 201 210 255 202 211 206 155 164 255 196 206 255 193 204 184 138 146 184 138 146 184 138 146 184 138 146 184 138 146 184 138 146 233 175 185 255 196 206 184 138 146 195 147 155 195 147 155 249 187 198 255 226 231 255 237 240 255 234 238 255 234 238 255 234 238 255 234 238 255 236 239 255 236 239 255 236 239 255 236 239 255 236 239 255 236 239 255 237 240 255 237 240 255 236 239 255 238 241 255 221 227 255 237 240 255 205 214 255 222 228 255 210 218 206 155 164 200 151 159 200 151 159 200 151 159 200 151 159 195 147 155 195 147 155 200 151 159 211 159 168 227 171 181 233 175 185 255 225 230 255 236 239 255 234 238 255 232 236 255 233 237 255 221 227 255 224 229 255 225 230 255 238 241 255 234 238 255 225 230 255 229 233 255 240 242 255 238 241 255 233 237 255 236 239 255 240 242 255 236 239 255 240 242 255 238 241 255 238 241 255 234 238 255 224 229 255 242 245 249 187 198 255 226 231 255 237 240 255 193 204 255 242 245 255 240 242 255 233 237 255 237 240 255 240 242 255 242 245 255 221 227 255 216 222 255 224 229 255 220 226 255 232 236 255 242 245 255 242 245 255 237 240 255 196 206 255 217 224 255 224 229 255 233 237 255 240 242 255 240 242 255 240 242 255 240 242 255 240 242 255 240 242 255 240 242 255 240 242 255 238 241 255 238 241 255 238 241 255 238 241 255 234 238 255 198 208 217 163 172 217 163 172 206 155 164 211 159 168 217 163 172 206 155 164 211 159 168 206 155 164 211 159 168 211 159 168 211 159 168 211 159 168 217 163 172 227 171 181 217 163 172 255 193 204 255 212 219 255 224 229 255 237 240 255 238 241 255 238 241 255 238 241 255 238 241 255 237 240 255 238 241 255 238 241 255 238 241 255 238 241 255 238 241 255 237 240 255 237 240 255 237 240 255 237 240 255 237 240 255 237 240 255 237 240 255 237 240 255 237 240 255 237 240 255 237 240 255 237 240 255 237 240 255 236 239 255 236 239 255 236 239 255 236 239 255 234 238 255 228 232 255 226 231 255 228 232 255 228 232 255 225 230 255 230 235 255 232 236 255 234 238 255 234 238 255 234 238 255 234 238 255 234 238 255 234 238 255 233 237 255 233 237 255 233 237 255 232 236 255 233 237 255 233 237 255 233 237 255 228 232 255 225 230 255 228 232 255 226 231 255 224 229 255 225 230 255 209 217 255 205 214 255 236 239 255 216 222 255 205 214 255 201 210 255 201 210 255 201 210 255 201 210 255 201 210 255 201 210 255 201 210 255 201 210 255 201 210 255 201 210 255 201 210 255 201 210 255 201 210 255 201 210 255 201 210 255 201 210 255 201 210 255 201 210 255 200 209 255 198 208 
255 202 211 255 202 211 255 202 211 255 202 211 255 205 214 255 205 214 255 205 214 255 202 211 255 201 210 255 201 210 255 201 210 255 201 210 255 201 210 255 201 210 255 201 210 255 202 211 255 205 214 217 163 172 233 175 185 206 155 164 184 138 146 184 138 146 195 147 155 195 147 155 195 147 155 211 159 168 255 224 229 255 202 211 227 171 181 255 202 211 255 196 206 255 237 240 255 234 238 255 234 238 255 234 238 255 234 238 255 236 239 255 236 239 255 236 239 255 236 239 255 236 239 255 236 239 255 237 240 255 236 239 255 236 239 255 242 245 255 222 228 255 240 242 255 240 242 255 238 241 255 233 237 206 155 164 206 155 164 200 151 159 200 151 159 200 151 159 195 147 155 195 147 155 227 171 181 217 163 172 255 209 217 255 217 224 255 240 242 255 236 239 255 242 245 255 238 241 255 238 241 255 240 242 255 240 242 255 238 241 255 240 242 255 230 235 255 236 239 255 240 242 255 238 241 255 238 241 255 240 242 255 237 240 255 240 242 255 233 237 255 240 242 255 225 230 255 236 239 255 240 242 255 221 227 255 245 247 255 224 229 255 236 239 255 214 221 255 240 242 255 240 242 255 240 242 255 240 242 255 240 242 255 240 242 255 232 236 255 206 215 255 233 237 255 240 242 255 240 242 255 242 245 255 234 238 255 242 245 255 212 219 255 233 237 255 240 242 255 242 245 255 238 241 255 238 241 255 238 241 255 238 241 255 238 241 255 238 241 255 238 241 255 238 241 255 238 241 255 240 242 255 238 241 255 238 241 255 226 231 211 159 168 255 193 204 255 217 224 255 232 236 255 238 241 255 240 242 255 244 246 255 244 246 255 242 245 255 244 246 255 244 246 255 242 245 255 233 237 255 226 231 255 236 239 255 230 235 255 236 239 255 237 240 255 242 245 255 226 231 255 240 242 255 238 241 255 240 242 255 238 241 255 233 237 255 238 241 255 238 241 255 238 241 255 238 241 255 238 241 255 238 241 255 238 241 255 238 241 255 238 241 255 238 241 255 238 241 255 237 240 255 237 240 255 237 240 255 237 240 255 237 240 255 237 240 255 237 240 255 230 235 255 236 239 255 236 239 255 232 236 255 228 232 255 230 235 255 232 236 255 233 237 255 237 240 255 236 239 255 237 240 255 234 238 255 233 237 255 236 239 255 236 239 255 234 238 255 234 238 255 234 238 255 233 237 255 228 232 255 220 226 255 226 231 255 233 237 255 233 237 255 233 237 255 233 237 255 232 236 255 229 233 255 230 235 255 230 235 255 224 229 255 202 211 255 200 209 255 206 215 255 220 226 255 233 237 255 205 214 255 202 211 255 201 210 255 201 210 255 201 210 255 201 210 255 201 210 255 201 210 255 201 210 255 201 210 255 201 210 255 201 210 255 201 210 255 201 210 255 201 210 255 201 210 255 201 210 255 201 210 255 201 210 255 200 209 255 200 209 
255 202 211 255 202 211 255 202 211 255 202 211 255 205 214 255 205 214 255 205 214 255 202 211 255 201 210 255 201 210 255 201 210 255 201 210 255 201 210 255 201 210 255 201 210 255 202 211 255 205 214 217 163 172 233 175 185 206 155 164 184 138 146 184 138 146 195 147 155 195 147 155 195 147 155 211 159 168 255 224 229 255 202 211 227 171 181 255 202 211 255 196 206 255 237 240 255 234 238 255 234 238 255 234 238 255 234 238 255 236 239 255 236 239 255 236 239 255 236 239 255 236 239 255 236 239 255 237 240 255 236 239 255 236 239 255 242 245 255 222 228 255 240 242 255 240 242 255 238 241 255 233 237 206 155 164 206 155 164 200 151 159 200 151 159 200 151 159 195 147 155 195 147 155 227 171 181 217 163 172 255 209 217 255 217 224 255 240 242 255 236 239 255 242 245 255 238 241 255 238 241 255 240 242 255 240 242 255 238 241 255 240 242 255 230 235 255 236 239 255 240 242 255 238 241 255 238 241 255 240 242 255 237 240 255 240 242 255 233 237 255 240 242 255 225 230 255 236 239 255 240 242 255 221 227 255 245 247 255 224 229 255 236 239 255 214 221 255 240 242 255 240 242 255 240 242 255 240 242 255 240 242 255 240 242 255 232 236 255 206 215 255 233 237 255 240 242 255 240 242 255 242 245 255 234 238 255 242 245 255 212 219 255 233 237 255 240 242 255 242 245 255 238 241 255 238 241 255 238 241 255 238 241 255 238 241 255 238 241 255 238 241 255 238 241 255 238 241 255 240 242 255 238 241 255 238 241 255 226 231 211 159 168 255 193 204 255 217 224 255 232 236 255 238 241 255 240 242 255 244 246 255 244 246 255 242 245 255 244 246 255 244 246 255 242 245 255 233 237 255 226 231 255 236 239 255 230 235 255 236 239 255 237 240 255 242 245 255 226 231 255 240 242 255 238 241 255 240 242 255 238 241 255 233 237 255 238 241 255 238 241 255 238 241 255 238 241 255 238 241 255 238 241 255 238 241 255 238 241 255 238 241 255 238 241 255 238 241 255 237 240 255 237 240 255 237 240 255 237 240 255 237 240 255 237 240 255 237 240 255 230 235 255 236 239 255 236 239 255 232 236 255 228 232 255 230 235 255 232 236 255 233 237 255 237 240 255 236 239 255 237 240 255 234 238 255 233 237 255 236 239 255 236 239 255 234 238 255 234 238 255 234 238 255 233 237 255 228 232 255 220 226 255 226 231 255 233 237 255 233 237 255 233 237 255 233 237 255 232 236 255 229 233 255 230 235 255 230 235 255 224 229 255 202 211 255 200 209 255 206 215 255 220 226 255 233 237 255 205 214 255 202 211 255 201 210 255 201 210 255 201 210 255 201 210 255 201 210 255 201 210 255 201 210 255 201 210 255 201 210 255 201 210 255 201 210 255 201 210 255 201 210 255 201 210 255 201 210 255 201 210 255 201 210 255 200 209 255 200 209 
255 202 211 255 202 211 255 202 211 255 202 211 255 205 214 255 206 215 255 206 215 255 205 214 255 202 211 255 201 210 255 201 210 255 201 210 255 201 210 255 201 210 255 202 211 255 202 211 255 202 211 255 202 211 255 200 209 255 193 204 249 187 198 255 220 226 233 175 185 200 151 159 222 167 177 244 183 194 244 183 194 255 206 215 255 225 230 255 212 219 255 200 209 255 238 241 255 234 238 255 234 238 255 234 238 255 236 239 255 236 239 255 236 239 255 236 239 255 236 239 255 236 239 255 236 239 255 237 240 255 237 240 255 237 240 255 234 238 255 236 239 255 238 241 255 238 241 255 237 240 255 228 232 206 155 164 206 155 164 200 151 159 200 151 159 200 151 159 195 147 155 255 206 215 255 214 221 211 159 168 255 233 237 255 229 233 255 232 236 255 234 238 255 236 239 255 234 238 255 236 239 255 236 239 255 234 238 255 234 238 255 234 238 255 234 238 255 234 238 255 236 239 255 237 240 255 238 241 255 240 242 255 242 245 255 240 242 255 240 242 255 240 242 255 233 237 255 236 239 255 237 240 255 221 227 255 229 233 255 236 239 255 237 240 255 236 239 255 240 242 255 240 242 255 240 242 255 240 242 255 242 245 255 230 235 255 196 206 255 228 232 255 242 245 255 240 242 255 238 241 255 237 240 255 237 240 255 238 241 255 238 241 255 238 241 255 238 241 255 238 241 255 240 242 255 240 242 255 240 242 255 240 242 255 240 242 255 240 242 255 240 242 255 240 242 255 240 242 255 240 242 255 240 242 255 240 242 255 240 242 255 242 245 255 242 245 255 242 245 255 242 245 255 240 242 255 240 242 255 240 242 255 240 242 255 240 242 255 240 242 255 240 242 255 240 242 255 240 242 255 240 242 255 240 242 255 240 242 255 240 242 255 240 242 255 240 242 255 240 242 255 240 242 255 240 242 255 237 240 255 236 239 255 240 242 255 238 241 255 240 242 255 238 241 255 238 241 255 238 241 255 233 237 255 226 231 255 238 241 255 238 241 255 238 241 255 238 241 255 238 241 255 238 241 255 237 240 255 237 240 255 237 240 255 238 241 255 226 231 255 237 240 255 237 240 255 233 237 255 230 235 255 237 240 255 234 238 255 237 240 255 236 239 255 236 239 255 237 240 255 236 239 255 236 239 255 234 238 255 232 236 255 233 237 255 233 237 255 234 238 255 234 238 255 233 237 255 230 235 255 225 230 255 212 219 255 236 239 255 234 238 255 233 237 255 233 237 255 234 238 255 234 238 255 228 232 255 228 232 255 225 230 255 196 206 255 208 216 227 171 181 206 155 164 255 226 231 255 213 220 255 201 210 255 202 211 255 202 211 255 201 210 255 201 210 255 201 210 255 202 211 255 202 211 255 201 210 255 201 210 255 201 210 255 201 210 255 201 210 255 201 210 255 201 210 255 201 210 255 201 210 255 201 210 255 200 209 255 200 209 
255 202 211 255 202 211 255 202 211 255 202 211 255 205 214 255 206 215 255 206 215 255 205 214 255 202 211 255 201 210 255 201 210 255 201 210 255 201 210 255 201 210 255 202 211 255 202 211 255 202 211 255 202 211 255 200 209 255 193 204 249 187 198 255 220 226 233 175 185 200 151 159 222 167 177 244 183 194 244 183 194 255 206 215 255 225 230 255 212 219 255 200 209 255 238 241 255 234 238 255 234 238 255 234 238 255 236 239 255 236 239 255 236 239 255 236 239 255 236 239 255 236 239 255 236 239 255 237 240 255 237 240 255 237 240 255 234 238 255 236 239 255 238 241 255 238 241 255 237 240 255 228 232 206 155 164 206 155 164 200 151 159 200 151 159 200 151 159 195 147 155 255 206 215 255 214 221 211 159 168 255 233 237 255 229 233 255 232 236 255 234 238 255 236 239 255 234 238 255 236 239 255 236 239 255 234 238 255 234 238 255 234 238 255 234 238 255 234 238 255 236 239 255 237 240 255 238 241 255 240 242 255 242 245 255 240 242 255 240 242 255 240 242 255 233 237 255 236 239 255 237 240 255 221 227 255 229 233 255 236 239 255 237 240 255 236 239 255 240 242 255 240 242 255 240 242 255 240 242 255 242 245 255 230 235 255 196 206 255 228 232 255 242 245 255 240 242 255 238 241 255 237 240 255 237 240 255 238 241 255 238 241 255 238 241 255 238 241 255 238 241 255 240 242 255 240 242 255 240 242 255 240 242 255 240 242 255 240 242 255 240 242 255 240 242 255 240 242 255 240 242 255 240 242 255 240 242 255 240 242 255 242 245 255 242 245 255 242 245 255 242 245 255 240 242 255 240 242 255 240 242 255 240 242 255 240 242 255 240 242 255 240 242 255 240 242 255 240 242 255 240 242 255 240 242 255 240 242 255 240 242 255 240 242 255 240 242 255 240 242 255 240 242 255 240 242 255 237 240 255 236 239 255 240 242 255 238 241 255 240 242 255 238 241 255 238 241 255 238 241 255 233 237 255 226 231 255 238 241 255 238 241 255 238 241 255 238 241 255 238 241 255 238 241 255 237 240 255 237 240 255 237 240 255 238 241 255 226 231 255 237 240 255 237 240 255 233 237 255 230 235 255 237 240 255 234 238 255 237 240 255 236 239 255 236 239 255 237 240 255 236 239 255 236 239 255 234 238 255 232 236 255 233 237 255 233 237 255 234 238 255 234 238 255 233 237 255 230 235 255 225 230 255 212 219 255 236 239 255 234 238 255 233 237 255 233 237 255 234 238 255 234 238 255 228 232 255 228 232 255 225 230 255 196 206 255 208 216 227 171 181 206 155 164 255 226 231 255 213 220 255 201 210 255 202 211 255 202 211 255 201 210 255 201 210 255 201 210 255 202 211 255 202 211 255 201 210 255 201 210 255 201 210 255 201 210 255 201 210 255 201 210 255 201 210 255 201 210 255 201 210 255 201 210 255 200 209 255 200 209 
255 202 211 255 202 211 255 202 211 255 202 211 255 205 214 255 206 215 255 206 215 255 205 214 255 202 211 255 202 211 255 201 210 255 201 210 255 202 211 255 202 211 255 212 219 255 213 220 255 217 224 255 216 222 255 210 218 244 183 194 211 159 168 244 183 194 255 213 220 255 230 235 255 230 235 255 232 236 255 233 237 255 234 238 255 234 238 255 237 240 255 233 237 255 233 237 255 234 238 255 236 239 255 234 238 255 236 239 255 236 239 255 236 239 255 236 239 255 237 240 255 236 239 255 236 239 255 236 239 255 236 239 255 237 240 255 237 240 255 237 240 255 237 240 255 237 240 255 238 241 255 237 240 206 155 164 200 151 159 200 151 159 195 147 155 255 209 217 222 167 177 255 217 224 255 237 240 255 238 241 255 238 241 255 237 240 255 237 240 255 237 240 255 237 240 255 237 240 255 237 240 255 237 240 255 237 240 255 237 240 255 237 240 255 237 240 255 237 240 255 237 240 255 237 240 255 237 240 255 237 240 255 237 240 255 237 240 255 240 242 255 238 241 255 225 230 255 242 245 255 240 242 255 212 219 255 230 235 255 240 242 255 240 242 255 240 242 255 240 242 255 240 242 255 240 242 255 242 245 255 222 228 255 240 242 255 240 242 255 238 241 255 238 241 255 238 241 255 238 241 255 238 241 255 238 241 255 238 241 255 238 241 255 238 241 255 240 242 255 240 242 255 240 242 255 240 242 255 240 242 255 240 242 255 240 242 255 240 242 255 240 242 255 240 242 255 240 242 255 240 242 255 240 242 255 240 242 255 240 242 255 240 242 255 240 242 255 240 242 255 240 242 255 240 242 255 240 242 255 240 242 255 240 242 255 240 242 255 240 242 255 240 242 255 240 242 255 240 242 255 240 242 255 240 242 255 240 242 255 240 242 255 240 242 255 240 242 255 238 241 255 238 241 255 240 242 255 238 241 255 238 241 255 238 241 255 237 240 255 242 245 255 240 242 255 238 241 255 237 240 255 238 241 255 237 240 255 234 238 255 238 241 255 238 241 255 237 240 255 233 237 255 228 232 255 237 240 255 224 229 255 225 230 255 234 238 255 217 224 255 240 242 255 236 239 255 232 236 255 237 240 255 237 240 255 237 240 255 237 240 255 237 240 255 233 237 255 230 235 255 234 238 255 226 231 255 226 231 255 228 232 255 233 237 255 228 232 255 229 233 255 234 238 255 234 238 255 234 238 255 230 235 255 232 236 255 234 238 255 234 238 255 232 236 255 225 230 255 236 239 255 233 237 255 222 228 255 208 216 255 214 221 255 205 214 255 216 222 222 167 177 184 138 146 255 198 208 255 224 229 255 202 211 255 202 211 255 202 211 255 202 211 255 202 211 255 202 211 255 202 211 255 202 211 255 202 211 255 202 211 255 201 210 255 201 210 255 201 210 255 202 211 255 202 211 255 202 211 255 202 211 255 202 211 255 201 210 255 200 209 
255 202 211 255 202 211 255 202 211 255 202 211 255 205 214 255 206 215 255 206 215 255 205 214 255 202 211 255 202 211 255 201 210 255 201 210 255 202 211 255 202 211 255 212 219 255 213 220 255 217 224 255 216 222 255 210 218 244 183 194 211 159 168 244 183 194 255 213 220 255 230 235 255 230 235 255 232 236 255 233 237 255 234 238 255 234 238 255 237 240 255 233 237 255 233 237 255 234 238 255 236 239 255 234 238 255 236 239 255 236 239 255 236 239 255 236 239 255 237 240 255 236 239 255 236 239 255 236 239 255 236 239 255 237 240 255 237 240 255 237 240 255 237 240 255 237 240 255 238 241 255 237 240 206 155 164 200 151 159 200 151 159 195 147 155 255 209 217 222 167 177 255 217 224 255 237 240 255 238 241 255 238 241 255 237 240 255 237 240 255 237 240 255 237 240 255 237 240 255 237 240 255 237 240 255 237 240 255 237 240 255 237 240 255 237 240 255 237 240 255 237 240 255 237 240 255 237 240 255 237 240 255 237 240 255 237 240 255 240 242 255 238 241 255 225 230 255 242 245 255 240 242 255 212 219 255 230 235 255 240 242 255 240 242 255 240 242 255 240 242 255 240 242 255 240 242 255 242 245 255 222 228 255 240 242 255 240 242 255 238 241 255 238 241 255 238 241 255 238 241 255 238 241 255 238 241 255 238 241 255 238 241 255 238 241 255 240 242 255 240 242 255 240 242 255 240 242 255 240 242 255 240 242 255 240 242 255 240 242 255 240 242 255 240 242 255 240 242 255 240 242 255 240 242 255 240 242 255 240 242 255 240 242 255 240 242 255 240 242 255 240 242 255 240 242 255 240 242 255 240 242 255 240 242 255 240 242 255 240 242 255 240 242 255 240 242 255 240 242 255 240 242 255 240 242 255 240 242 255 240 242 255 240 242 255 240 242 255 238 241 255 238 241 255 240 242 255 238 241 255 238 241 255 238 241 255 237 240 255 242 245 255 240 242 255 238 241 255 237 240 255 238 241 255 237 240 255 234 238 255 238 241 255 238 241 255 237 240 255 233 237 255 228 232 255 237 240 255 224 229 255 225 230 255 234 238 255 217 224 255 240 242 255 236 239 255 232 236 255 237 240 255 237 240 255 237 240 255 237 240 255 237 240 255 233 237 255 230 235 255 234 238 255 226 231 255 226 231 255 228 232 255 233 237 255 228 232 255 229 233 255 234 238 255 234 238 255 234 238 255 230 235 255 232 236 255 234 238 255 234 238 255 232 236 255 225 230 255 236 239 255 233 237 255 222 228 255 208 216 255 214 221 255 205 214 255 216 222 222 167 177 184 138 146 255 198 208 255 224 229 255 202 211 255 202 211 255 202 211 255 202 211 255 202 211 255 202 211 255 202 211 255 202 211 255 202 211 255 202 211 255 201 210 255 201 210 255 201 210 255 202 211 255 202 211 255 202 211 255 202 211 255 202 211 255 201 210 255 200 209 
255 202 211 255 202 211 255 202 211 255 202 211 255 205 214 255 206 215 255 206 215 255 205 214 255 202 211 255 201 210 255 201 210 255 202 211 255 201 210 255 198 208 206 155 164 195 147 155 200 151 159 195 147 155 200 151 159 211 159 168 255 225 230 255 233 237 255 232 236 255 233 237 255 234 238 255 234 238 255 234 238 255 234 238 255 234 238 255 234 238 255 234 238 255 233 237 255 234 238 255 234 238 255 234 238 255 236 239 255 236 239 255 236 239 255 236 239 255 237 240 255 236 239 255 236 239 255 236 239 255 236 239 255 237 240 255 237 240 255 237 240 255 237 240 255 237 240 255 238 241 255 232 236 206 155 164 200 151 159 200 151 159 255 214 221 255 217 224 255 240 242 255 237 240 255 238 241 255 237 240 255 237 240 255 237 240 255 237 240 255 237 240 255 238 241 255 238 241 255 238 241 255 238 241 255 237 240 255 237 240 255 237 240 255 237 240 255 237 240 255 237 240 255 237 240 255 237 240 255 237 240 255 237 240 255 237 240 255 238 241 255 238 241 255 238 241 255 240 242 255 240 242 255 242 245 255 240 242 255 234 238 255 232 236 255 240 242 255 240 242 255 240 242 255 237 240 255 234 238 255 240 242 255 238 241 255 238 241 255 240 242 255 238 241 255 238 241 255 238 241 255 238 241 255 238 241 255 238 241 255 238 241 255 238 241 255 240 242 255 240 242 255 240 242 255 240 242 255 240 242 255 240 242 255 240 242 255 240 242 255 240 242 255 240 242 255 240 242 255 240 242 255 240 242 255 240 242 255 240 242 255 240 242 255 240 242 255 240 242 255 240 242 255 240 242 255 240 242 255 240 242 255 240 242 255 240 242 255 240 242 255 240 242 255 240 242 255 240 242 255 240 242 255 242 245 255 240 242 255 240 242 255 240 242 255 240 242 255 238 241 255 238 241 255 238 241 255 238 241 255 238 241 255 238 241 255 238 241 255 238 241 255 238 241 255 240 242 255 238 241 255 238 241 255 230 235 255 196 206 255 222 228 255 232 236 255 237 240 255 236 239 255 202 211 255 224 229 255 214 221 255 237 240 255 222 228 255 242 245 255 238 241 255 238 241 255 237 240 255 237 240 255 237 240 255 237 240 255 237 240 255 237 240 255 236 239 255 236 239 255 234 238 255 226 231 255 224 229 255 226 231 255 228 232 255 228 232 255 228 232 255 226 231 255 234 238 255 234 238 255 233 237 255 233 237 255 234 238 255 234 238 255 234 238 255 221 227 255 236 239 255 216 222 255 229 233 249 187 198 255 232 236 255 193 204 249 187 198 222 167 177 195 147 155 255 205 214 255 233 237 255 202 211 255 202 211 255 202 211 255 202 211 255 202 211 255 202 211 255 202 211 255 202 211 255 202 211 255 202 211 255 201 210 255 201 210 255 201 210 255 202 211 255 202 211 255 202 211 255 202 211 255 202 211 255 201 210 255 201 210 
255 202 211 255 202 211 255 202 211 255 202 211 255 205 214 255 206 215 255 206 215 255 205 214 255 202 211 255 201 210 255 201 210 255 202 211 255 201 210 255 198 208 206 155 164 195 147 155 200 151 159 195 147 155 200 151 159 211 159 168 255 225 230 255 233 237 255 232 236 255 233 237 255 234 238 255 234 238 255 234 238 255 234 238 255 234 238 255 234 238 255 234 238 255 233 237 255 234 238 255 234 238 255 234 238 255 236 239 255 236 239 255 236 239 255 236 239 255 237 240 255 236 239 255 236 239 255 236 239 255 236 239 255 237 240 255 237 240 255 237 240 255 237 240 255 237 240 255 238 241 255 232 236 206 155 164 200 151 159 200 151 159 255 214 221 255 217 224 255 240 242 255 237 240 255 238 241 255 237 240 255 237 240 255 237 240 255 237 240 255 237 240 255 238 241 255 238 241 255 238 241 255 238 241 255 237 240 255 237 240 255 237 240 255 237 240 255 237 240 255 237 240 255 237 240 255 237 240 255 237 240 255 237 240 255 237 240 255 238 241 255 238 241 255 238 241 255 240 242 255 240 242 255 242 245 255 240 242 255 234 238 255 232 236 255 240 242 255 240 242 255 240 242 255 237 240 255 234 238 255 240 242 255 238 241 255 238 241 255 240 242 255 238 241 255 238 241 255 238 241 255 238 241 255 238 241 255 238 241 255 238 241 255 238 241 255 240 242 255 240 242 255 240 242 255 240 242 255 240 242 255 240 242 255 240 242 255 240 242 255 240 242 255 240 242 255 240 242 255 240 242 255 240 242 255 240 242 255 240 242 255 240 242 255 240 242 255 240 242 255 240 242 255 240 242 255 240 242 255 240 242 255 240 242 255 240 242 255 240 242 255 240 242 255 240 242 255 240 242 255 240 242 255 242 245 255 240 242 255 240 242 255 240 242 255 240 242 255 238 241 255 238 241 255 238 241 255 238 241 255 238 241 255 238 241 255 238 241 255 238 241 255 238 241 255 240 242 255 238 241 255 238 241 255 230 235 255 196 206 255 222 228 255 232 236 255 237 240 255 236 239 255 202 211 255 224 229 255 214 221 255 237 240 255 222 228 255 242 245 255 238 241 255 238 241 255 237 240 255 237 240 255 237 240 255 237 240 255 237 240 255 237 240 255 236 239 255 236 239 255 234 238 255 226 231 255 224 229 255 226 231 255 228 232 255 228 232 255 228 232 255 226 231 255 234 238 255 234 238 255 233 237 255 233 237 255 234 238 255 234 238 255 234 238 255 221 227 255 236 239 255 216 222 255 229 233 249 187 198 255 232 236 255 193 204 249 187 198 222 167 177 195 147 155 255 205 214 255 233 237 255 202 211 255 202 211 255 202 211 255 202 211 255 202 211 255 202 211 255 202 211 255 202 211 255 202 211 255 202 211 255 201 210 255 201 210 255 201 210 255 202 211 255 202 211 255 202 211 255 202 211 255 202 211 255 201 210 255 201 210 
255 202 211 255 202 211 255 202 211 255 205 214 255 205 214 255 206 215 255 206 215 255 206 215 255 202 211 255 202 211 255 202 211 255 202 211 255 201 210 255 206 215 244 183 194 184 138 146 195 147 155 195 147 155 195 147 155 200 151 159 184 138 146 255 200 209 255 230 235 255 234 238 255 234 238 255 234 238 255 234 238 255 234 238 255 234 238 255 234 238 255 234 238 255 234 238 255 234 238 255 234 238 255 234 238 255 236 239 255 236 239 255 236 239 255 236 239 255 237 240 255 236 239 255 236 239 255 236 239 255 236 239 255 237 240 255 237 240 255 237 240 255 237 240 255 238 241 255 237 240 255 206 215 206 155 164 200 151 159 255 201 210 255 236 239 255 237 240 255 237 240 255 237 240 255 237 240 255 237 240 255 237 240 255 237 240 255 237 240 255 237 240 255 238 241 255 238 241 255 238 241 255 238 241 255 238 241 255 237 240 255 238 241 255 237 240 255 238 241 255 237 240 255 237 240 255 238 241 255 237 240 255 237 240 255 237 240 255 237 240 255 237 240 255 238 241 255 240 242 255 240 242 255 240 242 255 240 242 255 242 245 255 240 242 255 238 241 255 238 241 255 238 241 255 238 241 255 238 241 255 238 241 255 238 241 255 238 241 255 238 241 255 240 242 255 240 242 255 240 242 255 240 242 255 240 242 255 240 242 255 240 242 255 240 242 255 240 242 255 240 242 255 240 242 255 240 242 255 240 242 255 240 242 255 240 242 255 240 242 255 240 242 255 240 242 255 240 242 255 240 242 255 240 242 255 240 242 255 240 242 255 240 242 255 240 242 255 240 242 255 240 242 255 240 242 255 240 242 255 240 242 255 240 242 255 240 242 255 240 242 255 240 242 255 240 242 255 240 242 255 240 242 255 240 242 255 242 245 255 242 245 255 240 242 255 240 242 255 238 241 255 238 241 255 240 242 255 238 241 255 238 241 255 238 241 255 238 241 255 238 241 255 238 241 255 237 240 255 238 241 255 240 242 255 210 218 222 167 177 217 163 172 255 213 220 255 228 232 255 217 224 255 234 238 255 234 238 255 233 237 255 230 235 255 236 239 255 238 241 255 237 240 255 237 240 255 237 240 255 236 239 255 236 239 255 229 233 255 232 236 255 236 239 255 230 235 255 222 228 233 175 185 255 214 221 255 209 217 255 205 214 255 221 227 255 232 236 255 228 232 255 229 233 255 230 235 255 234 238 255 234 238 255 234 238 255 234 238 255 234 238 255 233 237 255 234 238 255 236 239 222 167 177 255 213 220 255 216 222 255 198 208 255 213 220 255 201 210 200 151 159 184 138 146 255 216 222 255 222 228 255 205 214 255 206 215 255 216 222 255 225 230 255 202 211 255 202 211 255 202 211 255 202 211 255 202 211 255 202 211 255 202 211 255 202 211 255 202 211 255 202 211 255 202 211 255 205 214 255 205 214 255 202 211 255 201 210 255 201 210 
255 202 211 255 202 211 255 202 211 255 205 214 255 205 214 255 206 215 255 206 215 255 206 215 255 202 211 255 202 211 255 202 211 255 202 211 255 201 210 255 206 215 244 183 194 184 138 146 195 147 155 195 147 155 195 147 155 200 151 159 184 138 146 255 200 209 255 230 235 255 234 238 255 234 238 255 234 238 255 234 238 255 234 238 255 234 238 255 234 238 255 234 238 255 234 238 255 234 238 255 234 238 255 234 238 255 236 239 255 236 239 255 236 239 255 236 239 255 237 240 255 236 239 255 236 239 255 236 239 255 236 239 255 237 240 255 237 240 255 237 240 255 237 240 255 238 241 255 237 240 255 206 215 206 155 164 200 151 159 255 201 210 255 236 239 255 237 240 255 237 240 255 237 240 255 237 240 255 237 240 255 237 240 255 237 240 255 237 240 255 237 240 255 238 241 255 238 241 255 238 241 255 238 241 255 238 241 255 237 240 255 238 241 255 237 240 255 238 241 255 237 240 255 237 240 255 238 241 255 237 240 255 237 240 255 237 240 255 237 240 255 237 240 255 238 241 255 240 242 255 240 242 255 240 242 255 240 242 255 242 245 255 240 242 255 238 241 255 238 241 255 238 241 255 238 241 255 238 241 255 238 241 255 238 241 255 238 241 255 238 241 255 240 242 255 240 242 255 240 242 255 240 242 255 240 242 255 240 242 255 240 242 255 240 242 255 240 242 255 240 242 255 240 242 255 240 242 255 240 242 255 240 242 255 240 242 255 240 242 255 240 242 255 240 242 255 240 242 255 240 242 255 240 242 255 240 242 255 240 242 255 240 242 255 240 242 255 240 242 255 240 242 255 240 242 255 240 242 255 240 242 255 240 242 255 240 242 255 240 242 255 240 242 255 240 242 255 240 242 255 240 242 255 240 242 255 242 245 255 242 245 255 240 242 255 240 242 255 238 241 255 238 241 255 240 242 255 238 241 255 238 241 255 238 241 255 238 241 255 238 241 255 238 241 255 237 240 255 238 241 255 240 242 255 210 218 222 167 177 217 163 172 255 213 220 255 228 232 255 217 224 255 234 238 255 234 238 255 233 237 255 230 235 255 236 239 255 238 241 255 237 240 255 237 240 255 237 240 255 236 239 255 236 239 255 229 233 255 232 236 255 236 239 255 230 235 255 222 228 233 175 185 255 214 221 255 209 217 255 205 214 255 221 227 255 232 236 255 228 232 255 229 233 255 230 235 255 234 238 255 234 238 255 234 238 255 234 238 255 234 238 255 233 237 255 234 238 255 236 239 222 167 177 255 213 220 255 216 222 255 198 208 255 213 220 255 201 210 200 151 159 184 138 146 255 216 222 255 222 228 255 205 214 255 206 215 255 216 222 255 225 230 255 202 211 255 202 211 255 202 211 255 202 211 255 202 211 255 202 211 255 202 211 255 202 211 255 202 211 255 202 211 255 202 211 255 205 214 255 205 214 255 202 211 255 201 210 255 201 210 
255 202 211 255 202 211 255 202 211 255 205 214 255 205 214 255 206 215 255 206 215 255 206 215 255 202 211 255 202 211 255 202 211 255 202 211 255 202 211 255 202 211 255 205 214 255 206 215 206 155 164 195 147 155 195 147 155 195 147 155 200 151 159 211 159 168 255 222 228 255 236 239 255 236 239 255 234 238 255 234 238 255 234 238 255 234 238 255 234 238 255 234 238 255 234 238 255 236 239 255 236 239 255 234 238 255 236 239 255 236 239 255 236 239 255 236 239 255 236 239 255 236 239 255 236 239 255 236 239 255 236 239 255 236 239 255 236 239 255 236 239 255 237 240 255 237 240 255 234 238 255 206 215 255 208 216 179 134 142 255 205 214 255 240 242 255 238 241 255 238 241 255 237 240 255 238 241 255 237 240 255 237 240 255 237 240 255 237 240 255 237 240 255 238 241 255 238 241 255 238 241 255 238 241 255 238 241 255 238 241 255 237 240 255 237 240 255 237 240 255 238 241 255 238 241 255 238 241 255 238 241 255 238 241 255 238 241 255 237 240 255 237 240 255 237 240 255 240 242 255 237 240 255 237 240 255 237 240 255 238 241 255 238 241 255 238 241 255 238 241 255 238 241 255 238 241 255 238 241 255 238 241 255 238 241 255 238 241 255 238 241 255 238 241 255 240 242 255 240 242 255 240 242 255 240 242 255 240 242 255 240 242 255 240 242 255 240 242 255 240 242 255 240 242 255 240 242 255 240 242 255 240 242 255 240 242 255 240 242 255 240 242 255 240 242 255 242 245 255 242 245 255 242 245 255 242 245 255 242 245 255 242 245 255 242 245 255 242 245 255 242 245 255 242 245 255 242 245 255 242 245 255 240 242 255 240 242 255 240 242 255 240 242 255 240 242 255 240 242 255 240 242 255 240 242 255 242 245 255 242 245 255 240 242 255 240 242 255 240 242 255 240 242 255 240 242 255 240 242 255 240 242 255 238 241 255 238 241 255 240 242 255 240 242 255 238 241 255 238 241 255 240 242 255 228 232 184 138 146 233 175 185 255 230 235 255 200 209 255 217 224 255 236 239 255 214 221 255 222 228 255 237 240 255 238 241 255 237 240 255 237 240 255 237 240 255 237 240 255 237 240 255 216 222 255 217 224 255 236 239 255 225 230 255 234 238 255 236 239 255 230 235 255 217 224 255 226 231 255 229 233 255 228 232 255 230 235 255 228 232 255 230 235 255 233 237 255 234 238 255 236 239 255 236 239 255 236 239 255 230 235 255 220 226 255 233 237 255 234 238 217 163 172 227 171 181 255 225 230 255 221 227 255 206 215 211 159 168 200 151 159 206 155 164 255 233 237 255 237 240 255 234 238 255 233 237 255 232 236 255 217 224 255 206 215 255 202 211 255 202 211 255 202 211 255 202 211 255 202 211 255 202 211 255 202 211 255 202 211 255 202 211 255 202 211 255 202 211 255 202 211 255 202 211 255 201 210 255 201 210 
255 202 211 255 202 211 255 202 211 255 205 214 255 205 214 255 206 215 255 206 215 255 206 215 255 202 211 255 202 211 255 202 211 255 202 211 255 202 211 255 202 211 255 205 214 255 206 215 206 155 164 195 147 155 195 147 155 195 147 155 200 151 159 211 159 168 255 222 228 255 236 239 255 236 239 255 234 238 255 234 238 255 234 238 255 234 238 255 234 238 255 234 238 255 234 238 255 236 239 255 236 239 255 234 238 255 236 239 255 236 239 255 236 239 255 236 239 255 236 239 255 236 239 255 236 239 255 236 239 255 236 239 255 236 239 255 236 239 255 236 239 255 237 240 255 237 240 255 234 238 255 206 215 255 208 216 179 134 142 255 205 214 255 240 242 255 238 241 255 238 241 255 237 240 255 238 241 255 237 240 255 237 240 255 237 240 255 237 240 255 237 240 255 238 241 255 238 241 255 238 241 255 238 241 255 238 241 255 238 241 255 237 240 255 237 240 255 237 240 255 238 241 255 238 241 255 238 241 255 238 241 255 238 241 255 238 241 255 237 240 255 237 240 255 237 240 255 240 242 255 237 240 255 237 240 255 237 240 255 238 241 255 238 241 255 238 241 255 238 241 255 238 241 255 238 241 255 238 241 255 238 241 255 238 241 255 238 241 255 238 241 255 238 241 255 240 242 255 240 242 255 240 242 255 240 242 255 240 242 255 240 242 255 240 242 255 240 242 255 240 242 255 240 242 255 240 242 255 240 242 255 240 242 255 240 242 255 240 242 255 240 242 255 240 242 255 242 245 255 242 245 255 242 245 255 242 245 255 242 245 255 242 245 255 242 245 255 242 245 255 242 245 255 242 245 255 242 245 255 242 245 255 240 242 255 240 242 255 240 242 255 240 242 255 240 242 255 240 242 255 240 242 255 240 242 255 242 245 255 242 245 255 240 242 255 240 242 255 240 242 255 240 242 255 240 242 255 240 242 255 240 242 255 238 241 255 238 241 255 240 242 255 240 242 255 238 241 255 238 241 255 240 242 255 228 232 184 138 146 233 175 185 255 230 235 255 200 209 255 217 224 255 236 239 255 214 221 255 222 228 255 237 240 255 238 241 255 237 240 255 237 240 255 237 240 255 237 240 255 237 240 255 216 222 255 217 224 255 236 239 255 225 230 255 234 238 255 236 239 255 230 235 255 217 224 255 226 231 255 229 233 255 228 232 255 230 235 255 228 232 255 230 235 255 233 237 255 234 238 255 236 239 255 236 239 255 236 239 255 230 235 255 220 226 255 233 237 255 234 238 217 163 172 227 171 181 255 225 230 255 221 227 255 206 215 211 159 168 200 151 159 206 155 164 255 233 237 255 237 240 255 234 238 255 233 237 255 232 236 255 217 224 255 206 215 255 202 211 255 202 211 255 202 211 255 202 211 255 202 211 255 202 211 255 202 211 255 202 211 255 202 211 255 202 211 255 202 211 255 202 211 255 202 211 255 201 210 255 201 210 
255 202 211 255 202 211 255 202 211 255 205 214 255 205 214 255 206 215 255 206 215 255 206 215 255 205 214 255 205 214 255 205 214 255 202 211 255 202 211 255 205 214 255 205 214 255 205 214 255 201 210 206 155 164 195 147 155 184 138 146 200 151 159 200 151 159 195 147 155 206 155 164 255 217 224 255 234 238 255 238 241 255 237 240 255 233 237 255 233 237 255 234 238 255 234 238 255 230 235 255 221 227 255 236 239 255 220 226 255 234 238 255 237 240 255 237 240 255 237 240 255 237 240 255 237 240 255 237 240 255 237 240 255 237 240 255 237 240 255 236 239 255 237 240 255 237 240 255 237 240 255 214 221 233 175 185 255 237 240 255 237 240 255 237 240 255 237 240 255 237 240 255 237 240 255 237 240 255 237 240 255 237 240 255 237 240 255 237 240 255 237 240 255 238 241 255 238 241 255 238 241 255 238 241 255 238 241 255 238 241 255 237 240 255 237 240 255 237 240 255 238 241 255 238 241 255 238 241 255 238 241 255 238 241 255 238 241 255 238 241 255 238 241 255 238 241 255 238 241 255 238 241 255 238 241 255 238 241 255 238 241 255 238 241 255 238 241 255 238 241 255 238 241 255 238 241 255 238 241 255 240 242 255 240 242 255 240 242 255 240 242 255 240 242 255 240 242 255 240 242 255 240 242 255 240 242 255 240 242 255 240 242 255 240 242 255 242 245 255 242 245 255 240 242 255 240 242 255 240 242 255 240 242 255 240 242 255 240 242 255 240 242 255 240 242 255 240 242 255 240 242 255 240 242 255 242 245 255 242 245 255 242 245 255 242 245 255 242 245 255 242 245 255 242 245 255 242 245 255 242 245 255 240 242 255 240 242 255 240 242 255 240 242 255 240 242 255 242 245 255 242 245 255 240 242 255 240 242 255 240 242 255 240 242 255 240 242 255 240 242 255 240 242 255 240 242 255 240 242 255 240 242 255 240 242 255 238 241 255 238 241 255 238 241 255 238 241 255 236 239 255 240 242 255 240 242 255 225 230 211 159 168 255 193 204 227 171 181 255 217 224 255 229 233 255 228 232 255 237 240 255 238 241 255 238 241 255 237 240 255 237 240 255 236 239 255 228 232 217 163 172 255 200 209 255 238 241 255 233 237 255 240 242 255 233 237 255 232 236 255 221 227 255 228 232 255 225 230 255 224 229 255 232 236 255 230 235 255 234 238 255 236 239 255 236 239 255 234 238 255 234 238 255 234 238 255 234 238 255 232 236 255 224 229 255 234 238 255 234 238 244 183 194 195 147 155 255 208 216 255 225 230 255 222 228 206 155 164 211 159 168 195 147 155 255 213 220 255 233 237 255 222 228 255 230 235 255 233 237 255 234 238 255 209 217 255 206 215 255 205 214 255 205 214 255 202 211 255 202 211 255 202 211 255 205 214 255 202 211 255 202 211 255 202 211 255 202 211 255 202 211 255 202 211 255 202 211 255 201 210 
255 202 211 255 202 211 255 202 211 255 205 214 255 205 214 255 206 215 255 206 215 255 206 215 255 205 214 255 205 214 255 205 214 255 202 211 255 202 211 255 205 214 255 205 214 255 205 214 255 201 210 206 155 164 195 147 155 184 138 146 200 151 159 200 151 159 195 147 155 206 155 164 255 217 224 255 234 238 255 238 241 255 237 240 255 233 237 255 233 237 255 234 238 255 234 238 255 230 235 255 221 227 255 236 239 255 220 226 255 234 238 255 237 240 255 237 240 255 237 240 255 237 240 255 237 240 255 237 240 255 237 240 255 237 240 255 237 240 255 236 239 255 237 240 255 237 240 255 237 240 255 214 221 233 175 185 255 237 240 255 237 240 255 237 240 255 237 240 255 237 240 255 237 240 255 237 240 255 237 240 255 237 240 255 237 240 255 237 240 255 237 240 255 238 241 255 238 241 255 238 241 255 238 241 255 238 241 255 238 241 255 237 240 255 237 240 255 237 240 255 238 241 255 238 241 255 238 241 255 238 241 255 238 241 255 238 241 255 238 241 255 238 241 255 238 241 255 238 241 255 238 241 255 238 241 255 238 241 255 238 241 255 238 241 255 238 241 255 238 241 255 238 241 255 238 241 255 238 241 255 240 242 255 240 242 255 240 242 255 240 242 255 240 242 255 240 242 255 240 242 255 240 242 255 240 242 255 240 242 255 240 242 255 240 242 255 242 245 255 242 245 255 240 242 255 240 242 255 240 242 255 240 242 255 240 242 255 240 242 255 240 242 255 240 242 255 240 242 255 240 242 255 240 242 255 242 245 255 242 245 255 242 245 255 242 245 255 242 245 255 242 245 255 242 245 255 242 245 255 242 245 255 240 242 255 240 242 255 240 242 255 240 242 255 240 242 255 242 245 255 242 245 255 240 242 255 240 242 255 240 242 255 240 242 255 240 242 255 240 242 255 240 242 255 240 242 255 240 242 255 240 242 255 240 242 255 238 241 255 238 241 255 238 241 255 238 241 255 236 239 255 240 242 255 240 242 255 225 230 211 159 168 255 193 204 227 171 181 255 217 224 255 229 233 255 228 232 255 237 240 255 238 241 255 238 241 255 237 240 255 237 240 255 236 239 255 228 232 217 163 172 255 200 209 255 238 241 255 233 237 255 240 242 255 233 237 255 232 236 255 221 227 255 228 232 255 225 230 255 224 229 255 232 236 255 230 235 255 234 238 255 236 239 255 236 239 255 234 238 255 234 238 255 234 238 255 234 238 255 232 236 255 224 229 255 234 238 255 234 238 244 183 194 195 147 155 255 208 216 255 225 230 255 222 228 206 155 164 211 159 168 195 147 155 255 213 220 255 233 237 255 222 228 255 230 235 255 233 237 255 234 238 255 209 217 255 206 215 255 205 214 255 205 214 255 202 211 255 202 211 255 202 211 255 205 214 255 202 211 255 202 211 255 202 211 255 202 211 255 202 211 255 202 211 255 202 211 255 201 210 
255 205 214 255 205 214 255 202 211 255 205 214 255 205 214 255 206 215 255 206 215 255 206 215 255 205 214 255 202 211 255 205 214 255 202 211 255 202 211 255 205 214 255 202 211 255 205 214 255 206 215 255 206 215 255 209 217 200 151 159 195 147 155 200 151 159 206 155 164 206 155 164 200 151 159 200 151 159 211 159 168 255 210 218 255 222 228 255 233 237 255 229 233 255 217 224 255 230 235 255 236 239 255 236 239 255 229 233 255 230 235 255 234 238 255 236 239 255 237 240 255 237 240 255 237 240 255 237 240 255 237 240 255 237 240 255 237 240 255 237 240 255 237 240 255 237 240 255 217 224 184 138 146 255 198 208 255 230 235 255 237 240 255 237 240 255 237 240 255 237 240 255 237 240 255 237 240 255 237 240 255 237 240 255 237 240 255 237 240 255 237 240 255 238 241 255 238 241 255 238 241 255 238 241 255 238 241 255 238 241 255 237 240 255 237 240 255 237 240 255 238 241 255 238 241 255 238 241 255 238 241 255 238 241 255 238 241 255 238 241 255 238 241 255 238 241 255 238 241 255 238 241 255 238 241 255 238 241 255 238 241 255 238 241 255 238 241 255 238 241 255 238 241 255 240 242 255 240 242 255 240 242 255 240 242 255 240 242 255 240 242 255 240 242 255 240 242 255 240 242 255 240 242 255 240 242 255 240 242 255 240 242 255 240 242 255 242 245 255 242 245 255 240 242 255 240 242 255 240 242 255 240 242 255 240 242 255 240 242 255 240 242 255 240 242 255 240 242 255 240 242 255 240 242 255 242 245 255 242 245 255 242 245 255 242 245 255 242 245 255 242 245 255 242 245 255 242 245 255 242 245 255 240 242 255 240 242 255 240 242 255 240 242 255 240 242 255 240 242 255 240 242 255 240 242 255 240 242 255 240 242 255 240 242 255 240 242 255 240 242 255 240 242 255 240 242 255 240 242 255 240 242 255 240 242 255 238 241 255 238 241 255 238 241 255 238 241 255 236 239 255 242 245 255 234 238 255 237 240 255 226 231 255 205 214 255 236 239 255 210 218 255 221 227 255 233 237 255 228 232 255 232 236 255 233 237 255 229 233 255 238 241 255 229 233 249 187 198 222 167 177 255 222 228 255 209 217 255 205 214 255 221 227 255 196 206 255 236 239 255 214 221 255 238 241 255 236 239 255 236 239 255 225 230 255 234 238 255 236 239 255 236 239 255 234 238 255 234 238 255 234 238 255 234 238 255 234 238 255 224 229 255 229 233 255 234 238 255 226 231 255 205 214 195 147 155 255 208 216 255 216 222 255 202 211 255 196 206 255 205 214 255 216 222 244 183 194 211 159 168 217 163 172 211 159 168 255 226 231 255 233 237 255 228 232 255 205 214 255 205 214 255 205 214 255 205 214 255 205 214 255 205 214 255 202 211 255 202 211 255 202 211 255 202 211 255 202 211 255 202 211 255 202 211 255 202 211 255 201 210 
255 205 214 255 205 214 255 202 211 255 205 214 255 205 214 255 206 215 255 206 215 255 206 215 255 205 214 255 202 211 255 205 214 255 202 211 255 202 211 255 205 214 255 202 211 255 205 214 255 206 215 255 206 215 255 209 217 200 151 159 195 147 155 200 151 159 206 155 164 206 155 164 200 151 159 200 151 159 211 159 168 255 210 218 255 222 228 255 233 237 255 229 233 255 217 224 255 230 235 255 236 239 255 236 239 255 229 233 255 230 235 255 234 238 255 236 239 255 237 240 255 237 240 255 237 240 255 237 240 255 237 240 255 237 240 255 237 240 255 237 240 255 237 240 255 237 240 255 217 224 184 138 146 255 198 208 255 230 235 255 237 240 255 237 240 255 237 240 255 237 240 255 237 240 255 237 240 255 237 240 255 237 240 255 237 240 255 237 240 255 237 240 255 238 241 255 238 241 255 238 241 255 238 241 255 238 241 255 238 241 255 237 240 255 237 240 255 237 240 255 238 241 255 238 241 255 238 241 255 238 241 255 238 241 255 238 241 255 238 241 255 238 241 255 238 241 255 238 241 255 238 241 255 238 241 255 238 241 255 238 241 255 238 241 255 238 241 255 238 241 255 238 241 255 240 242 255 240 242 255 240 242 255 240 242 255 240 242 255 240 242 255 240 242 255 240 242 255 240 242 255 240 242 255 240 242 255 240 242 255 240 242 255 240 242 255 242 245 255 242 245 255 240 242 255 240 242 255 240 242 255 240 242 255 240 242 255 240 242 255 240 242 255 240 242 255 240 242 255 240 242 255 240 242 255 242 245 255 242 245 255 242 245 255 242 245 255 242 245 255 242 245 255 242 245 255 242 245 255 242 245 255 240 242 255 240 242 255 240 242 255 240 242 255 240 242 255 240 242 255 240 242 255 240 242 255 240 242 255 240 242 255 240 242 255 240 242 255 240 242 255 240 242 255 240 242 255 240 242 255 240 242 255 240 242 255 238 241 255 238 241 255 238 241 255 238 241 255 236 239 255 242 245 255 234 238 255 237 240 255 226 231 255 205 214 255 236 239 255 210 218 255 221 227 255 233 237 255 228 232 255 232 236 255 233 237 255 229 233 255 238 241 255 229 233 249 187 198 222 167 177 255 222 228 255 209 217 255 205 214 255 221 227 255 196 206 255 236 239 255 214 221 255 238 241 255 236 239 255 236 239 255 225 230 255 234 238 255 236 239 255 236 239 255 234 238 255 234 238 255 234 238 255 234 238 255 234 238 255 224 229 255 229 233 255 234 238 255 226 231 255 205 214 195 147 155 255 208 216 255 216 222 255 202 211 255 196 206 255 205 214 255 216 222 244 183 194 211 159 168 217 163 172 211 159 168 255 226 231 255 233 237 255 228 232 255 205 214 255 205 214 255 205 214 255 205 214 255 205 214 255 205 214 255 202 211 255 202 211 255 202 211 255 202 211 255 202 211 255 202 211 255 202 211 255 202 211 255 201 210 
255 205 214 255 205 214 255 205 214 255 205 214 255 206 215 255 208 216 255 208 216 255 206 215 255 205 214 255 202 211 255 205 214 255 205 214 255 202 211 255 205 214 255 205 214 255 205 214 255 205 214 255 208 216 255 210 218 255 216 222 255 200 209 222 167 177 200 151 159 200 151 159 206 155 164 206 155 164 206 155 164 206 155 164 217 163 172 200 151 159 255 208 216 255 236 239 255 236 239 255 236 239 255 234 238 255 234 238 255 229 233 255 232 236 255 236 239 255 237 240 255 237 240 255 237 240 255 237 240 255 236 239 255 237 240 255 237 240 255 237 240 255 236 239 255 232 236 255 232 236 244 183 194 249 187 198 255 233 237 255 238 241 255 237 240 255 237 240 255 237 240 255 237 240 255 237 240 255 237 240 255 237 240 255 237 240 255 237 240 255 237 240 255 238 241 255 238 241 255 238 241 255 238 241 255 238 241 255 238 241 255 237 240 255 238 241 255 238 241 255 238 241 255 238 241 255 238 241 255 238 241 255 238 241 255 238 241 255 238 241 255 238 241 255 238 241 255 238 241 255 238 241 255 238 241 255 238 241 255 238 241 255 238 241 255 238 241 255 238 241 255 240 242 255 240 242 255 240 242 255 240 242 255 240 242 255 240 242 255 240 242 255 240 242 255 240 242 255 240 242 255 240 242 255 242 245 255 242 245 255 242 245 255 242 245 255 242 245 255 242 245 255 242 245 255 242 245 255 242 245 255 242 245 255 242 245 255 240 242 255 240 242 255 240 242 255 242 245 255 242 245 255 242 245 255 242 245 255 242 245 255 242 245 255 242 245 255 242 245 255 242 245 255 242 245 255 242 245 255 242 245 255 242 245 255 242 245 255 242 245 255 242 245 255 242 245 255 240 242 255 240 242 255 240 242 255 240 242 255 240 242 255 240 242 255 240 242 255 240 242 255 240 242 255 240 242 255 240 242 255 240 242 255 240 242 255 238 241 255 238 241 255 238 241 255 238 241 255 237 240 255 238 241 255 240 242 255 238 241 255 232 236 255 205 214 255 217 224 206 155 164 255 233 237 255 220 226 255 232 236 255 230 235 255 225 230 255 201 210 255 240 242 211 159 168 195 147 155 211 159 168 255 210 218 255 213 220 255 214 221 255 225 230 255 232 236 255 237 240 255 237 240 255 236 239 255 233 237 255 237 240 255 234 238 255 233 237 255 236 239 255 234 238 255 234 238 255 234 238 255 234 238 255 234 238 255 234 238 255 230 235 255 229 233 255 236 239 255 212 219 255 206 215 206 155 164 206 155 164 255 205 214 255 206 215 227 171 181 200 151 159 206 155 164 206 155 164 211 159 168 211 159 168 206 155 164 255 193 204 255 234 238 255 226 231 255 206 215 255 205 214 255 205 214 255 205 214 255 205 214 255 205 214 255 205 214 255 205 214 255 205 214 255 205 214 255 205 214 255 205 214 255 202 211 255 202 211 255 201 210 
255 205 214 255 205 214 255 205 214 255 205 214 255 206 215 255 208 216 255 208 216 255 206 215 255 205 214 255 202 211 255 205 214 255 205 214 255 202 211 255 205 214 255 205 214 255 205 214 255 205 214 255 208 216 255 210 218 255 216 222 255 200 209 222 167 177 200 151 159 200 151 159 206 155 164 206 155 164 206 155 164 206 155 164 217 163 172 200 151 159 255 208 216 255 236 239 255 236 239 255 236 239 255 234 238 255 234 238 255 229 233 255 232 236 255 236 239 255 237 240 255 237 240 255 237 240 255 237 240 255 236 239 255 237 240 255 237 240 255 237 240 255 236 239 255 232 236 255 232 236 244 183 194 249 187 198 255 233 237 255 238 241 255 237 240 255 237 240 255 237 240 255 237 240 255 237 240 255 237 240 255 237 240 255 237 240 255 237 240 255 237 240 255 238 241 255 238 241 255 238 241 255 238 241 255 238 241 255 238 241 255 237 240 255 238 241 255 238 241 255 238 241 255 238 241 255 238 241 255 238 241 255 238 241 255 238 241 255 238 241 255 238 241 255 238 241 255 238 241 255 238 241 255 238 241 255 238 241 255 238 241 255 238 241 255 238 241 255 238 241 255 240 242 255 240 242 255 240 242 255 240 242 255 240 242 255 240 242 255 240 242 255 240 242 255 240 242 255 240 242 255 240 242 255 242 245 255 242 245 255 242 245 255 242 245 255 242 245 255 242 245 255 242 245 255 242 245 255 242 245 255 242 245 255 242 245 255 240 242 255 240 242 255 240 242 255 242 245 255 242 245 255 242 245 255 242 245 255 242 245 255 242 245 255 242 245 255 242 245 255 242 245 255 242 245 255 242 245 255 242 245 255 242 245 255 242 245 255 242 245 255 242 245 255 242 245 255 240 242 255 240 242 255 240 242 255 240 242 255 240 242 255 240 242 255 240 242 255 240 242 255 240 242 255 240 242 255 240 242 255 240 242 255 240 242 255 238 241 255 238 241 255 238 241 255 238 241 255 237 240 255 238 241 255 240 242 255 238 241 255 232 236 255 205 214 255 217 224 206 155 164 255 233 237 255 220 226 255 232 236 255 230 235 255 225 230 255 201 210 255 240 242 211 159 168 195 147 155 211 159 168 255 210 218 255 213 220 255 214 221 255 225 230 255 232 236 255 237 240 255 237 240 255 236 239 255 233 237 255 237 240 255 234 238 255 233 237 255 236 239 255 234 238 255 234 238 255 234 238 255 234 238 255 234 238 255 234 238 255 230 235 255 229 233 255 236 239 255 212 219 255 206 215 206 155 164 206 155 164 255 205 214 255 206 215 227 171 181 200 151 159 206 155 164 206 155 164 211 159 168 211 159 168 206 155 164 255 193 204 255 234 238 255 226 231 255 206 215 255 205 214 255 205 214 255 205 214 255 205 214 255 205 214 255 205 214 255 205 214 255 205 214 255 205 214 255 205 214 255 205 214 255 202 211 255 202 211 255 201 210 
255 205 214 255 205 214 255 205 214 255 205 214 255 206 215 255 206 215 255 208 216 255 208 216 255 205 214 255 202 211 255 205 214 255 205 214 255 205 214 255 205 214 255 205 214 255 205 214 255 205 214 255 205 214 227 171 181 211 159 168 184 138 146 195 147 155 195 147 155 200 151 159 200 151 159 206 155 164 206 155 164 211 159 168 211 159 168 255 201 210 255 228 232 255 242 245 255 226 231 255 230 235 255 198 208 255 213 220 255 237 240 255 220 226 255 193 204 255 234 238 255 236 239 255 236 239 255 236 239 255 236 239 255 237 240 255 237 240 255 237 240 255 238 241 255 234 238 255 237 240 255 210 218 255 230 235 255 237 240 255 237 240 255 237 240 255 237 240 255 237 240 255 237 240 255 237 240 255 238 241 255 237 240 255 237 240 255 237 240 255 237 240 255 238 241 255 238 241 255 238 241 255 238 241 255 238 241 255 238 241 255 237 240 255 238 241 255 238 241 255 238 241 255 238 241 255 238 241 255 238 241 255 238 241 255 238 241 255 238 241 255 238 241 255 238 241 255 238 241 255 238 241 255 238 241 255 238 241 255 238 241 255 238 241 255 238 241 255 238 241 255 238 241 255 240 242 255 240 242 255 240 242 255 240 242 255 240 242 255 240 242 255 240 242 255 240 242 255 240 242 255 240 242 255 242 245 255 242 245 255 242 245 255 242 245 255 242 245 255 242 245 255 242 245 255 242 245 255 242 245 255 242 245 255 242 245 255 242 245 255 242 245 255 242 245 255 242 245 255 242 245 255 242 245 255 242 245 255 242 245 255 242 245 255 242 245 255 242 245 255 242 245 255 242 245 255 242 245 255 242 245 255 242 245 255 242 245 255 242 245 255 242 245 255 242 245 255 242 245 255 242 245 255 240 242 255 240 242 255 240 242 255 240 242 255 240 242 255 240 242 255 240 242 255 240 242 255 240 242 255 240 242 255 240 242 255 238 241 255 238 241 255 238 241 255 237 240 255 238 241 255 232 236 255 240 242 255 240 242 255 238 241 255 232 236 255 193 204 211 159 168 255 193 204 255 233 237 255 220 226 255 198 208 255 224 229 255 224 229 157 118 125 195 147 155 200 151 159 217 163 172 217 163 172 255 212 219 255 236 239 255 236 239 255 237 240 255 236 239 255 216 222 255 230 235 255 236 239 255 236 239 255 236 239 255 236 239 255 236 239 255 236 239 255 236 239 255 236 239 255 236 239 255 233 237 255 209 217 255 213 220 255 200 209 255 193 204 227 171 181 255 196 206 200 151 159 206 155 164 255 196 206 222 167 177 255 196 206 211 159 168 206 155 164 211 159 168 211 159 168 211 159 168 217 163 172 217 163 172 255 229 233 255 230 235 255 206 215 255 205 214 255 206 215 255 205 214 255 205 214 255 205 214 255 205 214 255 205 214 255 205 214 255 205 214 255 206 215 255 205 214 255 202 211 255 202 211 255 202 211 
255 205 214 255 205 214 255 205 214 255 205 214 255 206 215 255 206 215 255 208 216 255 208 216 255 205 214 255 202 211 255 205 214 255 205 214 255 205 214 255 205 214 255 205 214 255 205 214 255 205 214 255 205 214 227 171 181 211 159 168 184 138 146 195 147 155 195 147 155 200 151 159 200 151 159 206 155 164 206 155 164 211 159 168 211 159 168 255 201 210 255 228 232 255 242 245 255 226 231 255 230 235 255 198 208 255 213 220 255 237 240 255 220 226 255 193 204 255 234 238 255 236 239 255 236 239 255 236 239 255 236 239 255 237 240 255 237 240 255 237 240 255 238 241 255 234 238 255 237 240 255 210 218 255 230 235 255 237 240 255 237 240 255 237 240 255 237 240 255 237 240 255 237 240 255 237 240 255 238 241 255 237 240 255 237 240 255 237 240 255 237 240 255 238 241 255 238 241 255 238 241 255 238 241 255 238 241 255 238 241 255 237 240 255 238 241 255 238 241 255 238 241 255 238 241 255 238 241 255 238 241 255 238 241 255 238 241 255 238 241 255 238 241 255 238 241 255 238 241 255 238 241 255 238 241 255 238 241 255 238 241 255 238 241 255 238 241 255 238 241 255 238 241 255 240 242 255 240 242 255 240 242 255 240 242 255 240 242 255 240 242 255 240 242 255 240 242 255 240 242 255 240 242 255 242 245 255 242 245 255 242 245 255 242 245 255 242 245 255 242 245 255 242 245 255 242 245 255 242 245 255 242 245 255 242 245 255 242 245 255 242 245 255 242 245 255 242 245 255 242 245 255 242 245 255 242 245 255 242 245 255 242 245 255 242 245 255 242 245 255 242 245 255 242 245 255 242 245 255 242 245 255 242 245 255 242 245 255 242 245 255 242 245 255 242 245 255 242 245 255 242 245 255 240 242 255 240 242 255 240 242 255 240 242 255 240 242 255 240 242 255 240 242 255 240 242 255 240 242 255 240 242 255 240 242 255 238 241 255 238 241 255 238 241 255 237 240 255 238 241 255 232 236 255 240 242 255 240 242 255 238 241 255 232 236 255 193 204 211 159 168 255 193 204 255 233 237 255 220 226 255 198 208 255 224 229 255 224 229 157 118 125 195 147 155 200 151 159 217 163 172 217 163 172 255 212 219 255 236 239 255 236 239 255 237 240 255 236 239 255 216 222 255 230 235 255 236 239 255 236 239 255 236 239 255 236 239 255 236 239 255 236 239 255 236 239 255 236 239 255 236 239 255 233 237 255 209 217 255 213 220 255 200 209 255 193 204 227 171 181 255 196 206 200 151 159 206 155 164 255 196 206 222 167 177 255 196 206 211 159 168 206 155 164 211 159 168 211 159 168 211 159 168 217 163 172 217 163 172 255 229 233 255 230 235 255 206 215 255 205 214 255 206 215 255 205 214 255 205 214 255 205 214 255 205 214 255 205 214 255 205 214 255 205 214 255 206 215 255 205 214 255 202 211 255 202 211 255 202 211 
255 205 214 255 205 214 255 205 214 255 205 214 255 206 215 255 206 215 255 208 216 255 208 216 255 205 214 255 205 214 255 205 214 255 205 214 255 205 214 255 205 214 255 205 214 255 205 214 255 205 214 255 205 214 255 196 206 200 151 159 206 155 164 206 155 164 200 151 159 206 155 164 206 155 164 206 155 164 206 155 164 206 155 164 206 155 164 206 155 164 211 159 168 206 155 164 211 159 168 211 159 168 255 206 215 255 198 208 255 230 235 255 234 238 255 193 204 211 159 168 255 209 217 255 238 241 255 236 239 255 236 239 255 236 239 255 236 239 255 237 240 255 237 240 255 237 240 255 237 240 255 237 240 255 236 239 255 237 240 255 237 240 255 237 240 255 237 240 255 237 240 255 237 240 255 237 240 255 238 241 255 237 240 255 237 240 255 237 240 255 237 240 255 238 241 255 238 241 255 237 240 255 237 240 255 237 240 255 237 240 255 237 240 255 237 240 255 237 240 255 237 240 255 237 240 255 237 240 255 237 240 255 237 240 255 237 240 255 237 240 255 237 240 255 238 241 255 238 241 255 238 241 255 238 241 255 238 241 255 238 241 255 238 241 255 238 241 255 238 241 255 238 241 255 240 242 255 240 242 255 240 242 255 240 242 255 240 242 255 240 242 255 240 242 255 240 242 255 240 242 255 240 242 255 240 242 255 240 242 255 240 242 255 240 242 255 240 242 255 240 242 255 240 242 255 240 242 255 240 242 255 240 242 255 240 242 255 240 242 255 240 242 255 240 242 255 240 242 255 240 242 255 240 242 255 240 242 255 240 242 255 240 242 255 240 242 255 240 242 255 240 242 255 240 242 255 240 242 255 240 242 255 240 242 255 240 242 255 240 242 255 240 242 255 240 242 255 240 242 255 240 242 255 240 242 255 240 242 255 240 242 255 240 242 255 240 242 255 240 242 255 238 241 255 238 241 255 238 241 255 238 241 255 238 241 255 238 241 255 238 241 255 238 241 255 238 241 255 238 241 255 237 240 255 240 242 255 237 240 255 236 239 255 226 231 255 196 206 211 159 168 222 167 177 244 183 194 255 214 221 255 202 211 217 163 172 200 151 159 200 151 159 184 138 146 200 151 159 200 151 159 255 196 206 255 226 231 255 233 237 255 237 240 255 236 239 255 236 239 255 236 239 255 236 239 255 236 239 255 236 239 255 236 239 255 236 239 255 236 239 255 236 239 255 234 238 255 236 239 255 234 238 255 234 238 249 187 198 244 183 194 200 151 159 206 155 164 206 155 164 206 155 164 217 163 172 200 151 159 217 163 172 244 183 194 217 163 172 206 155 164 211 159 168 211 159 168 211 159 168 211 159 168 217 163 172 233 175 185 255 232 236 255 236 239 255 208 216 255 206 215 255 206 215 255 205 214 255 205 214 255 205 214 255 205 214 255 205 214 255 205 214 255 205 214 255 205 214 255 205 214 255 202 211 255 202 211 255 202 211 
255 205 214 255 205 214 255 205 214 255 205 214 255 206 215 255 206 215 255 208 216 255 208 216 255 205 214 255 205 214 255 205 214 255 205 214 255 205 214 255 205 214 255 205 214 255 205 214 255 205 214 255 205 214 255 196 206 200 151 159 206 155 164 206 155 164 200 151 159 206 155 164 206 155 164 206 155 164 206 155 164 206 155 164 206 155 164 206 155 164 211 159 168 206 155 164 211 159 168 211 159 168 255 206 215 255 198 208 255 230 235 255 234 238 255 193 204 211 159 168 255 209 217 255 238 241 255 236 239 255 236 239 255 236 239 255 236 239 255 237 240 255 237 240 255 237 240 255 237 240 255 237 240 255 236 239 255 237 240 255 237 240 255 237 240 255 237 240 255 237 240 255 237 240 255 237 240 255 238 241 255 237 240 255 237 240 255 237 240 255 237 240 255 238 241 255 238 241 255 237 240 255 237 240 255 237 240 255 237 240 255 237 240 255 237 240 255 237 240 255 237 240 255 237 240 255 237 240 255 237 240 255 237 240 255 237 240 255 237 240 255 237 240 255 238 241 255 238 241 255 238 241 255 238 241 255 238 241 255 238 241 255 238 241 255 238 241 255 238 241 255 238 241 255 240 242 255 240 242 255 240 242 255 240 242 255 240 242 255 240 242 255 240 242 255 240 242 255 240 242 255 240 242 255 240 242 255 240 242 255 240 242 255 240 242 255 240 242 255 240 242 255 240 242 255 240 242 255 240 242 255 240 242 255 240 242 255 240 242 255 240 242 255 240 242 255 240 242 255 240 242 255 240 242 255 240 242 255 240 242 255 240 242 255 240 242 255 240 242 255 240 242 255 240 242 255 240 242 255 240 242 255 240 242 255 240 242 255 240 242 255 240 242 255 240 242 255 240 242 255 240 242 255 240 242 255 240 242 255 240 242 255 240 242 255 240 242 255 240 242 255 238 241 255 238 241 255 238 241 255 238 241 255 238 241 255 238 241 255 238 241 255 238 241 255 238 241 255 238 241 255 237 240 255 240 242 255 237 240 255 236 239 255 226 231 255 196 206 211 159 168 222 167 177 244 183 194 255 214 221 255 202 211 217 163 172 200 151 159 200 151 159 184 138 146 200 151 159 200 151 159 255 196 206 255 226 231 255 233 237 255 237 240 255 236 239 255 236 239 255 236 239 255 236 239 255 236 239 255 236 239 255 236 239 255 236 239 255 236 239 255 236 239 255 234 238 255 236 239 255 234 238 255 234 238 249 187 198 244 183 194 200 151 159 206 155 164 206 155 164 206 155 164 217 163 172 200 151 159 217 163 172 244 183 194 217 163 172 206 155 164 211 159 168 211 159 168 211 159 168 211 159 168 217 163 172 233 175 185 255 232 236 255 236 239 255 208 216 255 206 215 255 206 215 255 205 214 255 205 214 255 205 214 255 205 214 255 205 214 255 205 214 255 205 214 255 205 214 255 205 214 255 202 211 255 202 211 255 202 211 
255 205 214 255 205 214 255 205 214 255 205 214 255 206 215 255 206 215 255 208 216 255 208 216 255 205 214 255 205 214 255 205 214 255 205 214 255 205 214 255 205 214 255 205 214 255 205 214 255 205 214 255 205 214 255 210 218 255 202 211 211 159 168 211 159 168 206 155 164 206 155 164 206 155 164 206 155 164 206 155 164 206 155 164 206 155 164 211 159 168 211 159 168 211 159 168 211 159 168 211 159 168 211 159 168 217 163 172 222 167 177 222 167 177 255 209 217 255 206 215 255 208 216 249 187 198 255 222 228 255 237 240 255 237 240 255 236 239 255 234 238 255 234 238 255 238 241 255 237 240 255 237 240 255 237 240 255 237 240 255 237 240 255 237 240 255 237 240 255 237 240 255 237 240 255 237 240 255 237 240 255 238 241 255 238 241 255 238 241 255 238 241 255 238 241 255 238 241 255 237 240 255 237 240 255 237 240 255 237 240 255 237 240 255 237 240 255 238 241 255 237 240 255 237 240 255 237 240 255 237 240 255 237 240 255 237 240 255 237 240 255 237 240 255 237 240 255 237 240 255 237 240 255 238 241 255 238 241 255 238 241 255 238 241 255 238 241 255 238 241 255 238 241 255 240 242 255 240 242 255 240 242 255 240 242 255 240 242 255 240 242 255 240 242 255 240 242 255 240 242 255 240 242 255 240 242 255 240 242 255 240 242 255 240 242 255 240 242 255 240 242 255 240 242 255 240 242 255 240 242 255 240 242 255 240 242 255 240 242 255 240 242 255 240 242 255 240 242 255 240 242 255 240 242 255 240 242 255 240 242 255 240 242 255 240 242 255 240 242 255 240 242 255 240 242 255 240 242 255 240 242 255 240 242 255 240 242 255 240 242 255 240 242 255 240 242 255 240 242 255 240 242 255 240 242 255 242 245 255 242 245 255 240 242 255 240 242 255 240 242 255 240 242 255 240 242 255 238 241 255 238 241 255 238 241 255 240 242 255 238 241 255 238 241 255 238 241 255 238 241 255 236 239 255 238 241 255 233 237 255 232 236 255 213 220 227 171 181 255 193 204 244 183 194 233 175 185 244 183 194 255 193 204 200 151 159 200 151 159 200 151 159 200 151 159 200 151 159 206 155 164 255 236 239 255 225 230 255 236 239 255 236 239 255 236 239 255 236 239 255 236 239 255 236 239 255 236 239 255 236 239 255 236 239 255 236 239 255 236 239 255 236 239 255 234 238 255 236 239 255 230 235 255 210 218 200 151 159 233 175 185 200 151 159 206 155 164 206 155 164 206 155 164 211 159 168 211 159 168 222 167 177 255 201 210 211 159 168 211 159 168 211 159 168 211 159 168 211 159 168 211 159 168 211 159 168 255 205 214 255 226 231 255 234 238 255 208 216 255 206 215 255 206 215 255 206 215 255 206 215 255 205 214 255 205 214 255 205 214 255 205 214 255 205 214 255 205 214 255 205 214 255 202 211 255 201 210 255 201 210 
255 205 214 255 205 214 255 205 214 255 205 214 255 206 215 255 206 215 255 208 216 255 208 216 255 205 214 255 205 214 255 205 214 255 205 214 255 205 214 255 205 214 255 205 214 255 205 214 255 205 214 255 205 214 255 210 218 255 202 211 211 159 168 211 159 168 206 155 164 206 155 164 206 155 164 206 155 164 206 155 164 206 155 164 206 155 164 211 159 168 211 159 168 211 159 168 211 159 168 211 159 168 211 159 168 217 163 172 222 167 177 222 167 177 255 209 217 255 206 215 255 208 216 249 187 198 255 222 228 255 237 240 255 237 240 255 236 239 255 234 238 255 234 238 255 238 241 255 237 240 255 237 240 255 237 240 255 237 240 255 237 240 255 237 240 255 237 240 255 237 240 255 237 240 255 237 240 255 237 240 255 238 241 255 238 241 255 238 241 255 238 241 255 238 241 255 238 241 255 237 240 255 237 240 255 237 240 255 237 240 255 237 240 255 237 240 255 238 241 255 237 240 255 237 240 255 237 240 255 237 240 255 237 240 255 237 240 255 237 240 255 237 240 255 237 240 255 237 240 255 237 240 255 238 241 255 238 241 255 238 241 255 238 241 255 238 241 255 238 241 255 238 241 255 240 242 255 240 242 255 240 242 255 240 242 255 240 242 255 240 242 255 240 242 255 240 242 255 240 242 255 240 242 255 240 242 255 240 242 255 240 242 255 240 242 255 240 242 255 240 242 255 240 242 255 240 242 255 240 242 255 240 242 255 240 242 255 240 242 255 240 242 255 240 242 255 240 242 255 240 242 255 240 242 255 240 242 255 240 242 255 240 242 255 240 242 255 240 242 255 240 242 255 240 242 255 240 242 255 240 242 255 240 242 255 240 242 255 240 242 255 240 242 255 240 242 255 240 242 255 240 242 255 240 242 255 242 245 255 242 245 255 240 242 255 240 242 255 240 242 255 240 242 255 240 242 255 238 241 255 238 241 255 238 241 255 240 242 255 238 241 255 238 241 255 238 241 255 238 241 255 236 239 255 238 241 255 233 237 255 232 236 255 213 220 227 171 181 255 193 204 244 183 194 233 175 185 244 183 194 255 193 204 200 151 159 200 151 159 200 151 159 200 151 159 200 151 159 206 155 164 255 236 239 255 225 230 255 236 239 255 236 239 255 236 239 255 236 239 255 236 239 255 236 239 255 236 239 255 236 239 255 236 239 255 236 239 255 236 239 255 236 239 255 234 238 255 236 239 255 230 235 255 210 218 200 151 159 233 175 185 200 151 159 206 155 164 206 155 164 206 155 164 211 159 168 211 159 168 222 167 177 255 201 210 211 159 168 211 159 168 211 159 168 211 159 168 211 159 168 211 159 168 211 159 168 255 205 214 255 226 231 255 234 238 255 208 216 255 206 215 255 206 215 255 206 215 255 206 215 255 205 214 255 205 214 255 205 214 255 205 214 255 205 214 255 205 214 255 205 214 255 202 211 255 201 210 255 201 210 
255 205 214 255 205 214 255 205 214 255 205 214 255 206 215 255 206 215 255 208 216 255 208 216 255 206 215 255 205 214 255 205 214 255 205 214 255 205 214 255 205 214 255 205 214 255 205 214 255 205 214 255 205 214 255 208 216 227 171 181 195 147 155 200 151 159 206 155 164 206 155 164 200 151 159 244 183 194 195 147 155 255 224 229 255 201 210 206 155 164 211 159 168 211 159 168 211 159 168 211 159 168 211 159 168 211 159 168 211 159 168 217 163 172 217 163 172 200 151 159 255 202 211 255 224 229 255 230 235 249 187 198 255 229 233 255 237 240 255 225 230 255 206 215 255 206 215 255 236 239 255 240 242 255 237 240 255 237 240 255 237 240 255 237 240 255 237 240 255 237 240 255 237 240 255 237 240 255 237 240 255 238 241 255 237 240 255 237 240 255 237 240 255 237 240 255 237 240 255 237 240 255 237 240 255 237 240 255 237 240 255 237 240 255 237 240 255 238 241 255 237 240 255 237 240 255 237 240 255 237 240 255 237 240 255 237 240 255 237 240 255 237 240 255 237 240 255 237 240 255 237 240 255 237 240 255 237 240 255 238 241 255 238 241 255 240 242 255 240 242 255 240 242 255 240 242 255 240 242 255 240 242 255 240 242 255 240 242 255 240 242 255 240 242 255 240 242 255 240 242 255 240 242 255 240 242 255 240 242 255 240 242 255 240 242 255 240 242 255 240 242 255 240 242 255 240 242 255 240 242 255 240 242 255 240 242 255 240 242 255 240 242 255 240 242 255 240 242 255 240 242 255 240 242 255 240 242 255 240 242 255 240 242 255 240 242 255 240 242 255 240 242 255 240 242 255 240 242 255 240 242 255 240 242 255 240 242 255 240 242 255 240 242 255 240 242 255 238 241 255 240 242 255 242 245 255 242 245 255 242 245 255 240 242 255 240 242 255 240 242 255 240 242 255 240 242 255 240 242 255 240 242 255 240 242 255 240 242 255 238 241 255 238 241 255 238 241 255 238 241 255 236 239 255 238 241 255 229 233 255 209 217 255 209 217 255 202 211 244 183 194 206 155 164 255 196 206 211 159 168 255 213 220 255 226 231 222 167 177 227 171 181 200 151 159 255 206 215 255 208 216 255 193 204 255 244 246 255 230 235 255 229 233 255 230 235 255 234 238 255 236 239 255 236 239 255 233 237 255 234 238 255 233 237 255 236 239 255 234 238 255 234 238 255 234 238 255 233 237 255 212 219 233 175 185 217 163 172 211 159 168 233 175 185 211 159 168 206 155 164 211 159 168 206 155 164 227 171 181 249 187 198 211 159 168 211 159 168 211 159 168 211 159 168 211 159 168 211 159 168 211 159 168 211 159 168 255 212 219 255 228 232 255 232 236 255 206 215 255 205 214 255 206 215 255 206 215 255 205 214 255 205 214 255 205 214 255 205 214 255 205 214 255 206 215 255 206 215 255 205 214 255 202 211 255 202 211 255 201 210 
255 205 214 255 205 214 255 205 214 255 205 214 255 206 215 255 206 215 255 208 216 255 208 216 255 206 215 255 205 214 255 205 214 255 205 214 255 205 214 255 205 214 255 205 214 255 205 214 255 205 214 255 205 214 255 208 216 227 171 181 195 147 155 200 151 159 206 155 164 206 155 164 200 151 159 244 183 194 195 147 155 255 224 229 255 201 210 206 155 164 211 159 168 211 159 168 211 159 168 211 159 168 211 159 168 211 159 168 211 159 168 217 163 172 217 163 172 200 151 159 255 202 211 255 224 229 255 230 235 249 187 198 255 229 233 255 237 240 255 225 230 255 206 215 255 206 215 255 236 239 255 240 242 255 237 240 255 237 240 255 237 240 255 237 240 255 237 240 255 237 240 255 237 240 255 237 240 255 237 240 255 238 241 255 237 240 255 237 240 255 237 240 255 237 240 255 237 240 255 237 240 255 237 240 255 237 240 255 237 240 255 237 240 255 237 240 255 238 241 255 237 240 255 237 240 255 237 240 255 237 240 255 237 240 255 237 240 255 237 240 255 237 240 255 237 240 255 237 240 255 237 240 255 237 240 255 237 240 255 238 241 255 238 241 255 240 242 255 240 242 255 240 242 255 240 242 255 240 242 255 240 242 255 240 242 255 240 242 255 240 242 255 240 242 255 240 242 255 240 242 255 240 242 255 240 242 255 240 242 255 240 242 255 240 242 255 240 242 255 240 242 255 240 242 255 240 242 255 240 242 255 240 242 255 240 242 255 240 242 255 240 242 255 240 242 255 240 242 255 240 242 255 240 242 255 240 242 255 240 242 255 240 242 255 240 242 255 240 242 255 240 242 255 240 242 255 240 242 255 240 242 255 240 242 255 240 242 255 240 242 255 240 242 255 240 242 255 238 241 255 240 242 255 242 245 255 242 245 255 242 245 255 240 242 255 240 242 255 240 242 255 240 242 255 240 242 255 240 242 255 240 242 255 240 242 255 240 242 255 238 241 255 238 241 255 238 241 255 238 241 255 236 239 255 238 241 255 229 233 255 209 217 255 209 217 255 202 211 244 183 194 206 155 164 255 196 206 211 159 168 255 213 220 255 226 231 222 167 177 227 171 181 200 151 159 255 206 215 255 208 216 255 193 204 255 244 246 255 230 235 255 229 233 255 230 235 255 234 238 255 236 239 255 236 239 255 233 237 255 234 238 255 233 237 255 236 239 255 234 238 255 234 238 255 234 238 255 233 237 255 212 219 233 175 185 217 163 172 211 159 168 233 175 185 211 159 168 206 155 164 211 159 168 206 155 164 227 171 181 249 187 198 211 159 168 211 159 168 211 159 168 211 159 168 211 159 168 211 159 168 211 159 168 211 159 168 255 212 219 255 228 232 255 232 236 255 206 215 255 205 214 255 206 215 255 206 215 255 205 214 255 205 214 255 205 214 255 205 214 255 205 214 255 206 215 255 206 215 255 205 214 255 202 211 255 202 211 255 201 210 
255 202 211 255 205 214 255 202 211 255 205 214 255 205 214 255 206 215 255 208 216 255 208 216 255 205 214 255 205 214 255 205 214 255 205 214 255 205 214 255 205 214 255 205 214 255 205 214 255 205 214 255 205 214 255 206 215 255 205 214 244 183 194 206 155 164 206 155 164 206 155 164 206 155 164 206 155 164 200 151 159 255 229 233 255 237 240 255 225 230 249 187 198 217 163 172 217 163 172 211 159 168 211 159 168 217 163 172 217 163 172 217 163 172 217 163 172 217 163 172 211 159 168 217 163 172 222 167 177 211 159 168 233 175 185 255 216 222 255 240 242 255 222 228 255 221 227 255 236 239 255 229 233 255 237 240 255 236 239 255 236 239 255 237 240 255 237 240 255 237 240 255 237 240 255 237 240 255 237 240 255 237 240 255 237 240 255 237 240 255 237 240 255 238 241 255 238 241 255 237 240 255 237 240 255 237 240 255 237 240 255 237 240 255 238 241 255 238 241 255 238 241 255 238 241 255 238 241 255 238 241 255 238 241 255 237 240 255 237 240 255 237 240 255 237 240 255 237 240 255 238 241 255 238 241 255 237 240 255 238 241 255 238 241 255 238 241 255 240 242 255 240 242 255 240 242 255 240 242 255 240 242 255 240 242 255 240 242 255 240 242 255 240 242 255 240 242 255 240 242 255 240 242 255 240 242 255 240 242 255 240 242 255 240 242 255 240 242 255 240 242 255 240 242 255 240 242 255 240 242 255 240 242 255 240 242 255 240 242 255 240 242 255 240 242 255 240 242 255 240 242 255 240 242 255 240 242 255 240 242 255 240 242 255 240 242 255 240 242 255 240 242 255 240 242 255 240 242 255 240 242 255 240 242 255 240 242 255 240 242 255 240 242 255 240 242 255 240 242 255 240 242 255 240 242 255 240 242 255 240 242 255 240 242 255 240 242 255 240 242 255 240 242 255 240 242 255 238 241 255 238 241 255 238 241 255 238 241 255 238 241 255 238 241 255 238 241 255 238 241 255 237 240 255 238 241 255 234 238 255 237 240 255 229 233 255 214 221 255 226 231 255 224 229 255 226 231 217 163 172 217 163 172 206 155 164 200 151 159 206 155 164 255 200 209 255 202 211 244 183 194 244 183 194 249 187 198 206 155 164 249 187 198 255 226 231 255 233 237 255 236 239 255 236 239 255 236 239 255 236 239 255 234 238 255 234 238 255 236 239 255 234 238 255 226 231 255 212 219 244 183 194 255 210 218 255 202 211 217 163 172 206 155 164 211 159 168 211 159 168 211 159 168 211 159 168 211 159 168 217 163 172 211 159 168 217 163 172 217 163 172 217 163 172 217 163 172 217 163 172 217 163 172 222 167 177 217 163 172 255 229 233 255 214 221 255 206 215 255 205 214 255 206 215 255 205 214 255 205 214 255 205 214 255 205 214 255 205 214 255 206 215 255 206 215 255 206 215 255 205 214 255 202 211 255 201 210 255 200 209 
255 202 211 255 205 214 255 202 211 255 205 214 255 205 214 255 206 215 255 208 216 255 208 216 255 205 214 255 205 214 255 205 214 255 205 214 255 205 214 255 205 214 255 205 214 255 205 214 255 205 214 255 205 214 255 206 215 255 205 214 244 183 194 206 155 164 206 155 164 206 155 164 206 155 164 206 155 164 200 151 159 255 229 233 255 237 240 255 225 230 249 187 198 217 163 172 217 163 172 211 159 168 211 159 168 217 163 172 217 163 172 217 163 172 217 163 172 217 163 172 211 159 168 217 163 172 222 167 177 211 159 168 233 175 185 255 216 222 255 240 242 255 222 228 255 221 227 255 236 239 255 229 233 255 237 240 255 236 239 255 236 239 255 237 240 255 237 240 255 237 240 255 237 240 255 237 240 255 237 240 255 237 240 255 237 240 255 237 240 255 237 240 255 238 241 255 238 241 255 237 240 255 237 240 255 237 240 255 237 240 255 237 240 255 238 241 255 238 241 255 238 241 255 238 241 255 238 241 255 238 241 255 238 241 255 237 240 255 237 240 255 237 240 255 237 240 255 237 240 255 238 241 255 238 241 255 237 240 255 238 241 255 238 241 255 238 241 255 240 242 255 240 242 255 240 242 255 240 242 255 240 242 255 240 242 255 240 242 255 240 242 255 240 242 255 240 242 255 240 242 255 240 242 255 240 242 255 240 242 255 240 242 255 240 242 255 240 242 255 240 242 255 240 242 255 240 242 255 240 242 255 240 242 255 240 242 255 240 242 255 240 242 255 240 242 255 240 242 255 240 242 255 240 242 255 240 242 255 240 242 255 240 242 255 240 242 255 240 242 255 240 242 255 240 242 255 240 242 255 240 242 255 240 242 255 240 242 255 240 242 255 240 242 255 240 242 255 240 242 255 240 242 255 240 242 255 240 242 255 240 242 255 240 242 255 240 242 255 240 242 255 240 242 255 240 242 255 238 241 255 238 241 255 238 241 255 238 241 255 238 241 255 238 241 255 238 241 255 238 241 255 237 240 255 238 241 255 234 238 255 237 240 255 229 233 255 214 221 255 226 231 255 224 229 255 226 231 217 163 172 217 163 172 206 155 164 200 151 159 206 155 164 255 200 209 255 202 211 244 183 194 244 183 194 249 187 198 206 155 164 249 187 198 255 226 231 255 233 237 255 236 239 255 236 239 255 236 239 255 236 239 255 234 238 255 234 238 255 236 239 255 234 238 255 226 231 255 212 219 244 183 194 255 210 218 255 202 211 217 163 172 206 155 164 211 159 168 211 159 168 211 159 168 211 159 168 211 159 168 217 163 172 211 159 168 217 163 172 217 163 172 217 163 172 217 163 172 217 163 172 217 163 172 222 167 177 217 163 172 255 229 233 255 214 221 255 206 215 255 205 214 255 206 215 255 205 214 255 205 214 255 205 214 255 205 214 255 205 214 255 206 215 255 206 215 255 206 215 255 205 214 255 202 211 255 201 210 255 200 209 
255 202 211 255 205 214 255 202 211 255 205 214 255 205 214 255 206 215 255 208 216 255 208 216 255 206 215 255 205 214 255 205 214 255 205 214 255 202 211 255 202 211 255 202 211 255 205 214 255 205 214 255 206 215 255 205 214 255 202 211 255 193 204 211 159 168 206 155 164 206 155 164 206 155 164 206 155 164 206 155 164 255 224 229 255 233 237 255 234 238 255 222 228 255 220 226 255 205 214 227 171 181 217 163 172 217 163 172 217 163 172 217 163 172 217 163 172 217 163 172 217 163 172 217 163 172 217 163 172 217 163 172 217 163 172 217 163 172 227 171 181 255 198 208 255 221 227 255 222 228 255 214 221 255 209 217 255 209 217 255 237 240 255 236 239 255 236 239 255 237 240 255 237 240 255 237 240 255 237 240 255 237 240 255 237 240 255 237 240 255 237 240 255 238 241 255 238 241 255 237 240 255 237 240 255 237 240 255 237 240 255 237 240 255 238 241 255 238 241 255 238 241 255 238 241 255 238 241 255 238 241 255 238 241 255 237 240 255 237 240 255 237 240 255 238 241 255 238 241 255 238 241 255 238 241 255 238 241 255 238 241 255 238 241 255 238 241 255 238 241 255 238 241 255 240 242 255 240 242 255 240 242 255 240 242 255 240 242 255 240 242 255 240 242 255 240 242 255 240 242 255 240 242 255 240 242 255 240 242 255 240 242 255 240 242 255 240 242 255 240 242 255 240 242 255 240 242 255 240 242 255 240 242 255 240 242 255 240 242 255 240 242 255 240 242 255 240 242 255 240 242 255 240 242 255 240 242 255 240 242 255 240 242 255 240 242 255 240 242 255 240 242 255 240 242 255 240 242 255 240 242 255 240 242 255 240 242 255 240 242 255 240 242 255 240 242 255 240 242 255 240 242 255 240 242 255 240 242 255 240 242 255 240 242 255 240 242 255 240 242 255 240 242 255 240 242 255 238 241 255 238 241 255 238 241 255 238 241 255 238 241 255 238 241 255 238 241 255 238 241 255 237 240 255 233 237 255 232 236 255 238 241 255 209 217 255 216 222 255 224 229 255 198 208 255 214 221 255 236 239 255 226 231 255 201 210 200 151 159 233 175 185 217 163 172 255 193 204 206 155 164 206 155 164 206 155 164 255 201 210 255 213 220 255 232 236 255 236 239 255 234 238 255 236 239 255 236 239 255 236 239 255 234 238 255 234 238 255 230 235 255 210 218 255 208 216 255 224 229 222 167 177 206 155 164 244 183 194 211 159 168 211 159 168 211 159 168 211 159 168 211 159 168 211 159 168 211 159 168 211 159 168 217 163 172 217 163 172 217 163 172 217 163 172 217 163 172 217 163 172 217 163 172 211 159 168 249 187 198 255 230 235 255 206 215 255 206 215 255 205 214 255 206 215 255 205 214 255 206 215 255 206 215 255 205 214 255 205 214 255 206 215 255 206 215 255 206 215 255 206 215 255 201 210 255 201 210 255 200 209 
255 202 211 255 205 214 255 202 211 255 205 214 255 205 214 255 206 215 255 208 216 255 208 216 255 206 215 255 205 214 255 205 214 255 205 214 255 202 211 255 202 211 255 202 211 255 205 214 255 205 214 255 206 215 255 205 214 255 202 211 255 193 204 211 159 168 206 155 164 206 155 164 206 155 164 206 155 164 206 155 164 255 224 229 255 233 237 255 234 238 255 222 228 255 220 226 255 205 214 227 171 181 217 163 172 217 163 172 217 163 172 217 163 172 217 163 172 217 163 172 217 163 172 217 163 172 217 163 172 217 163 172 217 163 172 217 163 172 227 171 181 255 198 208 255 221 227 255 222 228 255 214 221 255 209 217 255 209 217 255 237 240 255 236 239 255 236 239 255 237 240 255 237 240 255 237 240 255 237 240 255 237 240 255 237 240 255 237 240 255 237 240 255 238 241 255 238 241 255 237 240 255 237 240 255 237 240 255 237 240 255 237 240 255 238 241 255 238 241 255 238 241 255 238 241 255 238 241 255 238 241 255 238 241 255 237 240 255 237 240 255 237 240 255 238 241 255 238 241 255 238 241 255 238 241 255 238 241 255 238 241 255 238 241 255 238 241 255 238 241 255 238 241 255 240 242 255 240 242 255 240 242 255 240 242 255 240 242 255 240 242 255 240 242 255 240 242 255 240 242 255 240 242 255 240 242 255 240 242 255 240 242 255 240 242 255 240 242 255 240 242 255 240 242 255 240 242 255 240 242 255 240 242 255 240 242 255 240 242 255 240 242 255 240 242 255 240 242 255 240 242 255 240 242 255 240 242 255 240 242 255 240 242 255 240 242 255 240 242 255 240 242 255 240 242 255 240 242 255 240 242 255 240 242 255 240 242 255 240 242 255 240 242 255 240 242 255 240 242 255 240 242 255 240 242 255 240 242 255 240 242 255 240 242 255 240 242 255 240 242 255 240 242 255 240 242 255 238 241 255 238 241 255 238 241 255 238 241 255 238 241 255 238 241 255 238 241 255 238 241 255 237 240 255 233 237 255 232 236 255 238 241 255 209 217 255 216 222 255 224 229 255 198 208 255 214 221 255 236 239 255 226 231 255 201 210 200 151 159 233 175 185 217 163 172 255 193 204 206 155 164 206 155 164 206 155 164 255 201 210 255 213 220 255 232 236 255 236 239 255 234 238 255 236 239 255 236 239 255 236 239 255 234 238 255 234 238 255 230 235 255 210 218 255 208 216 255 224 229 222 167 177 206 155 164 244 183 194 211 159 168 211 159 168 211 159 168 211 159 168 211 159 168 211 159 168 211 159 168 211 159 168 217 163 172 217 163 172 217 163 172 217 163 172 217 163 172 217 163 172 217 163 172 211 159 168 249 187 198 255 230 235 255 206 215 255 206 215 255 205 214 255 206 215 255 205 214 255 206 215 255 206 215 255 205 214 255 205 214 255 206 215 255 206 215 255 206 215 255 206 215 255 201 210 255 201 210 255 200 209 
255 202 211 255 205 214 255 205 214 255 205 214 255 205 214 255 206 215 255 208 216 255 208 216 255 206 215 255 205 214 255 205 214 255 205 214 255 202 211 255 202 211 255 202 211 255 205 214 255 205 214 255 206 215 255 206 215 233 175 185 200 151 159 206 155 164 206 155 164 206 155 164 206 155 164 206 155 164 211 159 168 255 208 216 255 234 238 255 236 239 255 237 240 255 232 236 255 232 236 249 187 198 222 167 177 217 163 172 217 163 172 217 163 172 217 163 172 217 163 172 217 163 172 217 163 172 217 163 172 217 163 172 217 163 172 217 163 172 211 159 168 217 163 172 217 163 172 211 159 168 217 163 172 217 163 172 255 202 211 255 236 239 255 205 214 255 210 218 255 229 233 255 237 240 255 237 240 255 237 240 255 237 240 255 237 240 255 237 240 255 237 240 255 238 241 255 238 241 255 237 240 255 237 240 255 237 240 255 237 240 255 237 240 255 238 241 255 238 241 255 238 241 255 238 241 255 238 241 255 238 241 255 238 241 255 237 240 255 237 240 255 237 240 255 238 241 255 238 241 255 238 241 255 238 241 255 238 241 255 238 241 255 238 241 255 238 241 255 238 241 255 238 241 255 240 242 255 240 242 255 240 242 255 240 242 255 240 242 255 240 242 255 240 242 255 240 242 255 240 242 255 240 242 255 240 242 255 240 242 255 240 242 255 240 242 255 240 242 255 240 242 255 240 242 255 240 242 255 240 242 255 240 242 255 240 242 255 240 242 255 240 242 255 240 242 255 240 242 255 240 242 255 240 242 255 240 242 255 240 242 255 240 242 255 240 242 255 240 242 255 240 242 255 240 242 255 240 242 255 240 242 255 240 242 255 240 242 255 240 242 255 240 242 255 240 242 255 240 242 255 240 242 255 240 242 255 240 242 255 240 242 255 240 242 255 240 242 255 240 242 255 240 242 255 240 242 255 238 241 255 238 241 255 238 241 255 238 241 255 238 241 255 238 241 255 238 241 255 238 241 255 237 240 255 238 241 255 237 240 255 238 241 255 238 241 255 237 240 255 228 232 255 229 233 255 234 238 255 238 241 255 226 231 255 196 206 255 205 214 255 200 209 211 159 168 217 163 172 184 138 146 200 151 159 217 163 172 255 200 209 255 200 209 255 210 218 255 233 237 255 234 238 255 236 239 255 234 238 255 236 239 255 234 238 255 236 239 255 234 238 255 236 239 255 234 238 255 237 240 255 238 241 255 236 239 255 224 229 255 220 226 233 175 185 244 183 194 244 183 194 211 159 168 217 163 172 217 163 172 217 163 172 217 163 172 217 163 172 217 163 172 217 163 172 217 163 172 217 163 172 222 167 177 211 159 168 255 220 226 255 222 228 255 206 215 255 206 215 255 206 215 255 210 218 255 232 236 255 229 233 255 206 215 255 205 214 255 205 214 255 205 214 255 206 215 255 206 215 255 206 215 255 201 210 255 201 210 255 200 209 
255 202 211 255 205 214 255 205 214 255 205 214 255 205 214 255 206 215 255 208 216 255 208 216 255 206 215 255 205 214 255 205 214 255 205 214 255 202 211 255 202 211 255 202 211 255 205 214 255 205 214 255 206 215 255 206 215 233 175 185 200 151 159 206 155 164 206 155 164 206 155 164 206 155 164 206 155 164 211 159 168 255 208 216 255 234 238 255 236 239 255 237 240 255 232 236 255 232 236 249 187 198 222 167 177 217 163 172 217 163 172 217 163 172 217 163 172 217 163 172 217 163 172 217 163 172 217 163 172 217 163 172 217 163 172 217 163 172 211 159 168 217 163 172 217 163 172 211 159 168 217 163 172 217 163 172 255 202 211 255 236 239 255 205 214 255 210 218 255 229 233 255 237 240 255 237 240 255 237 240 255 237 240 255 237 240 255 237 240 255 237 240 255 238 241 255 238 241 255 237 240 255 237 240 255 237 240 255 237 240 255 237 240 255 238 241 255 238 241 255 238 241 255 238 241 255 238 241 255 238 241 255 238 241 255 237 240 255 237 240 255 237 240 255 238 241 255 238 241 255 238 241 255 238 241 255 238 241 255 238 241 255 238 241 255 238 241 255 238 241 255 238 241 255 240 242 255 240 242 255 240 242 255 240 242 255 240 242 255 240 242 255 240 242 255 240 242 255 240 242 255 240 242 255 240 242 255 240 242 255 240 242 255 240 242 255 240 242 255 240 242 255 240 242 255 240 242 255 240 242 255 240 242 255 240 242 255 240 242 255 240 242 255 240 242 255 240 242 255 240 242 255 240 242 255 240 242 255 240 242 255 240 242 255 240 242 255 240 242 255 240 242 255 240 242 255 240 242 255 240 242 255 240 242 255 240 242 255 240 242 255 240 242 255 240 242 255 240 242 255 240 242 255 240 242 255 240 242 255 240 242 255 240 242 255 240 242 255 240 242 255 240 242 255 240 242 255 238 241 255 238 241 255 238 241 255 238 241 255 238 241 255 238 241 255 238 241 255 238 241 255 237 240 255 238 241 255 237 240 255 238 241 255 238 241 255 237 240 255 228 232 255 229 233 255 234 238 255 238 241 255 226 231 255 196 206 255 205 214 255 200 209 211 159 168 217 163 172 184 138 146 200 151 159 217 163 172 255 200 209 255 200 209 255 210 218 255 233 237 255 234 238 255 236 239 255 234 238 255 236 239 255 234 238 255 236 239 255 234 238 255 236 239 255 234 238 255 237 240 255 238 241 255 236 239 255 224 229 255 220 226 233 175 185 244 183 194 244 183 194 211 159 168 217 163 172 217 163 172 217 163 172 217 163 172 217 163 172 217 163 172 217 163 172 217 163 172 217 163 172 222 167 177 211 159 168 255 220 226 255 222 228 255 206 215 255 206 215 255 206 215 255 210 218 255 232 236 255 229 233 255 206 215 255 205 214 255 205 214 255 205 214 255 206 215 255 206 215 255 206 215 255 201 210 255 201 210 255 200 209 
255 202 211 255 202 211 255 202 211 255 202 211 255 202 211 255 205 214 255 208 216 255 208 216 255 205 214 255 205 214 255 202 211 255 202 211 255 202 211 255 202 211 255 202 211 255 205 214 255 202 211 255 202 211 255 193 204 217 163 172 200 151 159 206 155 164 206 155 164 211 159 168 211 159 168 211 159 168 211 159 168 206 155 164 255 213 220 255 233 237 255 232 236 255 226 231 255 232 236 255 232 236 255 224 229 255 201 210 222 167 177 217 163 172 217 163 172 217 163 172 217 163 172 217 163 172 217 163 172 217 163 172 217 163 172 217 163 172 217 163 172 217 163 172 217 163 172 217 163 172 217 163 172 217 163 172 217 163 172 211 159 168 217 163 172 217 163 172 255 232 236 255 237 240 255 238 241 255 238 241 255 238 241 255 237 240 255 237 240 255 237 240 255 237 240 255 237 240 255 237 240 255 237 240 255 237 240 255 237 240 255 237 240 255 237 240 255 237 240 255 238 241 255 238 241 255 238 241 255 237 240 255 237 240 255 237 240 255 237 240 255 237 240 255 237 240 255 237 240 255 238 241 255 238 241 255 238 241 255 238 241 255 238 241 255 238 241 255 238 241 255 238 241 255 238 241 255 240 242 255 240 242 255 240 242 255 240 242 255 240 242 255 240 242 255 240 242 255 240 242 255 240 242 255 240 242 255 240 242 255 240 242 255 240 242 255 240 242 255 240 242 255 240 242 255 240 242 255 240 242 255 240 242 255 240 242 255 240 242 255 240 242 255 240 242 255 240 242 255 240 242 255 240 242 255 240 242 255 240 242 255 240 242 255 240 242 255 240 242 255 240 242 255 240 242 255 240 242 255 240 242 255 240 242 255 240 242 255 240 242 255 240 242 255 240 242 255 240 242 255 240 242 255 240 242 255 240 242 255 240 242 255 240 242 255 240 242 255 240 242 255 240 242 255 240 242 255 238 241 255 238 241 255 238 241 255 238 241 255 238 241 255 238 241 255 238 241 255 238 241 255 237 240 255 238 241 255 238 241 255 238 241 255 238 241 255 238 241 255 237 240 255 237 240 255 236 239 255 237 240 255 228 232 255 200 209 255 201 210 206 155 164 255 206 215 255 214 221 211 159 168 200 151 159 211 159 168 244 183 194 255 206 215 255 233 237 255 233 237 255 233 237 255 236 239 255 234 238 255 236 239 255 236 239 255 236 239 255 236 239 255 234 238 255 229 233 217 163 172 200 151 159 222 167 177 249 187 198 222 167 177 255 196 206 255 212 219 227 171 181 233 175 185 227 171 181 217 163 172 217 163 172 217 163 172 217 163 172 217 163 172 217 163 172 217 163 172 217 163 172 227 171 181 255 200 209 255 228 232 255 210 218 255 206 215 255 205 214 255 206 215 255 233 237 255 233 237 255 230 235 255 209 217 255 205 214 255 205 214 255 206 215 255 208 216 255 206 215 255 205 214 255 201 210 255 201 210 255 200 209 
255 202 211 255 202 211 255 202 211 255 202 211 255 202 211 255 205 214 255 208 216 255 208 216 255 205 214 255 205 214 255 202 211 255 202 211 255 202 211 255 202 211 255 202 211 255 205 214 255 202 211 255 202 211 255 193 204 217 163 172 200 151 159 206 155 164 206 155 164 211 159 168 211 159 168 211 159 168 211 159 168 206 155 164 255 213 220 255 233 237 255 232 236 255 226 231 255 232 236 255 232 236 255 224 229 255 201 210 222 167 177 217 163 172 217 163 172 217 163 172 217 163 172 217 163 172 217 163 172 217 163 172 217 163 172 217 163 172 217 163 172 217 163 172 217 163 172 217 163 172 217 163 172 217 163 172 217 163 172 211 159 168 217 163 172 217 163 172 255 232 236 255 237 240 255 238 241 255 238 241 255 238 241 255 237 240 255 237 240 255 237 240 255 237 240 255 237 240 255 237 240 255 237 240 255 237 240 255 237 240 255 237 240 255 237 240 255 237 240 255 238 241 255 238 241 255 238 241 255 237 240 255 237 240 255 237 240 255 237 240 255 237 240 255 237 240 255 237 240 255 238 241 255 238 241 255 238 241 255 238 241 255 238 241 255 238 241 255 238 241 255 238 241 255 238 241 255 240 242 255 240 242 255 240 242 255 240 242 255 240 242 255 240 242 255 240 242 255 240 242 255 240 242 255 240 242 255 240 242 255 240 242 255 240 242 255 240 242 255 240 242 255 240 242 255 240 242 255 240 242 255 240 242 255 240 242 255 240 242 255 240 242 255 240 242 255 240 242 255 240 242 255 240 242 255 240 242 255 240 242 255 240 242 255 240 242 255 240 242 255 240 242 255 240 242 255 240 242 255 240 242 255 240 242 255 240 242 255 240 242 255 240 242 255 240 242 255 240 242 255 240 242 255 240 242 255 240 242 255 240 242 255 240 242 255 240 242 255 240 242 255 240 242 255 240 242 255 238 241 255 238 241 255 238 241 255 238 241 255 238 241 255 238 241 255 238 241 255 238 241 255 237 240 255 238 241 255 238 241 255 238 241 255 238 241 255 238 241 255 237 240 255 237 240 255 236 239 255 237 240 255 228 232 255 200 209 255 201 210 206 155 164 255 206 215 255 214 221 211 159 168 200 151 159 211 159 168 244 183 194 255 206 215 255 233 237 255 233 237 255 233 237 255 236 239 255 234 238 255 236 239 255 236 239 255 236 239 255 236 239 255 234 238 255 229 233 217 163 172 200 151 159 222 167 177 249 187 198 222 167 177 255 196 206 255 212 219 227 171 181 233 175 185 227 171 181 217 163 172 217 163 172 217 163 172 217 163 172 217 163 172 217 163 172 217 163 172 217 163 172 227 171 181 255 200 209 255 228 232 255 210 218 255 206 215 255 205 214 255 206 215 255 233 237 255 233 237 255 230 235 255 209 217 255 205 214 255 205 214 255 206 215 255 208 216 255 206 215 255 205 214 255 201 210 255 201 210 255 200 209 
255 202 211 255 202 211 255 202 211 255 202 211 255 202 211 255 205 214 255 208 216 255 208 216 255 205 214 255 205 214 255 202 211 255 202 211 255 201 210 255 201 210 255 202 211 255 202 211 255 206 215 244 183 194 255 201 210 255 213 220 211 159 168 206 155 164 206 155 164 206 155 164 206 155 164 206 155 164 211 159 168 211 159 168 211 159 168 255 200 209 255 236 239 255 234 238 255 234 238 255 216 222 222 167 177 217 163 172 217 163 172 255 196 206 233 175 185 217 163 172 217 163 172 217 163 172 217 163 172 217 163 172 217 163 172 217 163 172 217 163 172 217 163 172 217 163 172 217 163 172 217 163 172 217 163 172 217 163 172 217 163 172 211 159 168 255 196 206 255 236 239 255 238 241 255 237 240 255 238 241 255 237 240 255 237 240 255 237 240 255 237 240 255 237 240 255 237 240 255 237 240 255 237 240 255 237 240 255 237 240 255 237 240 255 237 240 255 237 240 255 238 241 255 238 241 255 238 241 255 237 240 255 237 240 255 237 240 255 237 240 255 237 240 255 237 240 255 237 240 255 237 240 255 237 240 255 237 240 255 238 241 255 238 241 255 238 241 255 238 241 255 238 241 255 238 241 255 240 242 255 240 242 255 240 242 255 240 242 255 240 242 255 240 242 255 240 242 255 240 242 255 240 242 255 240 242 255 240 242 255 240 242 255 240 242 255 240 242 255 240 242 255 240 242 255 240 242 255 240 242 255 240 242 255 240 242 255 240 242 255 242 245 255 242 245 255 242 245 255 242 245 255 240 242 255 240 242 255 240 242 255 240 242 255 240 242 255 242 245 255 242 245 255 242 245 255 242 245 255 242 245 255 242 245 255 242 245 255 240 242 255 240 242 255 240 242 255 240 242 255 240 242 255 240 242 255 240 242 255 240 242 255 240 242 255 240 242 255 240 242 255 240 242 255 240 242 255 240 242 255 240 242 255 240 242 255 238 241 255 238 241 255 238 241 255 238 241 255 238 241 255 237 240 255 234 238 255 238 241 255 238 241 255 240 242 255 237 240 255 238 241 255 237 240 255 237 240 255 240 242 255 226 231 255 213 220 249 187 198 211 159 168 195 147 155 244 183 194 255 225 230 200 151 159 255 201 210 255 224 229 255 229 233 255 234 238 255 233 237 255 228 232 255 236 239 255 234 238 255 236 239 255 236 239 255 234 238 255 234 238 255 234 238 255 236 239 255 236 239 255 236 239 255 234 238 255 236 239 255 236 239 255 236 239 255 217 224 227 171 181 255 198 208 222 167 177 222 167 177 217 163 172 217 163 172 217 163 172 222 167 177 222 167 177 222 167 177 222 167 177 222 167 177 255 202 211 255 210 218 255 208 216 255 216 222 255 209 217 255 216 222 255 236 239 255 233 237 255 224 229 255 214 221 255 205 214 255 206 215 255 205 214 255 208 216 255 208 216 255 205 214 255 201 210 255 201 210 255 198 208 
255 202 211 255 202 211 255 202 211 255 202 211 255 202 211 255 205 214 255 208 216 255 208 216 255 205 214 255 205 214 255 202 211 255 202 211 255 201 210 255 201 210 255 202 211 255 202 211 255 206 215 244 183 194 255 201 210 255 213 220 211 159 168 206 155 164 206 155 164 206 155 164 206 155 164 206 155 164 211 159 168 211 159 168 211 159 168 255 200 209 255 236 239 255 234 238 255 234 238 255 216 222 222 167 177 217 163 172 217 163 172 255 196 206 233 175 185 217 163 172 217 163 172 217 163 172 217 163 172 217 163 172 217 163 172 217 163 172 217 163 172 217 163 172 217 163 172 217 163 172 217 163 172 217 163 172 217 163 172 217 163 172 211 159 168 255 196 206 255 236 239 255 238 241 255 237 240 255 238 241 255 237 240 255 237 240 255 237 240 255 237 240 255 237 240 255 237 240 255 237 240 255 237 240 255 237 240 255 237 240 255 237 240 255 237 240 255 237 240 255 238 241 255 238 241 255 238 241 255 237 240 255 237 240 255 237 240 255 237 240 255 237 240 255 237 240 255 237 240 255 237 240 255 237 240 255 237 240 255 238 241 255 238 241 255 238 241 255 238 241 255 238 241 255 238 241 255 240 242 255 240 242 255 240 242 255 240 242 255 240 242 255 240 242 255 240 242 255 240 242 255 240 242 255 240 242 255 240 242 255 240 242 255 240 242 255 240 242 255 240 242 255 240 242 255 240 242 255 240 242 255 240 242 255 240 242 255 240 242 255 242 245 255 242 245 255 242 245 255 242 245 255 240 242 255 240 242 255 240 242 255 240 242 255 240 242 255 242 245 255 242 245 255 242 245 255 242 245 255 242 245 255 242 245 255 242 245 255 240 242 255 240 242 255 240 242 255 240 242 255 240 242 255 240 242 255 240 242 255 240 242 255 240 242 255 240 242 255 240 242 255 240 242 255 240 242 255 240 242 255 240 242 255 240 242 255 238 241 255 238 241 255 238 241 255 238 241 255 238 241 255 237 240 255 234 238 255 238 241 255 238 241 255 240 242 255 237 240 255 238 241 255 237 240 255 237 240 255 240 242 255 226 231 255 213 220 249 187 198 211 159 168 195 147 155 244 183 194 255 225 230 200 151 159 255 201 210 255 224 229 255 229 233 255 234 238 255 233 237 255 228 232 255 236 239 255 234 238 255 236 239 255 236 239 255 234 238 255 234 238 255 234 238 255 236 239 255 236 239 255 236 239 255 234 238 255 236 239 255 236 239 255 236 239 255 217 224 227 171 181 255 198 208 222 167 177 222 167 177 217 163 172 217 163 172 217 163 172 222 167 177 222 167 177 222 167 177 222 167 177 222 167 177 255 202 211 255 210 218 255 208 216 255 216 222 255 209 217 255 216 222 255 236 239 255 233 237 255 224 229 255 214 221 255 205 214 255 206 215 255 205 214 255 208 216 255 208 216 255 205 214 255 201 210 255 201 210 255 198 208 
255 202 211 255 202 211 255 202 211 255 202 211 255 202 211 255 205 214 255 208 216 255 208 216 255 205 214 255 205 214 255 201 210 255 201 210 255 201 210 255 201 210 255 202 211 255 202 211 255 217 224 255 233 237 255 230 235 222 167 177 200 151 159 255 205 214 255 201 210 211 159 168 211 159 168 211 159 168 211 159 168 211 159 168 211 159 168 217 163 172 217 163 172 255 200 209 255 228 232 255 237 240 255 240 242 255 222 228 244 183 194 255 196 206 217 163 172 211 159 168 222 167 177 233 175 185 211 159 168 211 159 168 222 167 177 227 171 181 217 163 172 217 163 172 217 163 172 217 163 172 217 163 172 217 163 172 211 159 168 211 159 168 255 210 218 255 232 236 255 237 240 255 237 240 255 238 241 255 237 240 255 237 240 255 237 240 255 237 240 255 237 240 255 237 240 255 237 240 255 237 240 255 237 240 255 237 240 255 237 240 255 237 240 255 238 241 255 237 240 255 237 240 255 237 240 255 237 240 255 237 240 255 237 240 255 237 240 255 237 240 255 237 240 255 237 240 255 237 240 255 237 240 255 237 240 255 237 240 255 238 241 255 238 241 255 238 241 255 238 241 255 238 241 255 238 241 255 238 241 255 238 241 255 238 241 255 238 241 255 238 241 255 238 241 255 240 242 255 240 242 255 240 242 255 240 242 255 240 242 255 240 242 255 240 242 255 240 242 255 240 242 255 240 242 255 240 242 255 240 242 255 240 242 255 240 242 255 240 242 255 240 242 255 240 242 255 240 242 255 240 242 255 240 242 255 240 242 255 240 242 255 240 242 255 240 242 255 242 245 255 242 245 255 242 245 255 242 245 255 242 245 255 242 245 255 242 245 255 240 242 255 240 242 255 240 242 255 240 242 255 240 242 255 240 242 255 240 242 255 240 242 255 240 242 255 240 242 255 240 242 255 240 242 255 240 242 255 240 242 255 240 242 255 240 242 255 238 241 255 240 242 255 240 242 255 237 240 255 228 232 255 228 232 255 225 230 255 200 209 255 196 206 255 208 216 255 236 239 255 236 239 255 236 239 255 236 239 255 234 238 255 208 216 255 208 216 222 167 177 195 147 155 255 214 221 255 201 210 255 213 220 255 202 211 249 187 198 255 229 233 255 230 235 255 229 233 255 232 236 255 212 219 255 234 238 255 234 238 255 236 239 255 236 239 255 236 239 255 234 238 255 236 239 255 236 239 255 234 238 255 233 237 255 232 236 255 221 227 255 234 238 255 234 238 255 237 240 255 233 237 255 222 228 255 200 209 227 171 181 217 163 172 217 163 172 222 167 177 217 163 172 217 163 172 222 167 177 222 167 177 211 159 168 255 221 227 255 229 233 255 228 232 255 232 236 255 233 237 255 233 237 255 232 236 255 226 231 255 222 228 255 222 228 255 202 211 255 205 214 255 206 215 255 208 216 255 208 216 255 205 214 255 201 210 255 201 210 255 198 208 
255 202 211 255 202 211 255 202 211 255 202 211 255 202 211 255 205 214 255 208 216 255 208 216 255 205 214 255 205 214 255 201 210 255 201 210 255 201 210 255 201 210 255 202 211 255 202 211 255 217 224 255 233 237 255 230 235 222 167 177 200 151 159 255 205 214 255 201 210 211 159 168 211 159 168 211 159 168 211 159 168 211 159 168 211 159 168 217 163 172 217 163 172 255 200 209 255 228 232 255 237 240 255 240 242 255 222 228 244 183 194 255 196 206 217 163 172 211 159 168 222 167 177 233 175 185 211 159 168 211 159 168 222 167 177 227 171 181 217 163 172 217 163 172 217 163 172 217 163 172 217 163 172 217 163 172 211 159 168 211 159 168 255 210 218 255 232 236 255 237 240 255 237 240 255 238 241 255 237 240 255 237 240 255 237 240 255 237 240 255 237 240 255 237 240 255 237 240 255 237 240 255 237 240 255 237 240 255 237 240 255 237 240 255 238 241 255 237 240 255 237 240 255 237 240 255 237 240 255 237 240 255 237 240 255 237 240 255 237 240 255 237 240 255 237 240 255 237 240 255 237 240 255 237 240 255 237 240 255 238 241 255 238 241 255 238 241 255 238 241 255 238 241 255 238 241 255 238 241 255 238 241 255 238 241 255 238 241 255 238 241 255 238 241 255 240 242 255 240 242 255 240 242 255 240 242 255 240 242 255 240 242 255 240 242 255 240 242 255 240 242 255 240 242 255 240 242 255 240 242 255 240 242 255 240 242 255 240 242 255 240 242 255 240 242 255 240 242 255 240 242 255 240 242 255 240 242 255 240 242 255 240 242 255 240 242 255 242 245 255 242 245 255 242 245 255 242 245 255 242 245 255 242 245 255 242 245 255 240 242 255 240 242 255 240 242 255 240 242 255 240 242 255 240 242 255 240 242 255 240 242 255 240 242 255 240 242 255 240 242 255 240 242 255 240 242 255 240 242 255 240 242 255 240 242 255 238 241 255 240 242 255 240 242 255 237 240 255 228 232 255 228 232 255 225 230 255 200 209 255 196 206 255 208 216 255 236 239 255 236 239 255 236 239 255 236 239 255 234 238 255 208 216 255 208 216 222 167 177 195 147 155 255 214 221 255 201 210 255 213 220 255 202 211 249 187 198 255 229 233 255 230 235 255 229 233 255 232 236 255 212 219 255 234 238 255 234 238 255 236 239 255 236 239 255 236 239 255 234 238 255 236 239 255 236 239 255 234 238 255 233 237 255 232 236 255 221 227 255 234 238 255 234 238 255 237 240 255 233 237 255 222 228 255 200 209 227 171 181 217 163 172 217 163 172 222 167 177 217 163 172 217 163 172 222 167 177 222 167 177 211 159 168 255 221 227 255 229 233 255 228 232 255 232 236 255 233 237 255 233 237 255 232 236 255 226 231 255 222 228 255 222 228 255 202 211 255 205 214 255 206 215 255 208 216 255 208 216 255 205 214 255 201 210 255 201 210 255 198 208 
255 202 211 255 202 211 255 202 211 255 202 211 255 202 211 255 205 214 255 208 216 255 208 216 255 206 215 255 205 214 255 201 210 255 201 210 255 201 210 255 201 210 255 201 210 255 228 232 255 232 236 255 210 218 255 208 216 255 233 237 255 233 237 255 228 232 255 202 211 217 163 172 211 159 168 211 159 168 211 159 168 217 163 172 211 159 168 217 163 172 217 163 172 217 163 172 217 163 172 255 216 222 255 233 237 255 234 238 255 232 236 255 237 240 255 237 240 255 233 237 255 221 227 255 202 211 233 175 185 211 159 168 206 155 164 222 167 177 217 163 172 217 163 172 217 163 172 217 163 172 217 163 172 211 159 168 233 175 185 255 228 232 255 237 240 255 237 240 255 237 240 255 237 240 255 237 240 255 237 240 255 237 240 255 237 240 255 237 240 255 237 240 255 237 240 255 237 240 255 237 240 255 237 240 255 237 240 255 237 240 255 237 240 255 238 241 255 238 241 255 237 240 255 237 240 255 237 240 255 237 240 255 237 240 255 237 240 255 237 240 255 237 240 255 237 240 255 237 240 255 237 240 255 237 240 255 237 240 255 238 241 255 238 241 255 238 241 255 238 241 255 238 241 255 238 241 255 238 241 255 238 241 255 238 241 255 238 241 255 238 241 255 238 241 255 240 242 255 240 242 255 240 242 255 240 242 255 240 242 255 240 242 255 240 242 255 240 242 255 240 242 255 240 242 255 240 242 255 240 242 255 240 242 255 240 242 255 240 242 255 240 242 255 240 242 255 242 245 255 242 245 255 242 245 255 240 242 255 240 242 255 240 242 255 242 245 255 242 245 255 242 245 255 242 245 255 242 245 255 242 245 255 240 242 255 240 242 255 240 242 255 240 242 255 240 242 255 240 242 255 240 242 255 240 242 255 240 242 255 240 242 255 240 242 255 240 242 255 240 242 255 240 242 255 240 242 255 240 242 255 240 242 255 240 242 255 240 242 255 240 242 255 240 242 255 237 240 255 236 239 255 217 224 255 213 220 255 236 239 255 238 241 255 234 238 255 238 241 255 226 231 255 230 235 255 202 211 211 159 168 206 155 164 217 163 172 222 167 177 255 225 230 255 226 231 255 233 237 255 230 235 255 216 222 255 214 221 255 236 239 255 233 237 255 238 241 255 236 239 255 236 239 255 236 239 255 237 240 255 208 216 255 209 217 255 224 229 255 205 214 255 237 240 255 233 237 255 234 238 255 232 236 255 226 231 255 193 204 255 228 232 255 236 239 255 234 238 255 234 238 255 234 238 255 234 238 255 224 229 255 193 204 222 167 177 222 167 177 222 167 177 222 167 177 222 167 177 222 167 177 244 183 194 255 233 237 255 230 235 255 233 237 255 226 231 255 224 229 255 222 228 255 220 226 255 210 218 255 224 229 255 216 222 255 205 214 255 205 214 255 206 215 255 208 216 255 208 216 255 205 214 255 201 210 255 201 210 255 198 208 
255 202 211 255 202 211 255 202 211 255 202 211 255 202 211 255 205 214 255 208 216 255 208 216 255 206 215 255 205 214 255 201 210 255 201 210 255 201 210 255 201 210 255 201 210 255 228 232 255 232 236 255 210 218 255 208 216 255 233 237 255 233 237 255 228 232 255 202 211 217 163 172 211 159 168 211 159 168 211 159 168 217 163 172 211 159 168 217 163 172 217 163 172 217 163 172 217 163 172 255 216 222 255 233 237 255 234 238 255 232 236 255 237 240 255 237 240 255 233 237 255 221 227 255 202 211 233 175 185 211 159 168 206 155 164 222 167 177 217 163 172 217 163 172 217 163 172 217 163 172 217 163 172 211 159 168 233 175 185 255 228 232 255 237 240 255 237 240 255 237 240 255 237 240 255 237 240 255 237 240 255 237 240 255 237 240 255 237 240 255 237 240 255 237 240 255 237 240 255 237 240 255 237 240 255 237 240 255 237 240 255 237 240 255 238 241 255 238 241 255 237 240 255 237 240 255 237 240 255 237 240 255 237 240 255 237 240 255 237 240 255 237 240 255 237 240 255 237 240 255 237 240 255 237 240 255 237 240 255 238 241 255 238 241 255 238 241 255 238 241 255 238 241 255 238 241 255 238 241 255 238 241 255 238 241 255 238 241 255 238 241 255 238 241 255 240 242 255 240 242 255 240 242 255 240 242 255 240 242 255 240 242 255 240 242 255 240 242 255 240 242 255 240 242 255 240 242 255 240 242 255 240 242 255 240 242 255 240 242 255 240 242 255 240 242 255 242 245 255 242 245 255 242 245 255 240 242 255 240 242 255 240 242 255 242 245 255 242 245 255 242 245 255 242 245 255 242 245 255 242 245 255 240 242 255 240 242 255 240 242 255 240 242 255 240 242 255 240 242 255 240 242 255 240 242 255 240 242 255 240 242 255 240 242 255 240 242 255 240 242 255 240 242 255 240 242 255 240 242 255 240 242 255 240 242 255 240 242 255 240 242 255 240 242 255 237 240 255 236 239 255 217 224 255 213 220 255 236 239 255 238 241 255 234 238 255 238 241 255 226 231 255 230 235 255 202 211 211 159 168 206 155 164 217 163 172 222 167 177 255 225 230 255 226 231 255 233 237 255 230 235 255 216 222 255 214 221 255 236 239 255 233 237 255 238 241 255 236 239 255 236 239 255 236 239 255 237 240 255 208 216 255 209 217 255 224 229 255 205 214 255 237 240 255 233 237 255 234 238 255 232 236 255 226 231 255 193 204 255 228 232 255 236 239 255 234 238 255 234 238 255 234 238 255 234 238 255 224 229 255 193 204 222 167 177 222 167 177 222 167 177 222 167 177 222 167 177 222 167 177 244 183 194 255 233 237 255 230 235 255 233 237 255 226 231 255 224 229 255 222 228 255 220 226 255 210 218 255 224 229 255 216 222 255 205 214 255 205 214 255 206 215 255 208 216 255 208 216 255 205 214 255 201 210 255 201 210 255 198 208 
255 202 211 255 202 211 255 202 211 255 202 211 255 202 211 255 205 214 255 206 215 255 208 216 255 206 215 255 205 214 255 201 210 255 201 210 255 202 211 255 201 210 255 221 227 255 233 237 255 232 236 255 228 232 255 233 237 255 233 237 255 221 227 217 163 172 211 159 168 211 159 168 217 163 172 211 159 168 211 159 168 217 163 172 217 163 172 217 163 172 217 163 172 217 163 172 222 167 177 255 193 204 244 183 194 255 198 208 255 221 227 255 213 220 255 209 217 255 230 235 255 221 227 255 224 229 255 222 228 255 201 210 233 175 185 217 163 172 222 167 177 217 163 172 217 163 172 233 175 185 255 225 230 255 236 239 255 238 241 255 238 241 255 237 240 255 237 240 255 237 240 255 237 240 255 237 240 255 237 240 255 237 240 255 237 240 255 237 240 255 237 240 255 237 240 255 237 240 255 237 240 255 237 240 255 237 240 255 237 240 255 237 240 255 237 240 255 238 241 255 237 240 255 237 240 255 237 240 255 237 240 255 237 240 255 237 240 255 237 240 255 237 240 255 237 240 255 237 240 255 238 241 255 238 241 255 238 241 255 238 241 255 238 241 255 238 241 255 238 241 255 240 242 255 238 241 255 238 241 255 238 241 255 238 241 255 238 241 255 238 241 255 238 241 255 240 242 255 240 242 255 240 242 255 240 242 255 240 242 255 240 242 255 240 242 255 240 242 255 240 242 255 240 242 255 240 242 255 240 242 255 240 242 255 240 242 255 240 242 255 240 242 255 240 242 255 242 245 255 242 245 255 242 245 255 242 245 255 242 245 255 242 245 255 242 245 255 242 245 255 242 245 255 242 245 255 242 245 255 242 245 255 242 245 255 242 245 255 240 242 255 240 242 255 240 242 255 240 242 255 240 242 255 242 245 255 242 245 255 240 242 255 240 242 255 240 242 255 240 242 255 240 242 255 240 242 255 240 242 255 240 242 255 240 242 255 240 242 255 240 242 255 240 242 255 238 241 255 237 240 255 226 231 255 224 229 255 210 218 255 233 237 255 217 224 255 213 220 255 214 221 255 208 216 255 193 204 217 163 172 222 167 177 200 151 159 206 155 164 217 163 172 255 221 227 255 229 233 255 236 239 255 236 239 255 193 204 255 200 209 255 230 235 255 237 240 255 236 239 255 236 239 255 236 239 255 236 239 255 220 226 255 222 228 255 201 210 255 213 220 255 210 218 255 224 229 249 187 198 255 214 221 255 217 224 255 208 216 255 228 232 255 222 228 255 202 211 244 183 194 255 193 204 233 175 185 255 209 217 255 228 232 255 225 230 255 209 217 227 171 181 222 167 177 222 167 177 222 167 177 244 183 194 255 196 206 255 206 215 255 212 219 255 202 211 255 200 209 255 205 214 255 205 214 255 228 232 255 229 233 255 206 215 255 205 214 255 205 214 255 206 215 255 208 216 255 208 216 255 205 214 255 201 210 255 201 210 255 198 208 
255 202 211 255 202 211 255 202 211 255 202 211 255 202 211 255 205 214 255 206 215 255 208 216 255 206 215 255 205 214 255 201 210 255 201 210 255 202 211 255 201 210 255 221 227 255 233 237 255 232 236 255 228 232 255 233 237 255 233 237 255 221 227 217 163 172 211 159 168 211 159 168 217 163 172 211 159 168 211 159 168 217 163 172 217 163 172 217 163 172 217 163 172 217 163 172 222 167 177 255 193 204 244 183 194 255 198 208 255 221 227 255 213 220 255 209 217 255 230 235 255 221 227 255 224 229 255 222 228 255 201 210 233 175 185 217 163 172 222 167 177 217 163 172 217 163 172 233 175 185 255 225 230 255 236 239 255 238 241 255 238 241 255 237 240 255 237 240 255 237 240 255 237 240 255 237 240 255 237 240 255 237 240 255 237 240 255 237 240 255 237 240 255 237 240 255 237 240 255 237 240 255 237 240 255 237 240 255 237 240 255 237 240 255 237 240 255 238 241 255 237 240 255 237 240 255 237 240 255 237 240 255 237 240 255 237 240 255 237 240 255 237 240 255 237 240 255 237 240 255 238 241 255 238 241 255 238 241 255 238 241 255 238 241 255 238 241 255 238 241 255 240 242 255 238 241 255 238 241 255 238 241 255 238 241 255 238 241 255 238 241 255 238 241 255 240 242 255 240 242 255 240 242 255 240 242 255 240 242 255 240 242 255 240 242 255 240 242 255 240 242 255 240 242 255 240 242 255 240 242 255 240 242 255 240 242 255 240 242 255 240 242 255 240 242 255 242 245 255 242 245 255 242 245 255 242 245 255 242 245 255 242 245 255 242 245 255 242 245 255 242 245 255 242 245 255 242 245 255 242 245 255 242 245 255 242 245 255 240 242 255 240 242 255 240 242 255 240 242 255 240 242 255 242 245 255 242 245 255 240 242 255 240 242 255 240 242 255 240 242 255 240 242 255 240 242 255 240 242 255 240 242 255 240 242 255 240 242 255 240 242 255 240 242 255 238 241 255 237 240 255 226 231 255 224 229 255 210 218 255 233 237 255 217 224 255 213 220 255 214 221 255 208 216 255 193 204 217 163 172 222 167 177 200 151 159 206 155 164 217 163 172 255 221 227 255 229 233 255 236 239 255 236 239 255 193 204 255 200 209 255 230 235 255 237 240 255 236 239 255 236 239 255 236 239 255 236 239 255 220 226 255 222 228 255 201 210 255 213 220 255 210 218 255 224 229 249 187 198 255 214 221 255 217 224 255 208 216 255 228 232 255 222 228 255 202 211 244 183 194 255 193 204 233 175 185 255 209 217 255 228 232 255 225 230 255 209 217 227 171 181 222 167 177 222 167 177 222 167 177 244 183 194 255 196 206 255 206 215 255 212 219 255 202 211 255 200 209 255 205 214 255 205 214 255 228 232 255 229 233 255 206 215 255 205 214 255 205 214 255 206 215 255 208 216 255 208 216 255 205 214 255 201 210 255 201 210 255 198 208 
255 202 211 255 202 211 255 202 211 255 202 211 255 202 211 255 202 211 255 206 215 255 208 216 255 206 215 255 205 214 255 202 211 255 202 211 255 202 211 255 213 220 255 234 238 255 224 229 255 230 235 255 233 237 255 232 236 255 205 214 255 198 208 217 163 172 255 217 224 255 193 204 211 159 168 211 159 168 211 159 168 217 163 172 217 163 172 217 163 172 217 163 172 217 163 172 217 163 172 222 167 177 222 167 177 222 167 177 222 167 177 227 171 181 227 171 181 222 167 177 222 167 177 222 167 177 222 167 177 222 167 177 222 167 177 211 159 168 255 198 208 255 224 229 255 236 239 255 237 240 255 238 241 255 237 240 255 237 240 255 237 240 255 237 240 255 237 240 255 237 240 255 237 240 255 237 240 255 237 240 255 237 240 255 238 241 255 238 241 255 237 240 255 237 240 255 237 240 255 237 240 255 237 240 255 237 240 255 237 240 255 237 240 255 237 240 255 237 240 255 237 240 255 237 240 255 237 240 255 237 240 255 237 240 255 237 240 255 237 240 255 237 240 255 237 240 255 237 240 255 237 240 255 237 240 255 237 240 255 238 241 255 238 241 255 238 241 255 238 241 255 238 241 255 240 242 255 240 242 255 240 242 255 240 242 255 240 242 255 240 242 255 240 242 255 240 242 255 240 242 255 240 242 255 240 242 255 240 242 255 240 242 255 240 242 255 240 242 255 240 242 255 240 242 255 240 242 255 240 242 255 240 242 255 240 242 255 240 242 255 242 245 255 242 245 255 242 245 255 242 245 255 242 245 255 242 245 255 242 245 255 242 245 255 242 245 255 242 245 255 242 245 255 242 245 255 242 245 255 242 245 255 242 245 255 242 245 255 242 245 255 242 245 255 242 245 255 240 242 255 242 245 255 242 245 255 242 245 255 242 245 255 242 245 255 242 245 255 240 242 255 240 242 255 240 242 255 240 242 255 240 242 255 240 242 255 240 242 255 240 242 255 236 239 255 237 240 255 236 239 255 221 227 255 225 230 255 237 240 255 221 227 255 221 227 255 209 217 195 147 155 227 171 181 222 167 177 217 163 172 217 163 172 211 159 168 255 206 215 255 240 242 255 229 233 255 200 209 255 216 222 255 229 233 255 225 230 255 220 226 255 209 217 255 236 239 255 236 239 255 236 239 255 236 239 255 230 235 211 159 168 211 159 168 211 159 168 200 151 159 255 221 227 255 240 242 255 237 240 255 236 239 255 224 229 255 212 219 255 233 237 255 232 236 255 234 238 255 210 218 255 193 204 255 208 216 249 187 198 244 183 194 249 187 198 255 214 221 255 226 231 255 198 208 249 187 198 222 167 177 233 175 185 227 171 181 244 183 194 227 171 181 222 167 177 255 200 209 255 206 215 255 232 236 255 230 235 255 206 215 255 205 214 255 205 214 255 205 214 255 206 215 255 208 216 255 208 216 255 202 211 255 201 210 255 201 210 255 200 209 
255 202 211 255 202 211 255 202 211 255 202 211 255 202 211 255 202 211 255 206 215 255 208 216 255 206 215 255 205 214 255 202 211 255 202 211 255 202 211 255 213 220 255 234 238 255 224 229 255 230 235 255 233 237 255 232 236 255 205 214 255 198 208 217 163 172 255 217 224 255 193 204 211 159 168 211 159 168 211 159 168 217 163 172 217 163 172 217 163 172 217 163 172 217 163 172 217 163 172 222 167 177 222 167 177 222 167 177 222 167 177 227 171 181 227 171 181 222 167 177 222 167 177 222 167 177 222 167 177 222 167 177 222 167 177 211 159 168 255 198 208 255 224 229 255 236 239 255 237 240 255 238 241 255 237 240 255 237 240 255 237 240 255 237 240 255 237 240 255 237 240 255 237 240 255 237 240 255 237 240 255 237 240 255 238 241 255 238 241 255 237 240 255 237 240 255 237 240 255 237 240 255 237 240 255 237 240 255 237 240 255 237 240 255 237 240 255 237 240 255 237 240 255 237 240 255 237 240 255 237 240 255 237 240 255 237 240 255 237 240 255 237 240 255 237 240 255 237 240 255 237 240 255 237 240 255 237 240 255 238 241 255 238 241 255 238 241 255 238 241 255 238 241 255 240 242 255 240 242 255 240 242 255 240 242 255 240 242 255 240 242 255 240 242 255 240 242 255 240 242 255 240 242 255 240 242 255 240 242 255 240 242 255 240 242 255 240 242 255 240 242 255 240 242 255 240 242 255 240 242 255 240 242 255 240 242 255 240 242 255 242 245 255 242 245 255 242 245 255 242 245 255 242 245 255 242 245 255 242 245 255 242 245 255 242 245 255 242 245 255 242 245 255 242 245 255 242 245 255 242 245 255 242 245 255 242 245 255 242 245 255 242 245 255 242 245 255 240 242 255 242 245 255 242 245 255 242 245 255 242 245 255 242 245 255 242 245 255 240 242 255 240 242 255 240 242 255 240 242 255 240 242 255 240 242 255 240 242 255 240 242 255 236 239 255 237 240 255 236 239 255 221 227 255 225 230 255 237 240 255 221 227 255 221 227 255 209 217 195 147 155 227 171 181 222 167 177 217 163 172 217 163 172 211 159 168 255 206 215 255 240 242 255 229 233 255 200 209 255 216 222 255 229 233 255 225 230 255 220 226 255 209 217 255 236 239 255 236 239 255 236 239 255 236 239 255 230 235 211 159 168 211 159 168 211 159 168 200 151 159 255 221 227 255 240 242 255 237 240 255 236 239 255 224 229 255 212 219 255 233 237 255 232 236 255 234 238 255 210 218 255 193 204 255 208 216 249 187 198 244 183 194 249 187 198 255 214 221 255 226 231 255 198 208 249 187 198 222 167 177 233 175 185 227 171 181 244 183 194 227 171 181 222 167 177 255 200 209 255 206 215 255 232 236 255 230 235 255 206 215 255 205 214 255 205 214 255 205 214 255 206 215 255 208 216 255 208 216 255 202 211 255 201 210 255 201 210 255 200 209 
255 202 211 255 202 211 255 202 211 255 202 211 255 202 211 255 205 214 255 206 215 255 209 217 255 206 215 255 205 214 255 202 211 255 202 211 255 202 211 255 230 235 255 226 231 255 226 231 255 232 236 255 222 228 249 187 198 222 167 177 255 224 229 255 225 230 255 208 216 255 200 209 255 198 208 211 159 168 255 205 214 255 196 206 227 171 181 217 163 172 217 163 172 217 163 172 222 167 177 222 167 177 222 167 177 222 167 177 222 167 177 227 171 181 222 167 177 222 167 177 222 167 177 222 167 177 222 167 177 227 171 181 255 220 226 255 237 240 255 237 240 255 237 240 255 238 241 255 237 240 255 238 241 255 237 240 255 237 240 255 237 240 255 237 240 255 237 240 255 237 240 255 237 240 255 237 240 255 237 240 255 237 240 255 237 240 255 237 240 255 237 240 255 237 240 255 237 240 255 237 240 255 237 240 255 237 240 255 237 240 255 237 240 255 237 240 255 237 240 255 237 240 255 237 240 255 237 240 255 237 240 255 237 240 255 237 240 255 237 240 255 237 240 255 237 240 255 237 240 255 237 240 255 237 240 255 237 240 255 238 241 255 238 241 255 238 241 255 238 241 255 238 241 255 238 241 255 238 241 255 238 241 255 238 241 255 238 241 255 238 241 255 238 241 255 238 241 255 238 241 255 240 242 255 240 242 255 240 242 255 240 242 255 240 242 255 240 242 255 240 242 255 240 242 255 240 242 255 242 245 255 240 242 255 240 242 255 240 242 255 240 242 255 242 245 255 242 245 255 242 245 255 242 245 255 242 245 255 244 246 255 240 242 255 242 245 255 242 245 255 244 246 255 242 245 255 242 245 255 242 245 255 242 245 255 242 245 255 242 245 255 240 242 255 240 242 255 242 245 255 242 245 255 242 245 255 242 245 255 242 245 255 242 245 255 242 245 255 242 245 255 240 242 255 240 242 255 240 242 255 240 242 255 238 241 255 240 242 255 238 241 255 240 242 255 237 240 255 232 236 255 234 238 255 225 230 255 208 216 255 200 209 255 206 215 255 201 210 255 201 210 255 214 221 255 228 232 249 187 198 255 193 204 255 217 224 255 232 236 249 187 198 255 205 214 255 220 226 255 217 224 255 217 224 255 198 208 255 237 240 255 236 239 255 236 239 255 236 239 255 236 239 255 236 239 255 234 238 255 236 239 255 233 237 255 225 230 200 151 159 206 155 164 255 209 217 255 233 237 255 198 208 233 175 185 233 175 185 255 205 214 255 198 208 222 167 177 255 196 206 255 210 218 255 196 206 249 187 198 255 196 206 255 193 204 211 159 168 227 171 181 255 202 211 255 198 208 222 167 177 222 167 177 222 167 177 222 167 177 222 167 177 244 183 194 255 201 210 255 217 224 255 225 230 255 209 217 255 205 214 255 205 214 255 205 214 255 205 214 255 206 215 255 208 216 255 208 216 255 202 211 255 201 210 255 201 210 255 198 208 
255 202 211 255 202 211 255 202 211 255 202 211 255 202 211 255 205 214 255 206 215 255 209 217 255 206 215 255 205 214 255 202 211 255 202 211 255 202 211 255 230 235 255 226 231 255 226 231 255 232 236 255 222 228 249 187 198 222 167 177 255 224 229 255 225 230 255 208 216 255 200 209 255 198 208 211 159 168 255 205 214 255 196 206 227 171 181 217 163 172 217 163 172 217 163 172 222 167 177 222 167 177 222 167 177 222 167 177 222 167 177 227 171 181 222 167 177 222 167 177 222 167 177 222 167 177 222 167 177 227 171 181 255 220 226 255 237 240 255 237 240 255 237 240 255 238 241 255 237 240 255 238 241 255 237 240 255 237 240 255 237 240 255 237 240 255 237 240 255 237 240 255 237 240 255 237 240 255 237 240 255 237 240 255 237 240 255 237 240 255 237 240 255 237 240 255 237 240 255 237 240 255 237 240 255 237 240 255 237 240 255 237 240 255 237 240 255 237 240 255 237 240 255 237 240 255 237 240 255 237 240 255 237 240 255 237 240 255 237 240 255 237 240 255 237 240 255 237 240 255 237 240 255 237 240 255 237 240 255 238 241 255 238 241 255 238 241 255 238 241 255 238 241 255 238 241 255 238 241 255 238 241 255 238 241 255 238 241 255 238 241 255 238 241 255 238 241 255 238 241 255 240 242 255 240 242 255 240 242 255 240 242 255 240 242 255 240 242 255 240 242 255 240 242 255 240 242 255 242 245 255 240 242 255 240 242 255 240 242 255 240 242 255 242 245 255 242 245 255 242 245 255 242 245 255 242 245 255 244 246 255 240 242 255 242 245 255 242 245 255 244 246 255 242 245 255 242 245 255 242 245 255 242 245 255 242 245 255 242 245 255 240 242 255 240 242 255 242 245 255 242 245 255 242 245 255 242 245 255 242 245 255 242 245 255 242 245 255 242 245 255 240 242 255 240 242 255 240 242 255 240 242 255 238 241 255 240 242 255 238 241 255 240 242 255 237 240 255 232 236 255 234 238 255 225 230 255 208 216 255 200 209 255 206 215 255 201 210 255 201 210 255 214 221 255 228 232 249 187 198 255 193 204 255 217 224 255 232 236 249 187 198 255 205 214 255 220 226 255 217 224 255 217 224 255 198 208 255 237 240 255 236 239 255 236 239 255 236 239 255 236 239 255 236 239 255 234 238 255 236 239 255 233 237 255 225 230 200 151 159 206 155 164 255 209 217 255 233 237 255 198 208 233 175 185 233 175 185 255 205 214 255 198 208 222 167 177 255 196 206 255 210 218 255 196 206 249 187 198 255 196 206 255 193 204 211 159 168 227 171 181 255 202 211 255 198 208 222 167 177 222 167 177 222 167 177 222 167 177 222 167 177 244 183 194 255 201 210 255 217 224 255 225 230 255 209 217 255 205 214 255 205 214 255 205 214 255 205 214 255 206 215 255 208 216 255 208 216 255 202 211 255 201 210 255 201 210 255 198 208 
255 202 211 255 202 211 255 202 211 255 202 211 255 202 211 255 205 214 255 206 215 255 209 217 255 206 215 255 202 211 255 202 211 255 202 211 255 213 220 255 233 237 255 230 235 255 232 236 255 206 215 206 155 164 255 214 221 255 233 237 255 232 236 255 233 237 255 233 237 255 232 236 255 213 220 233 175 185 206 155 164 227 171 181 217 163 172 217 163 172 222 167 177 222 167 177 222 167 177 222 167 177 222 167 177 222 167 177 227 171 181 227 171 181 222 167 177 222 167 177 222 167 177 249 187 198 255 216 222 255 236 239 255 237 240 255 238 241 255 237 240 255 237 240 255 238 241 255 237 240 255 238 241 255 237 240 255 237 240 255 237 240 255 237 240 255 237 240 255 237 240 255 237 240 255 237 240 255 237 240 255 237 240 255 237 240 255 237 240 255 237 240 255 237 240 255 237 240 255 237 240 255 237 240 255 237 240 255 237 240 255 237 240 255 237 240 255 237 240 255 237 240 255 237 240 255 237 240 255 237 240 255 237 240 255 237 240 255 237 240 255 237 240 255 237 240 255 237 240 255 237 240 255 237 240 255 237 240 255 238 241 255 238 241 255 238 241 255 238 241 255 238 241 255 238 241 255 238 241 255 238 241 255 238 241 255 238 241 255 238 241 255 240 242 255 238 241 255 238 241 255 238 241 255 240 242 255 240 242 255 240 242 255 240 242 255 240 242 255 240 242 255 240 242 255 240 242 255 242 245 255 242 245 255 242 245 255 242 245 255 242 245 255 244 246 255 238 241 255 244 246 255 242 245 255 242 245 255 234 238 255 221 227 255 210 218 255 209 217 255 214 221 255 212 219 255 212 219 255 228 232 255 237 240 255 244 246 255 242 245 255 242 245 255 242 245 255 242 245 255 242 245 255 242 245 255 242 245 255 242 245 255 242 245 255 242 245 255 242 245 255 242 245 255 242 245 255 240 242 255 240 242 255 240 242 255 238 241 255 238 241 255 230 235 255 234 238 255 234 238 255 230 235 255 220 226 255 208 216 255 225 230 255 205 214 255 217 224 255 220 226 255 202 211 255 200 209 255 193 204 200 151 159 211 159 168 255 208 216 255 236 239 255 220 226 211 159 168 255 224 229 255 230 235 255 214 221 255 216 222 255 225 230 255 234 238 255 236 239 255 236 239 255 236 239 255 234 238 255 234 238 255 234 238 255 233 237 255 236 239 255 232 236 255 205 214 255 212 219 255 213 220 206 155 164 255 206 215 255 196 206 217 163 172 222 167 177 222 167 177 222 167 177 222 167 177 222 167 177 249 187 198 227 171 181 249 187 198 255 196 206 233 175 185 255 198 208 255 196 206 222 167 177 222 167 177 222 167 177 222 167 177 233 175 185 255 210 218 255 234 238 255 202 211 255 206 215 255 205 214 255 205 214 255 205 214 255 205 214 255 206 215 255 208 216 255 208 216 255 202 211 255 201 210 255 201 210 255 198 208 
255 202 211 255 202 211 255 202 211 255 202 211 255 202 211 255 205 214 255 206 215 255 209 217 255 206 215 255 202 211 255 202 211 255 202 211 255 213 220 255 233 237 255 230 235 255 232 236 255 206 215 206 155 164 255 214 221 255 233 237 255 232 236 255 233 237 255 233 237 255 232 236 255 213 220 233 175 185 206 155 164 227 171 181 217 163 172 217 163 172 222 167 177 222 167 177 222 167 177 222 167 177 222 167 177 222 167 177 227 171 181 227 171 181 222 167 177 222 167 177 222 167 177 249 187 198 255 216 222 255 236 239 255 237 240 255 238 241 255 237 240 255 237 240 255 238 241 255 237 240 255 238 241 255 237 240 255 237 240 255 237 240 255 237 240 255 237 240 255 237 240 255 237 240 255 237 240 255 237 240 255 237 240 255 237 240 255 237 240 255 237 240 255 237 240 255 237 240 255 237 240 255 237 240 255 237 240 255 237 240 255 237 240 255 237 240 255 237 240 255 237 240 255 237 240 255 237 240 255 237 240 255 237 240 255 237 240 255 237 240 255 237 240 255 237 240 255 237 240 255 237 240 255 237 240 255 237 240 255 238 241 255 238 241 255 238 241 255 238 241 255 238 241 255 238 241 255 238 241 255 238 241 255 238 241 255 238 241 255 238 241 255 240 242 255 238 241 255 238 241 255 238 241 255 240 242 255 240 242 255 240 242 255 240 242 255 240 242 255 240 242 255 240 242 255 240 242 255 242 245 255 242 245 255 242 245 255 242 245 255 242 245 255 244 246 255 238 241 255 244 246 255 242 245 255 242 245 255 234 238 255 221 227 255 210 218 255 209 217 255 214 221 255 212 219 255 212 219 255 228 232 255 237 240 255 244 246 255 242 245 255 242 245 255 242 245 255 242 245 255 242 245 255 242 245 255 242 245 255 242 245 255 242 245 255 242 245 255 242 245 255 242 245 255 242 245 255 240 242 255 240 242 255 240 242 255 238 241 255 238 241 255 230 235 255 234 238 255 234 238 255 230 235 255 220 226 255 208 216 255 225 230 255 205 214 255 217 224 255 220 226 255 202 211 255 200 209 255 193 204 200 151 159 211 159 168 255 208 216 255 236 239 255 220 226 211 159 168 255 224 229 255 230 235 255 214 221 255 216 222 255 225 230 255 234 238 255 236 239 255 236 239 255 236 239 255 234 238 255 234 238 255 234 238 255 233 237 255 236 239 255 232 236 255 205 214 255 212 219 255 213 220 206 155 164 255 206 215 255 196 206 217 163 172 222 167 177 222 167 177 222 167 177 222 167 177 222 167 177 249 187 198 227 171 181 249 187 198 255 196 206 233 175 185 255 198 208 255 196 206 222 167 177 222 167 177 222 167 177 222 167 177 233 175 185 255 210 218 255 234 238 255 202 211 255 206 215 255 205 214 255 205 214 255 205 214 255 205 214 255 206 215 255 208 216 255 208 216 255 202 211 255 201 210 255 201 210 255 198 208 
255 202 211 255 202 211 255 202 211 255 202 211 255 202 211 255 202 211 255 206 215 255 209 217 255 206 215 255 202 211 255 205 214 255 205 214 255 230 235 255 230 235 255 232 236 244 183 194 211 159 168 255 229 233 255 232 236 255 232 236 255 233 237 255 216 222 255 196 206 255 222 228 255 228 232 255 233 237 255 237 240 255 232 236 255 214 221 217 163 172 217 163 172 222 167 177 222 167 177 222 167 177 222 167 177 222 167 177 222 167 177 222 167 177 222 167 177 217 163 172 255 208 216 255 222 228 255 234 238 255 238 241 255 237 240 255 238 241 255 238 241 255 238 241 255 238 241 255 238 241 255 238 241 255 238 241 255 237 240 255 237 240 255 237 240 255 237 240 255 237 240 255 237 240 255 237 240 255 237 240 255 237 240 255 237 240 255 237 240 255 237 240 255 237 240 255 237 240 255 237 240 255 237 240 255 237 240 255 237 240 255 237 240 255 237 240 255 237 240 255 237 240 255 238 241 255 238 241 255 238 241 255 238 241 255 238 241 255 237 240 255 237 240 255 237 240 255 237 240 255 237 240 255 237 240 255 237 240 255 238 241 255 238 241 255 238 241 255 238 241 255 238 241 255 238 241 255 238 241 255 238 241 255 238 241 255 238 241 255 238 241 255 238 241 255 238 241 255 238 241 255 238 241 255 240 242 255 240 242 255 240 242 255 240 242 255 240 242 255 242 245 255 242 245 255 242 245 255 238 241 255 232 236 255 217 224 255 198 208 255 202 211 249 187 198 255 196 206 255 198 208 255 198 208 255 196 206 249 187 198 244 183 194 249 187 198 244 183 194 244 183 194 249 187 198 249 187 198 249 187 198 249 187 198 249 187 198 255 193 204 255 201 210 255 229 233 255 244 246 255 244 246 255 242 245 255 242 245 255 242 245 255 242 245 255 242 245 255 242 245 255 242 245 255 242 245 255 240 242 255 240 242 255 240 242 255 237 240 255 233 237 255 238 241 255 233 237 255 234 238 255 228 232 255 233 237 255 222 228 255 217 224 255 208 216 233 175 185 244 183 194 255 222 228 255 205 214 255 201 210 217 163 172 211 159 168 206 155 164 222 167 177 255 228 232 255 238 241 255 213 220 255 202 211 255 237 240 255 234 238 255 236 239 255 236 239 255 236 239 255 236 239 255 236 239 255 230 235 255 236 239 255 236 239 255 234 238 255 234 238 255 236 239 255 236 239 255 236 239 255 236 239 255 234 238 255 212 219 255 193 204 255 193 204 217 163 172 217 163 172 217 163 172 227 171 181 255 201 210 222 167 177 222 167 177 222 167 177 222 167 177 222 167 177 255 198 208 255 198 208 222 167 177 222 167 177 222 167 177 222 167 177 255 216 222 255 232 236 255 233 237 255 205 214 255 205 214 255 205 214 255 205 214 255 205 214 255 205 214 255 206 215 255 208 216 255 206 215 255 202 211 255 201 210 255 201 210 255 198 208 
255 202 211 255 202 211 255 202 211 255 202 211 255 202 211 255 202 211 255 206 215 255 209 217 255 206 215 255 202 211 255 205 214 255 205 214 255 230 235 255 230 235 255 232 236 244 183 194 211 159 168 255 229 233 255 232 236 255 232 236 255 233 237 255 216 222 255 196 206 255 222 228 255 228 232 255 233 237 255 237 240 255 232 236 255 214 221 217 163 172 217 163 172 222 167 177 222 167 177 222 167 177 222 167 177 222 167 177 222 167 177 222 167 177 222 167 177 217 163 172 255 208 216 255 222 228 255 234 238 255 238 241 255 237 240 255 238 241 255 238 241 255 238 241 255 238 241 255 238 241 255 238 241 255 238 241 255 237 240 255 237 240 255 237 240 255 237 240 255 237 240 255 237 240 255 237 240 255 237 240 255 237 240 255 237 240 255 237 240 255 237 240 255 237 240 255 237 240 255 237 240 255 237 240 255 237 240 255 237 240 255 237 240 255 237 240 255 237 240 255 237 240 255 238 241 255 238 241 255 238 241 255 238 241 255 238 241 255 237 240 255 237 240 255 237 240 255 237 240 255 237 240 255 237 240 255 237 240 255 238 241 255 238 241 255 238 241 255 238 241 255 238 241 255 238 241 255 238 241 255 238 241 255 238 241 255 238 241 255 238 241 255 238 241 255 238 241 255 238 241 255 238 241 255 240 242 255 240 242 255 240 242 255 240 242 255 240 242 255 242 245 255 242 245 255 242 245 255 238 241 255 232 236 255 217 224 255 198 208 255 202 211 249 187 198 255 196 206 255 198 208 255 198 208 255 196 206 249 187 198 244 183 194 249 187 198 244 183 194 244 183 194 249 187 198 249 187 198 249 187 198 249 187 198 249 187 198 255 193 204 255 201 210 255 229 233 255 244 246 255 244 246 255 242 245 255 242 245 255 242 245 255 242 245 255 242 245 255 242 245 255 242 245 255 242 245 255 240 242 255 240 242 255 240 242 255 237 240 255 233 237 255 238 241 255 233 237 255 234 238 255 228 232 255 233 237 255 222 228 255 217 224 255 208 216 233 175 185 244 183 194 255 222 228 255 205 214 255 201 210 217 163 172 211 159 168 206 155 164 222 167 177 255 228 232 255 238 241 255 213 220 255 202 211 255 237 240 255 234 238 255 236 239 255 236 239 255 236 239 255 236 239 255 236 239 255 230 235 255 236 239 255 236 239 255 234 238 255 234 238 255 236 239 255 236 239 255 236 239 255 236 239 255 234 238 255 212 219 255 193 204 255 193 204 217 163 172 217 163 172 217 163 172 227 171 181 255 201 210 222 167 177 222 167 177 222 167 177 222 167 177 222 167 177 255 198 208 255 198 208 222 167 177 222 167 177 222 167 177 222 167 177 255 216 222 255 232 236 255 233 237 255 205 214 255 205 214 255 205 214 255 205 214 255 205 214 255 205 214 255 206 215 255 208 216 255 206 215 255 202 211 255 201 210 255 201 210 255 198 208 
255 202 211 255 202 211 255 202 211 255 202 211 255 202 211 255 202 211 255 206 215 255 208 216 255 206 215 255 205 214 255 206 215 255 209 217 255 234 238 255 233 237 255 200 209 255 198 208 255 224 229 255 232 236 255 232 236 255 232 236 255 217 224 255 233 237 255 233 237 255 232 236 255 233 237 255 228 232 255 209 217 255 198 208 222 167 177 211 159 168 211 159 168 217 163 172 217 163 172 217 163 172 217 163 172 217 163 172 217 163 172 217 163 172 217 163 172 233 175 185 255 210 218 255 228 232 255 234 238 255 236 239 255 237 240 255 237 240 255 238 241 255 234 238 255 205 214 233 175 185 206 155 164 217 163 172 244 183 194 255 196 206 255 205 214 255 196 206 255 216 222 255 228 232 255 230 235 255 234 238 255 238 241 255 238 241 255 237 240 255 236 239 255 236 239 255 237 240 255 237 240 255 237 240 255 237 240 255 237 240 255 237 240 255 237 240 255 237 240 255 237 240 255 237 240 255 237 240 255 238 241 255 238 241 255 238 241 255 238 241 255 238 241 255 238 241 255 238 241 255 238 241 255 238 241 255 238 241 255 238 241 255 238 241 255 237 240 255 238 241 255 238 241 255 238 241 255 240 242 255 238 241 255 238 241 255 238 241 255 240 242 255 240 242 255 240 242 255 240 242 255 238 241 255 240 242 255 237 240 255 225 230 255 206 215 255 200 209 233 175 185 222 167 177 227 171 181 222 167 177 233 175 185 233 175 185 255 193 204 255 198 208 255 193 204 255 193 204 255 193 204 255 193 204 249 187 198 255 193 204 255 193 204 255 193 204 249 187 198 255 198 208 255 198 208 255 198 208 255 193 204 255 193 204 255 193 204 255 193 204 255 193 204 255 193 204 255 196 206 255 221 227 255 238 241 255 242 245 255 242 245 255 242 245 255 242 245 255 242 245 255 242 245 255 238 241 255 240 242 255 240 242 255 237 240 255 233 237 255 232 236 255 232 236 255 232 236 255 225 230 255 226 231 255 201 210 255 202 211 255 216 222 227 171 181 255 205 214 227 171 181 255 221 227 249 187 198 255 198 208 255 200 209 255 200 209 255 226 231 255 226 231 255 233 237 255 237 240 255 237 240 255 230 235 255 224 229 255 234 238 255 236 239 255 236 239 255 221 227 255 228 232 255 220 226 255 232 236 255 220 226 249 187 198 255 205 214 255 205 214 255 222 228 255 234 238 255 233 237 255 236 239 255 234 238 255 233 237 255 229 233 255 210 218 222 167 177 217 163 172 233 175 185 255 202 211 255 214 221 255 205 214 217 163 172 222 167 177 222 167 177 222 167 177 233 175 185 227 171 181 227 171 181 217 163 172 222 167 177 255 200 209 255 213 220 255 234 238 255 234 238 255 226 231 255 206 215 255 205 214 255 205 214 255 205 214 255 205 214 255 206 215 255 208 216 255 208 216 255 202 211 255 201 210 255 201 210 255 198 208 
255 202 211 255 202 211 255 202 211 255 202 211 255 202 211 255 202 211 255 206 215 255 208 216 255 206 215 255 205 214 255 206 215 255 209 217 255 234 238 255 233 237 255 200 209 255 198 208 255 224 229 255 232 236 255 232 236 255 232 236 255 217 224 255 233 237 255 233 237 255 232 236 255 233 237 255 228 232 255 209 217 255 198 208 222 167 177 211 159 168 211 159 168 217 163 172 217 163 172 217 163 172 217 163 172 217 163 172 217 163 172 217 163 172 217 163 172 233 175 185 255 210 218 255 228 232 255 234 238 255 236 239 255 237 240 255 237 240 255 238 241 255 234 238 255 205 214 233 175 185 206 155 164 217 163 172 244 183 194 255 196 206 255 205 214 255 196 206 255 216 222 255 228 232 255 230 235 255 234 238 255 238 241 255 238 241 255 237 240 255 236 239 255 236 239 255 237 240 255 237 240 255 237 240 255 237 240 255 237 240 255 237 240 255 237 240 255 237 240 255 237 240 255 237 240 255 237 240 255 238 241 255 238 241 255 238 241 255 238 241 255 238 241 255 238 241 255 238 241 255 238 241 255 238 241 255 238 241 255 238 241 255 238 241 255 237 240 255 238 241 255 238 241 255 238 241 255 240 242 255 238 241 255 238 241 255 238 241 255 240 242 255 240 242 255 240 242 255 240 242 255 238 241 255 240 242 255 237 240 255 225 230 255 206 215 255 200 209 233 175 185 222 167 177 227 171 181 222 167 177 233 175 185 233 175 185 255 193 204 255 198 208 255 193 204 255 193 204 255 193 204 255 193 204 249 187 198 255 193 204 255 193 204 255 193 204 249 187 198 255 198 208 255 198 208 255 198 208 255 193 204 255 193 204 255 193 204 255 193 204 255 193 204 255 193 204 255 196 206 255 221 227 255 238 241 255 242 245 255 242 245 255 242 245 255 242 245 255 242 245 255 242 245 255 238 241 255 240 242 255 240 242 255 237 240 255 233 237 255 232 236 255 232 236 255 232 236 255 225 230 255 226 231 255 201 210 255 202 211 255 216 222 227 171 181 255 205 214 227 171 181 255 221 227 249 187 198 255 198 208 255 200 209 255 200 209 255 226 231 255 226 231 255 233 237 255 237 240 255 237 240 255 230 235 255 224 229 255 234 238 255 236 239 255 236 239 255 221 227 255 228 232 255 220 226 255 232 236 255 220 226 249 187 198 255 205 214 255 205 214 255 222 228 255 234 238 255 233 237 255 236 239 255 234 238 255 233 237 255 229 233 255 210 218 222 167 177 217 163 172 233 175 185 255 202 211 255 214 221 255 205 214 217 163 172 222 167 177 222 167 177 222 167 177 233 175 185 227 171 181 227 171 181 217 163 172 222 167 177 255 200 209 255 213 220 255 234 238 255 234 238 255 226 231 255 206 215 255 205 214 255 205 214 255 205 214 255 205 214 255 206 215 255 208 216 255 208 216 255 202 211 255 201 210 255 201 210 255 198 208 
255 202 211 255 202 211 255 202 211 255 202 211 255 202 211 255 202 211 255 206 215 255 209 217 255 206 215 255 205 214 255 205 214 255 213 220 255 226 231 255 220 226 195 147 155 255 225 230 255 232 236 255 232 236 255 232 236 255 232 236 255 233 237 255 233 237 255 232 236 255 228 232 227 171 181 249 187 198 249 187 198 206 155 164 206 155 164 206 155 164 206 155 164 211 159 168 211 159 168 211 159 168 211 159 168 211 159 168 211 159 168 211 159 168 211 159 168 227 171 181 255 198 208 255 208 216 255 224 229 255 236 239 255 237 240 255 234 238 255 193 204 211 159 168 211 159 168 211 159 168 206 155 164 211 159 168 211 159 168 211 159 168 217 163 172 211 159 168 211 159 168 211 159 168 206 155 164 211 159 168 206 155 164 222 167 177 222 167 177 255 196 206 255 232 236 255 237 240 255 237 240 255 232 236 255 236 239 255 237 240 255 237 240 255 237 240 255 237 240 255 237 240 255 237 240 255 237 240 255 237 240 255 237 240 255 237 240 255 237 240 255 237 240 255 238 241 255 238 241 255 238 241 255 238 241 255 238 241 255 238 241 255 238 241 255 238 241 255 238 241 255 238 241 255 238 241 255 238 241 255 238 241 255 238 241 255 240 242 255 240 242 255 240 242 255 240 242 255 240 242 255 240 242 255 216 222 255 201 210 255 198 208 227 171 181 227 171 181 227 171 181 227 171 181 233 175 185 222 167 177 233 175 185 255 193 204 255 196 206 255 208 216 255 200 209 255 201 210 255 201 210 255 222 228 255 234 238 255 240 242 255 238 241 255 244 246 255 240 242 255 244 246 255 242 245 255 244 246 255 238 241 255 230 235 255 216 222 255 198 208 255 193 204 249 187 198 255 193 204 249 187 198 255 196 206 255 217 224 255 238 241 255 242 245 255 242 245 255 240 242 255 237 240 255 234 238 255 232 236 255 224 229 255 228 232 255 224 229 255 221 227 255 228 232 255 225 230 255 221 227 255 205 214 255 202 211 255 202 211 255 202 211 255 200 209 217 163 172 249 187 198 255 201 210 255 229 233 255 220 226 255 202 211 255 205 214 255 224 229 255 202 211 255 220 226 255 236 239 255 238 241 255 236 239 255 237 240 255 237 240 255 237 240 255 237 240 255 237 240 255 230 235 255 234 238 255 222 228 255 196 206 244 183 194 227 171 181 255 213 220 255 229 233 255 225 230 255 205 214 255 200 209 255 217 224 255 232 236 255 234 238 255 234 238 255 237 240 255 230 235 255 210 218 217 163 172 222 167 177 227 171 181 255 214 221 255 201 210 217 163 172 222 167 177 222 167 177 222 167 177 222 167 177 222 167 177 222 167 177 255 193 204 255 198 208 255 224 229 255 233 237 255 232 236 255 225 230 255 205 214 255 205 214 255 205 214 255 205 214 255 206 215 255 208 216 255 208 216 255 202 211 255 201 210 255 201 210 255 198 208 
255 202 211 255 202 211 255 202 211 255 202 211 255 202 211 255 202 211 255 206 215 255 209 217 255 206 215 255 205 214 255 205 214 255 213 220 255 226 231 255 220 226 195 147 155 255 225 230 255 232 236 255 232 236 255 232 236 255 232 236 255 233 237 255 233 237 255 232 236 255 228 232 227 171 181 249 187 198 249 187 198 206 155 164 206 155 164 206 155 164 206 155 164 211 159 168 211 159 168 211 159 168 211 159 168 211 159 168 211 159 168 211 159 168 211 159 168 227 171 181 255 198 208 255 208 216 255 224 229 255 236 239 255 237 240 255 234 238 255 193 204 211 159 168 211 159 168 211 159 168 206 155 164 211 159 168 211 159 168 211 159 168 217 163 172 211 159 168 211 159 168 211 159 168 206 155 164 211 159 168 206 155 164 222 167 177 222 167 177 255 196 206 255 232 236 255 237 240 255 237 240 255 232 236 255 236 239 255 237 240 255 237 240 255 237 240 255 237 240 255 237 240 255 237 240 255 237 240 255 237 240 255 237 240 255 237 240 255 237 240 255 237 240 255 238 241 255 238 241 255 238 241 255 238 241 255 238 241 255 238 241 255 238 241 255 238 241 255 238 241 255 238 241 255 238 241 255 238 241 255 238 241 255 238 241 255 240 242 255 240 242 255 240 242 255 240 242 255 240 242 255 240 242 255 216 222 255 201 210 255 198 208 227 171 181 227 171 181 227 171 181 227 171 181 233 175 185 222 167 177 233 175 185 255 193 204 255 196 206 255 208 216 255 200 209 255 201 210 255 201 210 255 222 228 255 234 238 255 240 242 255 238 241 255 244 246 255 240 242 255 244 246 255 242 245 255 244 246 255 238 241 255 230 235 255 216 222 255 198 208 255 193 204 249 187 198 255 193 204 249 187 198 255 196 206 255 217 224 255 238 241 255 242 245 255 242 245 255 240 242 255 237 240 255 234 238 255 232 236 255 224 229 255 228 232 255 224 229 255 221 227 255 228 232 255 225 230 255 221 227 255 205 214 255 202 211 255 202 211 255 202 211 255 200 209 217 163 172 249 187 198 255 201 210 255 229 233 255 220 226 255 202 211 255 205 214 255 224 229 255 202 211 255 220 226 255 236 239 255 238 241 255 236 239 255 237 240 255 237 240 255 237 240 255 237 240 255 237 240 255 230 235 255 234 238 255 222 228 255 196 206 244 183 194 227 171 181 255 213 220 255 229 233 255 225 230 255 205 214 255 200 209 255 217 224 255 232 236 255 234 238 255 234 238 255 237 240 255 230 235 255 210 218 217 163 172 222 167 177 227 171 181 255 214 221 255 201 210 217 163 172 222 167 177 222 167 177 222 167 177 222 167 177 222 167 177 222 167 177 255 193 204 255 198 208 255 224 229 255 233 237 255 232 236 255 225 230 255 205 214 255 205 214 255 205 214 255 205 214 255 206 215 255 208 216 255 208 216 255 202 211 255 201 210 255 201 210 255 198 208 
255 202 211 255 202 211 255 202 211 255 202 211 255 202 211 255 202 211 255 206 215 255 208 216 255 208 216 255 202 211 255 206 215 255 221 227 255 230 235 255 220 226 255 212 219 255 230 235 255 230 235 255 228 232 255 228 232 255 230 235 255 233 237 255 214 221 255 225 230 222 167 177 255 200 209 195 147 155 200 151 159 206 155 164 217 163 172 217 163 172 211 159 168 206 155 164 206 155 164 206 155 164 211 159 168 211 159 168 211 159 168 211 159 168 211 159 168 227 171 181 233 175 185 255 208 216 255 217 224 255 224 229 255 210 218 211 159 168 211 159 168 206 155 164 206 155 164 206 155 164 227 171 181 227 171 181 255 193 204 244 183 194 211 159 168 211 159 168 211 159 168 206 155 164 206 155 164 206 155 164 206 155 164 206 155 164 206 155 164 206 155 164 211 159 168 211 159 168 244 183 194 255 206 215 255 217 224 255 200 209 255 234 238 255 225 230 255 232 236 255 237 240 255 237 240 255 237 240 255 237 240 255 237 240 255 237 240 255 237 240 255 237 240 255 237 240 255 237 240 255 238 241 255 238 241 255 238 241 255 238 241 255 238 241 255 238 241 255 238 241 255 238 241 255 238 241 255 238 241 255 238 241 255 238 241 255 238 241 255 240 242 255 240 242 255 240 242 255 240 242 255 224 229 255 225 230 255 212 219 255 217 224 255 205 214 227 171 181 227 171 181 249 187 198 255 213 220 255 236 239 255 244 246 255 242 245 255 242 245 255 242 245 255 244 246 255 242 245 255 244 246 255 242 245 255 240 242 255 244 246 255 242 245 255 242 245 255 244 246 255 244 246 255 244 246 255 244 246 255 244 246 255 244 246 255 244 246 255 244 246 255 242 245 255 237 240 255 213 220 249 187 198 255 196 206 255 196 206 249 187 198 255 205 214 255 240 242 255 236 239 255 234 238 255 229 233 255 226 231 255 221 227 255 216 222 255 216 222 255 214 221 255 233 237 255 224 229 255 217 224 255 205 214 255 198 208 255 212 219 255 193 204 255 210 218 233 175 185 206 155 164 222 167 177 255 202 211 255 214 221 255 237 240 255 216 222 255 200 209 217 163 172 211 159 168 255 210 218 255 232 236 255 237 240 255 234 238 255 234 238 255 236 239 255 236 239 255 234 238 255 226 231 217 163 172 227 171 181 211 159 168 211 159 168 211 159 168 217 163 172 206 155 164 217 163 172 255 200 209 211 159 168 255 198 208 233 175 185 255 202 211 255 224 229 255 229 233 255 234 238 255 233 237 255 222 228 255 200 209 233 175 185 217 163 172 227 171 181 255 201 210 222 167 177 222 167 177 222 167 177 222 167 177 222 167 177 222 167 177 217 163 172 255 196 206 255 216 222 255 232 236 255 233 237 255 233 237 255 224 229 255 205 214 255 205 214 255 206 215 255 206 215 255 208 216 255 208 216 255 205 214 255 201 210 255 201 210 255 198 208 
255 202 211 255 202 211 255 202 211 255 202 211 255 202 211 255 202 211 255 206 215 255 208 216 255 208 216 255 202 211 255 206 215 255 221 227 255 230 235 255 220 226 255 212 219 255 230 235 255 230 235 255 228 232 255 228 232 255 230 235 255 233 237 255 214 221 255 225 230 222 167 177 255 200 209 195 147 155 200 151 159 206 155 164 217 163 172 217 163 172 211 159 168 206 155 164 206 155 164 206 155 164 211 159 168 211 159 168 211 159 168 211 159 168 211 159 168 227 171 181 233 175 185 255 208 216 255 217 224 255 224 229 255 210 218 211 159 168 211 159 168 206 155 164 206 155 164 206 155 164 227 171 181 227 171 181 255 193 204 244 183 194 211 159 168 211 159 168 211 159 168 206 155 164 206 155 164 206 155 164 206 155 164 206 155 164 206 155 164 206 155 164 211 159 168 211 159 168 244 183 194 255 206 215 255 217 224 255 200 209 255 234 238 255 225 230 255 232 236 255 237 240 255 237 240 255 237 240 255 237 240 255 237 240 255 237 240 255 237 240 255 237 240 255 237 240 255 237 240 255 238 241 255 238 241 255 238 241 255 238 241 255 238 241 255 238 241 255 238 241 255 238 241 255 238 241 255 238 241 255 238 241 255 238 241 255 238 241 255 240 242 255 240 242 255 240 242 255 240 242 255 224 229 255 225 230 255 212 219 255 217 224 255 205 214 227 171 181 227 171 181 249 187 198 255 213 220 255 236 239 255 244 246 255 242 245 255 242 245 255 242 245 255 244 246 255 242 245 255 244 246 255 242 245 255 240 242 255 244 246 255 242 245 255 242 245 255 244 246 255 244 246 255 244 246 255 244 246 255 244 246 255 244 246 255 244 246 255 244 246 255 242 245 255 237 240 255 213 220 249 187 198 255 196 206 255 196 206 249 187 198 255 205 214 255 240 242 255 236 239 255 234 238 255 229 233 255 226 231 255 221 227 255 216 222 255 216 222 255 214 221 255 233 237 255 224 229 255 217 224 255 205 214 255 198 208 255 212 219 255 193 204 255 210 218 233 175 185 206 155 164 222 167 177 255 202 211 255 214 221 255 237 240 255 216 222 255 200 209 217 163 172 211 159 168 255 210 218 255 232 236 255 237 240 255 234 238 255 234 238 255 236 239 255 236 239 255 234 238 255 226 231 217 163 172 227 171 181 211 159 168 211 159 168 211 159 168 217 163 172 206 155 164 217 163 172 255 200 209 211 159 168 255 198 208 233 175 185 255 202 211 255 224 229 255 229 233 255 234 238 255 233 237 255 222 228 255 200 209 233 175 185 217 163 172 227 171 181 255 201 210 222 167 177 222 167 177 222 167 177 222 167 177 222 167 177 222 167 177 217 163 172 255 196 206 255 216 222 255 232 236 255 233 237 255 233 237 255 224 229 255 205 214 255 205 214 255 206 215 255 206 215 255 208 216 255 208 216 255 205 214 255 201 210 255 201 210 255 198 208 
255 202 211 255 202 211 255 202 211 255 202 211 255 202 211 255 202 211 255 206 215 255 209 217 255 208 216 255 205 214 255 206 215 255 225 230 255 230 235 255 232 236 255 232 236 255 230 235 255 229 233 255 230 235 255 229 233 255 224 229 255 193 204 255 225 230 255 196 206 200 151 159 195 147 155 195 147 155 200 151 159 200 151 159 195 147 155 195 147 155 200 151 159 206 155 164 200 151 159 200 151 159 206 155 164 206 155 164 206 155 164 206 155 164 206 155 164 211 159 168 222 167 177 255 210 218 255 217 224 255 200 209 206 155 164 211 159 168 211 159 168 255 193 204 255 236 239 255 236 239 255 237 240 255 237 240 255 238 241 255 240 242 255 232 236 255 222 228 255 224 229 255 213 220 255 205 214 255 209 217 233 175 185 206 155 164 200 151 159 200 151 159 206 155 164 206 155 164 217 163 172 222 167 177 217 163 172 255 193 204 211 159 168 255 206 215 255 237 240 255 237 240 255 237 240 255 237 240 255 237 240 255 237 240 255 237 240 255 237 240 255 237 240 255 237 240 255 237 240 255 238 241 255 238 241 255 238 241 255 238 241 255 238 241 255 238 241 255 238 241 255 238 241 255 238 241 255 238 241 255 240 242 255 240 242 255 240 242 255 240 242 255 240 242 255 240 242 255 238 241 255 224 229 255 217 224 255 225 230 255 222 228 255 209 217 255 226 231 255 237 240 255 242 245 255 242 245 255 242 245 255 242 245 255 242 245 255 242 245 255 242 245 255 242 245 255 242 245 255 242 245 255 242 245 255 242 245 255 242 245 255 242 245 255 244 246 255 244 246 255 244 246 255 244 246 255 244 246 255 244 246 255 242 245 255 244 246 255 244 246 255 244 246 255 242 245 255 242 245 255 229 233 255 206 215 255 198 208 255 196 206 255 193 204 249 187 198 255 202 211 255 210 218 255 208 216 255 226 231 255 224 229 255 213 220 255 206 215 255 214 221 255 232 236 255 220 226 255 214 221 255 198 208 255 198 208 255 216 222 233 175 185 227 171 181 255 205 214 222 167 177 255 193 204 255 217 224 222 167 177 200 151 159 206 155 164 211 159 168 211 159 168 255 213 220 255 200 209 255 221 227 255 222 228 255 238 241 255 232 236 255 210 218 255 205 214 255 220 226 255 216 222 255 220 226 255 229 233 255 213 220 211 159 168 211 159 168 227 171 181 227 171 181 255 193 204 211 159 168 211 159 168 211 159 168 255 201 210 233 175 185 244 183 194 211 159 168 244 183 194 255 222 228 255 237 240 255 233 237 255 198 208 244 183 194 222 167 177 222 167 177 249 187 198 222 167 177 222 167 177 227 171 181 217 163 172 217 163 172 217 163 172 222 167 177 255 210 218 255 221 227 255 234 238 255 232 236 255 232 236 255 209 217 255 205 214 255 206 215 255 206 215 255 208 216 255 208 216 255 205 214 255 201 210 255 200 209 255 196 206 
255 202 211 255 202 211 255 202 211 255 202 211 255 202 211 255 202 211 255 206 215 255 209 217 255 208 216 255 205 214 255 206 215 255 225 230 255 230 235 255 232 236 255 232 236 255 230 235 255 229 233 255 230 235 255 229 233 255 224 229 255 193 204 255 225 230 255 196 206 200 151 159 195 147 155 195 147 155 200 151 159 200 151 159 195 147 155 195 147 155 200 151 159 206 155 164 200 151 159 200 151 159 206 155 164 206 155 164 206 155 164 206 155 164 206 155 164 211 159 168 222 167 177 255 210 218 255 217 224 255 200 209 206 155 164 211 159 168 211 159 168 255 193 204 255 236 239 255 236 239 255 237 240 255 237 240 255 238 241 255 240 242 255 232 236 255 222 228 255 224 229 255 213 220 255 205 214 255 209 217 233 175 185 206 155 164 200 151 159 200 151 159 206 155 164 206 155 164 217 163 172 222 167 177 217 163 172 255 193 204 211 159 168 255 206 215 255 237 240 255 237 240 255 237 240 255 237 240 255 237 240 255 237 240 255 237 240 255 237 240 255 237 240 255 237 240 255 237 240 255 238 241 255 238 241 255 238 241 255 238 241 255 238 241 255 238 241 255 238 241 255 238 241 255 238 241 255 238 241 255 240 242 255 240 242 255 240 242 255 240 242 255 240 242 255 240 242 255 238 241 255 224 229 255 217 224 255 225 230 255 222 228 255 209 217 255 226 231 255 237 240 255 242 245 255 242 245 255 242 245 255 242 245 255 242 245 255 242 245 255 242 245 255 242 245 255 242 245 255 242 245 255 242 245 255 242 245 255 242 245 255 242 245 255 244 246 255 244 246 255 244 246 255 244 246 255 244 246 255 244 246 255 242 245 255 244 246 255 244 246 255 244 246 255 242 245 255 242 245 255 229 233 255 206 215 255 198 208 255 196 206 255 193 204 249 187 198 255 202 211 255 210 218 255 208 216 255 226 231 255 224 229 255 213 220 255 206 215 255 214 221 255 232 236 255 220 226 255 214 221 255 198 208 255 198 208 255 216 222 233 175 185 227 171 181 255 205 214 222 167 177 255 193 204 255 217 224 222 167 177 200 151 159 206 155 164 211 159 168 211 159 168 255 213 220 255 200 209 255 221 227 255 222 228 255 238 241 255 232 236 255 210 218 255 205 214 255 220 226 255 216 222 255 220 226 255 229 233 255 213 220 211 159 168 211 159 168 227 171 181 227 171 181 255 193 204 211 159 168 211 159 168 211 159 168 255 201 210 233 175 185 244 183 194 211 159 168 244 183 194 255 222 228 255 237 240 255 233 237 255 198 208 244 183 194 222 167 177 222 167 177 249 187 198 222 167 177 222 167 177 227 171 181 217 163 172 217 163 172 217 163 172 222 167 177 255 210 218 255 221 227 255 234 238 255 232 236 255 232 236 255 209 217 255 205 214 255 206 215 255 206 215 255 208 216 255 208 216 255 205 214 255 201 210 255 200 209 255 196 206 
255 201 210 255 201 210 255 201 210 255 201 210 255 201 210 255 202 211 255 205 214 255 208 216 255 206 215 255 202 211 255 205 214 255 224 229 255 232 236 255 230 235 255 230 235 255 230 235 255 229 233 255 229 233 255 226 231 217 163 172 255 230 235 255 193 204 200 151 159 255 201 210 217 163 172 195 147 155 195 147 155 195 147 155 195 147 155 195 147 155 200 151 159 195 147 155 200 151 159 200 151 159 200 151 159 200 151 159 200 151 159 200 151 159 200 151 159 211 159 168 255 196 206 255 200 209 233 175 185 200 151 159 200 151 159 255 198 208 255 233 237 255 237 240 255 237 240 255 237 240 255 238 241 255 238 241 255 238 241 255 238 241 255 238 241 255 238 241 255 238 241 255 238 241 255 237 240 255 238 241 255 238 241 255 237 240 255 240 242 255 234 238 255 224 229 255 212 219 255 193 204 244 183 194 244 183 194 249 187 198 255 212 219 255 221 227 255 234 238 255 237 240 255 237 240 255 237 240 255 237 240 255 237 240 255 237 240 255 237 240 255 237 240 255 237 240 255 237 240 255 237 240 255 237 240 255 237 240 255 238 241 255 238 241 255 238 241 255 238 241 255 238 241 255 238 241 255 238 241 255 238 241 255 238 241 255 238 241 255 240 242 255 240 242 255 240 242 255 240 242 255 240 242 255 240 242 255 240 242 255 237 240 255 238 241 255 244 246 255 242 245 255 240 242 255 236 239 255 232 236 255 228 232 255 226 231 255 224 229 255 225 230 255 226 231 255 229 233 255 232 236 255 234 238 255 238 241 255 242 245 255 242 245 255 242 245 255 244 246 255 244 246 255 244 246 255 244 246 255 244 246 255 244 246 255 244 246 255 244 246 255 244 246 255 242 245 255 244 246 255 238 241 255 236 239 255 221 227 255 200 209 255 193 204 255 193 204 249 187 198 244 183 194 255 193 204 255 205 214 255 200 209 255 202 211 255 206 215 255 210 218 255 206 215 255 210 218 255 210 218 249 187 198 255 198 208 255 212 219 255 196 206 255 193 204 255 193 204 255 196 206 255 198 208 255 238 241 233 175 185 206 155 164 200 151 159 200 151 159 200 151 159 195 147 155 200 151 159 206 155 164 244 183 194 255 206 215 255 198 208 255 193 204 227 171 181 255 209 217 217 163 172 206 155 164 227 171 181 255 208 216 255 210 218 255 212 219 200 151 159 206 155 164 211 159 168 211 159 168 206 155 164 211 159 168 255 206 215 255 213 220 255 214 221 255 193 204 233 175 185 249 187 198 227 171 181 255 225 230 255 233 237 255 198 208 227 171 181 217 163 172 217 163 172 222 167 177 255 196 206 255 217 224 244 183 194 217 163 172 217 163 172 217 163 172 217 163 172 249 187 198 255 232 236 255 232 236 255 230 235 255 216 222 255 205 214 255 206 215 255 206 215 255 208 216 255 206 215 255 205 214 255 201 210 255 200 209 255 196 206 
255 201 210 255 201 210 255 201 210 255 201 210 255 201 210 255 202 211 255 205 214 255 208 216 255 206 215 255 202 211 255 205 214 255 224 229 255 232 236 255 230 235 255 230 235 255 230 235 255 229 233 255 229 233 255 226 231 217 163 172 255 230 235 255 193 204 200 151 159 255 201 210 217 163 172 195 147 155 195 147 155 195 147 155 195 147 155 195 147 155 200 151 159 195 147 155 200 151 159 200 151 159 200 151 159 200 151 159 200 151 159 200 151 159 200 151 159 211 159 168 255 196 206 255 200 209 233 175 185 200 151 159 200 151 159 255 198 208 255 233 237 255 237 240 255 237 240 255 237 240 255 238 241 255 238 241 255 238 241 255 238 241 255 238 241 255 238 241 255 238 241 255 238 241 255 237 240 255 238 241 255 238 241 255 237 240 255 240 242 255 234 238 255 224 229 255 212 219 255 193 204 244 183 194 244 183 194 249 187 198 255 212 219 255 221 227 255 234 238 255 237 240 255 237 240 255 237 240 255 237 240 255 237 240 255 237 240 255 237 240 255 237 240 255 237 240 255 237 240 255 237 240 255 237 240 255 237 240 255 238 241 255 238 241 255 238 241 255 238 241 255 238 241 255 238 241 255 238 241 255 238 241 255 238 241 255 238 241 255 240 242 255 240 242 255 240 242 255 240 242 255 240 242 255 240 242 255 240 242 255 237 240 255 238 241 255 244 246 255 242 245 255 240 242 255 236 239 255 232 236 255 228 232 255 226 231 255 224 229 255 225 230 255 226 231 255 229 233 255 232 236 255 234 238 255 238 241 255 242 245 255 242 245 255 242 245 255 244 246 255 244 246 255 244 246 255 244 246 255 244 246 255 244 246 255 244 246 255 244 246 255 244 246 255 242 245 255 244 246 255 238 241 255 236 239 255 221 227 255 200 209 255 193 204 255 193 204 249 187 198 244 183 194 255 193 204 255 205 214 255 200 209 255 202 211 255 206 215 255 210 218 255 206 215 255 210 218 255 210 218 249 187 198 255 198 208 255 212 219 255 196 206 255 193 204 255 193 204 255 196 206 255 198 208 255 238 241 233 175 185 206 155 164 200 151 159 200 151 159 200 151 159 195 147 155 200 151 159 206 155 164 244 183 194 255 206 215 255 198 208 255 193 204 227 171 181 255 209 217 217 163 172 206 155 164 227 171 181 255 208 216 255 210 218 255 212 219 200 151 159 206 155 164 211 159 168 211 159 168 206 155 164 211 159 168 255 206 215 255 213 220 255 214 221 255 193 204 233 175 185 249 187 198 227 171 181 255 225 230 255 233 237 255 198 208 227 171 181 217 163 172 217 163 172 222 167 177 255 196 206 255 217 224 244 183 194 217 163 172 217 163 172 217 163 172 217 163 172 249 187 198 255 232 236 255 232 236 255 230 235 255 216 222 255 205 214 255 206 215 255 206 215 255 208 216 255 206 215 255 205 214 255 201 210 255 200 209 255 196 206 
255 201 210 255 201 210 255 201 210 255 201 210 255 201 210 255 202 211 255 205 214 255 208 216 255 206 215 255 202 211 255 202 211 255 220 226 255 230 235 255 230 235 255 230 235 255 228 232 255 226 231 255 201 210 184 138 146 255 212 219 157 118 125 195 147 155 211 159 168 255 193 204 184 138 146 184 138 146 211 159 168 206 155 164 200 151 159 206 155 164 206 155 164 195 147 155 195 147 155 195 147 155 200 151 159 200 151 159 200 151 159 200 151 159 200 151 159 195 147 155 222 167 177 211 159 168 200 151 159 200 151 159 255 205 214 255 236 239 255 237 240 255 237 240 255 237 240 255 237 240 255 238 241 255 237 240 255 238 241 255 238 241 255 238 241 255 240 242 255 234 238 255 228 232 255 220 226 255 214 221 255 210 218 255 210 218 255 210 218 255 209 217 255 210 218 255 209 217 255 220 226 255 206 215 255 202 211 255 222 228 255 236 239 255 237 240 255 237 240 255 237 240 255 237 240 255 237 240 255 237 240 255 237 240 255 237 240 255 237 240 255 237 240 255 237 240 255 237 240 255 237 240 255 237 240 255 237 240 255 238 241 255 238 241 255 238 241 255 238 241 255 238 241 255 238 241 255 238 241 255 238 241 255 238 241 255 238 241 255 238 241 255 240 242 255 240 242 255 240 242 255 240 242 255 240 242 255 237 240 255 229 233 255 216 222 255 210 218 255 209 217 255 209 217 255 210 218 255 210 218 255 210 218 255 210 218 255 210 218 255 210 218 255 210 218 255 210 218 255 212 219 255 212 219 255 212 219 255 210 218 255 213 220 255 220 226 255 232 236 255 240 242 255 244 246 255 242 245 255 242 245 255 242 245 255 242 245 255 242 245 255 242 245 255 242 245 255 244 246 255 242 245 255 237 240 255 234 238 255 242 245 255 230 235 255 200 209 249 187 198 249 187 198 244 183 194 249 187 198 255 201 210 255 201 210 255 202 211 255 206 215 255 202 211 255 201 210 255 200 209 255 193 204 249 187 198 255 202 211 244 183 194 255 202 211 249 187 198 255 209 217 255 202 211 255 240 242 255 201 210 200 151 159 200 151 159 200 151 159 200 151 159 200 151 159 227 171 181 255 205 214 211 159 168 217 163 172 255 208 216 255 212 219 255 193 204 255 221 227 255 234 238 255 225 230 255 216 222 255 202 211 195 147 155 217 163 172 255 214 221 255 198 208 206 155 164 217 163 172 206 155 164 206 155 164 206 155 164 206 155 164 222 167 177 255 206 215 255 200 209 217 163 172 217 163 172 222 167 177 255 224 229 255 230 235 255 200 209 206 155 164 217 163 172 217 163 172 255 213 220 255 200 209 211 159 168 211 159 168 211 159 168 211 159 168 211 159 168 211 159 168 255 209 217 255 232 236 255 232 236 255 212 219 255 205 214 255 206 215 255 208 216 255 208 216 255 208 216 255 205 214 255 201 210 255 200 209 255 196 206 
255 201 210 255 201 210 255 201 210 255 201 210 255 201 210 255 202 211 255 205 214 255 208 216 255 206 215 255 202 211 255 202 211 255 220 226 255 230 235 255 230 235 255 230 235 255 228 232 255 226 231 255 201 210 184 138 146 255 212 219 157 118 125 195 147 155 211 159 168 255 193 204 184 138 146 184 138 146 211 159 168 206 155 164 200 151 159 206 155 164 206 155 164 195 147 155 195 147 155 195 147 155 200 151 159 200 151 159 200 151 159 200 151 159 200 151 159 195 147 155 222 167 177 211 159 168 200 151 159 200 151 159 255 205 214 255 236 239 255 237 240 255 237 240 255 237 240 255 237 240 255 238 241 255 237 240 255 238 241 255 238 241 255 238 241 255 240 242 255 234 238 255 228 232 255 220 226 255 214 221 255 210 218 255 210 218 255 210 218 255 209 217 255 210 218 255 209 217 255 220 226 255 206 215 255 202 211 255 222 228 255 236 239 255 237 240 255 237 240 255 237 240 255 237 240 255 237 240 255 237 240 255 237 240 255 237 240 255 237 240 255 237 240 255 237 240 255 237 240 255 237 240 255 237 240 255 237 240 255 238 241 255 238 241 255 238 241 255 238 241 255 238 241 255 238 241 255 238 241 255 238 241 255 238 241 255 238 241 255 238 241 255 240 242 255 240 242 255 240 242 255 240 242 255 240 242 255 237 240 255 229 233 255 216 222 255 210 218 255 209 217 255 209 217 255 210 218 255 210 218 255 210 218 255 210 218 255 210 218 255 210 218 255 210 218 255 210 218 255 212 219 255 212 219 255 212 219 255 210 218 255 213 220 255 220 226 255 232 236 255 240 242 255 244 246 255 242 245 255 242 245 255 242 245 255 242 245 255 242 245 255 242 245 255 242 245 255 244 246 255 242 245 255 237 240 255 234 238 255 242 245 255 230 235 255 200 209 249 187 198 249 187 198 244 183 194 249 187 198 255 201 210 255 201 210 255 202 211 255 206 215 255 202 211 255 201 210 255 200 209 255 193 204 249 187 198 255 202 211 244 183 194 255 202 211 249 187 198 255 209 217 255 202 211 255 240 242 255 201 210 200 151 159 200 151 159 200 151 159 200 151 159 200 151 159 227 171 181 255 205 214 211 159 168 217 163 172 255 208 216 255 212 219 255 193 204 255 221 227 255 234 238 255 225 230 255 216 222 255 202 211 195 147 155 217 163 172 255 214 221 255 198 208 206 155 164 217 163 172 206 155 164 206 155 164 206 155 164 206 155 164 222 167 177 255 206 215 255 200 209 217 163 172 217 163 172 222 167 177 255 224 229 255 230 235 255 200 209 206 155 164 217 163 172 217 163 172 255 213 220 255 200 209 211 159 168 211 159 168 211 159 168 211 159 168 211 159 168 211 159 168 255 209 217 255 232 236 255 232 236 255 212 219 255 205 214 255 206 215 255 208 216 255 208 216 255 208 216 255 205 214 255 201 210 255 200 209 255 196 206 
255 201 210 255 201 210 255 201 210 255 201 210 255 201 210 255 202 211 255 205 214 255 208 216 255 206 215 255 202 211 255 205 214 255 209 217 255 230 235 255 233 237 255 216 222 255 229 233 255 226 231 200 151 159 233 175 185 255 198 208 184 138 146 184 138 146 195 147 155 200 151 159 222 167 177 211 159 168 179 134 142 184 138 146 195 147 155 195 147 155 184 138 146 195 147 155 195 147 155 195 147 155 195 147 155 195 147 155 195 147 155 195 147 155 195 147 155 200 151 159 200 151 159 200 151 159 195 147 155 211 159 168 255 229 233 255 234 238 255 237 240 255 237 240 255 237 240 255 237 240 255 237 240 255 237 240 255 237 240 255 225 230 255 212 219 255 208 216 255 208 216 255 208 216 255 206 215 255 208 216 255 208 216 255 208 216 255 206 215 255 198 208 244 183 194 217 163 172 227 171 181 211 159 168 222 167 177 233 175 185 249 187 198 255 201 210 255 216 222 255 233 237 255 237 240 255 237 240 255 237 240 255 237 240 255 237 240 255 237 240 255 237 240 255 237 240 255 237 240 255 237 240 255 237 240 255 237 240 255 238 241 255 238 241 255 238 241 255 238 241 255 238 241 255 238 241 255 238 241 255 238 241 255 238 241 255 238 241 255 238 241 255 238 241 255 240 242 255 237 240 255 228 232 255 212 219 255 208 216 255 206 215 255 209 217 255 208 216 255 208 216 255 209 217 255 210 218 255 210 218 255 210 218 255 210 218 255 210 218 255 210 218 255 210 218 255 210 218 255 210 218 255 212 219 255 212 219 255 212 219 255 212 219 255 212 219 255 212 219 255 212 219 255 213 220 255 225 230 255 238 241 255 244 246 255 244 246 255 242 245 255 242 245 255 242 245 255 242 245 255 242 245 255 233 237 255 234 238 255 221 227 255 217 224 255 214 221 255 200 209 255 193 204 244 183 194 244 183 194 244 183 194 249 187 198 255 200 209 255 202 211 255 198 208 255 208 216 249 187 198 255 213 220 249 187 198 255 210 218 255 206 215 255 210 218 255 238 241 255 212 219 255 237 240 255 240 242 255 202 211 211 159 168 195 147 155 195 147 155 200 151 159 195 147 155 206 155 164 195 147 155 227 171 181 255 213 220 255 217 224 255 208 216 255 222 228 255 232 236 255 213 220 255 193 204 255 224 229 255 226 231 255 206 215 255 193 204 233 175 185 200 151 159 255 208 216 255 200 209 206 155 164 206 155 164 211 159 168 211 159 168 206 155 164 211 159 168 227 171 181 249 187 198 211 159 168 222 167 177 255 220 226 255 230 235 255 208 216 244 183 194 211 159 168 222 167 177 255 200 209 211 159 168 211 159 168 211 159 168 211 159 168 211 159 168 211 159 168 217 163 172 255 226 231 255 230 235 255 226 231 255 206 215 255 205 214 255 205 214 255 208 216 255 209 217 255 208 216 255 205 214 255 201 210 255 200 209 255 198 208 
255 201 210 255 201 210 255 201 210 255 201 210 255 201 210 255 202 211 255 205 214 255 208 216 255 206 215 255 202 211 255 205 214 255 209 217 255 230 235 255 233 237 255 216 222 255 229 233 255 226 231 200 151 159 233 175 185 255 198 208 184 138 146 184 138 146 195 147 155 200 151 159 222 167 177 211 159 168 179 134 142 184 138 146 195 147 155 195 147 155 184 138 146 195 147 155 195 147 155 195 147 155 195 147 155 195 147 155 195 147 155 195 147 155 195 147 155 200 151 159 200 151 159 200 151 159 195 147 155 211 159 168 255 229 233 255 234 238 255 237 240 255 237 240 255 237 240 255 237 240 255 237 240 255 237 240 255 237 240 255 225 230 255 212 219 255 208 216 255 208 216 255 208 216 255 206 215 255 208 216 255 208 216 255 208 216 255 206 215 255 198 208 244 183 194 217 163 172 227 171 181 211 159 168 222 167 177 233 175 185 249 187 198 255 201 210 255 216 222 255 233 237 255 237 240 255 237 240 255 237 240 255 237 240 255 237 240 255 237 240 255 237 240 255 237 240 255 237 240 255 237 240 255 237 240 255 237 240 255 238 241 255 238 241 255 238 241 255 238 241 255 238 241 255 238 241 255 238 241 255 238 241 255 238 241 255 238 241 255 238 241 255 238 241 255 240 242 255 237 240 255 228 232 255 212 219 255 208 216 255 206 215 255 209 217 255 208 216 255 208 216 255 209 217 255 210 218 255 210 218 255 210 218 255 210 218 255 210 218 255 210 218 255 210 218 255 210 218 255 210 218 255 212 219 255 212 219 255 212 219 255 212 219 255 212 219 255 212 219 255 212 219 255 213 220 255 225 230 255 238 241 255 244 246 255 244 246 255 242 245 255 242 245 255 242 245 255 242 245 255 242 245 255 233 237 255 234 238 255 221 227 255 217 224 255 214 221 255 200 209 255 193 204 244 183 194 244 183 194 244 183 194 249 187 198 255 200 209 255 202 211 255 198 208 255 208 216 249 187 198 255 213 220 249 187 198 255 210 218 255 206 215 255 210 218 255 238 241 255 212 219 255 237 240 255 240 242 255 202 211 211 159 168 195 147 155 195 147 155 200 151 159 195 147 155 206 155 164 195 147 155 227 171 181 255 213 220 255 217 224 255 208 216 255 222 228 255 232 236 255 213 220 255 193 204 255 224 229 255 226 231 255 206 215 255 193 204 233 175 185 200 151 159 255 208 216 255 200 209 206 155 164 206 155 164 211 159 168 211 159 168 206 155 164 211 159 168 227 171 181 249 187 198 211 159 168 222 167 177 255 220 226 255 230 235 255 208 216 244 183 194 211 159 168 222 167 177 255 200 209 211 159 168 211 159 168 211 159 168 211 159 168 211 159 168 211 159 168 217 163 172 255 226 231 255 230 235 255 226 231 255 206 215 255 205 214 255 205 214 255 208 216 255 209 217 255 208 216 255 205 214 255 201 210 255 200 209 255 198 208 
255 201 210 255 201 210 255 201 210 255 201 210 255 201 210 255 202 211 255 205 214 255 208 216 255 206 215 255 202 211 255 202 211 255 200 209 255 217 224 255 233 237 255 217 224 255 224 229 255 228 232 184 138 146 184 138 146 179 134 142 179 134 142 179 134 142 206 155 164 179 134 142 184 138 146 184 138 146 184 138 146 184 138 146 184 138 146 184 138 146 184 138 146 184 138 146 184 138 146 195 147 155 195 147 155 195 147 155 195 147 155 195 147 155 195 147 155 195 147 155 195 147 155 195 147 155 195 147 155 255 206 215 255 216 222 255 224 229 255 228 232 255 228 232 255 236 239 255 237 240 255 233 237 255 213 220 255 208 216 255 209 217 255 208 216 255 208 216 255 208 216 255 208 216 255 208 216 255 208 216 255 208 216 255 209 217 255 209 217 255 209 217 255 209 217 255 209 217 255 206 215 255 198 208 222 167 177 206 155 164 200 151 159 195 147 155 195 147 155 211 159 168 255 201 210 255 233 237 255 237 240 255 237 240 255 237 240 255 237 240 255 237 240 255 237 240 255 237 240 255 238 241 255 238 241 255 238 241 255 238 241 255 238 241 255 238 241 255 238 241 255 238 241 255 238 241 255 238 241 255 240 242 255 240 242 255 240 242 255 238 241 255 240 242 255 222 228 255 208 216 255 208 216 255 205 214 255 208 216 255 209 217 255 209 217 255 209 217 255 209 217 255 209 217 255 210 218 255 210 218 255 210 218 255 210 218 255 210 218 255 210 218 255 210 218 255 212 219 255 212 219 255 212 219 255 212 219 255 212 219 255 210 218 255 208 216 255 206 215 255 206 215 255 208 216 255 206 215 255 209 217 255 210 218 255 226 231 255 226 231 255 230 235 255 238 241 255 237 240 255 217 224 255 229 233 255 213 220 255 212 219 255 209 217 255 200 209 255 200 209 249 187 198 255 196 206 249 187 198 249 187 198 249 187 198 249 187 198 255 193 204 255 201 210 255 193 204 255 200 209 255 198 208 249 187 198 249 187 198 255 213 220 255 209 217 255 228 232 255 236 239 255 206 215 255 238 241 255 229 233 184 138 146 195 147 155 195 147 155 195 147 155 195 147 155 195 147 155 195 147 155 195 147 155 200 151 159 255 208 216 255 224 229 255 238 241 255 234 238 255 230 235 255 234 238 255 236 239 255 217 224 211 159 168 217 163 172 255 196 206 255 208 216 206 155 164 206 155 164 211 159 168 211 159 168 211 159 168 206 155 164 211 159 168 211 159 168 211 159 168 206 155 164 222 167 177 227 171 181 217 163 172 255 217 224 255 201 210 255 201 210 211 159 168 206 155 164 211 159 168 206 155 164 211 159 168 211 159 168 206 155 164 206 155 164 206 155 164 255 193 204 255 233 237 255 230 235 255 209 217 255 205 214 255 205 214 255 205 214 255 208 216 255 209 217 255 208 216 255 205 214 255 201 210 255 200 209 255 198 208 
255 201 210 255 201 210 255 201 210 255 201 210 255 201 210 255 202 211 255 205 214 255 208 216 255 206 215 255 202 211 255 202 211 255 200 209 255 217 224 255 233 237 255 217 224 255 224 229 255 228 232 184 138 146 184 138 146 179 134 142 179 134 142 179 134 142 206 155 164 179 134 142 184 138 146 184 138 146 184 138 146 184 138 146 184 138 146 184 138 146 184 138 146 184 138 146 184 138 146 195 147 155 195 147 155 195 147 155 195 147 155 195 147 155 195 147 155 195 147 155 195 147 155 195 147 155 195 147 155 255 206 215 255 216 222 255 224 229 255 228 232 255 228 232 255 236 239 255 237 240 255 233 237 255 213 220 255 208 216 255 209 217 255 208 216 255 208 216 255 208 216 255 208 216 255 208 216 255 208 216 255 208 216 255 209 217 255 209 217 255 209 217 255 209 217 255 209 217 255 206 215 255 198 208 222 167 177 206 155 164 200 151 159 195 147 155 195 147 155 211 159 168 255 201 210 255 233 237 255 237 240 255 237 240 255 237 240 255 237 240 255 237 240 255 237 240 255 237 240 255 238 241 255 238 241 255 238 241 255 238 241 255 238 241 255 238 241 255 238 241 255 238 241 255 238 241 255 238 241 255 240 242 255 240 242 255 240 242 255 238 241 255 240 242 255 222 228 255 208 216 255 208 216 255 205 214 255 208 216 255 209 217 255 209 217 255 209 217 255 209 217 255 209 217 255 210 218 255 210 218 255 210 218 255 210 218 255 210 218 255 210 218 255 210 218 255 212 219 255 212 219 255 212 219 255 212 219 255 212 219 255 210 218 255 208 216 255 206 215 255 206 215 255 208 216 255 206 215 255 209 217 255 210 218 255 226 231 255 226 231 255 230 235 255 238 241 255 237 240 255 217 224 255 229 233 255 213 220 255 212 219 255 209 217 255 200 209 255 200 209 249 187 198 255 196 206 249 187 198 249 187 198 249 187 198 249 187 198 255 193 204 255 201 210 255 193 204 255 200 209 255 198 208 249 187 198 249 187 198 255 213 220 255 209 217 255 228 232 255 236 239 255 206 215 255 238 241 255 229 233 184 138 146 195 147 155 195 147 155 195 147 155 195 147 155 195 147 155 195 147 155 195 147 155 200 151 159 255 208 216 255 224 229 255 238 241 255 234 238 255 230 235 255 234 238 255 236 239 255 217 224 211 159 168 217 163 172 255 196 206 255 208 216 206 155 164 206 155 164 211 159 168 211 159 168 211 159 168 206 155 164 211 159 168 211 159 168 211 159 168 206 155 164 222 167 177 227 171 181 217 163 172 255 217 224 255 201 210 255 201 210 211 159 168 206 155 164 211 159 168 206 155 164 211 159 168 211 159 168 206 155 164 206 155 164 206 155 164 255 193 204 255 233 237 255 230 235 255 209 217 255 205 214 255 205 214 255 205 214 255 208 216 255 209 217 255 208 216 255 205 214 255 201 210 255 200 209 255 198 208 
255 201 210 255 201 210 255 201 210 255 201 210 255 201 210 255 202 211 255 205 214 255 208 216 255 206 215 255 202 211 255 205 214 255 201 210 255 213 220 255 233 237 255 213 220 255 200 209 249 187 198 233 175 185 179 134 142 179 134 142 179 134 142 179 134 142 157 118 125 157 118 125 157 118 125 179 134 142 206 155 164 255 198 208 227 171 181 211 159 168 200 151 159 195 147 155 195 147 155 184 138 146 184 138 146 195 147 155 195 147 155 195 147 155 195 147 155 195 147 155 195 147 155 195 147 155 211 159 168 227 171 181 255 193 204 255 196 206 255 210 218 255 201 210 233 175 185 255 198 208 255 201 210 255 205 214 255 206 215 255 206 215 255 206 215 255 206 215 255 208 216 255 208 216 255 208 216 255 208 216 255 208 216 255 208 216 255 208 216 255 208 216 255 209 217 255 209 217 255 209 217 255 209 217 255 209 217 255 210 218 255 206 215 255 196 206 222 167 177 200 151 159 184 138 146 195 147 155 255 208 216 255 236 239 255 237 240 255 237 240 255 237 240 255 237 240 255 237 240 255 238 241 255 238 241 255 238 241 255 238 241 255 238 241 255 238 241 255 238 241 255 238 241 255 238 241 255 238 241 255 240 242 255 240 242 255 240 242 255 232 236 255 208 216 255 206 215 255 206 215 255 206 215 255 208 216 255 209 217 255 208 216 255 208 216 255 209 217 255 209 217 255 209 217 255 209 217 255 209 217 255 210 218 255 210 218 255 210 218 255 210 218 255 210 218 255 210 218 255 212 219 255 210 218 255 212 219 255 212 219 255 212 219 255 212 219 255 213 220 255 212 219 255 208 216 255 198 208 255 198 208 255 200 209 255 200 209 255 205 214 255 202 211 255 205 214 255 206 215 255 208 216 255 216 222 255 221 227 255 213 220 255 198 208 255 205 214 255 198 208 255 196 206 233 175 185 249 187 198 249 187 198 244 183 194 244 183 194 244 183 194 249 187 198 255 196 206 249 187 198 255 196 206 255 198 208 255 198 208 255 230 235 255 237 240 255 200 209 255 236 239 255 234 238 255 233 237 255 233 237 222 167 177 217 163 172 195 147 155 195 147 155 195 147 155 255 198 208 255 193 204 200 151 159 200 151 159 222 167 177 255 217 224 255 237 240 255 236 239 255 236 239 255 236 239 255 234 238 255 232 236 255 234 238 255 221 227 211 159 168 255 196 206 255 206 215 255 193 204 206 155 164 206 155 164 233 175 185 211 159 168 211 159 168 206 155 164 206 155 164 206 155 164 206 155 164 217 163 172 206 155 164 227 171 181 244 183 194 217 163 172 217 163 172 206 155 164 206 155 164 206 155 164 206 155 164 206 155 164 206 155 164 200 151 159 227 171 181 255 230 235 255 221 227 255 206 215 255 202 211 255 205 214 255 205 214 255 205 214 255 208 216 255 209 217 255 208 216 255 202 211 255 200 209 255 200 209 255 196 206 
255 201 210 255 201 210 255 201 210 255 201 210 255 201 210 255 202 211 255 205 214 255 208 216 255 206 215 255 202 211 255 205 214 255 201 210 255 213 220 255 233 237 255 213 220 255 200 209 249 187 198 233 175 185 179 134 142 179 134 142 179 134 142 179 134 142 157 118 125 157 118 125 157 118 125 179 134 142 206 155 164 255 198 208 227 171 181 211 159 168 200 151 159 195 147 155 195 147 155 184 138 146 184 138 146 195 147 155 195 147 155 195 147 155 195 147 155 195 147 155 195 147 155 195 147 155 211 159 168 227 171 181 255 193 204 255 196 206 255 210 218 255 201 210 233 175 185 255 198 208 255 201 210 255 205 214 255 206 215 255 206 215 255 206 215 255 206 215 255 208 216 255 208 216 255 208 216 255 208 216 255 208 216 255 208 216 255 208 216 255 208 216 255 209 217 255 209 217 255 209 217 255 209 217 255 209 217 255 210 218 255 206 215 255 196 206 222 167 177 200 151 159 184 138 146 195 147 155 255 208 216 255 236 239 255 237 240 255 237 240 255 237 240 255 237 240 255 237 240 255 238 241 255 238 241 255 238 241 255 238 241 255 238 241 255 238 241 255 238 241 255 238 241 255 238 241 255 238 241 255 240 242 255 240 242 255 240 242 255 232 236 255 208 216 255 206 215 255 206 215 255 206 215 255 208 216 255 209 217 255 208 216 255 208 216 255 209 217 255 209 217 255 209 217 255 209 217 255 209 217 255 210 218 255 210 218 255 210 218 255 210 218 255 210 218 255 210 218 255 212 219 255 210 218 255 212 219 255 212 219 255 212 219 255 212 219 255 213 220 255 212 219 255 208 216 255 198 208 255 198 208 255 200 209 255 200 209 255 205 214 255 202 211 255 205 214 255 206 215 255 208 216 255 216 222 255 221 227 255 213 220 255 198 208 255 205 214 255 198 208 255 196 206 233 175 185 249 187 198 249 187 198 244 183 194 244 183 194 244 183 194 249 187 198 255 196 206 249 187 198 255 196 206 255 198 208 255 198 208 255 230 235 255 237 240 255 200 209 255 236 239 255 234 238 255 233 237 255 233 237 222 167 177 217 163 172 195 147 155 195 147 155 195 147 155 255 198 208 255 193 204 200 151 159 200 151 159 222 167 177 255 217 224 255 237 240 255 236 239 255 236 239 255 236 239 255 234 238 255 232 236 255 234 238 255 221 227 211 159 168 255 196 206 255 206 215 255 193 204 206 155 164 206 155 164 233 175 185 211 159 168 211 159 168 206 155 164 206 155 164 206 155 164 206 155 164 217 163 172 206 155 164 227 171 181 244 183 194 217 163 172 217 163 172 206 155 164 206 155 164 206 155 164 206 155 164 206 155 164 206 155 164 200 151 159 227 171 181 255 230 235 255 221 227 255 206 215 255 202 211 255 205 214 255 205 214 255 205 214 255 208 216 255 209 217 255 208 216 255 202 211 255 200 209 255 200 209 255 196 206 
255 201 210 255 201 210 255 201 210 255 201 210 255 201 210 255 202 211 255 205 214 255 208 216 255 206 215 255 202 211 255 205 214 255 205 214 255 210 218 255 228 232 255 200 209 179 134 142 179 134 142 255 208 216 184 138 146 179 134 142 146 110 116 227 171 181 244 183 194 157 118 125 179 134 142 157 118 125 179 134 142 184 138 146 255 196 206 255 210 218 255 232 236 255 217 224 233 175 185 184 138 146 195 147 155 195 147 155 195 147 155 195 147 155 195 147 155 184 138 146 206 155 164 184 138 146 184 138 146 195 147 155 195 147 155 184 138 146 184 138 146 195 147 155 206 155 164 227 171 181 249 187 198 255 205 214 255 208 216 255 206 215 255 206 215 255 208 216 255 208 216 255 208 216 255 208 216 255 208 216 255 208 216 255 208 216 255 208 216 255 208 216 255 209 217 255 209 217 255 209 217 255 208 216 255 208 216 255 208 216 255 208 216 255 208 216 255 208 216 255 202 211 255 193 204 227 171 181 206 155 164 255 206 215 255 236 239 255 237 240 255 237 240 255 237 240 255 237 240 255 237 240 255 237 240 255 237 240 255 237 240 255 237 240 255 238 241 255 238 241 255 238 241 255 238 241 255 238 241 255 240 242 255 240 242 255 232 236 255 209 217 255 209 217 255 206 215 255 208 216 255 208 216 255 209 217 255 209 217 255 208 216 255 208 216 255 208 216 255 209 217 255 209 217 255 209 217 255 209 217 255 210 218 255 209 217 255 209 217 255 210 218 255 210 218 255 210 218 255 210 218 255 210 218 255 212 219 255 212 219 255 212 219 255 212 219 255 212 219 255 212 219 255 212 219 255 213 220 255 210 218 255 200 209 255 196 206 255 196 206 255 201 210 255 201 210 255 206 215 255 208 216 255 205 214 255 209 217 255 201 210 255 200 209 249 187 198 249 187 198 249 187 198 244 183 194 244 183 194 244 183 194 233 175 185 233 175 185 233 175 185 233 175 185 233 175 185 255 193 204 255 198 208 255 200 209 255 205 214 255 206 215 255 209 217 255 209 217 255 233 237 255 238 241 255 230 235 255 229 233 255 201 210 184 138 146 184 138 146 184 138 146 217 163 172 184 138 146 249 187 198 255 216 222 255 210 218 255 209 217 255 220 226 255 208 216 255 236 239 255 236 239 255 237 240 255 236 239 255 236 239 255 237 240 255 233 237 255 230 235 255 229 233 255 198 208 255 214 221 217 163 172 200 151 159 206 155 164 206 155 164 200 151 159 200 151 159 200 151 159 200 151 159 206 155 164 200 151 159 200 151 159 200 151 159 206 155 164 211 159 168 200 151 159 200 151 159 200 151 159 200 151 159 200 151 159 200 151 159 200 151 159 255 208 216 255 225 230 255 206 215 255 205 214 255 202 211 255 205 214 255 205 214 255 205 214 255 205 214 255 208 216 255 209 217 255 208 216 255 202 211 255 201 210 255 200 209 255 196 206 
255 201 210 255 201 210 255 201 210 255 201 210 255 201 210 255 202 211 255 205 214 255 208 216 255 206 215 255 202 211 255 205 214 255 205 214 255 210 218 255 228 232 255 200 209 179 134 142 179 134 142 255 208 216 184 138 146 179 134 142 146 110 116 227 171 181 244 183 194 157 118 125 179 134 142 157 118 125 179 134 142 184 138 146 255 196 206 255 210 218 255 232 236 255 217 224 233 175 185 184 138 146 195 147 155 195 147 155 195 147 155 195 147 155 195 147 155 184 138 146 206 155 164 184 138 146 184 138 146 195 147 155 195 147 155 184 138 146 184 138 146 195 147 155 206 155 164 227 171 181 249 187 198 255 205 214 255 208 216 255 206 215 255 206 215 255 208 216 255 208 216 255 208 216 255 208 216 255 208 216 255 208 216 255 208 216 255 208 216 255 208 216 255 209 217 255 209 217 255 209 217 255 208 216 255 208 216 255 208 216 255 208 216 255 208 216 255 208 216 255 202 211 255 193 204 227 171 181 206 155 164 255 206 215 255 236 239 255 237 240 255 237 240 255 237 240 255 237 240 255 237 240 255 237 240 255 237 240 255 237 240 255 237 240 255 238 241 255 238 241 255 238 241 255 238 241 255 238 241 255 240 242 255 240 242 255 232 236 255 209 217 255 209 217 255 206 215 255 208 216 255 208 216 255 209 217 255 209 217 255 208 216 255 208 216 255 208 216 255 209 217 255 209 217 255 209 217 255 209 217 255 210 218 255 209 217 255 209 217 255 210 218 255 210 218 255 210 218 255 210 218 255 210 218 255 212 219 255 212 219 255 212 219 255 212 219 255 212 219 255 212 219 255 212 219 255 213 220 255 210 218 255 200 209 255 196 206 255 196 206 255 201 210 255 201 210 255 206 215 255 208 216 255 205 214 255 209 217 255 201 210 255 200 209 249 187 198 249 187 198 249 187 198 244 183 194 244 183 194 244 183 194 233 175 185 233 175 185 233 175 185 233 175 185 233 175 185 255 193 204 255 198 208 255 200 209 255 205 214 255 206 215 255 209 217 255 209 217 255 233 237 255 238 241 255 230 235 255 229 233 255 201 210 184 138 146 184 138 146 184 138 146 217 163 172 184 138 146 249 187 198 255 216 222 255 210 218 255 209 217 255 220 226 255 208 216 255 236 239 255 236 239 255 237 240 255 236 239 255 236 239 255 237 240 255 233 237 255 230 235 255 229 233 255 198 208 255 214 221 217 163 172 200 151 159 206 155 164 206 155 164 200 151 159 200 151 159 200 151 159 200 151 159 206 155 164 200 151 159 200 151 159 200 151 159 206 155 164 211 159 168 200 151 159 200 151 159 200 151 159 200 151 159 200 151 159 200 151 159 200 151 159 255 208 216 255 225 230 255 206 215 255 205 214 255 202 211 255 205 214 255 205 214 255 205 214 255 205 214 255 208 216 255 209 217 255 208 216 255 202 211 255 201 210 255 200 209 255 196 206 
255 201 210 255 201 210 255 201 210 255 201 210 255 201 210 255 202 211 255 205 214 255 206 215 255 206 215 255 202 211 255 202 211 255 202 211 255 198 208 255 206 215 222 167 177 157 118 125 157 118 125 157 118 125 222 167 177 249 187 198 255 201 210 255 222 228 255 220 226 255 232 236 255 201 210 146 110 116 157 118 125 157 118 125 157 118 125 157 118 125 179 134 142 195 147 155 222 167 177 249 187 198 217 163 172 195 147 155 184 138 146 195 147 155 195 147 155 195 147 155 195 147 155 184 138 146 184 138 146 184 138 146 195 147 155 195 147 155 195 147 155 195 147 155 200 151 159 206 155 164 249 187 198 255 202 211 255 206 215 255 208 216 255 208 216 255 210 218 255 212 219 255 212 219 255 210 218 255 205 214 255 193 204 255 200 209 255 200 209 255 201 210 255 205 214 255 212 219 255 209 217 255 210 218 255 209 217 255 208 216 255 208 216 255 208 216 255 208 216 255 208 216 255 210 218 255 201 210 249 187 198 222 167 177 255 233 237 255 237 240 255 237 240 255 237 240 255 237 240 255 237 240 255 237 240 255 237 240 255 237 240 255 237 240 255 238 241 255 238 241 255 238 241 255 238 241 255 238 241 255 238 241 255 238 241 255 212 219 255 209 217 255 208 216 255 208 216 255 208 216 255 208 216 255 208 216 255 208 216 255 208 216 255 208 216 255 208 216 255 208 216 255 208 216 255 210 218 255 210 218 255 209 217 255 208 216 255 206 215 255 200 209 255 198 208 255 200 209 255 201 210 255 201 210 255 205 214 255 206 215 255 212 219 255 208 216 255 214 221 255 213 220 255 206 215 255 212 219 255 213 220 255 205 214 255 209 217 255 205 214 255 196 206 255 198 208 255 206 215 255 208 216 255 209 217 255 205 214 255 193 204 255 193 204 249 187 198 233 175 185 244 183 194 255 193 204 244 183 194 244 183 194 249 187 198 244 183 194 249 187 198 233 175 185 233 175 185 233 175 185 233 175 185 255 198 208 255 201 210 255 224 229 255 209 217 255 233 237 255 220 226 255 238 241 255 236 239 255 214 221 227 171 181 222 167 177 179 134 142 195 147 155 195 147 155 211 159 168 184 138 146 184 138 146 255 202 211 255 226 231 255 214 221 206 155 164 179 134 142 179 134 142 179 134 142 206 155 164 255 210 218 255 232 236 255 236 239 255 236 239 255 236 239 255 237 240 255 210 218 206 155 164 206 155 164 200 151 159 200 151 159 200 151 159 200 151 159 200 151 159 200 151 159 200 151 159 200 151 159 195 147 155 195 147 155 200 151 159 200 151 159 195 147 155 195 147 155 195 147 155 195 147 155 200 151 159 206 155 164 255 214 221 255 234 238 255 209 217 255 202 211 255 205 214 255 202 211 255 202 211 255 202 211 255 202 211 255 205 214 255 206 215 255 208 216 255 206 215 255 202 211 255 200 209 255 198 208 255 196 206 
255 201 210 255 201 210 255 201 210 255 201 210 255 201 210 255 202 211 255 205 214 255 206 215 255 206 215 255 202 211 255 202 211 255 202 211 255 198 208 255 206 215 222 167 177 157 118 125 157 118 125 157 118 125 222 167 177 249 187 198 255 201 210 255 222 228 255 220 226 255 232 236 255 201 210 146 110 116 157 118 125 157 118 125 157 118 125 157 118 125 179 134 142 195 147 155 222 167 177 249 187 198 217 163 172 195 147 155 184 138 146 195 147 155 195 147 155 195 147 155 195 147 155 184 138 146 184 138 146 184 138 146 195 147 155 195 147 155 195 147 155 195 147 155 200 151 159 206 155 164 249 187 198 255 202 211 255 206 215 255 208 216 255 208 216 255 210 218 255 212 219 255 212 219 255 210 218 255 205 214 255 193 204 255 200 209 255 200 209 255 201 210 255 205 214 255 212 219 255 209 217 255 210 218 255 209 217 255 208 216 255 208 216 255 208 216 255 208 216 255 208 216 255 210 218 255 201 210 249 187 198 222 167 177 255 233 237 255 237 240 255 237 240 255 237 240 255 237 240 255 237 240 255 237 240 255 237 240 255 237 240 255 237 240 255 238 241 255 238 241 255 238 241 255 238 241 255 238 241 255 238 241 255 238 241 255 212 219 255 209 217 255 208 216 255 208 216 255 208 216 255 208 216 255 208 216 255 208 216 255 208 216 255 208 216 255 208 216 255 208 216 255 208 216 255 210 218 255 210 218 255 209 217 255 208 216 255 206 215 255 200 209 255 198 208 255 200 209 255 201 210 255 201 210 255 205 214 255 206 215 255 212 219 255 208 216 255 214 221 255 213 220 255 206 215 255 212 219 255 213 220 255 205 214 255 209 217 255 205 214 255 196 206 255 198 208 255 206 215 255 208 216 255 209 217 255 205 214 255 193 204 255 193 204 249 187 198 233 175 185 244 183 194 255 193 204 244 183 194 244 183 194 249 187 198 244 183 194 249 187 198 233 175 185 233 175 185 233 175 185 233 175 185 255 198 208 255 201 210 255 224 229 255 209 217 255 233 237 255 220 226 255 238 241 255 236 239 255 214 221 227 171 181 222 167 177 179 134 142 195 147 155 195 147 155 211 159 168 184 138 146 184 138 146 255 202 211 255 226 231 255 214 221 206 155 164 179 134 142 179 134 142 179 134 142 206 155 164 255 210 218 255 232 236 255 236 239 255 236 239 255 236 239 255 237 240 255 210 218 206 155 164 206 155 164 200 151 159 200 151 159 200 151 159 200 151 159 200 151 159 200 151 159 200 151 159 200 151 159 195 147 155 195 147 155 200 151 159 200 151 159 195 147 155 195 147 155 195 147 155 195 147 155 200 151 159 206 155 164 255 214 221 255 234 238 255 209 217 255 202 211 255 205 214 255 202 211 255 202 211 255 202 211 255 202 211 255 205 214 255 206 215 255 208 216 255 206 215 255 202 211 255 200 209 255 198 208 255 196 206 
255 200 209 255 200 209 255 200 209 255 200 209 255 200 209 255 201 210 255 202 211 255 206 215 255 206 215 255 201 210 255 201 210 255 201 210 255 202 211 211 159 168 157 118 125 184 138 146 206 155 164 146 110 116 146 110 116 255 200 209 255 230 235 255 232 236 255 230 235 255 226 231 255 224 229 135 102 107 179 134 142 146 110 116 157 118 125 211 159 168 179 134 142 157 118 125 157 118 125 249 187 198 227 171 181 217 163 172 200 151 159 195 147 155 184 138 146 184 138 146 184 138 146 184 138 146 184 138 146 184 138 146 195 147 155 195 147 155 195 147 155 195 147 155 195 147 155 195 147 155 255 196 206 249 187 198 184 138 146 244 183 194 244 183 194 157 118 125 157 118 125 157 118 125 157 118 125 157 118 125 146 110 116 157 118 125 157 118 125 179 134 142 179 134 142 157 118 125 184 138 146 184 138 146 184 138 146 227 171 181 255 198 208 255 208 216 255 206 215 255 206 215 255 206 215 255 208 216 255 208 216 255 221 227 255 236 239 255 237 240 255 237 240 255 237 240 255 237 240 255 237 240 255 237 240 255 237 240 255 237 240 255 237 240 255 238 241 255 238 241 255 238 241 255 238 241 255 238 241 255 238 241 255 233 237 255 209 217 255 208 216 255 206 215 255 208 216 255 208 216 255 208 216 255 208 216 255 208 216 255 206 215 255 208 216 255 209 217 255 196 206 227 171 181 222 167 177 217 163 172 227 171 181 233 175 185 244 183 194 244 183 194 249 187 198 249 187 198 244 183 194 249 187 198 249 187 198 249 187 198 249 187 198 244 183 194 244 183 194 255 193 204 255 200 209 255 209 217 255 193 204 255 198 208 255 212 219 255 212 219 255 210 218 255 213 220 255 213 220 255 210 218 255 206 215 255 202 211 255 206 215 255 198 208 255 193 204 255 193 204 249 187 198 255 193 204 255 196 206 249 187 198 244 183 194 233 175 185 227 171 181 227 171 181 227 171 181 244 183 194 244 183 194 255 193 204 255 198 208 255 220 226 255 206 215 255 234 238 255 216 222 255 237 240 255 225 230 244 183 194 217 163 172 217 163 172 244 183 194 157 118 125 157 118 125 217 163 172 233 175 185 157 118 125 184 138 146 195 147 155 217 163 172 255 226 231 255 238 241 255 212 219 206 155 164 184 138 146 200 151 159 179 134 142 255 206 215 255 229 233 255 234 238 255 236 239 255 234 238 255 224 229 255 206 215 200 151 159 200 151 159 200 151 159 195 147 155 195 147 155 195 147 155 195 147 155 195 147 155 195 147 155 184 138 146 184 138 146 184 138 146 184 138 146 195 147 155 179 134 142 184 138 146 184 138 146 255 202 211 255 233 237 255 229 233 255 205 214 255 202 211 255 202 211 255 202 211 255 202 211 255 202 211 255 202 211 255 202 211 255 206 215 255 208 216 255 206 215 255 202 211 255 200 209 255 198 208 255 196 206 
255 200 209 255 200 209 255 200 209 255 200 209 255 200 209 255 201 210 255 202 211 255 206 215 255 206 215 255 201 210 255 201 210 255 201 210 255 202 211 211 159 168 157 118 125 184 138 146 206 155 164 146 110 116 146 110 116 255 200 209 255 230 235 255 232 236 255 230 235 255 226 231 255 224 229 135 102 107 179 134 142 146 110 116 157 118 125 211 159 168 179 134 142 157 118 125 157 118 125 249 187 198 227 171 181 217 163 172 200 151 159 195 147 155 184 138 146 184 138 146 184 138 146 184 138 146 184 138 146 184 138 146 195 147 155 195 147 155 195 147 155 195 147 155 195 147 155 195 147 155 255 196 206 249 187 198 184 138 146 244 183 194 244 183 194 157 118 125 157 118 125 157 118 125 157 118 125 157 118 125 146 110 116 157 118 125 157 118 125 179 134 142 179 134 142 157 118 125 184 138 146 184 138 146 184 138 146 227 171 181 255 198 208 255 208 216 255 206 215 255 206 215 255 206 215 255 208 216 255 208 216 255 221 227 255 236 239 255 237 240 255 237 240 255 237 240 255 237 240 255 237 240 255 237 240 255 237 240 255 237 240 255 237 240 255 238 241 255 238 241 255 238 241 255 238 241 255 238 241 255 238 241 255 233 237 255 209 217 255 208 216 255 206 215 255 208 216 255 208 216 255 208 216 255 208 216 255 208 216 255 206 215 255 208 216 255 209 217 255 196 206 227 171 181 222 167 177 217 163 172 227 171 181 233 175 185 244 183 194 244 183 194 249 187 198 249 187 198 244 183 194 249 187 198 249 187 198 249 187 198 249 187 198 244 183 194 244 183 194 255 193 204 255 200 209 255 209 217 255 193 204 255 198 208 255 212 219 255 212 219 255 210 218 255 213 220 255 213 220 255 210 218 255 206 215 255 202 211 255 206 215 255 198 208 255 193 204 255 193 204 249 187 198 255 193 204 255 196 206 249 187 198 244 183 194 233 175 185 227 171 181 227 171 181 227 171 181 244 183 194 244 183 194 255 193 204 255 198 208 255 220 226 255 206 215 255 234 238 255 216 222 255 237 240 255 225 230 244 183 194 217 163 172 217 163 172 244 183 194 157 118 125 157 118 125 217 163 172 233 175 185 157 118 125 184 138 146 195 147 155 217 163 172 255 226 231 255 238 241 255 212 219 206 155 164 184 138 146 200 151 159 179 134 142 255 206 215 255 229 233 255 234 238 255 236 239 255 234 238 255 224 229 255 206 215 200 151 159 200 151 159 200 151 159 195 147 155 195 147 155 195 147 155 195 147 155 195 147 155 195 147 155 184 138 146 184 138 146 184 138 146 184 138 146 195 147 155 179 134 142 184 138 146 184 138 146 255 202 211 255 233 237 255 229 233 255 205 214 255 202 211 255 202 211 255 202 211 255 202 211 255 202 211 255 202 211 255 202 211 255 206 215 255 208 216 255 206 215 255 202 211 255 200 209 255 198 208 255 196 206 
255 200 209 255 200 209 255 200 209 255 200 209 255 201 210 255 201 210 255 202 211 255 206 215 255 205 214 255 201 210 255 201 210 255 201 210 255 200 209 255 200 209 146 110 116 135 102 107 195 147 155 146 110 116 157 118 125 179 134 142 255 233 237 255 230 235 255 232 236 217 163 172 179 134 142 200 151 159 195 147 155 157 118 125 157 118 125 200 151 159 255 193 204 255 210 218 184 138 146 206 155 164 255 206 215 233 175 185 195 147 155 184 138 146 184 138 146 179 134 142 179 134 142 184 138 146 184 138 146 184 138 146 184 138 146 184 138 146 184 138 146 179 134 142 179 134 142 157 118 125 157 118 125 157 118 125 157 118 125 157 118 125 157 118 125 157 118 125 146 110 116 146 110 116 146 110 116 146 110 116 157 118 125 157 118 125 157 118 125 157 118 125 255 233 237 211 159 168 184 138 146 255 229 233 255 238 241 255 233 237 255 198 208 179 134 142 146 110 116 233 175 185 255 205 214 255 208 216 255 214 221 255 236 239 255 236 239 255 237 240 255 237 240 255 237 240 255 237 240 255 237 240 255 237 240 255 237 240 255 237 240 255 237 240 255 237 240 255 237 240 255 238 241 255 238 241 255 238 241 255 238 241 255 236 239 255 210 218 255 208 216 255 208 216 255 206 215 255 208 216 255 208 216 255 209 217 255 216 222 255 209 217 217 163 172 206 155 164 206 155 164 211 159 168 244 183 194 255 221 227 255 229 233 255 216 222 255 196 206 233 175 185 233 175 185 233 175 185 244 183 194 233 175 185 255 208 216 244 183 194 249 187 198 249 187 198 244 183 194 244 183 194 244 183 194 244 183 194 244 183 194 244 183 194 244 183 194 244 183 194 244 183 194 249 187 198 255 193 204 255 198 208 255 198 208 244 183 194 233 175 185 227 171 181 255 193 204 255 217 224 255 224 229 255 232 236 255 233 237 255 212 219 255 208 216 255 202 211 255 198 208 233 175 185 249 187 198 227 171 181 244 183 194 233 175 185 255 196 206 255 205 214 255 216 222 255 212 219 255 237 240 255 236 239 255 229 233 200 151 159 146 110 116 211 159 168 184 138 146 157 118 125 179 134 142 179 134 142 135 102 107 255 198 208 255 214 221 244 183 194 227 171 181 255 202 211 227 171 181 179 134 142 255 202 211 255 236 239 255 220 226 184 138 146 184 138 146 200 151 159 227 171 181 255 226 231 255 234 238 255 234 238 255 232 236 255 225 230 211 159 168 195 147 155 184 138 146 184 138 146 184 138 146 184 138 146 184 138 146 179 134 142 179 134 142 179 134 142 179 134 142 179 134 142 179 134 142 184 138 146 184 138 146 195 147 155 255 220 226 255 229 233 255 232 236 255 205 214 255 201 210 255 201 210 255 201 210 255 201 210 255 202 211 255 202 211 255 202 211 255 205 214 255 206 215 255 205 214 255 201 210 255 200 209 255 198 208 255 196 206 
255 200 209 255 200 209 255 200 209 255 200 209 255 201 210 255 201 210 255 202 211 255 206 215 255 205 214 255 201 210 255 201 210 255 201 210 255 200 209 255 200 209 146 110 116 135 102 107 195 147 155 146 110 116 157 118 125 179 134 142 255 233 237 255 230 235 255 232 236 217 163 172 179 134 142 200 151 159 195 147 155 157 118 125 157 118 125 200 151 159 255 193 204 255 210 218 184 138 146 206 155 164 255 206 215 233 175 185 195 147 155 184 138 146 184 138 146 179 134 142 179 134 142 184 138 146 184 138 146 184 138 146 184 138 146 184 138 146 184 138 146 179 134 142 179 134 142 157 118 125 157 118 125 157 118 125 157 118 125 157 118 125 157 118 125 157 118 125 146 110 116 146 110 116 146 110 116 146 110 116 157 118 125 157 118 125 157 118 125 157 118 125 255 233 237 211 159 168 184 138 146 255 229 233 255 238 241 255 233 237 255 198 208 179 134 142 146 110 116 233 175 185 255 205 214 255 208 216 255 214 221 255 236 239 255 236 239 255 237 240 255 237 240 255 237 240 255 237 240 255 237 240 255 237 240 255 237 240 255 237 240 255 237 240 255 237 240 255 237 240 255 238 241 255 238 241 255 238 241 255 238 241 255 236 239 255 210 218 255 208 216 255 208 216 255 206 215 255 208 216 255 208 216 255 209 217 255 216 222 255 209 217 217 163 172 206 155 164 206 155 164 211 159 168 244 183 194 255 221 227 255 229 233 255 216 222 255 196 206 233 175 185 233 175 185 233 175 185 244 183 194 233 175 185 255 208 216 244 183 194 249 187 198 249 187 198 244 183 194 244 183 194 244 183 194 244 183 194 244 183 194 244 183 194 244 183 194 244 183 194 244 183 194 249 187 198 255 193 204 255 198 208 255 198 208 244 183 194 233 175 185 227 171 181 255 193 204 255 217 224 255 224 229 255 232 236 255 233 237 255 212 219 255 208 216 255 202 211 255 198 208 233 175 185 249 187 198 227 171 181 244 183 194 233 175 185 255 196 206 255 205 214 255 216 222 255 212 219 255 237 240 255 236 239 255 229 233 200 151 159 146 110 116 211 159 168 184 138 146 157 118 125 179 134 142 179 134 142 135 102 107 255 198 208 255 214 221 244 183 194 227 171 181 255 202 211 227 171 181 179 134 142 255 202 211 255 236 239 255 220 226 184 138 146 184 138 146 200 151 159 227 171 181 255 226 231 255 234 238 255 234 238 255 232 236 255 225 230 211 159 168 195 147 155 184 138 146 184 138 146 184 138 146 184 138 146 184 138 146 179 134 142 179 134 142 179 134 142 179 134 142 179 134 142 179 134 142 184 138 146 184 138 146 195 147 155 255 220 226 255 229 233 255 232 236 255 205 214 255 201 210 255 201 210 255 201 210 255 201 210 255 202 211 255 202 211 255 202 211 255 205 214 255 206 215 255 205 214 255 201 210 255 200 209 255 198 208 255 196 206 
255 198 208 255 198 208 255 198 208 255 200 209 255 200 209 255 201 210 255 202 211 255 206 215 255 205 214 255 201 210 255 201 210 255 201 210 255 201 210 255 201 210 255 193 204 135 102 107 135 102 107 135 102 107 135 102 107 157 118 125 130 98 103 255 225 230 255 230 235 255 209 217 211 159 168 211 159 168 206 155 164 135 102 107 157 118 125 146 110 116 184 138 146 255 229 233 255 216 222 255 193 204 255 222 228 255 216 222 195 147 155 184 138 146 184 138 146 179 134 142 206 155 164 179 134 142 179 134 142 157 118 125 157 118 125 157 118 125 157 118 125 157 118 125 157 118 125 157 118 125 157 118 125 157 118 125 157 118 125 157 118 125 157 118 125 146 110 116 157 118 125 135 102 107 146 110 116 146 110 116 146 110 116 146 110 116 157 118 125 157 118 125 195 147 155 184 138 146 255 210 218 255 237 240 255 237 240 255 236 239 255 237 240 255 237 240 255 232 236 255 229 233 255 232 236 255 240 242 255 237 240 255 237 240 255 236 239 255 237 240 255 237 240 255 237 240 255 237 240 255 237 240 255 237 240 255 237 240 255 237 240 255 237 240 255 237 240 255 237 240 255 238 241 255 238 241 255 238 241 255 237 240 255 237 240 255 238 241 255 229 233 255 217 224 255 216 222 255 225 230 255 242 245 255 200 209 217 163 172 255 193 204 227 171 181 255 234 238 255 220 226 255 240 242 255 240 242 255 238 241 255 237 240 255 238 241 255 233 237 227 171 181 233 175 185 233 175 185 244 183 194 233 175 185 233 175 185 244 183 194 244 183 194 244 183 194 244 183 194 244 183 194 244 183 194 244 183 194 244 183 194 244 183 194 244 183 194 244 183 194 244 183 194 244 183 194 233 175 185 255 217 224 255 240 242 255 244 246 255 244 246 255 240 242 255 242 245 255 240 242 255 242 245 255 242 245 255 240 242 255 237 240 255 228 232 255 212 219 255 198 208 255 201 210 244 183 194 244 183 194 244 183 194 233 175 185 255 202 211 255 212 219 255 234 238 255 225 230 255 238 241 255 196 206 255 238 241 217 163 172 179 134 142 222 167 177 249 187 198 157 118 125 157 118 125 195 147 155 135 102 107 157 118 125 157 118 125 244 183 194 255 225 230 255 220 226 255 209 217 244 183 194 255 224 229 255 216 222 255 228 232 255 238 241 255 210 218 157 118 125 179 134 142 222 167 177 255 200 209 255 234 238 255 234 238 255 233 237 255 214 221 157 118 125 179 134 142 179 134 142 157 118 125 157 118 125 157 118 125 157 118 125 146 110 116 146 110 116 146 110 116 146 110 116 179 134 142 179 134 142 184 138 146 255 209 217 255 220 226 255 226 231 255 233 237 255 209 217 255 201 210 255 201 210 255 201 210 255 201 210 255 201 210 255 201 210 255 202 211 255 205 214 255 206 215 255 205 214 255 201 210 255 198 208 255 196 206 255 196 206 
255 198 208 255 198 208 255 198 208 255 200 209 255 200 209 255 201 210 255 202 211 255 206 215 255 205 214 255 201 210 255 201 210 255 201 210 255 201 210 255 201 210 255 193 204 135 102 107 135 102 107 135 102 107 135 102 107 157 118 125 130 98 103 255 225 230 255 230 235 255 209 217 211 159 168 211 159 168 206 155 164 135 102 107 157 118 125 146 110 116 184 138 146 255 229 233 255 216 222 255 193 204 255 222 228 255 216 222 195 147 155 184 138 146 184 138 146 179 134 142 206 155 164 179 134 142 179 134 142 157 118 125 157 118 125 157 118 125 157 118 125 157 118 125 157 118 125 157 118 125 157 118 125 157 118 125 157 118 125 157 118 125 157 118 125 146 110 116 157 118 125 135 102 107 146 110 116 146 110 116 146 110 116 146 110 116 157 118 125 157 118 125 195 147 155 184 138 146 255 210 218 255 237 240 255 237 240 255 236 239 255 237 240 255 237 240 255 232 236 255 229 233 255 232 236 255 240 242 255 237 240 255 237 240 255 236 239 255 237 240 255 237 240 255 237 240 255 237 240 255 237 240 255 237 240 255 237 240 255 237 240 255 237 240 255 237 240 255 237 240 255 238 241 255 238 241 255 238 241 255 237 240 255 237 240 255 238 241 255 229 233 255 217 224 255 216 222 255 225 230 255 242 245 255 200 209 217 163 172 255 193 204 227 171 181 255 234 238 255 220 226 255 240 242 255 240 242 255 238 241 255 237 240 255 238 241 255 233 237 227 171 181 233 175 185 233 175 185 244 183 194 233 175 185 233 175 185 244 183 194 244 183 194 244 183 194 244 183 194 244 183 194 244 183 194 244 183 194 244 183 194 244 183 194 244 183 194 244 183 194 244 183 194 244 183 194 233 175 185 255 217 224 255 240 242 255 244 246 255 244 246 255 240 242 255 242 245 255 240 242 255 242 245 255 242 245 255 240 242 255 237 240 255 228 232 255 212 219 255 198 208 255 201 210 244 183 194 244 183 194 244 183 194 233 175 185 255 202 211 255 212 219 255 234 238 255 225 230 255 238 241 255 196 206 255 238 241 217 163 172 179 134 142 222 167 177 249 187 198 157 118 125 157 118 125 195 147 155 135 102 107 157 118 125 157 118 125 244 183 194 255 225 230 255 220 226 255 209 217 244 183 194 255 224 229 255 216 222 255 228 232 255 238 241 255 210 218 157 118 125 179 134 142 222 167 177 255 200 209 255 234 238 255 234 238 255 233 237 255 214 221 157 118 125 179 134 142 179 134 142 157 118 125 157 118 125 157 118 125 157 118 125 146 110 116 146 110 116 146 110 116 146 110 116 179 134 142 179 134 142 184 138 146 255 209 217 255 220 226 255 226 231 255 233 237 255 209 217 255 201 210 255 201 210 255 201 210 255 201 210 255 201 210 255 201 210 255 202 211 255 205 214 255 206 215 255 205 214 255 201 210 255 198 208 255 196 206 255 196 206 
255 198 208 255 198 208 255 198 208 255 198 208 255 200 209 255 200 209 255 201 210 255 205 214 255 202 211 255 200 209 255 200 209 255 200 209 255 201 210 255 201 210 255 205 214 222 167 177 130 98 103 135 102 107 135 102 107 135 102 107 146 110 116 184 138 146 255 213 220 255 213 220 227 171 181 249 187 198 135 102 107 146 110 116 146 110 116 135 102 107 135 102 107 206 155 164 255 229 233 255 230 235 255 225 230 255 225 230 211 159 168 157 118 125 157 118 125 157 118 125 184 138 146 227 171 181 249 187 198 249 187 198 217 163 172 157 118 125 146 110 116 157 118 125 146 110 116 157 118 125 157 118 125 146 110 116 146 110 116 146 110 116 146 110 116 135 102 107 255 196 206 255 233 237 255 230 235 222 167 177 195 147 155 200 151 159 255 198 208 255 230 235 255 222 228 255 238 241 255 237 240 255 236 239 255 236 239 255 236 239 255 236 239 255 236 239 255 236 239 255 237 240 255 237 240 255 237 240 255 237 240 255 237 240 255 237 240 255 236 239 255 237 240 255 237 240 255 237 240 255 237 240 255 237 240 255 237 240 255 236 239 255 237 240 255 237 240 255 237 240 255 237 240 255 238 241 255 238 241 255 238 241 255 238 241 255 238 241 255 237 240 255 238 241 255 240 242 255 238 241 255 238 241 255 238 241 255 238 241 255 238 241 255 238 241 255 238 241 255 238 241 255 238 241 255 238 241 255 238 241 255 236 239 255 234 238 255 238 241 255 232 236 255 230 235 255 237 240 255 222 228 255 216 222 255 217 224 255 217 224 255 196 206 233 175 185 233 175 185 233 175 185 227 171 181 227 171 181 233 175 185 233 175 185 233 175 185 233 175 185 227 171 181 255 226 231 255 240 242 255 242 245 255 242 245 255 240 242 255 240 242 255 240 242 255 240 242 255 240 242 255 240 242 255 240 242 255 242 245 255 237 240 255 237 240 255 226 231 255 221 227 255 209 217 255 202 211 249 187 198 255 196 206 222 167 177 211 159 168 255 198 208 255 222 228 255 234 238 255 214 221 233 175 185 255 226 231 255 196 206 233 175 185 179 134 142 184 138 146 255 200 209 244 183 194 222 167 177 227 171 181 255 212 219 146 110 116 157 118 125 146 110 116 255 206 215 255 232 236 255 206 215 255 237 240 255 198 208 255 224 229 255 236 239 255 225 230 255 233 237 255 198 208 195 147 155 244 183 194 255 213 220 255 236 239 255 233 237 255 229 233 200 151 159 157 118 125 146 110 116 146 110 116 146 110 116 146 110 116 135 102 107 135 102 107 135 102 107 135 102 107 135 102 107 130 98 103 146 110 116 195 147 155 255 214 221 255 229 233 255 230 235 255 229 233 255 216 222 255 201 210 255 201 210 255 200 209 255 200 209 255 200 209 255 201 210 255 202 211 255 202 211 255 205 214 255 202 211 255 200 209 255 196 206 255 196 206 255 196 206 
255 198 208 255 198 208 255 198 208 255 198 208 255 200 209 255 200 209 255 201 210 255 205 214 255 202 211 255 200 209 255 200 209 255 200 209 255 201 210 255 201 210 255 205 214 222 167 177 130 98 103 135 102 107 135 102 107 135 102 107 146 110 116 184 138 146 255 213 220 255 213 220 227 171 181 249 187 198 135 102 107 146 110 116 146 110 116 135 102 107 135 102 107 206 155 164 255 229 233 255 230 235 255 225 230 255 225 230 211 159 168 157 118 125 157 118 125 157 118 125 184 138 146 227 171 181 249 187 198 249 187 198 217 163 172 157 118 125 146 110 116 157 118 125 146 110 116 157 118 125 157 118 125 146 110 116 146 110 116 146 110 116 146 110 116 135 102 107 255 196 206 255 233 237 255 230 235 222 167 177 195 147 155 200 151 159 255 198 208 255 230 235 255 222 228 255 238 241 255 237 240 255 236 239 255 236 239 255 236 239 255 236 239 255 236 239 255 236 239 255 237 240 255 237 240 255 237 240 255 237 240 255 237 240 255 237 240 255 236 239 255 237 240 255 237 240 255 237 240 255 237 240 255 237 240 255 237 240 255 236 239 255 237 240 255 237 240 255 237 240 255 237 240 255 238 241 255 238 241 255 238 241 255 238 241 255 238 241 255 237 240 255 238 241 255 240 242 255 238 241 255 238 241 255 238 241 255 238 241 255 238 241 255 238 241 255 238 241 255 238 241 255 238 241 255 238 241 255 238 241 255 236 239 255 234 238 255 238 241 255 232 236 255 230 235 255 237 240 255 222 228 255 216 222 255 217 224 255 217 224 255 196 206 233 175 185 233 175 185 233 175 185 227 171 181 227 171 181 233 175 185 233 175 185 233 175 185 233 175 185 227 171 181 255 226 231 255 240 242 255 242 245 255 242 245 255 240 242 255 240 242 255 240 242 255 240 242 255 240 242 255 240 242 255 240 242 255 242 245 255 237 240 255 237 240 255 226 231 255 221 227 255 209 217 255 202 211 249 187 198 255 196 206 222 167 177 211 159 168 255 198 208 255 222 228 255 234 238 255 214 221 233 175 185 255 226 231 255 196 206 233 175 185 179 134 142 184 138 146 255 200 209 244 183 194 222 167 177 227 171 181 255 212 219 146 110 116 157 118 125 146 110 116 255 206 215 255 232 236 255 206 215 255 237 240 255 198 208 255 224 229 255 236 239 255 225 230 255 233 237 255 198 208 195 147 155 244 183 194 255 213 220 255 236 239 255 233 237 255 229 233 200 151 159 157 118 125 146 110 116 146 110 116 146 110 116 146 110 116 135 102 107 135 102 107 135 102 107 135 102 107 135 102 107 130 98 103 146 110 116 195 147 155 255 214 221 255 229 233 255 230 235 255 229 233 255 216 222 255 201 210 255 201 210 255 200 209 255 200 209 255 200 209 255 201 210 255 202 211 255 202 211 255 205 214 255 202 211 255 200 209 255 196 206 255 196 206 255 196 206 
255 198 208 255 198 208 255 198 208 255 198 208 255 198 208 255 198 208 255 201 210 255 202 211 255 201 210 255 200 209 255 200 209 255 202 211 255 216 222 255 233 237 255 232 236 255 228 232 255 198 208 130 98 103 130 98 103 244 183 194 206 155 164 92 69 73 255 214 221 255 208 216 195 147 155 135 102 107 135 102 107 135 102 107 135 102 107 135 102 107 135 102 107 135 102 107 255 196 206 255 234 238 255 230 235 255 233 237 249 187 198 146 110 116 146 110 116 200 151 159 233 175 185 255 208 216 255 228 232 255 234 238 255 236 239 255 237 240 255 210 218 184 138 146 146 110 116 146 110 116 146 110 116 146 110 116 146 110 116 135 102 107 135 102 107 146 110 116 255 198 208 255 233 237 255 236 239 255 237 240 255 212 219 255 236 239 255 236 239 255 236 239 255 236 239 255 236 239 255 237 240 255 236 239 255 236 239 255 236 239 255 236 239 255 236 239 255 236 239 255 236 239 255 236 239 255 236 239 255 236 239 255 236 239 255 236 239 255 236 239 255 236 239 255 237 240 255 237 240 255 236 239 255 236 239 255 236 239 255 236 239 255 236 239 255 237 240 255 237 240 255 237 240 255 237 240 255 237 240 255 238 241 255 238 241 255 238 241 255 238 241 255 238 241 255 238 241 255 238 241 255 238 241 255 238 241 255 238 241 255 238 241 255 238 241 255 238 241 255 238 241 255 238 241 255 238 241 255 238 241 255 238 241 255 238 241 255 238 241 255 238 241 255 238 241 255 240 242 255 212 219 255 229 233 255 240 242 255 233 237 255 234 238 255 242 245 255 240 242 255 206 215 227 171 181 227 171 181 227 171 181 227 171 181 227 171 181 227 171 181 227 171 181 255 208 216 255 234 238 255 240 242 255 242 245 255 240 242 255 240 242 255 240 242 255 240 242 255 240 242 255 240 242 255 240 242 255 240 242 255 238 241 255 234 238 255 232 236 255 220 226 255 213 220 255 216 222 255 208 216 217 163 172 222 167 177 255 206 215 255 196 206 255 225 230 255 236 239 222 167 177 255 200 209 255 205 214 195 147 155 146 110 116 146 110 116 146 110 116 146 110 116 146 110 116 227 171 181 255 198 208 255 212 219 255 193 204 255 205 214 146 110 116 206 155 164 206 155 164 255 225 230 255 233 237 255 232 236 255 233 237 255 232 236 255 232 236 255 234 238 255 232 236 255 201 210 135 102 107 130 98 103 255 222 228 255 233 237 255 234 238 233 175 185 135 102 107 135 102 107 130 98 103 130 98 103 130 98 103 92 69 73 92 69 73 92 69 73 92 69 73 130 98 103 130 98 103 135 102 107 206 155 164 255 233 237 255 229 233 255 230 235 255 229 233 255 221 227 255 200 209 255 200 209 255 200 209 255 200 209 255 200 209 255 200 209 255 201 210 255 202 211 255 205 214 255 202 211 255 200 209 255 196 206 255 196 206 255 193 204 
255 198 208 255 198 208 255 198 208 255 198 208 255 198 208 255 198 208 255 201 210 255 202 211 255 201 210 255 200 209 255 200 209 255 202 211 255 216 222 255 233 237 255 232 236 255 228 232 255 198 208 130 98 103 130 98 103 244 183 194 206 155 164 92 69 73 255 214 221 255 208 216 195 147 155 135 102 107 135 102 107 135 102 107 135 102 107 135 102 107 135 102 107 135 102 107 255 196 206 255 234 238 255 230 235 255 233 237 249 187 198 146 110 116 146 110 116 200 151 159 233 175 185 255 208 216 255 228 232 255 234 238 255 236 239 255 237 240 255 210 218 184 138 146 146 110 116 146 110 116 146 110 116 146 110 116 146 110 116 135 102 107 135 102 107 146 110 116 255 198 208 255 233 237 255 236 239 255 237 240 255 212 219 255 236 239 255 236 239 255 236 239 255 236 239 255 236 239 255 237 240 255 236 239 255 236 239 255 236 239 255 236 239 255 236 239 255 236 239 255 236 239 255 236 239 255 236 239 255 236 239 255 236 239 255 236 239 255 236 239 255 236 239 255 237 240 255 237 240 255 236 239 255 236 239 255 236 239 255 236 239 255 236 239 255 237 240 255 237 240 255 237 240 255 237 240 255 237 240 255 238 241 255 238 241 255 238 241 255 238 241 255 238 241 255 238 241 255 238 241 255 238 241 255 238 241 255 238 241 255 238 241 255 238 241 255 238 241 255 238 241 255 238 241 255 238 241 255 238 241 255 238 241 255 238 241 255 238 241 255 238 241 255 238 241 255 240 242 255 212 219 255 229 233 255 240 242 255 233 237 255 234 238 255 242 245 255 240 242 255 206 215 227 171 181 227 171 181 227 171 181 227 171 181 227 171 181 227 171 181 227 171 181 255 208 216 255 234 238 255 240 242 255 242 245 255 240 242 255 240 242 255 240 242 255 240 242 255 240 242 255 240 242 255 240 242 255 240 242 255 238 241 255 234 238 255 232 236 255 220 226 255 213 220 255 216 222 255 208 216 217 163 172 222 167 177 255 206 215 255 196 206 255 225 230 255 236 239 222 167 177 255 200 209 255 205 214 195 147 155 146 110 116 146 110 116 146 110 116 146 110 116 146 110 116 227 171 181 255 198 208 255 212 219 255 193 204 255 205 214 146 110 116 206 155 164 206 155 164 255 225 230 255 233 237 255 232 236 255 233 237 255 232 236 255 232 236 255 234 238 255 232 236 255 201 210 135 102 107 130 98 103 255 222 228 255 233 237 255 234 238 233 175 185 135 102 107 135 102 107 130 98 103 130 98 103 130 98 103 92 69 73 92 69 73 92 69 73 92 69 73 130 98 103 130 98 103 135 102 107 206 155 164 255 233 237 255 229 233 255 230 235 255 229 233 255 221 227 255 200 209 255 200 209 255 200 209 255 200 209 255 200 209 255 200 209 255 201 210 255 202 211 255 205 214 255 202 211 255 200 209 255 196 206 255 196 206 255 193 204 
255 196 206 255 196 206 255 196 206 255 196 206 255 196 206 255 198 208 255 200 209 255 202 211 255 201 210 255 200 209 255 202 211 255 225 230 255 202 211 255 201 210 255 201 210 255 200 209 255 209 217 255 228 232 157 118 125 130 98 103 179 134 142 217 163 172 255 198 208 255 234 238 222 167 177 206 155 164 200 151 159 179 134 142 184 138 146 146 110 116 130 98 103 130 98 103 86 65 69 255 209 217 255 232 236 255 228 232 227 171 181 146 110 116 157 118 125 217 163 172 255 213 220 255 228 232 255 236 239 255 236 239 255 236 239 255 237 240 249 187 198 135 102 107 135 102 107 135 102 107 135 102 107 179 134 142 255 224 229 255 236 239 255 236 239 255 234 238 255 234 238 255 234 238 255 236 239 255 236 239 255 236 239 255 236 239 255 236 239 255 236 239 255 236 239 255 236 239 255 236 239 255 236 239 255 236 239 255 236 239 255 236 239 255 236 239 255 236 239 255 236 239 255 236 239 255 236 239 255 237 240 255 237 240 255 236 239 255 236 239 255 236 239 255 237 240 255 237 240 255 237 240 255 237 240 255 236 239 255 236 239 255 236 239 255 237 240 255 237 240 255 237 240 255 237 240 255 237 240 255 237 240 255 237 240 255 237 240 255 237 240 255 237 240 255 238 241 255 238 241 255 238 241 255 238 241 255 238 241 255 238 241 255 238 241 255 238 241 255 238 241 255 238 241 255 238 241 255 238 241 255 238 241 255 238 241 255 238 241 255 238 241 255 238 241 255 238 241 255 238 241 255 238 241 255 240 242 255 240 242 255 240 242 255 240 242 255 240 242 255 238 241 255 229 233 255 214 221 255 224 229 255 224 229 255 221 227 255 220 226 255 221 227 255 226 231 255 237 240 255 238 241 255 240 242 255 240 242 255 240 242 255 240 242 255 240 242 255 240 242 255 240 242 255 240 242 255 240 242 255 238 241 255 237 240 255 234 238 255 229 233 255 212 219 255 201 210 255 200 209 222 167 177 227 171 181 255 206 215 255 202 211 255 208 216 255 212 219 233 175 185 255 200 209 255 205 214 244 183 194 146 110 116 135 102 107 135 102 107 135 102 107 135 102 107 146 110 116 255 196 206 255 210 218 255 221 227 157 118 125 255 212 219 255 196 206 146 110 116 146 110 116 211 159 168 255 229 233 255 233 237 255 233 237 255 234 238 255 234 238 255 233 237 255 230 235 255 205 214 222 167 177 255 198 208 255 229 233 255 229 233 195 147 155 135 102 107 92 69 73 92 69 73 92 69 73 92 69 73 92 69 73 92 69 73 92 69 73 92 69 73 92 69 73 92 69 73 92 69 73 195 147 155 255 233 237 255 230 235 255 229 233 255 232 236 255 209 217 255 200 209 255 196 206 255 200 209 255 200 209 255 200 209 255 200 209 255 200 209 255 201 210 255 202 211 255 202 211 255 198 208 255 196 206 255 193 204 255 193 204 
255 196 206 255 196 206 255 196 206 255 196 206 255 196 206 255 198 208 255 200 209 255 202 211 255 201 210 255 200 209 255 202 211 255 225 230 255 202 211 255 201 210 255 201 210 255 200 209 255 209 217 255 228 232 157 118 125 130 98 103 179 134 142 217 163 172 255 198 208 255 234 238 222 167 177 206 155 164 200 151 159 179 134 142 184 138 146 146 110 116 130 98 103 130 98 103 86 65 69 255 209 217 255 232 236 255 228 232 227 171 181 146 110 116 157 118 125 217 163 172 255 213 220 255 228 232 255 236 239 255 236 239 255 236 239 255 237 240 249 187 198 135 102 107 135 102 107 135 102 107 135 102 107 179 134 142 255 224 229 255 236 239 255 236 239 255 234 238 255 234 238 255 234 238 255 236 239 255 236 239 255 236 239 255 236 239 255 236 239 255 236 239 255 236 239 255 236 239 255 236 239 255 236 239 255 236 239 255 236 239 255 236 239 255 236 239 255 236 239 255 236 239 255 236 239 255 236 239 255 237 240 255 237 240 255 236 239 255 236 239 255 236 239 255 237 240 255 237 240 255 237 240 255 237 240 255 236 239 255 236 239 255 236 239 255 237 240 255 237 240 255 237 240 255 237 240 255 237 240 255 237 240 255 237 240 255 237 240 255 237 240 255 237 240 255 238 241 255 238 241 255 238 241 255 238 241 255 238 241 255 238 241 255 238 241 255 238 241 255 238 241 255 238 241 255 238 241 255 238 241 255 238 241 255 238 241 255 238 241 255 238 241 255 238 241 255 238 241 255 238 241 255 238 241 255 240 242 255 240 242 255 240 242 255 240 242 255 240 242 255 238 241 255 229 233 255 214 221 255 224 229 255 224 229 255 221 227 255 220 226 255 221 227 255 226 231 255 237 240 255 238 241 255 240 242 255 240 242 255 240 242 255 240 242 255 240 242 255 240 242 255 240 242 255 240 242 255 240 242 255 238 241 255 237 240 255 234 238 255 229 233 255 212 219 255 201 210 255 200 209 222 167 177 227 171 181 255 206 215 255 202 211 255 208 216 255 212 219 233 175 185 255 200 209 255 205 214 244 183 194 146 110 116 135 102 107 135 102 107 135 102 107 135 102 107 146 110 116 255 196 206 255 210 218 255 221 227 157 118 125 255 212 219 255 196 206 146 110 116 146 110 116 211 159 168 255 229 233 255 233 237 255 233 237 255 234 238 255 234 238 255 233 237 255 230 235 255 205 214 222 167 177 255 198 208 255 229 233 255 229 233 195 147 155 135 102 107 92 69 73 92 69 73 92 69 73 92 69 73 92 69 73 92 69 73 92 69 73 92 69 73 92 69 73 92 69 73 92 69 73 195 147 155 255 233 237 255 230 235 255 229 233 255 232 236 255 209 217 255 200 209 255 196 206 255 200 209 255 200 209 255 200 209 255 200 209 255 200 209 255 201 210 255 202 211 255 202 211 255 198 208 255 196 206 255 193 204 255 193 204 
255 196 206 255 196 206 255 196 206 255 196 206 255 196 206 255 198 208 255 200 209 255 202 211 255 201 210 255 200 209 255 216 222 255 200 209 255 200 209 255 198 208 255 200 209 255 201 210 255 200 209 255 200 209 255 201 210 217 163 172 92 69 73 86 65 69 255 198 208 255 233 237 255 198 208 255 222 228 222 167 177 92 69 73 92 69 73 92 69 73 92 69 73 130 98 103 130 98 103 179 134 142 255 233 237 255 222 228 217 163 172 179 134 142 135 102 107 255 198 208 233 175 185 249 187 198 255 200 209 255 232 236 255 236 239 255 236 239 255 237 240 255 226 231 255 216 222 255 230 235 255 237 240 255 236 239 255 234 238 255 234 238 255 234 238 255 234 238 255 234 238 255 234 238 255 234 238 255 234 238 255 236 239 255 236 239 255 236 239 255 236 239 255 236 239 255 236 239 255 236 239 255 236 239 255 236 239 255 236 239 255 236 239 255 236 239 255 236 239 255 236 239 255 236 239 255 236 239 255 236 239 255 236 239 255 234 238 255 234 238 255 234 238 255 236 239 255 236 239 255 236 239 255 236 239 255 236 239 255 236 239 255 236 239 255 236 239 255 236 239 255 237 240 255 237 240 255 237 240 255 237 240 255 237 240 255 237 240 255 237 240 255 237 240 255 238 241 255 238 241 255 237 240 255 237 240 255 237 240 255 237 240 255 237 240 255 238 241 255 238 241 255 238 241 255 238 241 255 238 241 255 238 241 255 238 241 255 238 241 255 238 241 255 238 241 255 238 241 255 238 241 255 238 241 255 240 242 255 240 242 255 240 242 255 240 242 255 240 242 255 242 245 255 238 241 255 238 241 255 238 241 255 240 242 255 238 241 255 238 241 255 240 242 255 240 242 255 240 242 255 238 241 255 238 241 255 240 242 255 240 242 255 240 242 255 240 242 255 240 242 255 240 242 255 240 242 255 240 242 255 238 241 255 234 238 255 229 233 255 226 231 255 202 211 255 201 210 255 193 204 217 163 172 222 167 177 217 163 172 255 230 235 255 196 206 255 205 214 249 187 198 255 208 216 255 198 208 146 110 116 135 102 107 130 98 103 135 102 107 135 102 107 135 102 107 135 102 107 135 102 107 135 102 107 179 134 142 255 216 222 255 208 216 92 69 73 255 228 232 255 209 217 135 102 107 130 98 103 233 175 185 255 216 222 255 228 232 255 228 232 255 232 236 255 232 236 255 226 231 255 201 210 179 134 142 255 193 204 255 209 217 86 65 69 81 61 64 86 65 69 86 65 69 86 65 69 86 65 69 86 65 69 86 65 69 86 65 69 86 65 69 86 65 69 86 65 69 86 65 69 135 102 107 255 229 233 255 228 232 255 229 233 255 213 220 255 200 209 255 198 208 255 200 209 255 198 208 255 198 208 255 200 209 255 200 209 255 200 209 255 201 210 255 202 211 255 201 210 255 198 208 255 196 206 255 193 204 255 193 204 
255 196 206 255 196 206 255 196 206 255 196 206 255 196 206 255 198 208 255 200 209 255 202 211 255 201 210 255 200 209 255 216 222 255 200 209 255 200 209 255 198 208 255 200 209 255 201 210 255 200 209 255 200 209 255 201 210 217 163 172 92 69 73 86 65 69 255 198 208 255 233 237 255 198 208 255 222 228 222 167 177 92 69 73 92 69 73 92 69 73 92 69 73 130 98 103 130 98 103 179 134 142 255 233 237 255 222 228 217 163 172 179 134 142 135 102 107 255 198 208 233 175 185 249 187 198 255 200 209 255 232 236 255 236 239 255 236 239 255 237 240 255 226 231 255 216 222 255 230 235 255 237 240 255 236 239 255 234 238 255 234 238 255 234 238 255 234 238 255 234 238 255 234 238 255 234 238 255 234 238 255 236 239 255 236 239 255 236 239 255 236 239 255 236 239 255 236 239 255 236 239 255 236 239 255 236 239 255 236 239 255 236 239 255 236 239 255 236 239 255 236 239 255 236 239 255 236 239 255 236 239 255 236 239 255 234 238 255 234 238 255 234 238 255 236 239 255 236 239 255 236 239 255 236 239 255 236 239 255 236 239 255 236 239 255 236 239 255 236 239 255 237 240 255 237 240 255 237 240 255 237 240 255 237 240 255 237 240 255 237 240 255 237 240 255 238 241 255 238 241 255 237 240 255 237 240 255 237 240 255 237 240 255 237 240 255 238 241 255 238 241 255 238 241 255 238 241 255 238 241 255 238 241 255 238 241 255 238 241 255 238 241 255 238 241 255 238 241 255 238 241 255 238 241 255 240 242 255 240 242 255 240 242 255 240 242 255 240 242 255 242 245 255 238 241 255 238 241 255 238 241 255 240 242 255 238 241 255 238 241 255 240 242 255 240 242 255 240 242 255 238 241 255 238 241 255 240 242 255 240 242 255 240 242 255 240 242 255 240 242 255 240 242 255 240 242 255 240 242 255 238 241 255 234 238 255 229 233 255 226 231 255 202 211 255 201 210 255 193 204 217 163 172 222 167 177 217 163 172 255 230 235 255 196 206 255 205 214 249 187 198 255 208 216 255 198 208 146 110 116 135 102 107 130 98 103 135 102 107 135 102 107 135 102 107 135 102 107 135 102 107 135 102 107 179 134 142 255 216 222 255 208 216 92 69 73 255 228 232 255 209 217 135 102 107 130 98 103 233 175 185 255 216 222 255 228 232 255 228 232 255 232 236 255 232 236 255 226 231 255 201 210 179 134 142 255 193 204 255 209 217 86 65 69 81 61 64 86 65 69 86 65 69 86 65 69 86 65 69 86 65 69 86 65 69 86 65 69 86 65 69 86 65 69 86 65 69 86 65 69 135 102 107 255 229 233 255 228 232 255 229 233 255 213 220 255 200 209 255 198 208 255 200 209 255 198 208 255 198 208 255 200 209 255 200 209 255 200 209 255 201 210 255 202 211 255 201 210 255 198 208 255 196 206 255 193 204 255 193 204 
255 196 206 255 196 206 255 196 206 255 196 206 255 196 206 255 198 208 255 200 209 255 201 210 255 200 209 255 202 211 211 159 168 255 205 214 255 198 208 255 198 208 255 198 208 255 198 208 255 198 208 255 198 208 255 200 209 255 200 209 255 205 214 179 134 142 86 65 69 249 187 198 255 206 215 255 220 226 86 65 69 92 69 73 211 159 168 86 65 69 86 65 69 92 69 73 92 69 73 92 69 73 217 163 172 255 233 237 255 226 231 146 110 116 195 147 155 255 229 233 255 230 235 255 233 237 255 234 238 255 236 239 255 234 238 255 234 238 255 234 238 255 233 237 255 234 238 255 234 238 255 234 238 255 234 238 255 234 238 255 234 238 255 234 238 255 234 238 255 234 238 255 234 238 255 234 238 255 236 239 255 236 239 255 234 238 255 234 238 255 236 239 255 236 239 255 236 239 255 236 239 255 236 239 255 234 238 255 234 238 255 234 238 255 236 239 255 236 239 255 236 239 255 236 239 255 236 239 255 236 239 255 236 239 255 234 238 255 234 238 255 234 238 255 236 239 255 236 239 255 236 239 255 236 239 255 236 239 255 236 239 255 236 239 255 236 239 255 236 239 255 236 239 255 237 240 255 237 240 255 237 240 255 237 240 255 237 240 255 237 240 255 237 240 255 237 240 255 237 240 255 236 239 255 236 239 255 237 240 255 237 240 255 237 240 255 237 240 255 237 240 255 237 240 255 237 240 255 237 240 255 237 240 255 237 240 255 238 241 255 238 241 255 238 241 255 238 241 255 238 241 255 238 241 255 238 241 255 238 241 255 238 241 255 238 241 255 238 241 255 238 241 255 238 241 255 238 241 255 238 241 255 240 242 255 240 242 255 240 242 255 240 242 255 240 242 255 238 241 255 238 241 255 238 241 255 240 242 255 240 242 255 240 242 255 240 242 255 240 242 255 240 242 255 240 242 255 240 242 255 237 240 255 228 232 255 214 221 255 209 217 255 202 211 249 187 198 244 183 194 206 155 164 249 187 198 227 171 181 255 208 216 195 147 155 255 205 214 255 193 204 255 222 228 135 102 107 135 102 107 130 98 103 135 102 107 130 98 103 130 98 103 130 98 103 135 102 107 135 102 107 135 102 107 135 102 107 211 159 168 227 171 181 255 238 241 255 193 204 249 187 198 255 244 246 249 187 198 92 69 73 146 110 116 86 65 69 255 200 209 255 209 217 255 225 230 255 225 230 255 212 219 146 110 116 179 134 142 86 65 69 81 61 64 81 61 64 86 65 69 81 61 64 81 61 64 81 61 64 81 61 64 81 61 64 81 61 64 81 61 64 81 61 64 81 61 64 81 61 64 81 61 64 244 183 194 255 225 230 255 208 216 255 198 208 255 196 206 255 198 208 255 198 208 255 198 208 255 198 208 255 198 208 255 198 208 255 198 208 255 200 209 255 201 210 255 200 209 255 198 208 255 193 204 249 187 198 249 187 198 
255 196 206 255 196 206 255 196 206 255 196 206 255 196 206 255 198 208 255 200 209 255 201 210 255 200 209 255 202 211 211 159 168 255 205 214 255 198 208 255 198 208 255 198 208 255 198 208 255 198 208 255 198 208 255 200 209 255 200 209 255 205 214 179 134 142 86 65 69 249 187 198 255 206 215 255 220 226 86 65 69 92 69 73 211 159 168 86 65 69 86 65 69 92 69 73 92 69 73 92 69 73 217 163 172 255 233 237 255 226 231 146 110 116 195 147 155 255 229 233 255 230 235 255 233 237 255 234 238 255 236 239 255 234 238 255 234 238 255 234 238 255 233 237 255 234 238 255 234 238 255 234 238 255 234 238 255 234 238 255 234 238 255 234 238 255 234 238 255 234 238 255 234 238 255 234 238 255 236 239 255 236 239 255 234 238 255 234 238 255 236 239 255 236 239 255 236 239 255 236 239 255 236 239 255 234 238 255 234 238 255 234 238 255 236 239 255 236 239 255 236 239 255 236 239 255 236 239 255 236 239 255 236 239 255 234 238 255 234 238 255 234 238 255 236 239 255 236 239 255 236 239 255 236 239 255 236 239 255 236 239 255 236 239 255 236 239 255 236 239 255 236 239 255 237 240 255 237 240 255 237 240 255 237 240 255 237 240 255 237 240 255 237 240 255 237 240 255 237 240 255 236 239 255 236 239 255 237 240 255 237 240 255 237 240 255 237 240 255 237 240 255 237 240 255 237 240 255 237 240 255 237 240 255 237 240 255 238 241 255 238 241 255 238 241 255 238 241 255 238 241 255 238 241 255 238 241 255 238 241 255 238 241 255 238 241 255 238 241 255 238 241 255 238 241 255 238 241 255 238 241 255 240 242 255 240 242 255 240 242 255 240 242 255 240 242 255 238 241 255 238 241 255 238 241 255 240 242 255 240 242 255 240 242 255 240 242 255 240 242 255 240 242 255 240 242 255 240 242 255 237 240 255 228 232 255 214 221 255 209 217 255 202 211 249 187 198 244 183 194 206 155 164 249 187 198 227 171 181 255 208 216 195 147 155 255 205 214 255 193 204 255 222 228 135 102 107 135 102 107 130 98 103 135 102 107 130 98 103 130 98 103 130 98 103 135 102 107 135 102 107 135 102 107 135 102 107 211 159 168 227 171 181 255 238 241 255 193 204 249 187 198 255 244 246 249 187 198 92 69 73 146 110 116 86 65 69 255 200 209 255 209 217 255 225 230 255 225 230 255 212 219 146 110 116 179 134 142 86 65 69 81 61 64 81 61 64 86 65 69 81 61 64 81 61 64 81 61 64 81 61 64 81 61 64 81 61 64 81 61 64 81 61 64 81 61 64 81 61 64 81 61 64 244 183 194 255 225 230 255 208 216 255 198 208 255 196 206 255 198 208 255 198 208 255 198 208 255 198 208 255 198 208 255 198 208 255 198 208 255 200 209 255 201 210 255 200 209 255 198 208 255 193 204 249 187 198 249 187 198 
255 193 204 255 193 204 255 193 204 255 193 204 255 196 206 255 196 206 255 200 209 255 200 209 255 200 209 255 202 211 184 138 146 255 228 232 255 208 216 255 198 208 255 193 204 255 196 206 255 198 208 255 198 208 255 198 208 255 198 208 255 196 206 255 201 210 211 159 168 81 61 64 92 69 73 157 118 125 130 98 103 255 220 226 146 110 116 157 118 125 135 102 107 92 69 73 146 110 116 249 187 198 65 49 51 255 224 229 255 217 224 184 138 146 244 183 194 255 217 224 255 229 233 255 234 238 255 234 238 255 234 238 255 234 238 255 234 238 255 234 238 255 234 238 255 234 238 255 234 238 255 234 238 255 234 238 255 234 238 255 234 238 255 234 238 255 234 238 255 234 238 255 234 238 255 234 238 255 234 238 255 234 238 255 234 238 255 234 238 255 234 238 255 234 238 255 234 238 255 234 238 255 234 238 255 234 238 255 234 238 255 234 238 255 234 238 255 234 238 255 234 238 255 234 238 255 236 239 255 236 239 255 236 239 255 234 238 255 234 238 255 234 238 255 236 239 255 236 239 255 236 239 255 236 239 255 236 239 255 236 239 255 236 239 255 236 239 255 236 239 255 236 239 255 236 239 255 236 239 255 237 240 255 237 240 255 237 240 255 237 240 255 237 240 255 236 239 255 236 239 255 236 239 255 237 240 255 237 240 255 237 240 255 237 240 255 236 239 255 236 239 255 236 239 255 237 240 255 237 240 255 237 240 255 237 240 255 237 240 255 237 240 255 238 241 255 238 241 255 238 241 255 238 241 255 238 241 255 238 241 255 238 241 255 238 241 255 238 241 255 238 241 255 238 241 255 238 241 255 238 241 255 240 242 255 240 242 255 238 241 255 238 241 255 238 241 255 238 241 255 238 241 255 238 241 255 238 241 255 238 241 255 238 241 255 240 242 255 240 242 255 240 242 255 240 242 255 237 240 255 232 236 255 209 217 255 202 211 255 193 204 233 175 185 217 163 172 184 138 146 157 118 125 222 167 177 244 183 194 222 167 177 211 159 168 233 175 185 255 208 216 211 159 168 130 98 103 130 98 103 130 98 103 130 98 103 130 98 103 130 98 103 130 98 103 130 98 103 135 102 107 135 102 107 135 102 107 130 98 103 233 175 185 255 228 232 255 226 231 255 234 238 255 200 209 255 229 233 255 224 229 92 69 73 135 102 107 135 102 107 81 61 64 227 171 181 184 138 146 233 175 185 92 69 73 86 65 69 81 61 64 81 61 64 81 61 64 81 61 64 81 61 64 81 61 64 81 61 64 81 61 64 81 61 64 81 61 64 81 61 64 81 61 64 81 61 64 70 53 56 70 53 56 255 209 217 255 228 232 255 228 232 255 202 211 255 198 208 255 196 206 255 196 206 255 196 206 255 198 208 255 196 206 255 198 208 255 198 208 255 200 209 255 201 210 255 200 209 255 198 208 255 193 204 249 187 198 249 187 198 
255 193 204 255 193 204 255 193 204 255 193 204 255 196 206 255 196 206 255 200 209 255 200 209 255 200 209 255 202 211 184 138 146 255 228 232 255 208 216 255 198 208 255 193 204 255 196 206 255 198 208 255 198 208 255 198 208 255 198 208 255 196 206 255 201 210 211 159 168 81 61 64 92 69 73 157 118 125 130 98 103 255 220 226 146 110 116 157 118 125 135 102 107 92 69 73 146 110 116 249 187 198 65 49 51 255 224 229 255 217 224 184 138 146 244 183 194 255 217 224 255 229 233 255 234 238 255 234 238 255 234 238 255 234 238 255 234 238 255 234 238 255 234 238 255 234 238 255 234 238 255 234 238 255 234 238 255 234 238 255 234 238 255 234 238 255 234 238 255 234 238 255 234 238 255 234 238 255 234 238 255 234 238 255 234 238 255 234 238 255 234 238 255 234 238 255 234 238 255 234 238 255 234 238 255 234 238 255 234 238 255 234 238 255 234 238 255 234 238 255 234 238 255 234 238 255 236 239 255 236 239 255 236 239 255 234 238 255 234 238 255 234 238 255 236 239 255 236 239 255 236 239 255 236 239 255 236 239 255 236 239 255 236 239 255 236 239 255 236 239 255 236 239 255 236 239 255 236 239 255 237 240 255 237 240 255 237 240 255 237 240 255 237 240 255 236 239 255 236 239 255 236 239 255 237 240 255 237 240 255 237 240 255 237 240 255 236 239 255 236 239 255 236 239 255 237 240 255 237 240 255 237 240 255 237 240 255 237 240 255 237 240 255 238 241 255 238 241 255 238 241 255 238 241 255 238 241 255 238 241 255 238 241 255 238 241 255 238 241 255 238 241 255 238 241 255 238 241 255 238 241 255 240 242 255 240 242 255 238 241 255 238 241 255 238 241 255 238 241 255 238 241 255 238 241 255 238 241 255 238 241 255 238 241 255 240 242 255 240 242 255 240 242 255 240 242 255 237 240 255 232 236 255 209 217 255 202 211 255 193 204 233 175 185 217 163 172 184 138 146 157 118 125 222 167 177 244 183 194 222 167 177 211 159 168 233 175 185 255 208 216 211 159 168 130 98 103 130 98 103 130 98 103 130 98 103 130 98 103 130 98 103 130 98 103 130 98 103 135 102 107 135 102 107 135 102 107 130 98 103 233 175 185 255 228 232 255 226 231 255 234 238 255 200 209 255 229 233 255 224 229 92 69 73 135 102 107 135 102 107 81 61 64 227 171 181 184 138 146 233 175 185 92 69 73 86 65 69 81 61 64 81 61 64 81 61 64 81 61 64 81 61 64 81 61 64 81 61 64 81 61 64 81 61 64 81 61 64 81 61 64 81 61 64 81 61 64 70 53 56 70 53 56 255 209 217 255 228 232 255 228 232 255 202 211 255 198 208 255 196 206 255 196 206 255 196 206 255 198 208 255 196 206 255 198 208 255 198 208 255 200 209 255 201 210 255 200 209 255 198 208 255 193 204 249 187 198 249 187 198 
255 193 204 255 193 204 255 193 204 255 193 204 255 193 204 255 196 206 255 198 208 255 200 209 255 200 209 255 200 209 184 138 146 195 147 155 255 228 232 255 224 229 255 209 217 255 200 209 255 198 208 255 196 206 255 196 206 255 198 208 255 193 204 255 196 206 255 198 208 86 65 69 81 61 64 92 69 73 184 138 146 255 216 222 255 226 231 255 228 232 255 220 226 255 230 235 255 232 236 255 230 235 211 159 168 255 220 226 255 230 235 249 187 198 146 110 116 255 213 220 255 233 237 255 233 237 255 233 237 255 233 237 255 234 238 255 234 238 255 234 238 255 234 238 255 234 238 255 233 237 255 233 237 255 233 237 255 233 237 255 233 237 255 234 238 255 234 238 255 234 238 255 234 238 255 234 238 255 234 238 255 234 238 255 234 238 255 234 238 255 233 237 255 233 237 255 233 237 255 233 237 255 233 237 255 233 237 255 233 237 255 233 237 255 234 238 255 234 238 255 234 238 255 234 238 255 234 238 255 234 238 255 234 238 255 234 238 255 234 238 255 234 238 255 234 238 255 234 238 255 234 238 255 234 238 255 234 238 255 236 239 255 236 239 255 236 239 255 236 239 255 236 239 255 236 239 255 236 239 255 236 239 255 236 239 255 236 239 255 236 239 255 236 239 255 236 239 255 236 239 255 236 239 255 236 239 255 236 239 255 236 239 255 236 239 255 236 239 255 236 239 255 236 239 255 236 239 255 236 239 255 236 239 255 236 239 255 236 239 255 237 240 255 237 240 255 238 241 255 238 241 255 238 241 255 238 241 255 238 241 255 238 241 255 238 241 255 238 241 255 238 241 255 238 241 255 238 241 255 238 241 255 238 241 255 238 241 255 238 241 255 238 241 255 238 241 255 238 241 255 238 241 255 238 241 255 238 241 255 238 241 255 238 241 255 238 241 255 238 241 255 238 241 255 237 240 255 233 237 255 214 221 255 209 217 249 187 198 249 187 198 227 171 181 195 147 155 195 147 155 146 110 116 179 134 142 206 155 164 255 208 216 195 147 155 146 110 116 157 118 125 92 69 73 92 69 73 130 98 103 130 98 103 130 98 103 130 98 103 130 98 103 130 98 103 130 98 103 157 118 125 135 102 107 135 102 107 130 98 103 146 110 116 195 147 155 255 212 219 255 234 238 255 233 237 255 233 237 255 222 228 255 214 221 195 147 155 86 65 69 200 151 159 92 69 73 86 65 69 217 163 172 86 65 69 70 53 56 81 61 64 81 61 64 81 61 64 81 61 64 81 61 64 81 61 64 81 61 64 81 61 64 81 61 64 81 61 64 81 61 64 81 61 64 81 61 64 70 53 56 184 138 146 255 229 233 255 228 232 255 225 230 255 198 208 255 196 206 255 196 206 255 196 206 255 196 206 255 196 206 255 196 206 255 196 206 255 196 206 255 198 208 255 200 209 255 200 209 255 196 206 255 193 204 249 187 198 249 187 198 
255 193 204 255 193 204 255 193 204 255 193 204 255 193 204 255 196 206 255 198 208 255 200 209 255 200 209 255 200 209 184 138 146 195 147 155 255 228 232 255 224 229 255 209 217 255 200 209 255 198 208 255 196 206 255 196 206 255 198 208 255 193 204 255 196 206 255 198 208 86 65 69 81 61 64 92 69 73 184 138 146 255 216 222 255 226 231 255 228 232 255 220 226 255 230 235 255 232 236 255 230 235 211 159 168 255 220 226 255 230 235 249 187 198 146 110 116 255 213 220 255 233 237 255 233 237 255 233 237 255 233 237 255 234 238 255 234 238 255 234 238 255 234 238 255 234 238 255 233 237 255 233 237 255 233 237 255 233 237 255 233 237 255 234 238 255 234 238 255 234 238 255 234 238 255 234 238 255 234 238 255 234 238 255 234 238 255 234 238 255 233 237 255 233 237 255 233 237 255 233 237 255 233 237 255 233 237 255 233 237 255 233 237 255 234 238 255 234 238 255 234 238 255 234 238 255 234 238 255 234 238 255 234 238 255 234 238 255 234 238 255 234 238 255 234 238 255 234 238 255 234 238 255 234 238 255 234 238 255 236 239 255 236 239 255 236 239 255 236 239 255 236 239 255 236 239 255 236 239 255 236 239 255 236 239 255 236 239 255 236 239 255 236 239 255 236 239 255 236 239 255 236 239 255 236 239 255 236 239 255 236 239 255 236 239 255 236 239 255 236 239 255 236 239 255 236 239 255 236 239 255 236 239 255 236 239 255 236 239 255 237 240 255 237 240 255 238 241 255 238 241 255 238 241 255 238 241 255 238 241 255 238 241 255 238 241 255 238 241 255 238 241 255 238 241 255 238 241 255 238 241 255 238 241 255 238 241 255 238 241 255 238 241 255 238 241 255 238 241 255 238 241 255 238 241 255 238 241 255 238 241 255 238 241 255 238 241 255 238 241 255 238 241 255 237 240 255 233 237 255 214 221 255 209 217 249 187 198 249 187 198 227 171 181 195 147 155 195 147 155 146 110 116 179 134 142 206 155 164 255 208 216 195 147 155 146 110 116 157 118 125 92 69 73 92 69 73 130 98 103 130 98 103 130 98 103 130 98 103 130 98 103 130 98 103 130 98 103 157 118 125 135 102 107 135 102 107 130 98 103 146 110 116 195 147 155 255 212 219 255 234 238 255 233 237 255 233 237 255 222 228 255 214 221 195 147 155 86 65 69 200 151 159 92 69 73 86 65 69 217 163 172 86 65 69 70 53 56 81 61 64 81 61 64 81 61 64 81 61 64 81 61 64 81 61 64 81 61 64 81 61 64 81 61 64 81 61 64 81 61 64 81 61 64 81 61 64 70 53 56 184 138 146 255 229 233 255 228 232 255 225 230 255 198 208 255 196 206 255 196 206 255 196 206 255 196 206 255 196 206 255 196 206 255 196 206 255 196 206 255 198 208 255 200 209 255 200 209 255 196 206 255 193 204 249 187 198 249 187 198 
255 193 204 255 193 204 255 193 204 255 193 204 255 193 204 255 196 206 255 198 208 255 200 209 255 200 209 255 198 208 255 200 209 211 159 168 179 134 142 255 216 222 255 225 230 255 226 231 255 228 232 255 209 217 255 198 208 255 198 208 255 201 210 255 193 204 65 49 51 70 53 56 65 49 51 70 53 56 130 98 103 255 222 228 255 222 228 255 222 228 255 229 233 255 229 233 255 230 235 255 224 229 255 206 215 130 98 103 255 225 230 255 196 206 81 61 64 249 187 198 255 229 233 255 233 237 255 233 237 255 233 237 255 233 237 255 233 237 255 233 237 255 233 237 255 233 237 255 233 237 255 233 237 255 233 237 255 233 237 255 233 237 255 233 237 255 233 237 255 233 237 255 233 237 255 234 238 255 233 237 255 233 237 255 233 237 255 233 237 255 233 237 255 233 237 255 233 237 255 233 237 255 233 237 255 233 237 255 233 237 255 233 237 255 233 237 255 234 238 255 234 238 255 234 238 255 234 238 255 234 238 255 234 238 255 234 238 255 234 238 255 234 238 255 234 238 255 234 238 255 234 238 255 234 238 255 234 238 255 234 238 255 234 238 255 234 238 255 234 238 255 236 239 255 236 239 255 236 239 255 236 239 255 236 239 255 236 239 255 236 239 255 236 239 255 236 239 255 236 239 255 236 239 255 236 239 255 236 239 255 236 239 255 236 239 255 236 239 255 236 239 255 236 239 255 236 239 255 236 239 255 236 239 255 236 239 255 236 239 255 236 239 255 236 239 255 237 240 255 237 240 255 237 240 255 237 240 255 237 240 255 237 240 255 237 240 255 237 240 255 237 240 255 237 240 255 237 240 255 237 240 255 237 240 255 237 240 255 237 240 255 238 241 255 238 241 255 238 241 255 238 241 255 238 241 255 238 241 255 238 241 255 238 241 255 238 241 255 238 241 255 237 240 255 237 240 255 226 231 255 202 211 255 202 211 227 171 181 244 183 194 184 138 146 130 98 103 130 98 103 146 110 116 130 98 103 135 102 107 255 205 214 206 155 164 135 102 107 130 98 103 92 69 73 92 69 73 92 69 73 92 69 73 92 69 73 92 69 73 92 69 73 92 69 73 130 98 103 135 102 107 135 102 107 255 200 209 255 234 238 255 220 226 255 220 226 255 224 229 255 229 233 255 233 237 255 232 236 255 230 235 255 213 220 255 193 204 200 151 159 65 49 51 255 193 204 184 138 146 81 61 64 81 61 64 81 61 64 81 61 64 81 61 64 81 61 64 81 61 64 70 53 56 70 53 56 70 53 56 81 61 64 81 61 64 81 61 64 81 61 64 81 61 64 65 49 51 81 61 64 249 187 198 255 233 237 255 210 218 255 198 208 255 193 204 255 196 206 255 196 206 255 196 206 255 196 206 255 196 206 255 196 206 255 196 206 255 196 206 255 198 208 255 200 209 255 200 209 255 196 206 255 193 204 249 187 198 249 187 198 
255 193 204 255 193 204 255 193 204 255 193 204 255 193 204 255 196 206 255 198 208 255 200 209 255 200 209 255 198 208 255 200 209 211 159 168 179 134 142 255 216 222 255 225 230 255 226 231 255 228 232 255 209 217 255 198 208 255 198 208 255 201 210 255 193 204 65 49 51 70 53 56 65 49 51 70 53 56 130 98 103 255 222 228 255 222 228 255 222 228 255 229 233 255 229 233 255 230 235 255 224 229 255 206 215 130 98 103 255 225 230 255 196 206 81 61 64 249 187 198 255 229 233 255 233 237 255 233 237 255 233 237 255 233 237 255 233 237 255 233 237 255 233 237 255 233 237 255 233 237 255 233 237 255 233 237 255 233 237 255 233 237 255 233 237 255 233 237 255 233 237 255 233 237 255 234 238 255 233 237 255 233 237 255 233 237 255 233 237 255 233 237 255 233 237 255 233 237 255 233 237 255 233 237 255 233 237 255 233 237 255 233 237 255 233 237 255 234 238 255 234 238 255 234 238 255 234 238 255 234 238 255 234 238 255 234 238 255 234 238 255 234 238 255 234 238 255 234 238 255 234 238 255 234 238 255 234 238 255 234 238 255 234 238 255 234 238 255 234 238 255 236 239 255 236 239 255 236 239 255 236 239 255 236 239 255 236 239 255 236 239 255 236 239 255 236 239 255 236 239 255 236 239 255 236 239 255 236 239 255 236 239 255 236 239 255 236 239 255 236 239 255 236 239 255 236 239 255 236 239 255 236 239 255 236 239 255 236 239 255 236 239 255 236 239 255 237 240 255 237 240 255 237 240 255 237 240 255 237 240 255 237 240 255 237 240 255 237 240 255 237 240 255 237 240 255 237 240 255 237 240 255 237 240 255 237 240 255 237 240 255 238 241 255 238 241 255 238 241 255 238 241 255 238 241 255 238 241 255 238 241 255 238 241 255 238 241 255 238 241 255 237 240 255 237 240 255 226 231 255 202 211 255 202 211 227 171 181 244 183 194 184 138 146 130 98 103 130 98 103 146 110 116 130 98 103 135 102 107 255 205 214 206 155 164 135 102 107 130 98 103 92 69 73 92 69 73 92 69 73 92 69 73 92 69 73 92 69 73 92 69 73 92 69 73 130 98 103 135 102 107 135 102 107 255 200 209 255 234 238 255 220 226 255 220 226 255 224 229 255 229 233 255 233 237 255 232 236 255 230 235 255 213 220 255 193 204 200 151 159 65 49 51 255 193 204 184 138 146 81 61 64 81 61 64 81 61 64 81 61 64 81 61 64 81 61 64 81 61 64 70 53 56 70 53 56 70 53 56 81 61 64 81 61 64 81 61 64 81 61 64 81 61 64 65 49 51 81 61 64 249 187 198 255 233 237 255 210 218 255 198 208 255 193 204 255 196 206 255 196 206 255 196 206 255 196 206 255 196 206 255 196 206 255 196 206 255 196 206 255 198 208 255 200 209 255 200 209 255 196 206 255 193 204 249 187 198 249 187 198 
255 193 204 255 193 204 255 193 204 255 193 204 255 193 204 255 193 204 255 198 208 255 198 208 255 196 206 255 196 206 255 196 206 255 193 204 255 196 206 255 196 206 255 196 206 255 212 219 255 230 235 255 228 232 255 229 233 255 230 235 255 225 230 86 65 69 65 49 51 65 49 51 54 40 43 70 53 56 54 40 43 70 53 56 255 193 204 255 225 230 255 232 236 255 229 233 255 229 233 255 229 233 255 233 237 255 209 217 206 155 164 179 134 142 86 65 69 211 159 168 255 229 233 255 232 236 255 233 237 255 233 237 255 233 237 255 233 237 255 233 237 255 233 237 255 233 237 255 233 237 255 233 237 255 233 237 255 233 237 255 233 237 255 233 237 255 233 237 255 233 237 255 233 237 255 233 237 255 233 237 255 233 237 255 233 237 255 233 237 255 233 237 255 233 237 255 233 237 255 233 237 255 233 237 255 233 237 255 232 236 255 232 236 255 233 237 255 233 237 255 234 238 255 234 238 255 234 238 255 234 238 255 234 238 255 234 238 255 234 238 255 234 238 255 234 238 255 234 238 255 234 238 255 234 238 255 234 238 255 234 238 255 234 238 255 236 239 255 236 239 255 236 239 255 236 239 255 236 239 255 236 239 255 236 239 255 236 239 255 236 239 255 236 239 255 236 239 255 236 239 255 236 239 255 236 239 255 236 239 255 236 239 255 236 239 255 236 239 255 236 239 255 236 239 255 236 239 255 236 239 255 236 239 255 236 239 255 236 239 255 237 240 255 237 240 255 237 240 255 237 240 255 237 240 255 237 240 255 237 240 255 237 240 255 237 240 255 237 240 255 238 241 255 237 240 255 237 240 255 237 240 255 237 240 255 237 240 255 237 240 255 238 241 255 238 241 255 238 241 255 238 241 255 238 241 255 238 241 255 238 241 255 238 241 255 238 241 255 238 241 255 237 240 255 221 227 255 221 227 255 200 209 227 171 181 184 138 146 179 134 142 135 102 107 130 98 103 135 102 107 130 98 103 130 98 103 92 69 73 195 147 155 200 151 159 195 147 155 135 102 107 92 69 73 92 69 73 92 69 73 92 69 73 92 69 73 92 69 73 92 69 73 130 98 103 255 200 209 255 230 235 255 234 238 255 234 238 255 234 238 255 233 237 255 233 237 255 233 237 255 233 237 255 233 237 255 233 237 255 230 235 255 217 224 146 110 116 81 61 64 70 53 56 70 53 56 81 61 64 81 61 64 81 61 64 81 61 64 81 61 64 70 53 56 81 61 64 81 61 64 70 53 56 70 53 56 70 53 56 70 53 56 70 53 56 70 53 56 70 53 56 70 53 56 70 53 56 211 159 168 255 229 233 255 226 231 255 200 209 255 196 206 255 193 204 255 193 204 255 193 204 255 196 206 255 196 206 255 196 206 255 196 206 255 196 206 255 196 206 255 196 206 255 198 208 255 198 208 255 196 206 255 193 204 249 187 198 249 187 198 
255 193 204 255 193 204 255 193 204 255 193 204 255 193 204 255 193 204 255 198 208 255 198 208 255 196 206 255 196 206 255 196 206 255 193 204 255 196 206 255 196 206 255 196 206 255 212 219 255 230 235 255 228 232 255 229 233 255 230 235 255 225 230 86 65 69 65 49 51 65 49 51 54 40 43 70 53 56 54 40 43 70 53 56 255 193 204 255 225 230 255 232 236 255 229 233 255 229 233 255 229 233 255 233 237 255 209 217 206 155 164 179 134 142 86 65 69 211 159 168 255 229 233 255 232 236 255 233 237 255 233 237 255 233 237 255 233 237 255 233 237 255 233 237 255 233 237 255 233 237 255 233 237 255 233 237 255 233 237 255 233 237 255 233 237 255 233 237 255 233 237 255 233 237 255 233 237 255 233 237 255 233 237 255 233 237 255 233 237 255 233 237 255 233 237 255 233 237 255 233 237 255 233 237 255 233 237 255 232 236 255 232 236 255 233 237 255 233 237 255 234 238 255 234 238 255 234 238 255 234 238 255 234 238 255 234 238 255 234 238 255 234 238 255 234 238 255 234 238 255 234 238 255 234 238 255 234 238 255 234 238 255 234 238 255 236 239 255 236 239 255 236 239 255 236 239 255 236 239 255 236 239 255 236 239 255 236 239 255 236 239 255 236 239 255 236 239 255 236 239 255 236 239 255 236 239 255 236 239 255 236 239 255 236 239 255 236 239 255 236 239 255 236 239 255 236 239 255 236 239 255 236 239 255 236 239 255 236 239 255 237 240 255 237 240 255 237 240 255 237 240 255 237 240 255 237 240 255 237 240 255 237 240 255 237 240 255 237 240 255 238 241 255 237 240 255 237 240 255 237 240 255 237 240 255 237 240 255 237 240 255 238 241 255 238 241 255 238 241 255 238 241 255 238 241 255 238 241 255 238 241 255 238 241 255 238 241 255 238 241 255 237 240 255 221 227 255 221 227 255 200 209 227 171 181 184 138 146 179 134 142 135 102 107 130 98 103 135 102 107 130 98 103 130 98 103 92 69 73 195 147 155 200 151 159 195 147 155 135 102 107 92 69 73 92 69 73 92 69 73 92 69 73 92 69 73 92 69 73 92 69 73 130 98 103 255 200 209 255 230 235 255 234 238 255 234 238 255 234 238 255 233 237 255 233 237 255 233 237 255 233 237 255 233 237 255 233 237 255 230 235 255 217 224 146 110 116 81 61 64 70 53 56 70 53 56 81 61 64 81 61 64 81 61 64 81 61 64 81 61 64 70 53 56 81 61 64 81 61 64 70 53 56 70 53 56 70 53 56 70 53 56 70 53 56 70 53 56 70 53 56 70 53 56 70 53 56 211 159 168 255 229 233 255 226 231 255 200 209 255 196 206 255 193 204 255 193 204 255 193 204 255 196 206 255 196 206 255 196 206 255 196 206 255 196 206 255 196 206 255 196 206 255 198 208 255 198 208 255 196 206 255 193 204 249 187 198 249 187 198 
249 187 198 249 187 198 249 187 198 249 187 198 255 193 204 255 193 204 255 198 208 255 198 208 255 196 206 255 196 206 255 193 204 255 193 204 255 193 204 255 193 204 255 193 204 255 193 204 255 196 206 255 193 204 255 193 204 255 198 208 200 151 159 54 40 43 65 49 51 65 49 51 65 49 51 65 49 51 146 110 116 146 110 116 255 209 217 255 216 222 255 228 232 255 230 235 255 229 233 255 229 233 255 229 233 255 225 230 179 134 142 70 53 56 130 98 103 81 61 64 255 200 209 255 230 235 255 232 236 255 232 236 255 232 236 255 232 236 255 232 236 255 233 237 255 233 237 255 233 237 255 233 237 255 233 237 255 233 237 255 233 237 255 233 237 255 233 237 255 233 237 255 233 237 255 233 237 255 233 237 255 233 237 255 233 237 255 233 237 255 233 237 255 233 237 255 233 237 255 233 237 255 233 237 255 233 237 255 233 237 255 233 237 255 233 237 255 233 237 255 233 237 255 234 238 255 234 238 255 234 238 255 234 238 255 234 238 255 234 238 255 234 238 255 234 238 255 234 238 255 234 238 255 234 238 255 234 238 255 234 238 255 234 238 255 234 238 255 234 238 255 234 238 255 236 239 255 236 239 255 236 239 255 236 239 255 236 239 255 236 239 255 236 239 255 236 239 255 236 239 255 236 239 255 236 239 255 236 239 255 236 239 255 236 239 255 236 239 255 236 239 255 236 239 255 236 239 255 236 239 255 236 239 255 236 239 255 236 239 255 237 240 255 237 240 255 237 240 255 237 240 255 237 240 255 237 240 255 237 240 255 237 240 255 237 240 255 237 240 255 237 240 255 237 240 255 237 240 255 237 240 255 237 240 255 237 240 255 237 240 255 237 240 255 237 240 255 237 240 255 237 240 255 238 241 255 238 241 255 238 241 255 237 240 255 237 240 255 238 241 255 233 237 255 229 233 255 201 210 227 171 181 217 163 172 146 110 116 135 102 107 130 98 103 92 69 73 130 98 103 146 110 116 130 98 103 130 98 103 92 69 73 92 69 73 92 69 73 92 69 73 92 69 73 92 69 73 92 69 73 92 69 73 86 65 69 130 98 103 130 98 103 255 221 227 255 233 237 255 234 238 255 234 238 255 233 237 255 233 237 255 233 237 255 233 237 255 232 236 255 232 236 255 232 236 255 232 236 255 232 236 255 233 237 255 225 230 81 61 64 70 53 56 81 61 64 81 61 64 81 61 64 81 61 64 81 61 64 70 53 56 70 53 56 70 53 56 70 53 56 70 53 56 70 53 56 70 53 56 70 53 56 135 102 107 195 147 155 65 49 51 65 49 51 157 118 125 255 229 233 255 229 233 255 206 215 255 198 208 255 193 204 255 196 206 255 196 206 255 196 206 255 196 206 255 196 206 255 196 206 255 196 206 255 196 206 255 196 206 255 198 208 255 198 208 255 198 208 255 196 206 249 187 198 249 187 198 244 183 194 
249 187 198 249 187 198 249 187 198 249 187 198 255 193 204 255 193 204 255 198 208 255 198 208 255 196 206 255 196 206 255 193 204 255 193 204 255 193 204 255 193 204 255 193 204 255 193 204 255 196 206 255 193 204 255 193 204 255 198 208 200 151 159 54 40 43 65 49 51 65 49 51 65 49 51 65 49 51 146 110 116 146 110 116 255 209 217 255 216 222 255 228 232 255 230 235 255 229 233 255 229 233 255 229 233 255 225 230 179 134 142 70 53 56 130 98 103 81 61 64 255 200 209 255 230 235 255 232 236 255 232 236 255 232 236 255 232 236 255 232 236 255 233 237 255 233 237 255 233 237 255 233 237 255 233 237 255 233 237 255 233 237 255 233 237 255 233 237 255 233 237 255 233 237 255 233 237 255 233 237 255 233 237 255 233 237 255 233 237 255 233 237 255 233 237 255 233 237 255 233 237 255 233 237 255 233 237 255 233 237 255 233 237 255 233 237 255 233 237 255 233 237 255 234 238 255 234 238 255 234 238 255 234 238 255 234 238 255 234 238 255 234 238 255 234 238 255 234 238 255 234 238 255 234 238 255 234 238 255 234 238 255 234 238 255 234 238 255 234 238 255 234 238 255 236 239 255 236 239 255 236 239 255 236 239 255 236 239 255 236 239 255 236 239 255 236 239 255 236 239 255 236 239 255 236 239 255 236 239 255 236 239 255 236 239 255 236 239 255 236 239 255 236 239 255 236 239 255 236 239 255 236 239 255 236 239 255 236 239 255 237 240 255 237 240 255 237 240 255 237 240 255 237 240 255 237 240 255 237 240 255 237 240 255 237 240 255 237 240 255 237 240 255 237 240 255 237 240 255 237 240 255 237 240 255 237 240 255 237 240 255 237 240 255 237 240 255 237 240 255 237 240 255 238 241 255 238 241 255 238 241 255 237 240 255 237 240 255 238 241 255 233 237 255 229 233 255 201 210 227 171 181 217 163 172 146 110 116 135 102 107 130 98 103 92 69 73 130 98 103 146 110 116 130 98 103 130 98 103 92 69 73 92 69 73 92 69 73 92 69 73 92 69 73 92 69 73 92 69 73 92 69 73 86 65 69 130 98 103 130 98 103 255 221 227 255 233 237 255 234 238 255 234 238 255 233 237 255 233 237 255 233 237 255 233 237 255 232 236 255 232 236 255 232 236 255 232 236 255 232 236 255 233 237 255 225 230 81 61 64 70 53 56 81 61 64 81 61 64 81 61 64 81 61 64 81 61 64 70 53 56 70 53 56 70 53 56 70 53 56 70 53 56 70 53 56 70 53 56 70 53 56 135 102 107 195 147 155 65 49 51 65 49 51 157 118 125 255 229 233 255 229 233 255 206 215 255 198 208 255 193 204 255 196 206 255 196 206 255 196 206 255 196 206 255 196 206 255 196 206 255 196 206 255 196 206 255 196 206 255 198 208 255 198 208 255 198 208 255 196 206 249 187 198 249 187 198 244 183 194 
249 187 198 249 187 198 249 187 198 249 187 198 249 187 198 255 193 204 255 196 206 255 196 206 255 196 206 255 193 204 255 193 204 255 193 204 255 193 204 255 193 204 255 193 204 255 193 204 255 193 204 249 187 198 255 193 204 244 183 194 54 40 43 54 40 43 54 40 43 54 40 43 54 40 43 54 40 43 54 40 43 255 214 221 255 225 230 255 229 233 255 229 233 255 228 232 255 229 233 255 229 233 255 229 233 255 230 235 255 224 229 200 151 159 135 102 107 65 49 51 233 175 185 255 213 220 255 232 236 255 232 236 255 232 236 255 232 236 255 232 236 255 233 237 255 233 237 255 232 236 255 232 236 255 232 236 255 233 237 255 233 237 255 233 237 255 233 237 255 233 237 255 233 237 255 233 237 255 233 237 255 233 237 255 233 237 255 233 237 255 233 237 255 233 237 255 233 237 255 233 237 255 233 237 255 233 237 255 233 237 255 233 237 255 233 237 255 233 237 255 233 237 255 234 238 255 234 238 255 234 238 255 234 238 255 234 238 255 234 238 255 234 238 255 234 238 255 234 238 255 234 238 255 234 238 255 234 238 255 234 238 255 234 238 255 234 238 255 234 238 255 234 238 255 236 239 255 236 239 255 234 238 255 234 238 255 234 238 255 234 238 255 234 238 255 234 238 255 234 238 255 234 238 255 234 238 255 234 238 255 234 238 255 234 238 255 234 238 255 234 238 255 234 238 255 236 239 255 236 239 255 236 239 255 236 239 255 236 239 255 237 240 255 237 240 255 237 240 255 237 240 255 237 240 255 237 240 255 237 240 255 237 240 255 237 240 255 237 240 255 237 240 255 237 240 255 237 240 255 237 240 255 237 240 255 237 240 255 237 240 255 237 240 255 237 240 255 237 240 255 237 240 255 237 240 255 237 240 255 237 240 255 237 240 255 234 238 255 234 238 255 230 235 255 205 214 255 200 209 206 155 164 92 69 73 135 102 107 92 69 73 92 69 73 92 69 73 92 69 73 92 69 73 92 69 73 92 69 73 92 69 73 92 69 73 92 69 73 92 69 73 92 69 73 92 69 73 92 69 73 130 98 103 255 222 228 255 196 206 206 155 164 227 171 181 179 134 142 255 214 221 255 224 229 255 229 233 255 229 233 255 230 235 255 232 236 255 230 235 255 232 236 255 230 235 255 230 235 255 229 233 222 167 177 81 61 64 86 65 69 81 61 64 81 61 64 81 61 64 81 61 64 81 61 64 81 61 64 70 53 56 70 53 56 70 53 56 70 53 56 70 53 56 70 53 56 130 98 103 179 134 142 81 61 64 65 49 51 81 61 64 146 110 116 255 226 231 255 225 230 255 224 229 255 198 208 249 187 198 255 193 204 255 193 204 255 193 204 255 193 204 255 193 204 255 193 204 255 193 204 255 193 204 255 193 204 255 193 204 255 198 208 255 198 208 255 196 206 255 193 204 249 187 198 249 187 198 244 183 194 
249 187 198 249 187 198 249 187 198 249 187 198 249 187 198 255 193 204 255 196 206 255 196 206 255 196 206 255 193 204 255 193 204 255 193 204 255 193 204 255 193 204 255 193 204 255 193 204 255 193 204 249 187 198 255 193 204 244 183 194 54 40 43 54 40 43 54 40 43 54 40 43 54 40 43 54 40 43 54 40 43 255 214 221 255 225 230 255 229 233 255 229 233 255 228 232 255 229 233 255 229 233 255 229 233 255 230 235 255 224 229 200 151 159 135 102 107 65 49 51 233 175 185 255 213 220 255 232 236 255 232 236 255 232 236 255 232 236 255 232 236 255 233 237 255 233 237 255 232 236 255 232 236 255 232 236 255 233 237 255 233 237 255 233 237 255 233 237 255 233 237 255 233 237 255 233 237 255 233 237 255 233 237 255 233 237 255 233 237 255 233 237 255 233 237 255 233 237 255 233 237 255 233 237 255 233 237 255 233 237 255 233 237 255 233 237 255 233 237 255 233 237 255 234 238 255 234 238 255 234 238 255 234 238 255 234 238 255 234 238 255 234 238 255 234 238 255 234 238 255 234 238 255 234 238 255 234 238 255 234 238 255 234 238 255 234 238 255 234 238 255 234 238 255 236 239 255 236 239 255 234 238 255 234 238 255 234 238 255 234 238 255 234 238 255 234 238 255 234 238 255 234 238 255 234 238 255 234 238 255 234 238 255 234 238 255 234 238 255 234 238 255 234 238 255 236 239 255 236 239 255 236 239 255 236 239 255 236 239 255 237 240 255 237 240 255 237 240 255 237 240 255 237 240 255 237 240 255 237 240 255 237 240 255 237 240 255 237 240 255 237 240 255 237 240 255 237 240 255 237 240 255 237 240 255 237 240 255 237 240 255 237 240 255 237 240 255 237 240 255 237 240 255 237 240 255 237 240 255 237 240 255 237 240 255 234 238 255 234 238 255 230 235 255 205 214 255 200 209 206 155 164 92 69 73 135 102 107 92 69 73 92 69 73 92 69 73 92 69 73 92 69 73 92 69 73 92 69 73 92 69 73 92 69 73 92 69 73 92 69 73 92 69 73 92 69 73 92 69 73 130 98 103 255 222 228 255 196 206 206 155 164 227 171 181 179 134 142 255 214 221 255 224 229 255 229 233 255 229 233 255 230 235 255 232 236 255 230 235 255 232 236 255 230 235 255 230 235 255 229 233 222 167 177 81 61 64 86 65 69 81 61 64 81 61 64 81 61 64 81 61 64 81 61 64 81 61 64 70 53 56 70 53 56 70 53 56 70 53 56 70 53 56 70 53 56 130 98 103 179 134 142 81 61 64 65 49 51 81 61 64 146 110 116 255 226 231 255 225 230 255 224 229 255 198 208 249 187 198 255 193 204 255 193 204 255 193 204 255 193 204 255 193 204 255 193 204 255 193 204 255 193 204 255 193 204 255 193 204 255 198 208 255 198 208 255 196 206 255 193 204 249 187 198 249 187 198 244 183 194 
249 187 198 249 187 198 249 187 198 249 187 198 249 187 198 255 193 204 255 196 206 255 196 206 255 196 206 255 193 204 255 193 204 255 193 204 255 193 204 255 193 204 255 193 204 255 193 204 255 193 204 255 193 204 255 198 208 157 118 125 54 40 43 54 40 43 54 40 43 54 40 43 54 40 43 54 40 43 54 40 43 86 65 69 255 220 226 255 229 233 255 228 232 255 229 233 255 228 232 255 229 233 255 229 233 255 229 233 255 229 233 200 151 159 86 65 69 70 53 56 146 110 116 255 200 209 255 228 232 255 232 236 255 232 236 255 232 236 255 232 236 255 232 236 255 232 236 255 232 236 255 232 236 255 232 236 255 233 237 255 233 237 255 233 237 255 233 237 255 233 237 255 233 237 255 233 237 255 233 237 255 233 237 255 233 237 255 233 237 255 233 237 255 233 237 255 233 237 255 233 237 255 233 237 255 233 237 255 233 237 255 233 237 255 233 237 255 234 238 255 234 238 255 234 238 255 234 238 255 234 238 255 234 238 255 234 238 255 234 238 255 234 238 255 234 238 255 234 238 255 234 238 255 234 238 255 234 238 255 234 238 255 234 238 255 234 238 255 234 238 255 234 238 255 236 239 255 236 239 255 234 238 255 234 238 255 234 238 255 234 238 255 234 238 255 234 238 255 234 238 255 234 238 255 234 238 255 234 238 255 234 238 255 234 238 255 234 238 255 234 238 255 234 238 255 236 239 255 236 239 255 236 239 255 236 239 255 236 239 255 237 240 255 237 240 255 237 240 255 237 240 255 237 240 255 237 240 255 237 240 255 237 240 255 237 240 255 237 240 255 237 240 255 237 240 255 237 240 255 237 240 255 237 240 255 237 240 255 237 240 255 237 240 255 237 240 255 237 240 255 237 240 255 237 240 255 237 240 255 237 240 255 237 240 255 229 233 255 216 222 255 202 211 249 187 198 195 147 155 135 102 107 130 98 103 86 65 69 92 69 73 92 69 73 92 69 73 92 69 73 92 69 73 92 69 73 92 69 73 92 69 73 92 69 73 92 69 73 92 69 73 92 69 73 92 69 73 92 69 73 92 69 73 206 155 164 81 61 64 65 49 51 65 49 51 86 65 69 86 65 69 65 49 51 206 155 164 255 212 219 255 214 221 255 232 236 255 226 231 255 225 230 255 217 224 255 201 210 244 183 194 146 110 116 81 61 64 81 61 64 184 138 146 146 110 116 70 53 56 70 53 56 70 53 56 70 53 56 70 53 56 70 53 56 65 49 51 65 49 51 81 61 64 255 220 226 92 69 73 86 65 69 70 53 56 70 53 56 135 102 107 255 228 232 255 228 232 255 209 217 255 196 206 255 193 204 255 193 204 255 193 204 255 193 204 255 193 204 255 193 204 255 193 204 255 193 204 255 193 204 255 193 204 255 193 204 255 193 204 255 196 206 255 196 206 255 196 206 255 193 204 249 187 198 249 187 198 244 183 194 
249 187 198 249 187 198 249 187 198 249 187 198 249 187 198 255 193 204 255 196 206 255 196 206 255 196 206 255 193 204 255 193 204 255 193 204 255 193 204 255 193 204 255 193 204 255 193 204 255 193 204 255 193 204 255 198 208 157 118 125 54 40 43 54 40 43 54 40 43 54 40 43 54 40 43 54 40 43 54 40 43 86 65 69 255 220 226 255 229 233 255 228 232 255 229 233 255 228 232 255 229 233 255 229 233 255 229 233 255 229 233 200 151 159 86 65 69 70 53 56 146 110 116 255 200 209 255 228 232 255 232 236 255 232 236 255 232 236 255 232 236 255 232 236 255 232 236 255 232 236 255 232 236 255 232 236 255 233 237 255 233 237 255 233 237 255 233 237 255 233 237 255 233 237 255 233 237 255 233 237 255 233 237 255 233 237 255 233 237 255 233 237 255 233 237 255 233 237 255 233 237 255 233 237 255 233 237 255 233 237 255 233 237 255 233 237 255 234 238 255 234 238 255 234 238 255 234 238 255 234 238 255 234 238 255 234 238 255 234 238 255 234 238 255 234 238 255 234 238 255 234 238 255 234 238 255 234 238 255 234 238 255 234 238 255 234 238 255 234 238 255 234 238 255 236 239 255 236 239 255 234 238 255 234 238 255 234 238 255 234 238 255 234 238 255 234 238 255 234 238 255 234 238 255 234 238 255 234 238 255 234 238 255 234 238 255 234 238 255 234 238 255 234 238 255 236 239 255 236 239 255 236 239 255 236 239 255 236 239 255 237 240 255 237 240 255 237 240 255 237 240 255 237 240 255 237 240 255 237 240 255 237 240 255 237 240 255 237 240 255 237 240 255 237 240 255 237 240 255 237 240 255 237 240 255 237 240 255 237 240 255 237 240 255 237 240 255 237 240 255 237 240 255 237 240 255 237 240 255 237 240 255 237 240 255 229 233 255 216 222 255 202 211 249 187 198 195 147 155 135 102 107 130 98 103 86 65 69 92 69 73 92 69 73 92 69 73 92 69 73 92 69 73 92 69 73 92 69 73 92 69 73 92 69 73 92 69 73 92 69 73 92 69 73 92 69 73 92 69 73 92 69 73 206 155 164 81 61 64 65 49 51 65 49 51 86 65 69 86 65 69 65 49 51 206 155 164 255 212 219 255 214 221 255 232 236 255 226 231 255 225 230 255 217 224 255 201 210 244 183 194 146 110 116 81 61 64 81 61 64 184 138 146 146 110 116 70 53 56 70 53 56 70 53 56 70 53 56 70 53 56 70 53 56 65 49 51 65 49 51 81 61 64 255 220 226 92 69 73 86 65 69 70 53 56 70 53 56 135 102 107 255 228 232 255 228 232 255 209 217 255 196 206 255 193 204 255 193 204 255 193 204 255 193 204 255 193 204 255 193 204 255 193 204 255 193 204 255 193 204 255 193 204 255 193 204 255 193 204 255 196 206 255 196 206 255 196 206 255 193 204 249 187 198 249 187 198 244 183 194 
249 187 198 249 187 198 249 187 198 249 187 198 249 187 198 255 193 204 255 196 206 255 196 206 255 193 204 255 193 204 249 187 198 249 187 198 249 187 198 249 187 198 255 193 204 255 193 204 255 193 204 255 193 204 227 171 181 48 36 38 54 40 43 54 40 43 48 36 38 54 40 43 54 40 43 54 40 43 54 40 43 130 98 103 81 61 64 255 216 222 255 224 229 255 226 231 255 228 232 255 228 232 255 228 232 255 229 233 255 229 233 255 222 228 86 65 69 70 53 56 65 49 51 195 147 155 255 213 220 255 230 235 255 232 236 255 232 236 255 232 236 255 232 236 255 232 236 255 232 236 255 232 236 255 232 236 255 232 236 255 232 236 255 232 236 255 232 236 255 232 236 255 233 237 255 233 237 255 233 237 255 233 237 255 233 237 255 233 237 255 233 237 255 233 237 255 233 237 255 233 237 255 233 237 255 233 237 255 233 237 255 233 237 255 233 237 255 234 238 255 225 230 255 208 216 255 236 239 255 234 238 255 234 238 255 234 238 255 234 238 255 234 238 255 234 238 255 234 238 255 234 238 255 234 238 255 234 238 255 234 238 255 234 238 255 236 239 255 236 239 255 228 232 255 226 231 255 228 232 255 228 232 255 232 236 255 233 237 255 234 238 255 234 238 255 234 238 255 234 238 255 234 238 255 234 238 255 234 238 255 234 238 255 234 238 255 234 238 255 234 238 255 234 238 255 236 239 255 236 239 255 236 239 255 236 239 255 236 239 255 236 239 255 236 239 255 237 240 255 237 240 255 237 240 255 237 240 255 237 240 255 237 240 255 237 240 255 237 240 255 237 240 255 237 240 255 237 240 255 237 240 255 237 240 255 237 240 255 237 240 255 237 240 255 237 240 255 237 240 255 237 240 255 237 240 255 238 241 255 228 232 255 221 227 255 216 222 255 206 215 233 175 185 135 102 107 146 110 116 86 65 69 92 69 73 92 69 73 92 69 73 86 65 69 86 65 69 86 65 69 86 65 69 86 65 69 86 65 69 86 65 69 86 65 69 86 65 69 86 65 69 86 65 69 86 65 69 86 65 69 135 102 107 211 159 168 86 65 69 130 98 103 157 118 125 184 138 146 81 61 64 184 138 146 130 98 103 81 61 64 65 49 51 211 159 168 255 208 216 255 198 208 70 53 56 92 69 73 86 65 69 65 49 51 65 49 51 255 201 210 227 171 181 70 53 56 81 61 64 70 53 56 70 53 56 70 53 56 70 53 56 65 49 51 65 49 51 65 49 51 65 49 51 92 69 73 92 69 73 65 49 51 37 28 30 255 210 218 255 228 232 255 228 232 255 210 218 255 225 230 255 224 229 255 221 227 255 213 220 255 198 208 255 200 209 255 193 204 255 193 204 255 193 204 255 193 204 255 193 204 255 193 204 249 187 198 255 193 204 255 196 206 255 198 208 255 196 206 255 196 206 255 193 204 249 187 198 244 183 194 
249 187 198 249 187 198 249 187 198 249 187 198 249 187 198 255 193 204 255 196 206 255 196 206 255 193 204 255 193 204 249 187 198 249 187 198 249 187 198 249 187 198 255 193 204 255 193 204 255 193 204 255 193 204 227 171 181 48 36 38 54 40 43 54 40 43 48 36 38 54 40 43 54 40 43 54 40 43 54 40 43 130 98 103 81 61 64 255 216 222 255 224 229 255 226 231 255 228 232 255 228 232 255 228 232 255 229 233 255 229 233 255 222 228 86 65 69 70 53 56 65 49 51 195 147 155 255 213 220 255 230 235 255 232 236 255 232 236 255 232 236 255 232 236 255 232 236 255 232 236 255 232 236 255 232 236 255 232 236 255 232 236 255 232 236 255 232 236 255 232 236 255 233 237 255 233 237 255 233 237 255 233 237 255 233 237 255 233 237 255 233 237 255 233 237 255 233 237 255 233 237 255 233 237 255 233 237 255 233 237 255 233 237 255 233 237 255 234 238 255 225 230 255 208 216 255 236 239 255 234 238 255 234 238 255 234 238 255 234 238 255 234 238 255 234 238 255 234 238 255 234 238 255 234 238 255 234 238 255 234 238 255 234 238 255 236 239 255 236 239 255 228 232 255 226 231 255 228 232 255 228 232 255 232 236 255 233 237 255 234 238 255 234 238 255 234 238 255 234 238 255 234 238 255 234 238 255 234 238 255 234 238 255 234 238 255 234 238 255 234 238 255 234 238 255 236 239 255 236 239 255 236 239 255 236 239 255 236 239 255 236 239 255 236 239 255 237 240 255 237 240 255 237 240 255 237 240 255 237 240 255 237 240 255 237 240 255 237 240 255 237 240 255 237 240 255 237 240 255 237 240 255 237 240 255 237 240 255 237 240 255 237 240 255 237 240 255 237 240 255 237 240 255 237 240 255 238 241 255 228 232 255 221 227 255 216 222 255 206 215 233 175 185 135 102 107 146 110 116 86 65 69 92 69 73 92 69 73 92 69 73 86 65 69 86 65 69 86 65 69 86 65 69 86 65 69 86 65 69 86 65 69 86 65 69 86 65 69 86 65 69 86 65 69 86 65 69 86 65 69 135 102 107 211 159 168 86 65 69 130 98 103 157 118 125 184 138 146 81 61 64 184 138 146 130 98 103 81 61 64 65 49 51 211 159 168 255 208 216 255 198 208 70 53 56 92 69 73 86 65 69 65 49 51 65 49 51 255 201 210 227 171 181 70 53 56 81 61 64 70 53 56 70 53 56 70 53 56 70 53 56 65 49 51 65 49 51 65 49 51 65 49 51 92 69 73 92 69 73 65 49 51 37 28 30 255 210 218 255 228 232 255 228 232 255 210 218 255 225 230 255 224 229 255 221 227 255 213 220 255 198 208 255 200 209 255 193 204 255 193 204 255 193 204 255 193 204 255 193 204 255 193 204 249 187 198 255 193 204 255 196 206 255 198 208 255 196 206 255 196 206 255 193 204 249 187 198 244 183 194 
244 183 194 244 183 194 244 183 194 249 187 198 249 187 198 255 193 204 255 196 206 255 196 206 255 193 204 255 193 204 249 187 198 249 187 198 249 187 198 249 187 198 249 187 198 255 193 204 255 193 204 255 193 204 195 147 155 54 40 43 65 49 51 48 36 38 48 36 38 48 36 38 157 118 125 135 102 107 70 53 56 179 134 142 146 110 116 217 163 172 255 201 210 255 221 227 255 228 232 255 229 233 255 229 233 255 229 233 255 229 233 255 232 236 255 193 204 65 49 51 65 49 51 86 65 69 233 175 185 255 214 221 255 228 232 255 232 236 255 232 236 255 232 236 255 232 236 255 232 236 255 232 236 255 232 236 255 232 236 255 232 236 255 232 236 255 232 236 255 232 236 255 233 237 255 233 237 255 233 237 255 233 237 255 233 237 255 233 237 255 233 237 255 233 237 255 233 237 255 233 237 255 233 237 255 233 237 255 233 237 255 233 237 255 233 237 255 234 238 255 210 218 255 217 224 255 232 236 255 234 238 255 234 238 255 234 238 255 234 238 255 234 238 255 236 239 255 236 239 255 236 239 255 236 239 255 234 238 255 234 238 255 233 237 255 226 231 255 210 218 255 205 214 255 210 218 255 216 222 255 225 230 255 229 233 255 232 236 255 234 238 255 236 239 255 234 238 255 234 238 255 236 239 255 234 238 255 234 238 255 234 238 255 234 238 255 234 238 255 234 238 255 234 238 255 236 239 255 236 239 255 236 239 255 236 239 255 236 239 255 236 239 255 236 239 255 236 239 255 236 239 255 236 239 255 237 240 255 237 240 255 236 239 255 236 239 255 236 239 255 237 240 255 237 240 255 237 240 255 237 240 255 237 240 255 237 240 255 237 240 255 237 240 255 237 240 255 237 240 255 237 240 255 236 239 255 233 237 255 226 231 255 217 224 255 205 214 233 175 185 146 110 116 92 69 73 86 65 69 86 65 69 86 65 69 86 65 69 86 65 69 86 65 69 86 65 69 86 65 69 86 65 69 86 65 69 86 65 69 86 65 69 86 65 69 86 65 69 86 65 69 86 65 69 86 65 69 86 65 69 86 65 69 86 65 69 86 65 69 81 61 64 86 65 69 86 65 69 86 65 69 86 65 69 81 61 64 81 61 64 81 61 64 146 110 116 195 147 155 86 65 69 54 40 43 233 175 185 255 220 226 184 138 146 255 196 206 130 98 103 81 61 64 65 49 51 65 49 51 65 49 51 65 49 51 65 49 51 65 49 51 65 49 51 65 49 51 65 49 51 65 49 51 54 40 43 54 40 43 54 40 43 54 40 43 54 40 43 37 28 30 37 28 30 48 36 38 81 61 64 255 193 204 255 229 233 255 226 231 255 225 230 255 232 236 255 209 217 255 193 204 249 187 198 249 187 198 249 187 198 249 187 198 249 187 198 255 193 204 255 193 204 255 193 204 255 196 206 255 196 206 255 193 204 249 187 198 244 183 194 
244 183 194 244 183 194 244 183 194 249 187 198 249 187 198 255 193 204 255 196 206 255 196 206 255 193 204 255 193 204 249 187 198 249 187 198 249 187 198 249 187 198 249 187 198 255 193 204 255 193 204 255 193 204 195 147 155 54 40 43 65 49 51 48 36 38 48 36 38 48 36 38 157 118 125 135 102 107 70 53 56 179 134 142 146 110 116 217 163 172 255 201 210 255 221 227 255 228 232 255 229 233 255 229 233 255 229 233 255 229 233 255 232 236 255 193 204 65 49 51 65 49 51 86 65 69 233 175 185 255 214 221 255 228 232 255 232 236 255 232 236 255 232 236 255 232 236 255 232 236 255 232 236 255 232 236 255 232 236 255 232 236 255 232 236 255 232 236 255 232 236 255 233 237 255 233 237 255 233 237 255 233 237 255 233 237 255 233 237 255 233 237 255 233 237 255 233 237 255 233 237 255 233 237 255 233 237 255 233 237 255 233 237 255 233 237 255 234 238 255 210 218 255 217 224 255 232 236 255 234 238 255 234 238 255 234 238 255 234 238 255 234 238 255 236 239 255 236 239 255 236 239 255 236 239 255 234 238 255 234 238 255 233 237 255 226 231 255 210 218 255 205 214 255 210 218 255 216 222 255 225 230 255 229 233 255 232 236 255 234 238 255 236 239 255 234 238 255 234 238 255 236 239 255 234 238 255 234 238 255 234 238 255 234 238 255 234 238 255 234 238 255 234 238 255 236 239 255 236 239 255 236 239 255 236 239 255 236 239 255 236 239 255 236 239 255 236 239 255 236 239 255 236 239 255 237 240 255 237 240 255 236 239 255 236 239 255 236 239 255 237 240 255 237 240 255 237 240 255 237 240 255 237 240 255 237 240 255 237 240 255 237 240 255 237 240 255 237 240 255 237 240 255 236 239 255 233 237 255 226 231 255 217 224 255 205 214 233 175 185 146 110 116 92 69 73 86 65 69 86 65 69 86 65 69 86 65 69 86 65 69 86 65 69 86 65 69 86 65 69 86 65 69 86 65 69 86 65 69 86 65 69 86 65 69 86 65 69 86 65 69 86 65 69 86 65 69 86 65 69 86 65 69 86 65 69 86 65 69 81 61 64 86 65 69 86 65 69 86 65 69 86 65 69 81 61 64 81 61 64 81 61 64 146 110 116 195 147 155 86 65 69 54 40 43 233 175 185 255 220 226 184 138 146 255 196 206 130 98 103 81 61 64 65 49 51 65 49 51 65 49 51 65 49 51 65 49 51 65 49 51 65 49 51 65 49 51 65 49 51 65 49 51 54 40 43 54 40 43 54 40 43 54 40 43 54 40 43 37 28 30 37 28 30 48 36 38 81 61 64 255 193 204 255 229 233 255 226 231 255 225 230 255 232 236 255 209 217 255 193 204 249 187 198 249 187 198 249 187 198 249 187 198 249 187 198 255 193 204 255 193 204 255 193 204 255 196 206 255 196 206 255 193 204 249 187 198 244 183 194 
249 187 198 244 183 194 244 183 194 249 187 198 249 187 198 255 193 204 255 193 204 255 193 204 255 193 204 255 193 204 249 187 198 249 187 198 249 187 198 249 187 198 249 187 198 249 187 198 249 187 198 255 193 204 255 198 208 81 61 64 48 36 38 222 167 177 135 102 107 86 65 69 206 155 164 255 221 227 255 205 214 255 220 226 255 225 230 255 229 233 255 222 228 255 193 204 255 208 216 255 225 230 255 229 233 255 229 233 255 220 226 255 221 227 206 155 164 54 40 43 54 40 43 54 40 43 86 65 69 227 171 181 255 208 216 255 232 236 255 232 236 255 232 236 255 232 236 255 233 237 255 232 236 255 232 236 255 232 236 255 232 236 255 232 236 255 232 236 255 232 236 255 232 236 255 232 236 255 232 236 255 232 236 255 232 236 255 232 236 255 232 236 255 233 237 255 233 237 255 233 237 255 233 237 255 233 237 255 233 237 255 233 237 255 233 237 255 222 228 255 193 204 255 198 208 184 138 146 255 193 204 255 224 229 255 234 238 255 236 239 255 236 239 255 236 239 255 236 239 255 234 238 255 236 239 255 234 238 255 228 232 255 214 221 233 175 185 184 138 146 130 98 103 86 65 69 157 118 125 244 183 194 255 213 220 255 230 235 255 232 236 255 233 237 255 229 233 255 230 235 255 214 221 255 222 228 255 236 239 255 236 239 255 234 238 255 234 238 255 234 238 255 234 238 255 236 239 255 236 239 255 236 239 255 236 239 255 236 239 255 236 239 255 236 239 255 236 239 255 236 239 255 236 239 255 237 240 255 237 240 255 236 239 255 236 239 255 236 239 255 237 240 255 237 240 255 237 240 255 237 240 255 237 240 255 237 240 255 237 240 255 237 240 255 237 240 255 236 239 255 236 239 255 228 232 255 224 229 255 209 217 255 196 206 255 196 206 179 134 142 81 61 64 81 61 64 86 65 69 86 65 69 86 65 69 86 65 69 86 65 69 86 65 69 86 65 69 86 65 69 86 65 69 86 65 69 86 65 69 86 65 69 86 65 69 86 65 69 86 65 69 86 65 69 86 65 69 86 65 69 86 65 69 81 61 64 81 61 64 81 61 64 81 61 64 81 61 64 81 61 64 81 61 64 81 61 64 81 61 64 70 53 56 195 147 155 255 213 220 255 209 217 157 118 125 135 102 107 70 53 56 54 40 43 65 49 51 65 49 51 65 49 51 65 49 51 65 49 51 65 49 51 65 49 51 65 49 51 65 49 51 65 49 51 54 40 43 54 40 43 54 40 43 54 40 43 54 40 43 54 40 43 54 40 43 54 40 43 54 40 43 54 40 43 48 36 38 48 36 38 48 36 38 54 40 43 135 102 107 255 224 229 255 226 231 255 228 232 255 210 218 255 196 206 249 187 198 249 187 198 249 187 198 255 193 204 255 193 204 255 193 204 255 193 204 255 193 204 255 193 204 249 187 198 249 187 198 244 183 194 
249 187 198 244 183 194 244 183 194 249 187 198 249 187 198 255 193 204 255 193 204 255 193 204 255 193 204 255 193 204 249 187 198 249 187 198 249 187 198 249 187 198 249 187 198 249 187 198 249 187 198 255 193 204 255 198 208 81 61 64 48 36 38 222 167 177 135 102 107 86 65 69 206 155 164 255 221 227 255 205 214 255 220 226 255 225 230 255 229 233 255 222 228 255 193 204 255 208 216 255 225 230 255 229 233 255 229 233 255 220 226 255 221 227 206 155 164 54 40 43 54 40 43 54 40 43 86 65 69 227 171 181 255 208 216 255 232 236 255 232 236 255 232 236 255 232 236 255 233 237 255 232 236 255 232 236 255 232 236 255 232 236 255 232 236 255 232 236 255 232 236 255 232 236 255 232 236 255 232 236 255 232 236 255 232 236 255 232 236 255 232 236 255 233 237 255 233 237 255 233 237 255 233 237 255 233 237 255 233 237 255 233 237 255 233 237 255 222 228 255 193 204 255 198 208 184 138 146 255 193 204 255 224 229 255 234 238 255 236 239 255 236 239 255 236 239 255 236 239 255 234 238 255 236 239 255 234 238 255 228 232 255 214 221 233 175 185 184 138 146 130 98 103 86 65 69 157 118 125 244 183 194 255 213 220 255 230 235 255 232 236 255 233 237 255 229 233 255 230 235 255 214 221 255 222 228 255 236 239 255 236 239 255 234 238 255 234 238 255 234 238 255 234 238 255 236 239 255 236 239 255 236 239 255 236 239 255 236 239 255 236 239 255 236 239 255 236 239 255 236 239 255 236 239 255 237 240 255 237 240 255 236 239 255 236 239 255 236 239 255 237 240 255 237 240 255 237 240 255 237 240 255 237 240 255 237 240 255 237 240 255 237 240 255 237 240 255 236 239 255 236 239 255 228 232 255 224 229 255 209 217 255 196 206 255 196 206 179 134 142 81 61 64 81 61 64 86 65 69 86 65 69 86 65 69 86 65 69 86 65 69 86 65 69 86 65 69 86 65 69 86 65 69 86 65 69 86 65 69 86 65 69 86 65 69 86 65 69 86 65 69 86 65 69 86 65 69 86 65 69 86 65 69 81 61 64 81 61 64 81 61 64 81 61 64 81 61 64 81 61 64 81 61 64 81 61 64 81 61 64 70 53 56 195 147 155 255 213 220 255 209 217 157 118 125 135 102 107 70 53 56 54 40 43 65 49 51 65 49 51 65 49 51 65 49 51 65 49 51 65 49 51 65 49 51 65 49 51 65 49 51 65 49 51 54 40 43 54 40 43 54 40 43 54 40 43 54 40 43 54 40 43 54 40 43 54 40 43 54 40 43 54 40 43 48 36 38 48 36 38 48 36 38 54 40 43 135 102 107 255 224 229 255 226 231 255 228 232 255 210 218 255 196 206 249 187 198 249 187 198 249 187 198 255 193 204 255 193 204 255 193 204 255 193 204 255 193 204 255 193 204 249 187 198 249 187 198 244 183 194 
244 183 194 244 183 194 244 183 194 249 187 198 249 187 198 255 193 204 255 193 204 255 193 204 255 193 204 255 193 204 249 187 198 249 187 198 249 187 198 249 187 198 249 187 198 255 193 204 249 187 198 249 187 198 249 187 198 255 196 206 222 167 177 37 28 30 81 61 64 255 193 204 255 201 210 255 225 230 255 229 233 255 220 226 255 228 232 255 228 232 255 228 232 255 229 233 255 229 233 255 222 228 255 228 232 255 216 222 255 220 226 179 134 142 70 53 56 54 40 43 54 40 43 54 40 43 54 40 43 86 65 69 244 183 194 255 208 216 255 228 232 255 233 237 255 232 236 255 232 236 255 232 236 255 232 236 255 232 236 255 232 236 255 232 236 255 232 236 255 232 236 255 232 236 255 232 236 255 232 236 255 232 236 255 232 236 255 232 236 255 232 236 255 233 237 255 233 237 255 233 237 255 233 237 255 233 237 255 233 237 255 233 237 255 229 233 255 208 216 206 155 164 81 61 64 70 53 56 70 53 56 81 61 64 184 138 146 255 200 209 255 206 215 255 198 208 255 206 215 200 151 159 157 118 125 146 110 116 146 110 116 70 53 56 65 49 51 65 49 51 65 49 51 65 49 51 65 49 51 65 49 51 65 49 51 135 102 107 255 205 214 255 220 226 255 225 230 255 209 217 244 183 194 146 110 116 255 220 226 255 236 239 255 234 238 255 234 238 255 234 238 255 234 238 255 236 239 255 236 239 255 236 239 255 236 239 255 236 239 255 236 239 255 236 239 255 236 239 255 236 239 255 236 239 255 237 240 255 237 240 255 237 240 255 237 240 255 237 240 255 237 240 255 237 240 255 237 240 255 237 240 255 237 240 255 237 240 255 237 240 255 237 240 255 237 240 255 234 238 255 229 233 255 226 231 255 214 221 255 201 210 222 167 177 179 134 142 81 61 64 81 61 64 81 61 64 81 61 64 81 61 64 81 61 64 81 61 64 81 61 64 81 61 64 81 61 64 81 61 64 81 61 64 81 61 64 81 61 64 81 61 64 86 65 69 86 65 69 86 65 69 86 65 69 86 65 69 81 61 64 81 61 64 81 61 64 81 61 64 81 61 64 81 61 64 81 61 64 81 61 64 81 61 64 81 61 64 70 53 56 135 102 107 255 213 220 255 234 238 255 234 238 255 233 237 255 198 208 146 110 116 65 49 51 54 40 43 65 49 51 65 49 51 65 49 51 65 49 51 65 49 51 65 49 51 65 49 51 54 40 43 54 40 43 54 40 43 54 40 43 54 40 43 54 40 43 54 40 43 54 40 43 54 40 43 54 40 43 54 40 43 54 40 43 54 40 43 54 40 43 54 40 43 37 28 30 37 28 30 48 36 38 255 217 224 255 226 231 255 217 224 249 187 198 249 187 198 249 187 198 249 187 198 249 187 198 255 193 204 255 193 204 255 193 204 255 193 204 255 193 204 249 187 198 249 187 198 244 183 194 
244 183 194 244 183 194 244 183 194 249 187 198 249 187 198 255 193 204 255 193 204 255 193 204 255 193 204 255 193 204 249 187 198 249 187 198 249 187 198 249 187 198 249 187 198 255 193 204 249 187 198 249 187 198 249 187 198 255 196 206 222 167 177 37 28 30 81 61 64 255 193 204 255 201 210 255 225 230 255 229 233 255 220 226 255 228 232 255 228 232 255 228 232 255 229 233 255 229 233 255 222 228 255 228 232 255 216 222 255 220 226 179 134 142 70 53 56 54 40 43 54 40 43 54 40 43 54 40 43 86 65 69 244 183 194 255 208 216 255 228 232 255 233 237 255 232 236 255 232 236 255 232 236 255 232 236 255 232 236 255 232 236 255 232 236 255 232 236 255 232 236 255 232 236 255 232 236 255 232 236 255 232 236 255 232 236 255 232 236 255 232 236 255 233 237 255 233 237 255 233 237 255 233 237 255 233 237 255 233 237 255 233 237 255 229 233 255 208 216 206 155 164 81 61 64 70 53 56 70 53 56 81 61 64 184 138 146 255 200 209 255 206 215 255 198 208 255 206 215 200 151 159 157 118 125 146 110 116 146 110 116 70 53 56 65 49 51 65 49 51 65 49 51 65 49 51 65 49 51 65 49 51 65 49 51 135 102 107 255 205 214 255 220 226 255 225 230 255 209 217 244 183 194 146 110 116 255 220 226 255 236 239 255 234 238 255 234 238 255 234 238 255 234 238 255 236 239 255 236 239 255 236 239 255 236 239 255 236 239 255 236 239 255 236 239 255 236 239 255 236 239 255 236 239 255 237 240 255 237 240 255 237 240 255 237 240 255 237 240 255 237 240 255 237 240 255 237 240 255 237 240 255 237 240 255 237 240 255 237 240 255 237 240 255 237 240 255 234 238 255 229 233 255 226 231 255 214 221 255 201 210 222 167 177 179 134 142 81 61 64 81 61 64 81 61 64 81 61 64 81 61 64 81 61 64 81 61 64 81 61 64 81 61 64 81 61 64 81 61 64 81 61 64 81 61 64 81 61 64 81 61 64 86 65 69 86 65 69 86 65 69 86 65 69 86 65 69 81 61 64 81 61 64 81 61 64 81 61 64 81 61 64 81 61 64 81 61 64 81 61 64 81 61 64 81 61 64 70 53 56 135 102 107 255 213 220 255 234 238 255 234 238 255 233 237 255 198 208 146 110 116 65 49 51 54 40 43 65 49 51 65 49 51 65 49 51 65 49 51 65 49 51 65 49 51 65 49 51 54 40 43 54 40 43 54 40 43 54 40 43 54 40 43 54 40 43 54 40 43 54 40 43 54 40 43 54 40 43 54 40 43 54 40 43 54 40 43 54 40 43 54 40 43 37 28 30 37 28 30 48 36 38 255 217 224 255 226 231 255 217 224 249 187 198 249 187 198 249 187 198 249 187 198 249 187 198 255 193 204 255 193 204 255 193 204 255 193 204 255 193 204 249 187 198 249 187 198 244 183 194 
244 183 194 244 183 194 244 183 194 249 187 198 249 187 198 255 193 204 255 193 204 255 193 204 255 193 204 255 193 204 249 187 198 249 187 198 249 187 198 249 187 198 249 187 198 249 187 198 249 187 198 249 187 198 249 187 198 255 193 204 249 187 198 255 193 204 255 198 208 227 171 181 130 98 103 130 98 103 255 225 230 255 229 233 255 228 232 255 229 233 255 228 232 255 229 233 255 229 233 255 228 232 255 225 230 255 201 210 37 28 30 54 40 43 81 61 64 54 40 43 54 40 43 54 40 43 54 40 43 48 36 38 130 98 103 227 171 181 255 208 216 255 229 233 255 233 237 255 232 236 255 232 236 255 232 236 255 232 236 255 232 236 255 232 236 255 232 236 255 232 236 255 232 236 255 232 236 255 233 237 255 233 237 255 233 237 255 233 237 255 233 237 255 233 237 255 233 237 255 233 237 255 233 237 255 233 237 255 233 237 255 233 237 255 220 226 92 69 73 65 49 51 54 40 43 65 49 51 65 49 51 65 49 51 54 40 43 65 49 51 70 53 56 65 49 51 65 49 51 65 49 51 65 49 51 65 49 51 65 49 51 65 49 51 65 49 51 65 49 51 65 49 51 65 49 51 65 49 51 65 49 51 65 49 51 65 49 51 54 40 43 70 53 56 65 49 51 54 40 43 65 49 51 81 61 64 255 233 237 255 234 238 255 234 238 255 234 238 255 234 238 255 234 238 255 236 239 255 236 239 255 236 239 255 236 239 255 236 239 255 236 239 255 236 239 255 236 239 255 236 239 255 236 239 255 236 239 255 236 239 255 236 239 255 236 239 255 236 239 255 236 239 255 236 239 255 237 240 255 237 240 255 237 240 255 237 240 255 237 240 255 237 240 255 233 237 255 228 232 255 225 230 255 212 219 255 208 216 217 163 172 86 65 69 81 61 64 70 53 56 70 53 56 70 53 56 70 53 56 70 53 56 70 53 56 70 53 56 70 53 56 70 53 56 81 61 64 81 61 64 81 61 64 81 61 64 81 61 64 81 61 64 81 61 64 81 61 64 195 147 155 222 167 177 157 118 125 70 53 56 70 53 56 211 159 168 200 151 159 130 98 103 146 110 116 86 65 69 81 61 64 65 49 51 70 53 56 54 40 43 81 61 64 86 65 69 255 213 220 255 236 239 255 226 231 255 208 216 255 200 209 92 69 73 65 49 51 54 40 43 65 49 51 54 40 43 54 40 43 54 40 43 54 40 43 54 40 43 54 40 43 54 40 43 54 40 43 54 40 43 54 40 43 54 40 43 54 40 43 54 40 43 54 40 43 48 36 38 48 36 38 48 36 38 48 36 38 48 36 38 48 36 38 48 36 38 48 36 38 37 28 30 227 171 181 255 230 235 255 202 211 244 183 194 249 187 198 249 187 198 249 187 198 249 187 198 249 187 198 255 193 204 255 193 204 255 193 204 255 193 204 249 187 198 249 187 198 249 187 198 
244 183 194 244 183 194 244 183 194 249 187 198 249 187 198 255 193 204 255 193 204 255 193 204 255 193 204 255 193 204 249 187 198 249 187 198 249 187 198 249 187 198 249 187 198 249 187 198 249 187 198 249 187 198 249 187 198 255 193 204 249 187 198 255 193 204 255 198 208 227 171 181 130 98 103 130 98 103 255 225 230 255 229 233 255 228 232 255 229 233 255 228 232 255 229 233 255 229 233 255 228 232 255 225 230 255 201 210 37 28 30 54 40 43 81 61 64 54 40 43 54 40 43 54 40 43 54 40 43 48 36 38 130 98 103 227 171 181 255 208 216 255 229 233 255 233 237 255 232 236 255 232 236 255 232 236 255 232 236 255 232 236 255 232 236 255 232 236 255 232 236 255 232 236 255 232 236 255 233 237 255 233 237 255 233 237 255 233 237 255 233 237 255 233 237 255 233 237 255 233 237 255 233 237 255 233 237 255 233 237 255 233 237 255 220 226 92 69 73 65 49 51 54 40 43 65 49 51 65 49 51 65 49 51 54 40 43 65 49 51 70 53 56 65 49 51 65 49 51 65 49 51 65 49 51 65 49 51 65 49 51 65 49 51 65 49 51 65 49 51 65 49 51 65 49 51 65 49 51 65 49 51 65 49 51 65 49 51 54 40 43 70 53 56 65 49 51 54 40 43 65 49 51 81 61 64 255 233 237 255 234 238 255 234 238 255 234 238 255 234 238 255 234 238 255 236 239 255 236 239 255 236 239 255 236 239 255 236 239 255 236 239 255 236 239 255 236 239 255 236 239 255 236 239 255 236 239 255 236 239 255 236 239 255 236 239 255 236 239 255 236 239 255 236 239 255 237 240 255 237 240 255 237 240 255 237 240 255 237 240 255 237 240 255 233 237 255 228 232 255 225 230 255 212 219 255 208 216 217 163 172 86 65 69 81 61 64 70 53 56 70 53 56 70 53 56 70 53 56 70 53 56 70 53 56 70 53 56 70 53 56 70 53 56 81 61 64 81 61 64 81 61 64 81 61 64 81 61 64 81 61 64 81 61 64 81 61 64 195 147 155 222 167 177 157 118 125 70 53 56 70 53 56 211 159 168 200 151 159 130 98 103 146 110 116 86 65 69 81 61 64 65 49 51 70 53 56 54 40 43 81 61 64 86 65 69 255 213 220 255 236 239 255 226 231 255 208 216 255 200 209 92 69 73 65 49 51 54 40 43 65 49 51 54 40 43 54 40 43 54 40 43 54 40 43 54 40 43 54 40 43 54 40 43 54 40 43 54 40 43 54 40 43 54 40 43 54 40 43 54 40 43 54 40 43 48 36 38 48 36 38 48 36 38 48 36 38 48 36 38 48 36 38 48 36 38 48 36 38 37 28 30 227 171 181 255 230 235 255 202 211 244 183 194 249 187 198 249 187 198 249 187 198 249 187 198 249 187 198 255 193 204 255 193 204 255 193 204 255 193 204 249 187 198 249 187 198 249 187 198 
244 183 194 244 183 194 244 183 194 249 187 198 249 187 198 249 187 198 255 193 204 255 196 206 255 193 204 255 193 204 249 187 198 249 187 198 249 187 198 249 187 198 249 187 198 249 187 198 249 187 198 255 193 204 255 193 204 249 187 198 249 187 198 249 187 198 255 193 204 255 193 204 255 196 206 255 200 209 255 224 229 255 226 231 255 226 231 255 228 232 255 228 232 255 228 232 255 228 232 255 229 233 255 222 228 244 183 194 146 110 116 48 36 38 48 36 38 48 36 38 54 40 43 157 118 125 54 40 43 54 40 43 54 40 43 179 134 142 222 167 177 255 216 222 255 232 236 255 232 236 255 232 236 255 232 236 255 232 236 255 232 236 255 232 236 255 232 236 255 232 236 255 232 236 255 232 236 255 233 237 255 233 237 255 233 237 255 233 237 255 233 237 255 233 237 255 233 237 255 233 237 255 233 237 255 233 237 255 233 237 255 233 237 255 229 233 65 49 51 65 49 51 65 49 51 65 49 51 65 49 51 65 49 51 65 49 51 65 49 51 65 49 51 65 49 51 65 49 51 65 49 51 65 49 51 65 49 51 65 49 51 65 49 51 65 49 51 65 49 51 54 40 43 65 49 51 65 49 51 65 49 51 65 49 51 65 49 51 65 49 51 70 53 56 70 53 56 65 49 51 32 24 25 255 221 227 255 236 239 255 234 238 255 234 238 255 234 238 255 234 238 255 234 238 255 234 238 255 234 238 255 236 239 255 236 239 255 236 239 255 236 239 255 236 239 255 236 239 255 236 239 255 236 239 255 236 239 255 236 239 255 236 239 255 236 239 255 236 239 255 236 239 255 236 239 255 236 239 255 236 239 255 237 240 255 237 240 255 237 240 255 234 238 255 232 236 255 232 236 255 214 221 255 196 206 255 202 211 179 134 142 179 134 142 70 53 56 70 53 56 70 53 56 70 53 56 70 53 56 70 53 56 70 53 56 70 53 56 70 53 56 70 53 56 70 53 56 70 53 56 70 53 56 70 53 56 70 53 56 81 61 64 70 53 56 65 49 51 179 134 142 255 205 214 217 163 172 65 49 51 81 61 64 65 49 51 70 53 56 86 65 69 81 61 64 255 198 208 255 221 227 255 225 230 255 209 217 200 151 159 211 159 168 255 193 204 217 163 172 184 138 146 255 225 230 255 220 226 255 217 224 135 102 107 146 110 116 54 40 43 54 40 43 65 49 51 48 36 38 48 36 38 54 40 43 81 61 64 48 36 38 48 36 38 48 36 38 48 36 38 48 36 38 48 36 38 48 36 38 48 36 38 48 36 38 48 36 38 48 36 38 48 36 38 48 36 38 48 36 38 48 36 38 48 36 38 48 36 38 37 28 30 255 214 221 255 209 217 255 193 204 249 187 198 249 187 198 249 187 198 249 187 198 249 187 198 255 193 204 255 193 204 255 193 204 255 193 204 255 193 204 249 187 198 249 187 198 249 187 198 
244 183 194 244 183 194 244 183 194 249 187 198 249 187 198 249 187 198 255 193 204 255 196 206 255 193 204 255 193 204 249 187 198 249 187 198 249 187 198 249 187 198 249 187 198 249 187 198 249 187 198 255 193 204 255 193 204 249 187 198 249 187 198 249 187 198 255 193 204 255 193 204 255 196 206 255 200 209 255 224 229 255 226 231 255 226 231 255 228 232 255 228 232 255 228 232 255 228 232 255 229 233 255 222 228 244 183 194 146 110 116 48 36 38 48 36 38 48 36 38 54 40 43 157 118 125 54 40 43 54 40 43 54 40 43 179 134 142 222 167 177 255 216 222 255 232 236 255 232 236 255 232 236 255 232 236 255 232 236 255 232 236 255 232 236 255 232 236 255 232 236 255 232 236 255 232 236 255 233 237 255 233 237 255 233 237 255 233 237 255 233 237 255 233 237 255 233 237 255 233 237 255 233 237 255 233 237 255 233 237 255 233 237 255 229 233 65 49 51 65 49 51 65 49 51 65 49 51 65 49 51 65 49 51 65 49 51 65 49 51 65 49 51 65 49 51 65 49 51 65 49 51 65 49 51 65 49 51 65 49 51 65 49 51 65 49 51 65 49 51 54 40 43 65 49 51 65 49 51 65 49 51 65 49 51 65 49 51 65 49 51 70 53 56 70 53 56 65 49 51 32 24 25 255 221 227 255 236 239 255 234 238 255 234 238 255 234 238 255 234 238 255 234 238 255 234 238 255 234 238 255 236 239 255 236 239 255 236 239 255 236 239 255 236 239 255 236 239 255 236 239 255 236 239 255 236 239 255 236 239 255 236 239 255 236 239 255 236 239 255 236 239 255 236 239 255 236 239 255 236 239 255 237 240 255 237 240 255 237 240 255 234 238 255 232 236 255 232 236 255 214 221 255 196 206 255 202 211 179 134 142 179 134 142 70 53 56 70 53 56 70 53 56 70 53 56 70 53 56 70 53 56 70 53 56 70 53 56 70 53 56 70 53 56 70 53 56 70 53 56 70 53 56 70 53 56 70 53 56 81 61 64 70 53 56 65 49 51 179 134 142 255 205 214 217 163 172 65 49 51 81 61 64 65 49 51 70 53 56 86 65 69 81 61 64 255 198 208 255 221 227 255 225 230 255 209 217 200 151 159 211 159 168 255 193 204 217 163 172 184 138 146 255 225 230 255 220 226 255 217 224 135 102 107 146 110 116 54 40 43 54 40 43 65 49 51 48 36 38 48 36 38 54 40 43 81 61 64 48 36 38 48 36 38 48 36 38 48 36 38 48 36 38 48 36 38 48 36 38 48 36 38 48 36 38 48 36 38 48 36 38 48 36 38 48 36 38 48 36 38 48 36 38 48 36 38 48 36 38 37 28 30 255 214 221 255 209 217 255 193 204 249 187 198 249 187 198 249 187 198 249 187 198 249 187 198 255 193 204 255 193 204 255 193 204 255 193 204 255 193 204 249 187 198 249 187 198 249 187 198 
244 183 194 244 183 194 244 183 194 244 183 194 249 187 198 249 187 198 255 193 204 255 193 204 249 187 198 249 187 198 249 187 198 249 187 198 249 187 198 249 187 198 249 187 198 249 187 198 249 187 198 255 193 204 255 193 204 255 193 204 255 193 204 255 193 204 255 193 204 255 193 204 255 193 204 255 193 204 255 198 208 244 183 194 255 220 226 249 187 198 249 187 198 255 212 219 255 217 224 255 214 221 195 147 155 92 69 73 48 36 38 48 36 38 48 36 38 48 36 38 54 40 43 179 134 142 195 147 155 37 28 30 54 40 43 54 40 43 184 138 146 255 210 218 255 229 233 255 232 236 255 232 236 255 232 236 255 232 236 255 232 236 255 232 236 255 232 236 255 232 236 255 232 236 255 232 236 255 233 237 255 233 237 255 233 237 255 233 237 255 233 237 255 233 237 255 233 237 255 233 237 255 233 237 255 233 237 255 233 237 255 234 238 255 234 238 255 233 237 184 138 146 54 40 43 81 61 64 70 53 56 48 36 38 54 40 43 65 49 51 54 40 43 54 40 43 65 49 51 54 40 43 54 40 43 65 49 51 65 49 51 54 40 43 54 40 43 184 138 146 255 201 210 255 221 227 255 206 215 255 213 220 255 230 235 255 234 238 255 236 239 255 233 237 255 230 235 255 233 237 255 236 239 255 236 239 255 234 238 255 234 238 255 234 238 255 234 238 255 234 238 255 234 238 255 234 238 255 234 238 255 234 238 255 234 238 255 236 239 255 236 239 255 237 240 255 236 239 255 234 238 255 237 240 255 236 239 255 236 239 255 236 239 255 236 239 255 236 239 255 236 239 255 236 239 255 236 239 255 236 239 255 236 239 255 236 239 255 236 239 255 234 238 255 221 227 255 222 228 255 208 216 249 187 198 222 167 177 195 147 155 179 134 142 65 49 51 70 53 56 70 53 56 70 53 56 70 53 56 70 53 56 70 53 56 70 53 56 70 53 56 70 53 56 70 53 56 70 53 56 70 53 56 70 53 56 70 53 56 70 53 56 70 53 56 92 69 73 255 198 208 244 183 194 65 49 51 222 167 177 255 202 211 81 61 64 70 53 56 54 40 43 48 36 38 211 159 168 255 221 227 255 236 239 255 232 236 255 233 237 255 233 237 255 234 238 255 237 240 255 237 240 255 233 237 255 230 235 255 222 228 255 196 206 54 40 43 195 147 155 222 167 177 146 110 116 255 220 226 255 225 230 211 159 168 48 36 38 48 36 38 48 36 38 48 36 38 48 36 38 48 36 38 48 36 38 48 36 38 48 36 38 48 36 38 48 36 38 48 36 38 48 36 38 37 28 30 37 28 30 48 36 38 37 28 30 37 28 30 249 187 198 255 216 222 255 193 204 249 187 198 249 187 198 249 187 198 249 187 198 249 187 198 249 187 198 249 187 198 249 187 198 249 187 198 255 193 204 255 193 204 249 187 198 249 187 198 249 187 198 
244 183 194 244 183 194 244 183 194 244 183 194 249 187 198 249 187 198 255 193 204 255 193 204 249 187 198 249 187 198 249 187 198 249 187 198 249 187 198 249 187 198 249 187 198 249 187 198 249 187 198 255 193 204 255 193 204 255 193 204 255 193 204 255 193 204 255 193 204 255 193 204 255 193 204 255 193 204 255 198 208 244 183 194 255 220 226 249 187 198 249 187 198 255 212 219 255 217 224 255 214 221 195 147 155 92 69 73 48 36 38 48 36 38 48 36 38 48 36 38 54 40 43 179 134 142 195 147 155 37 28 30 54 40 43 54 40 43 184 138 146 255 210 218 255 229 233 255 232 236 255 232 236 255 232 236 255 232 236 255 232 236 255 232 236 255 232 236 255 232 236 255 232 236 255 232 236 255 233 237 255 233 237 255 233 237 255 233 237 255 233 237 255 233 237 255 233 237 255 233 237 255 233 237 255 233 237 255 233 237 255 234 238 255 234 238 255 233 237 184 138 146 54 40 43 81 61 64 70 53 56 48 36 38 54 40 43 65 49 51 54 40 43 54 40 43 65 49 51 54 40 43 54 40 43 65 49 51 65 49 51 54 40 43 54 40 43 184 138 146 255 201 210 255 221 227 255 206 215 255 213 220 255 230 235 255 234 238 255 236 239 255 233 237 255 230 235 255 233 237 255 236 239 255 236 239 255 234 238 255 234 238 255 234 238 255 234 238 255 234 238 255 234 238 255 234 238 255 234 238 255 234 238 255 234 238 255 236 239 255 236 239 255 237 240 255 236 239 255 234 238 255 237 240 255 236 239 255 236 239 255 236 239 255 236 239 255 236 239 255 236 239 255 236 239 255 236 239 255 236 239 255 236 239 255 236 239 255 236 239 255 234 238 255 221 227 255 222 228 255 208 216 249 187 198 222 167 177 195 147 155 179 134 142 65 49 51 70 53 56 70 53 56 70 53 56 70 53 56 70 53 56 70 53 56 70 53 56 70 53 56 70 53 56 70 53 56 70 53 56 70 53 56 70 53 56 70 53 56 70 53 56 70 53 56 92 69 73 255 198 208 244 183 194 65 49 51 222 167 177 255 202 211 81 61 64 70 53 56 54 40 43 48 36 38 211 159 168 255 221 227 255 236 239 255 232 236 255 233 237 255 233 237 255 234 238 255 237 240 255 237 240 255 233 237 255 230 235 255 222 228 255 196 206 54 40 43 195 147 155 222 167 177 146 110 116 255 220 226 255 225 230 211 159 168 48 36 38 48 36 38 48 36 38 48 36 38 48 36 38 48 36 38 48 36 38 48 36 38 48 36 38 48 36 38 48 36 38 48 36 38 48 36 38 37 28 30 37 28 30 48 36 38 37 28 30 37 28 30 249 187 198 255 216 222 255 193 204 249 187 198 249 187 198 249 187 198 249 187 198 249 187 198 249 187 198 249 187 198 249 187 198 249 187 198 255 193 204 255 193 204 249 187 198 249 187 198 249 187 198 
244 183 194 244 183 194 244 183 194 244 183 194 249 187 198 249 187 198 249 187 198 249 187 198 249 187 198 249 187 198 249 187 198 249 187 198 249 187 198 249 187 198 249 187 198 249 187 198 249 187 198 255 193 204 255 193 204 255 193 204 255 193 204 255 193 204 255 193 204 255 193 204 255 193 204 255 193 204 249 187 198 255 198 208 179 134 142 146 110 116 54 40 43 92 69 73 48 36 38 146 110 116 157 118 125 48 36 38 48 36 38 48 36 38 48 36 38 48 36 38 48 36 38 48 36 38 37 28 30 54 40 43 48 36 38 54 40 43 184 138 146 255 205 214 255 224 229 255 232 236 255 232 236 255 232 236 255 232 236 255 232 236 255 232 236 255 232 236 255 232 236 255 232 236 255 232 236 255 233 237 255 233 237 255 233 237 255 233 237 255 233 237 255 233 237 255 233 237 255 233 237 255 233 237 255 234 238 255 234 238 255 234 238 255 234 238 255 234 238 255 234 238 255 236 239 255 234 238 255 236 239 255 236 239 255 232 236 255 228 232 255 208 216 195 147 155 86 65 69 92 69 73 135 102 107 227 171 181 255 225 230 255 236 239 255 236 239 255 236 239 255 234 238 255 234 238 255 236 239 255 234 238 255 236 239 255 236 239 255 236 239 255 236 239 255 236 239 255 236 239 255 234 238 255 234 238 255 236 239 255 234 238 255 234 238 255 234 238 255 234 238 255 234 238 255 234 238 255 234 238 255 236 239 255 236 239 255 234 238 255 236 239 255 202 211 255 200 209 255 198 208 255 200 209 255 234 238 255 237 240 255 236 239 255 236 239 255 236 239 255 236 239 255 236 239 255 236 239 255 236 239 255 236 239 255 236 239 255 230 235 255 230 235 255 202 211 255 208 216 255 201 210 200 151 159 206 155 164 92 69 73 92 69 73 54 40 43 70 53 56 70 53 56 70 53 56 70 53 56 70 53 56 65 49 51 65 49 51 65 49 51 65 49 51 65 49 51 65 49 51 65 49 51 65 49 51 54 40 43 54 40 43 195 147 155 255 206 215 255 208 216 222 167 177 81 61 64 65 49 51 195 147 155 130 98 103 65 49 51 70 53 56 54 40 43 65 49 51 54 40 43 48 36 38 179 134 142 227 171 181 244 183 194 255 208 216 255 208 216 255 209 217 255 217 224 255 216 222 255 217 224 255 212 219 217 163 172 135 102 107 255 206 215 255 196 206 130 98 103 48 36 38 48 36 38 37 28 30 37 28 30 37 28 30 37 28 30 37 28 30 48 36 38 195 147 155 37 28 30 48 36 38 48 36 38 37 28 30 37 28 30 37 28 30 37 28 30 37 28 30 37 28 30 37 28 30 227 171 181 255 214 221 255 196 206 249 187 198 249 187 198 249 187 198 249 187 198 249 187 198 249 187 198 249 187 198 249 187 198 249 187 198 249 187 198 249 187 198 249 187 198 249 187 198 244 183 194 249 187 198 
244 183 194 244 183 194 244 183 194 244 183 194 249 187 198 249 187 198 249 187 198 249 187 198 249 187 198 249 187 198 249 187 198 249 187 198 249 187 198 249 187 198 249 187 198 249 187 198 249 187 198 255 193 204 255 193 204 255 193 204 255 193 204 255 193 204 255 193 204 255 193 204 255 193 204 255 193 204 249 187 198 255 198 208 179 134 142 146 110 116 54 40 43 92 69 73 48 36 38 146 110 116 157 118 125 48 36 38 48 36 38 48 36 38 48 36 38 48 36 38 48 36 38 48 36 38 37 28 30 54 40 43 48 36 38 54 40 43 184 138 146 255 205 214 255 224 229 255 232 236 255 232 236 255 232 236 255 232 236 255 232 236 255 232 236 255 232 236 255 232 236 255 232 236 255 232 236 255 233 237 255 233 237 255 233 237 255 233 237 255 233 237 255 233 237 255 233 237 255 233 237 255 233 237 255 234 238 255 234 238 255 234 238 255 234 238 255 234 238 255 234 238 255 236 239 255 234 238 255 236 239 255 236 239 255 232 236 255 228 232 255 208 216 195 147 155 86 65 69 92 69 73 135 102 107 227 171 181 255 225 230 255 236 239 255 236 239 255 236 239 255 234 238 255 234 238 255 236 239 255 234 238 255 236 239 255 236 239 255 236 239 255 236 239 255 236 239 255 236 239 255 234 238 255 234 238 255 236 239 255 234 238 255 234 238 255 234 238 255 234 238 255 234 238 255 234 238 255 234 238 255 236 239 255 236 239 255 234 238 255 236 239 255 202 211 255 200 209 255 198 208 255 200 209 255 234 238 255 237 240 255 236 239 255 236 239 255 236 239 255 236 239 255 236 239 255 236 239 255 236 239 255 236 239 255 236 239 255 230 235 255 230 235 255 202 211 255 208 216 255 201 210 200 151 159 206 155 164 92 69 73 92 69 73 54 40 43 70 53 56 70 53 56 70 53 56 70 53 56 70 53 56 65 49 51 65 49 51 65 49 51 65 49 51 65 49 51 65 49 51 65 49 51 65 49 51 54 40 43 54 40 43 195 147 155 255 206 215 255 208 216 222 167 177 81 61 64 65 49 51 195 147 155 130 98 103 65 49 51 70 53 56 54 40 43 65 49 51 54 40 43 48 36 38 179 134 142 227 171 181 244 183 194 255 208 216 255 208 216 255 209 217 255 217 224 255 216 222 255 217 224 255 212 219 217 163 172 135 102 107 255 206 215 255 196 206 130 98 103 48 36 38 48 36 38 37 28 30 37 28 30 37 28 30 37 28 30 37 28 30 48 36 38 195 147 155 37 28 30 48 36 38 48 36 38 37 28 30 37 28 30 37 28 30 37 28 30 37 28 30 37 28 30 37 28 30 227 171 181 255 214 221 255 196 206 249 187 198 249 187 198 249 187 198 249 187 198 249 187 198 249 187 198 249 187 198 249 187 198 249 187 198 249 187 198 249 187 198 249 187 198 249 187 198 244 183 194 249 187 198 
244 183 194 244 183 194 244 183 194 244 183 194 249 187 198 249 187 198 249 187 198 249 187 198 249 187 198 249 187 198 249 187 198 249 187 198 249 187 198 249 187 198 249 187 198 249 187 198 249 187 198 255 193 204 255 193 204 255 193 204 255 193 204 255 193 204 255 193 204 255 193 204 255 193 204 255 193 204 255 196 206 255 193 204 255 196 206 211 159 168 48 36 38 48 36 38 48 36 38 37 28 30 48 36 38 48 36 38 48 36 38 48 36 38 48 36 38 48 36 38 48 36 38 48 36 38 48 36 38 48 36 38 48 36 38 54 40 43 54 40 43 222 167 177 255 214 221 255 225 230 255 232 236 255 232 236 255 232 236 255 232 236 255 232 236 255 232 236 255 232 236 255 233 237 255 233 237 255 233 237 255 233 237 255 233 237 255 233 237 255 233 237 255 233 237 255 233 237 255 233 237 255 233 237 255 234 238 255 234 238 255 234 238 255 234 238 255 234 238 255 234 238 255 236 239 255 236 239 255 234 238 255 234 238 255 234 238 255 236 239 255 236 239 255 236 239 255 236 239 255 236 239 255 237 240 255 236 239 255 236 239 255 236 239 255 236 239 255 236 239 255 236 239 255 236 239 255 236 239 255 236 239 255 236 239 255 236 239 255 236 239 255 236 239 255 236 239 255 236 239 255 236 239 255 234 238 255 234 238 255 234 238 255 234 238 255 234 238 255 234 238 255 234 238 255 234 238 255 234 238 255 236 239 255 236 239 255 234 238 255 234 238 255 212 219 255 200 209 227 171 181 255 200 209 255 237 240 255 234 238 255 236 239 255 236 239 255 236 239 255 236 239 255 236 239 255 236 239 255 236 239 255 236 239 255 232 236 255 221 227 255 228 232 255 196 206 244 183 194 244 183 194 211 159 168 157 118 125 86 65 69 65 49 51 70 53 56 65 49 51 65 49 51 65 49 51 65 49 51 65 49 51 65 49 51 65 49 51 65 49 51 65 49 51 65 49 51 65 49 51 65 49 51 65 49 51 54 40 43 86 65 69 255 205 214 255 206 215 255 206 215 130 98 103 65 49 51 65 49 51 81 61 64 70 53 56 65 49 51 65 49 51 65 49 51 54 40 43 54 40 43 54 40 43 54 40 43 54 40 43 65 49 51 92 69 73 244 183 194 255 213 220 255 224 229 255 217 224 255 224 229 255 228 232 255 225 230 255 214 221 211 159 168 81 61 64 54 40 43 37 28 30 37 28 30 37 28 30 37 28 30 37 28 30 37 28 30 37 28 30 37 28 30 37 28 30 48 36 38 37 28 30 37 28 30 37 28 30 37 28 30 37 28 30 37 28 30 37 28 30 37 28 30 81 61 64 255 225 230 255 198 208 249 187 198 244 183 194 249 187 198 249 187 198 244 183 194 244 183 194 244 183 194 249 187 198 249 187 198 249 187 198 249 187 198 249 187 198 249 187 198 249 187 198 249 187 198 249 187 198 
244 183 194 244 183 194 244 183 194 244 183 194 249 187 198 249 187 198 249 187 198 249 187 198 249 187 198 249 187 198 249 187 198 249 187 198 249 187 198 249 187 198 249 187 198 249 187 198 249 187 198 255 193 204 255 193 204 255 193 204 255 193 204 255 193 204 255 193 204 255 193 204 255 193 204 255 193 204 255 196 206 255 193 204 255 196 206 211 159 168 48 36 38 48 36 38 48 36 38 37 28 30 48 36 38 48 36 38 48 36 38 48 36 38 48 36 38 48 36 38 48 36 38 48 36 38 48 36 38 48 36 38 48 36 38 54 40 43 54 40 43 222 167 177 255 214 221 255 225 230 255 232 236 255 232 236 255 232 236 255 232 236 255 232 236 255 232 236 255 232 236 255 233 237 255 233 237 255 233 237 255 233 237 255 233 237 255 233 237 255 233 237 255 233 237 255 233 237 255 233 237 255 233 237 255 234 238 255 234 238 255 234 238 255 234 238 255 234 238 255 234 238 255 236 239 255 236 239 255 234 238 255 234 238 255 234 238 255 236 239 255 236 239 255 236 239 255 236 239 255 236 239 255 237 240 255 236 239 255 236 239 255 236 239 255 236 239 255 236 239 255 236 239 255 236 239 255 236 239 255 236 239 255 236 239 255 236 239 255 236 239 255 236 239 255 236 239 255 236 239 255 236 239 255 234 238 255 234 238 255 234 238 255 234 238 255 234 238 255 234 238 255 234 238 255 234 238 255 234 238 255 236 239 255 236 239 255 234 238 255 234 238 255 212 219 255 200 209 227 171 181 255 200 209 255 237 240 255 234 238 255 236 239 255 236 239 255 236 239 255 236 239 255 236 239 255 236 239 255 236 239 255 236 239 255 232 236 255 221 227 255 228 232 255 196 206 244 183 194 244 183 194 211 159 168 157 118 125 86 65 69 65 49 51 70 53 56 65 49 51 65 49 51 65 49 51 65 49 51 65 49 51 65 49 51 65 49 51 65 49 51 65 49 51 65 49 51 65 49 51 65 49 51 65 49 51 54 40 43 86 65 69 255 205 214 255 206 215 255 206 215 130 98 103 65 49 51 65 49 51 81 61 64 70 53 56 65 49 51 65 49 51 65 49 51 54 40 43 54 40 43 54 40 43 54 40 43 54 40 43 65 49 51 92 69 73 244 183 194 255 213 220 255 224 229 255 217 224 255 224 229 255 228 232 255 225 230 255 214 221 211 159 168 81 61 64 54 40 43 37 28 30 37 28 30 37 28 30 37 28 30 37 28 30 37 28 30 37 28 30 37 28 30 37 28 30 48 36 38 37 28 30 37 28 30 37 28 30 37 28 30 37 28 30 37 28 30 37 28 30 37 28 30 81 61 64 255 225 230 255 198 208 249 187 198 244 183 194 249 187 198 249 187 198 244 183 194 244 183 194 244 183 194 249 187 198 249 187 198 249 187 198 249 187 198 249 187 198 249 187 198 249 187 198 249 187 198 249 187 198 
244 183 194 244 183 194 244 183 194 244 183 194 249 187 198 249 187 198 249 187 198 249 187 198 249 187 198 249 187 198 249 187 198 249 187 198 249 187 198 249 187 198 249 187 198 249 187 198 249 187 198 255 193 204 255 193 204 255 193 204 255 193 204 255 193 204 255 193 204 255 193 204 255 193 204 255 193 204 255 193 204 255 193 204 255 193 204 255 196 206 206 155 164 27 20 21 37 28 30 37 28 30 37 28 30 37 28 30 37 28 30 37 28 30 37 28 30 37 28 30 37 28 30 48 36 38 70 53 56 37 28 30 48 36 38 48 36 38 70 53 56 81 61 64 222 167 177 255 217 224 255 232 236 255 230 235 255 232 236 255 232 236 255 233 237 255 233 237 255 233 237 255 233 237 255 233 237 255 233 237 255 233 237 255 233 237 255 233 237 255 233 237 255 233 237 255 233 237 255 234 238 255 234 238 255 234 238 255 234 238 255 234 238 255 234 238 255 234 238 255 234 238 255 234 238 255 234 238 255 234 238 255 234 238 255 234 238 255 236 239 255 236 239 255 236 239 255 236 239 255 236 239 255 236 239 255 236 239 255 236 239 255 236 239 255 236 239 255 236 239 255 236 239 255 236 239 255 236 239 255 236 239 255 236 239 255 234 238 255 234 238 255 234 238 255 234 238 255 234 238 255 234 238 255 234 238 255 234 238 255 234 238 255 234 238 255 234 238 255 234 238 255 234 238 255 234 238 255 234 238 255 234 238 255 234 238 255 234 238 255 234 238 255 234 238 255 234 238 255 213 220 130 98 103 255 217 224 255 234 238 255 234 238 255 234 238 255 236 239 255 236 239 255 236 239 255 236 239 255 236 239 255 233 237 255 226 231 255 222 228 255 193 204 244 183 194 233 175 185 227 171 181 206 155 164 179 134 142 217 163 172 86 65 69 81 61 64 65 49 51 65 49 51 65 49 51 65 49 51 65 49 51 65 49 51 65 49 51 65 49 51 65 49 51 54 40 43 65 49 51 65 49 51 54 40 43 54 40 43 54 40 43 81 61 64 217 163 172 255 205 214 217 163 172 92 69 73 146 110 116 130 98 103 81 61 64 54 40 43 54 40 43 54 40 43 54 40 43 54 40 43 65 49 51 37 28 30 48 36 38 54 40 43 48 36 38 48 36 38 48 36 38 37 28 30 54 40 43 48 36 38 37 28 30 37 28 30 37 28 30 37 28 30 37 28 30 37 28 30 37 28 30 37 28 30 37 28 30 37 28 30 37 28 30 37 28 30 37 28 30 37 28 30 37 28 30 37 28 30 37 28 30 37 28 30 37 28 30 37 28 30 37 28 30 32 24 25 27 20 21 179 134 142 255 224 229 255 202 211 255 193 204 249 187 198 244 183 194 249 187 198 249 187 198 244 183 194 244 183 194 244 183 194 249 187 198 249 187 198 249 187 198 249 187 198 244 183 194 244 183 194 244 183 194 244 183 194 244 183 194 
244 183 194 244 183 194 244 183 194 244 183 194 249 187 198 249 187 198 249 187 198 249 187 198 249 187 198 249 187 198 249 187 198 249 187 198 249 187 198 249 187 198 249 187 198 249 187 198 249 187 198 255 193 204 255 193 204 255 193 204 255 193 204 255 193 204 255 193 204 255 193 204 255 193 204 255 193 204 255 193 204 255 193 204 255 193 204 255 196 206 206 155 164 27 20 21 37 28 30 37 28 30 37 28 30 37 28 30 37 28 30 37 28 30 37 28 30 37 28 30 37 28 30 48 36 38 70 53 56 37 28 30 48 36 38 48 36 38 70 53 56 81 61 64 222 167 177 255 217 224 255 232 236 255 230 235 255 232 236 255 232 236 255 233 237 255 233 237 255 233 237 255 233 237 255 233 237 255 233 237 255 233 237 255 233 237 255 233 237 255 233 237 255 233 237 255 233 237 255 234 238 255 234 238 255 234 238 255 234 238 255 234 238 255 234 238 255 234 238 255 234 238 255 234 238 255 234 238 255 234 238 255 234 238 255 234 238 255 236 239 255 236 239 255 236 239 255 236 239 255 236 239 255 236 239 255 236 239 255 236 239 255 236 239 255 236 239 255 236 239 255 236 239 255 236 239 255 236 239 255 236 239 255 236 239 255 234 238 255 234 238 255 234 238 255 234 238 255 234 238 255 234 238 255 234 238 255 234 238 255 234 238 255 234 238 255 234 238 255 234 238 255 234 238 255 234 238 255 234 238 255 234 238 255 234 238 255 234 238 255 234 238 255 234 238 255 234 238 255 213 220 130 98 103 255 217 224 255 234 238 255 234 238 255 234 238 255 236 239 255 236 239 255 236 239 255 236 239 255 236 239 255 233 237 255 226 231 255 222 228 255 193 204 244 183 194 233 175 185 227 171 181 206 155 164 179 134 142 217 163 172 86 65 69 81 61 64 65 49 51 65 49 51 65 49 51 65 49 51 65 49 51 65 49 51 65 49 51 65 49 51 65 49 51 54 40 43 65 49 51 65 49 51 54 40 43 54 40 43 54 40 43 81 61 64 217 163 172 255 205 214 217 163 172 92 69 73 146 110 116 130 98 103 81 61 64 54 40 43 54 40 43 54 40 43 54 40 43 54 40 43 65 49 51 37 28 30 48 36 38 54 40 43 48 36 38 48 36 38 48 36 38 37 28 30 54 40 43 48 36 38 37 28 30 37 28 30 37 28 30 37 28 30 37 28 30 37 28 30 37 28 30 37 28 30 37 28 30 37 28 30 37 28 30 37 28 30 37 28 30 37 28 30 37 28 30 37 28 30 37 28 30 37 28 30 37 28 30 37 28 30 37 28 30 32 24 25 27 20 21 179 134 142 255 224 229 255 202 211 255 193 204 249 187 198 244 183 194 249 187 198 249 187 198 244 183 194 244 183 194 244 183 194 249 187 198 249 187 198 249 187 198 249 187 198 244 183 194 244 183 194 244 183 194 244 183 194 244 183 194 
244 183 194 244 183 194 244 183 194 244 183 194 249 187 198 249 187 198 249 187 198 249 187 198 249 187 198 249 187 198 249 187 198 249 187 198 249 187 198 244 183 194 244 183 194 249 187 198 249 187 198 249 187 198 249 187 198 249 187 198 249 187 198 249 187 198 255 193 204 255 193 204 255 193 204 255 193 204 255 193 204 255 193 204 255 193 204 249 187 198 255 196 206 130 98 103 37 28 30 37 28 30 37 28 30 37 28 30 37 28 30 37 28 30 37 28 30 37 28 30 48 36 38 48 36 38 48 36 38 48 36 38 48 36 38 48 36 38 130 98 103 184 138 146 255 193 204 255 212 219 255 229 233 255 232 236 255 232 236 255 232 236 255 233 237 255 233 237 255 233 237 255 233 237 255 233 237 255 233 237 255 233 237 255 233 237 255 233 237 255 233 237 255 233 237 255 233 237 255 234 238 255 234 238 255 234 238 255 234 238 255 234 238 255 234 238 255 234 238 255 234 238 255 234 238 255 234 238 255 234 238 255 234 238 255 234 238 255 234 238 255 234 238 255 236 239 255 236 239 255 236 239 255 236 239 255 236 239 255 236 239 255 236 239 255 236 239 255 236 239 255 234 238 255 234 238 255 234 238 255 234 238 255 236 239 255 234 238 255 234 238 255 236 239 255 234 238 255 234 238 255 234 238 255 234 238 255 234 238 255 234 238 255 234 238 255 234 238 255 234 238 255 234 238 255 234 238 255 234 238 255 234 238 255 234 238 255 234 238 255 234 238 255 234 238 255 234 238 255 234 238 255 234 238 255 234 238 255 234 238 255 234 238 255 234 238 255 234 238 255 234 238 255 234 238 255 236 239 255 236 239 255 230 235 255 225 230 255 216 222 255 206 215 255 198 208 255 198 208 217 163 172 211 159 168 200 151 159 146 110 116 70 53 56 184 138 146 65 49 51 54 40 43 65 49 51 65 49 51 54 40 43 54 40 43 54 40 43 54 40 43 54 40 43 54 40 43 54 40 43 54 40 43 54 40 43 37 28 30 233 175 185 135 102 107 54 40 43 92 69 73 206 155 164 54 40 43 54 40 43 48 36 38 54 40 43 54 40 43 54 40 43 54 40 43 244 183 194 255 193 204 200 151 159 217 163 172 65 49 51 37 28 30 48 36 38 48 36 38 37 28 30 37 28 30 37 28 30 37 28 30 37 28 30 37 28 30 37 28 30 37 28 30 37 28 30 37 28 30 32 24 25 32 24 25 32 24 25 37 28 30 37 28 30 32 24 25 32 24 25 32 24 25 37 28 30 37 28 30 48 36 38 37 28 30 37 28 30 48 36 38 32 24 25 184 138 146 255 210 218 255 198 208 255 193 204 255 193 204 249 187 198 249 187 198 249 187 198 249 187 198 249 187 198 244 183 194 244 183 194 244 183 194 244 183 194 244 183 194 244 183 194 244 183 194 244 183 194 244 183 194 244 183 194 244 183 194 244 183 194 
244 183 194 244 183 194 244 183 194 244 183 194 249 187 198 249 187 198 249 187 198 249 187 198 249 187 198 249 187 198 249 187 198 249 187 198 249 187 198 244 183 194 244 183 194 249 187 198 249 187 198 249 187 198 249 187 198 249 187 198 249 187 198 249 187 198 255 193 204 255 193 204 255 193 204 255 193 204 255 193 204 255 193 204 255 193 204 249 187 198 255 196 206 130 98 103 37 28 30 37 28 30 37 28 30 37 28 30 37 28 30 37 28 30 37 28 30 37 28 30 48 36 38 48 36 38 48 36 38 48 36 38 48 36 38 48 36 38 130 98 103 184 138 146 255 193 204 255 212 219 255 229 233 255 232 236 255 232 236 255 232 236 255 233 237 255 233 237 255 233 237 255 233 237 255 233 237 255 233 237 255 233 237 255 233 237 255 233 237 255 233 237 255 233 237 255 233 237 255 234 238 255 234 238 255 234 238 255 234 238 255 234 238 255 234 238 255 234 238 255 234 238 255 234 238 255 234 238 255 234 238 255 234 238 255 234 238 255 234 238 255 234 238 255 236 239 255 236 239 255 236 239 255 236 239 255 236 239 255 236 239 255 236 239 255 236 239 255 236 239 255 234 238 255 234 238 255 234 238 255 234 238 255 236 239 255 234 238 255 234 238 255 236 239 255 234 238 255 234 238 255 234 238 255 234 238 255 234 238 255 234 238 255 234 238 255 234 238 255 234 238 255 234 238 255 234 238 255 234 238 255 234 238 255 234 238 255 234 238 255 234 238 255 234 238 255 234 238 255 234 238 255 234 238 255 234 238 255 234 238 255 234 238 255 234 238 255 234 238 255 234 238 255 234 238 255 236 239 255 236 239 255 230 235 255 225 230 255 216 222 255 206 215 255 198 208 255 198 208 217 163 172 211 159 168 200 151 159 146 110 116 70 53 56 184 138 146 65 49 51 54 40 43 65 49 51 65 49 51 54 40 43 54 40 43 54 40 43 54 40 43 54 40 43 54 40 43 54 40 43 54 40 43 54 40 43 37 28 30 233 175 185 135 102 107 54 40 43 92 69 73 206 155 164 54 40 43 54 40 43 48 36 38 54 40 43 54 40 43 54 40 43 54 40 43 244 183 194 255 193 204 200 151 159 217 163 172 65 49 51 37 28 30 48 36 38 48 36 38 37 28 30 37 28 30 37 28 30 37 28 30 37 28 30 37 28 30 37 28 30 37 28 30 37 28 30 37 28 30 32 24 25 32 24 25 32 24 25 37 28 30 37 28 30 32 24 25 32 24 25 32 24 25 37 28 30 37 28 30 48 36 38 37 28 30 37 28 30 48 36 38 32 24 25 184 138 146 255 210 218 255 198 208 255 193 204 255 193 204 249 187 198 249 187 198 249 187 198 249 187 198 249 187 198 244 183 194 244 183 194 244 183 194 244 183 194 244 183 194 244 183 194 244 183 194 244 183 194 244 183 194 244 183 194 244 183 194 244 183 194 
244 183 194 244 183 194 244 183 194 244 183 194 249 187 198 249 187 198 249 187 198 249 187 198 249 187 198 249 187 198 249 187 198 249 187 198 249 187 198 249 187 198 244 183 194 249 187 198 249 187 198 249 187 198 249 187 198 249 187 198 249 187 198 249 187 198 255 193 204 255 193 204 255 193 204 255 193 204 255 193 204 249 187 198 249 187 198 255 193 204 255 193 204 255 201 210 92 69 73 37 28 30 32 24 25 37 28 30 32 24 25 32 24 25 32 24 25 70 53 56 37 28 30 32 24 25 70 53 56 37 28 30 48 36 38 37 28 30 81 61 64 65 49 51 195 147 155 255 202 211 255 229 233 255 232 236 255 232 236 255 232 236 255 233 237 255 233 237 255 233 237 255 233 237 255 233 237 255 233 237 255 233 237 255 233 237 255 233 237 255 233 237 255 233 237 255 233 237 255 234 238 255 234 238 255 234 238 255 234 238 255 234 238 255 234 238 255 234 238 255 234 238 255 234 238 255 234 238 255 234 238 255 234 238 255 234 238 255 234 238 255 234 238 255 236 239 255 236 239 255 236 239 255 236 239 255 234 238 255 234 238 255 234 238 255 236 239 255 234 238 255 234 238 255 232 236 255 228 232 255 224 229 255 224 229 255 222 228 255 225 230 255 228 232 255 232 236 255 234 238 255 234 238 255 233 237 255 233 237 255 234 238 255 234 238 255 234 238 255 234 238 255 234 238 255 234 238 255 234 238 255 234 238 255 234 238 255 234 238 255 234 238 255 234 238 255 234 238 255 234 238 255 234 238 255 234 238 255 234 238 255 234 238 255 234 238 255 234 238 255 234 238 255 234 238 255 236 239 255 236 239 255 233 237 255 230 235 255 225 230 255 206 215 255 212 219 255 202 211 244 183 194 222 167 177 255 198 208 179 134 142 92 69 73 92 69 73 65 49 51 65 49 51 65 49 51 54 40 43 48 36 38 48 36 38 48 36 38 48 36 38 48 36 38 48 36 38 48 36 38 48 36 38 48 36 38 54 40 43 70 53 56 184 138 146 37 28 30 48 36 38 48 36 38 48 36 38 206 155 164 135 102 107 48 36 38 48 36 38 48 36 38 48 36 38 81 61 64 217 163 172 135 102 107 37 28 30 37 28 30 37 28 30 48 36 38 48 36 38 37 28 30 37 28 30 37 28 30 32 24 25 32 24 25 32 24 25 32 24 25 32 24 25 32 24 25 32 24 25 32 24 25 32 24 25 32 24 25 32 24 25 32 24 25 32 24 25 32 24 25 32 24 25 37 28 30 32 24 25 37 28 30 32 24 25 130 98 103 255 206 215 255 202 211 255 196 206 249 187 198 249 187 198 249 187 198 249 187 198 249 187 198 249 187 198 249 187 198 249 187 198 249 187 198 244 183 194 244 183 194 244 183 194 244 183 194 244 183 194 244 183 194 244 183 194 244 183 194 244 183 194 244 183 194 244 183 194 244 183 194 
244 183 194 244 183 194 244 183 194 244 183 194 249 187 198 249 187 198 249 187 198 249 187 198 249 187 198 249 187 198 249 187 198 249 187 198 249 187 198 249 187 198 244 183 194 249 187 198 249 187 198 249 187 198 249 187 198 249 187 198 249 187 198 249 187 198 255 193 204 255 193 204 255 193 204 255 193 204 255 193 204 249 187 198 249 187 198 255 193 204 255 193 204 255 201 210 92 69 73 37 28 30 32 24 25 37 28 30 32 24 25 32 24 25 32 24 25 70 53 56 37 28 30 32 24 25 70 53 56 37 28 30 48 36 38 37 28 30 81 61 64 65 49 51 195 147 155 255 202 211 255 229 233 255 232 236 255 232 236 255 232 236 255 233 237 255 233 237 255 233 237 255 233 237 255 233 237 255 233 237 255 233 237 255 233 237 255 233 237 255 233 237 255 233 237 255 233 237 255 234 238 255 234 238 255 234 238 255 234 238 255 234 238 255 234 238 255 234 238 255 234 238 255 234 238 255 234 238 255 234 238 255 234 238 255 234 238 255 234 238 255 234 238 255 236 239 255 236 239 255 236 239 255 236 239 255 234 238 255 234 238 255 234 238 255 236 239 255 234 238 255 234 238 255 232 236 255 228 232 255 224 229 255 224 229 255 222 228 255 225 230 255 228 232 255 232 236 255 234 238 255 234 238 255 233 237 255 233 237 255 234 238 255 234 238 255 234 238 255 234 238 255 234 238 255 234 238 255 234 238 255 234 238 255 234 238 255 234 238 255 234 238 255 234 238 255 234 238 255 234 238 255 234 238 255 234 238 255 234 238 255 234 238 255 234 238 255 234 238 255 234 238 255 234 238 255 236 239 255 236 239 255 233 237 255 230 235 255 225 230 255 206 215 255 212 219 255 202 211 244 183 194 222 167 177 255 198 208 179 134 142 92 69 73 92 69 73 65 49 51 65 49 51 65 49 51 54 40 43 48 36 38 48 36 38 48 36 38 48 36 38 48 36 38 48 36 38 48 36 38 48 36 38 48 36 38 54 40 43 70 53 56 184 138 146 37 28 30 48 36 38 48 36 38 48 36 38 206 155 164 135 102 107 48 36 38 48 36 38 48 36 38 48 36 38 81 61 64 217 163 172 135 102 107 37 28 30 37 28 30 37 28 30 48 36 38 48 36 38 37 28 30 37 28 30 37 28 30 32 24 25 32 24 25 32 24 25 32 24 25 32 24 25 32 24 25 32 24 25 32 24 25 32 24 25 32 24 25 32 24 25 32 24 25 32 24 25 32 24 25 32 24 25 37 28 30 32 24 25 37 28 30 32 24 25 130 98 103 255 206 215 255 202 211 255 196 206 249 187 198 249 187 198 249 187 198 249 187 198 249 187 198 249 187 198 249 187 198 249 187 198 249 187 198 244 183 194 244 183 194 244 183 194 244 183 194 244 183 194 244 183 194 244 183 194 244 183 194 244 183 194 244 183 194 244 183 194 244 183 194 
244 183 194 244 183 194 244 183 194 244 183 194 244 183 194 249 187 198 249 187 198 249 187 198 249 187 198 249 187 198 249 187 198 249 187 198 249 187 198 249 187 198 249 187 198 249 187 198 249 187 198 249 187 198 249 187 198 249 187 198 249 187 198 249 187 198 255 193 204 255 193 204 255 193 204 255 193 204 255 193 204 255 193 204 255 193 204 255 193 204 255 193 204 255 193 204 249 187 198 32 24 25 32 24 25 37 28 30 37 28 30 48 36 38 92 69 73 146 110 116 37 28 30 37 28 30 130 98 103 54 40 43 48 36 38 48 36 38 48 36 38 54 40 43 135 102 107 249 187 198 255 226 231 255 232 236 255 232 236 255 232 236 255 233 237 255 233 237 255 233 237 255 233 237 255 233 237 255 233 237 255 233 237 255 233 237 255 233 237 255 233 237 255 233 237 255 233 237 255 233 237 255 233 237 255 232 236 255 233 237 255 233 237 255 224 229 255 213 220 255 208 216 255 200 209 255 193 204 255 193 204 249 187 198 255 193 204 255 202 211 255 206 215 255 210 218 255 214 221 255 225 230 255 229 233 255 221 227 255 214 221 255 208 216 255 200 209 255 193 204 233 175 185 227 171 181 244 183 194 255 198 208 211 159 168 81 61 64 54 40 43 54 40 43 70 53 56 92 69 73 184 138 146 255 198 208 255 220 226 255 232 236 255 234 238 255 233 237 255 233 237 255 233 237 255 234 238 255 234 238 255 234 238 255 234 238 255 234 238 255 234 238 255 234 238 255 234 238 255 234 238 255 234 238 255 234 238 255 234 238 255 234 238 255 234 238 255 234 238 255 234 238 255 234 238 255 234 238 255 234 238 255 236 239 255 233 237 255 229 233 255 224 229 255 225 230 255 222 228 255 214 221 255 200 209 244 183 194 195 147 155 227 171 181 200 151 159 81 61 64 70 53 56 54 40 43 48 36 38 48 36 38 48 36 38 48 36 38 48 36 38 48 36 38 48 36 38 48 36 38 48 36 38 48 36 38 37 28 30 86 65 69 81 61 64 48 36 38 54 40 43 48 36 38 37 28 30 222 167 177 92 69 73 48 36 38 54 40 43 135 102 107 54 40 43 37 28 30 32 24 25 227 171 181 65 49 51 37 28 30 37 28 30 37 28 30 37 28 30 37 28 30 37 28 30 37 28 30 32 24 25 32 24 25 32 24 25 32 24 25 32 24 25 32 24 25 32 24 25 32 24 25 32 24 25 32 24 25 32 24 25 32 24 25 32 24 25 32 24 25 32 24 25 54 40 43 255 196 206 255 208 216 255 208 216 255 200 209 249 187 198 249 187 198 249 187 198 249 187 198 249 187 198 249 187 198 249 187 198 244 183 194 244 183 194 244 183 194 249 187 198 249 187 198 244 183 194 244 183 194 244 183 194 244 183 194 244 183 194 244 183 194 244 183 194 244 183 194 244 183 194 233 175 185 233 175 185 233 175 185 
244 183 194 244 183 194 244 183 194 244 183 194 244 183 194 249 187 198 249 187 198 249 187 198 249 187 198 249 187 198 249 187 198 249 187 198 249 187 198 249 187 198 249 187 198 249 187 198 249 187 198 249 187 198 249 187 198 249 187 198 249 187 198 249 187 198 255 193 204 255 193 204 255 193 204 255 193 204 255 193 204 255 193 204 255 193 204 255 193 204 255 193 204 255 193 204 249 187 198 32 24 25 32 24 25 37 28 30 37 28 30 48 36 38 92 69 73 146 110 116 37 28 30 37 28 30 130 98 103 54 40 43 48 36 38 48 36 38 48 36 38 54 40 43 135 102 107 249 187 198 255 226 231 255 232 236 255 232 236 255 232 236 255 233 237 255 233 237 255 233 237 255 233 237 255 233 237 255 233 237 255 233 237 255 233 237 255 233 237 255 233 237 255 233 237 255 233 237 255 233 237 255 233 237 255 232 236 255 233 237 255 233 237 255 224 229 255 213 220 255 208 216 255 200 209 255 193 204 255 193 204 249 187 198 255 193 204 255 202 211 255 206 215 255 210 218 255 214 221 255 225 230 255 229 233 255 221 227 255 214 221 255 208 216 255 200 209 255 193 204 233 175 185 227 171 181 244 183 194 255 198 208 211 159 168 81 61 64 54 40 43 54 40 43 70 53 56 92 69 73 184 138 146 255 198 208 255 220 226 255 232 236 255 234 238 255 233 237 255 233 237 255 233 237 255 234 238 255 234 238 255 234 238 255 234 238 255 234 238 255 234 238 255 234 238 255 234 238 255 234 238 255 234 238 255 234 238 255 234 238 255 234 238 255 234 238 255 234 238 255 234 238 255 234 238 255 234 238 255 234 238 255 236 239 255 233 237 255 229 233 255 224 229 255 225 230 255 222 228 255 214 221 255 200 209 244 183 194 195 147 155 227 171 181 200 151 159 81 61 64 70 53 56 54 40 43 48 36 38 48 36 38 48 36 38 48 36 38 48 36 38 48 36 38 48 36 38 48 36 38 48 36 38 48 36 38 37 28 30 86 65 69 81 61 64 48 36 38 54 40 43 48 36 38 37 28 30 222 167 177 92 69 73 48 36 38 54 40 43 135 102 107 54 40 43 37 28 30 32 24 25 227 171 181 65 49 51 37 28 30 37 28 30 37 28 30 37 28 30 37 28 30 37 28 30 37 28 30 32 24 25 32 24 25 32 24 25 32 24 25 32 24 25 32 24 25 32 24 25 32 24 25 32 24 25 32 24 25 32 24 25 32 24 25 32 24 25 32 24 25 32 24 25 54 40 43 255 196 206 255 208 216 255 208 216 255 200 209 249 187 198 249 187 198 249 187 198 249 187 198 249 187 198 249 187 198 249 187 198 244 183 194 244 183 194 244 183 194 249 187 198 249 187 198 244 183 194 244 183 194 244 183 194 244 183 194 244 183 194 244 183 194 244 183 194 244 183 194 244 183 194 233 175 185 233 175 185 233 175 185 
244 183 194 244 183 194 233 175 185 244 183 194 244 183 194 249 187 198 249 187 198 249 187 198 249 187 198 249 187 198 249 187 198 249 187 198 249 187 198 249 187 198 249 187 198 249 187 198 249 187 198 255 193 204 255 193 204 249 187 198 249 187 198 249 187 198 255 193 204 255 193 204 255 193 204 255 193 204 255 193 204 255 193 204 249 187 198 255 193 204 255 193 204 255 193 204 255 198 208 48 36 38 37 28 30 37 28 30 37 28 30 32 24 25 32 24 25 255 193 204 255 202 211 211 159 168 255 196 206 255 201 210 48 36 38 37 28 30 37 28 30 37 28 30 48 36 38 179 134 142 255 196 206 255 228 232 255 232 236 255 230 235 255 232 236 255 233 237 255 233 237 255 233 237 255 233 237 255 233 237 255 233 237 255 233 237 255 233 237 255 233 237 255 233 237 255 233 237 255 233 237 255 230 235 255 212 219 255 202 211 217 163 172 81 61 64 27 20 21 32 24 25 37 28 30 37 28 30 37 28 30 37 28 30 37 28 30 37 28 30 37 28 30 32 24 25 32 24 25 32 24 25 37 28 30 37 28 30 32 24 25 32 24 25 37 28 30 37 28 30 48 36 38 65 49 51 37 28 30 54 40 43 184 138 146 48 36 38 37 28 30 37 28 30 37 28 30 37 28 30 37 28 30 37 28 30 32 24 25 48 36 38 179 134 142 255 205 214 255 229 233 255 234 238 255 233 237 255 234 238 255 234 238 255 234 238 255 234 238 255 234 238 255 234 238 255 234 238 255 234 238 255 234 238 255 234 238 255 234 238 255 234 238 255 234 238 255 234 238 255 234 238 255 234 238 255 234 238 255 234 238 255 234 238 255 234 238 255 232 236 255 229 233 255 230 235 255 228 232 255 226 231 255 206 215 255 202 211 255 193 204 233 175 185 200 151 159 86 65 69 130 98 103 70 53 56 54 40 43 48 36 38 48 36 38 48 36 38 48 36 38 48 36 38 48 36 38 48 36 38 48 36 38 48 36 38 48 36 38 70 53 56 255 205 214 179 134 142 37 28 30 48 36 38 37 28 30 86 65 69 255 196 206 195 147 155 48 36 38 48 36 38 54 40 43 146 110 116 37 28 30 37 28 30 37 28 30 37 28 30 37 28 30 37 28 30 37 28 30 37 28 30 37 28 30 37 28 30 37 28 30 37 28 30 32 24 25 32 24 25 32 24 25 32 24 25 32 24 25 32 24 25 32 24 25 32 24 25 32 24 25 32 24 25 27 20 21 32 24 25 130 98 103 255 220 226 255 193 204 244 183 194 244 183 194 244 183 194 244 183 194 249 187 198 244 183 194 244 183 194 244 183 194 249 187 198 244 183 194 244 183 194 244 183 194 244 183 194 244 183 194 244 183 194 244 183 194 244 183 194 244 183 194 244 183 194 244 183 194 244 183 194 244 183 194 233 175 185 233 175 185 233 175 185 233 175 185 233 175 185 
244 183 194 244 183 194 233 175 185 244 183 194 244 183 194 249 187 198 249 187 198 249 187 198 249 187 198 249 187 198 249 187 198 249 187 198 249 187 198 249 187 198 249 187 198 249 187 198 249 187 198 255 193 204 255 193 204 249 187 198 249 187 198 249 187 198 255 193 204 255 193 204 255 193 204 255 193 204 255 193 204 255 193 204 249 187 198 255 193 204 255 193 204 255 193 204 255 198 208 48 36 38 37 28 30 37 28 30 37 28 30 32 24 25 32 24 25 255 193 204 255 202 211 211 159 168 255 196 206 255 201 210 48 36 38 37 28 30 37 28 30 37 28 30 48 36 38 179 134 142 255 196 206 255 228 232 255 232 236 255 230 235 255 232 236 255 233 237 255 233 237 255 233 237 255 233 237 255 233 237 255 233 237 255 233 237 255 233 237 255 233 237 255 233 237 255 233 237 255 233 237 255 230 235 255 212 219 255 202 211 217 163 172 81 61 64 27 20 21 32 24 25 37 28 30 37 28 30 37 28 30 37 28 30 37 28 30 37 28 30 37 28 30 32 24 25 32 24 25 32 24 25 37 28 30 37 28 30 32 24 25 32 24 25 37 28 30 37 28 30 48 36 38 65 49 51 37 28 30 54 40 43 184 138 146 48 36 38 37 28 30 37 28 30 37 28 30 37 28 30 37 28 30 37 28 30 32 24 25 48 36 38 179 134 142 255 205 214 255 229 233 255 234 238 255 233 237 255 234 238 255 234 238 255 234 238 255 234 238 255 234 238 255 234 238 255 234 238 255 234 238 255 234 238 255 234 238 255 234 238 255 234 238 255 234 238 255 234 238 255 234 238 255 234 238 255 234 238 255 234 238 255 234 238 255 234 238 255 232 236 255 229 233 255 230 235 255 228 232 255 226 231 255 206 215 255 202 211 255 193 204 233 175 185 200 151 159 86 65 69 130 98 103 70 53 56 54 40 43 48 36 38 48 36 38 48 36 38 48 36 38 48 36 38 48 36 38 48 36 38 48 36 38 48 36 38 48 36 38 70 53 56 255 205 214 179 134 142 37 28 30 48 36 38 37 28 30 86 65 69 255 196 206 195 147 155 48 36 38 48 36 38 54 40 43 146 110 116 37 28 30 37 28 30 37 28 30 37 28 30 37 28 30 37 28 30 37 28 30 37 28 30 37 28 30 37 28 30 37 28 30 37 28 30 32 24 25 32 24 25 32 24 25 32 24 25 32 24 25 32 24 25 32 24 25 32 24 25 32 24 25 32 24 25 27 20 21 32 24 25 130 98 103 255 220 226 255 193 204 244 183 194 244 183 194 244 183 194 244 183 194 249 187 198 244 183 194 244 183 194 244 183 194 249 187 198 244 183 194 244 183 194 244 183 194 244 183 194 244 183 194 244 183 194 244 183 194 244 183 194 244 183 194 244 183 194 244 183 194 244 183 194 244 183 194 233 175 185 233 175 185 233 175 185 233 175 185 233 175 185 
244 183 194 244 183 194 233 175 185 244 183 194 244 183 194 244 183 194 249 187 198 249 187 198 249 187 198 249 187 198 249 187 198 249 187 198 249 187 198 249 187 198 249 187 198 249 187 198 249 187 198 255 193 204 255 193 204 249 187 198 249 187 198 249 187 198 255 193 204 255 193 204 255 193 204 255 193 204 255 193 204 255 193 204 255 193 204 255 193 204 255 193 204 255 193 204 255 196 206 81 61 64 32 24 25 32 24 25 37 28 30 32 24 25 54 40 43 32 24 25 92 69 73 81 61 64 32 24 25 54 40 43 206 155 164 70 53 56 37 28 30 32 24 25 92 69 73 206 155 164 255 208 216 255 226 231 255 230 235 255 232 236 255 232 236 255 232 236 255 233 237 255 233 237 255 233 237 255 233 237 255 233 237 255 233 237 255 233 237 255 232 236 255 233 237 255 230 235 255 209 217 244 183 194 86 65 69 32 24 25 32 24 25 32 24 25 37 28 30 37 28 30 37 28 30 37 28 30 37 28 30 37 28 30 37 28 30 37 28 30 37 28 30 32 24 25 37 28 30 32 24 25 37 28 30 32 24 25 32 24 25 37 28 30 48 36 38 37 28 30 37 28 30 37 28 30 32 24 25 37 28 30 32 24 25 37 28 30 37 28 30 37 28 30 37 28 30 37 28 30 37 28 30 32 24 25 32 24 25 32 24 25 32 24 25 37 28 30 32 24 25 70 53 56 255 200 209 255 234 238 255 233 237 255 234 238 255 234 238 255 233 237 255 233 237 255 234 238 255 234 238 255 234 238 255 234 238 255 234 238 255 234 238 255 234 238 255 234 238 255 234 238 255 234 238 255 234 238 255 234 238 255 234 238 255 234 238 255 234 238 255 232 236 255 226 231 255 225 230 255 222 228 255 213 220 255 212 219 255 193 204 255 198 208 244 183 194 244 183 194 200 151 159 70 53 56 37 28 30 48 36 38 48 36 38 48 36 38 48 36 38 48 36 38 48 36 38 48 36 38 48 36 38 37 28 30 37 28 30 135 102 107 244 183 194 184 138 146 92 69 73 37 28 30 48 36 38 86 65 69 244 183 194 37 28 30 48 36 38 54 40 43 37 28 30 206 155 164 32 24 25 48 36 38 37 28 30 32 24 25 32 24 25 37 28 30 32 24 25 32 24 25 32 24 25 32 24 25 32 24 25 32 24 25 32 24 25 32 24 25 32 24 25 32 24 25 32 24 25 32 24 25 27 20 21 32 24 25 32 24 25 32 24 25 27 20 21 255 196 206 255 222 228 255 193 204 244 183 194 244 183 194 244 183 194 244 183 194 244 183 194 244 183 194 244 183 194 244 183 194 244 183 194 244 183 194 244 183 194 244 183 194 244 183 194 244 183 194 233 175 185 233 175 185 233 175 185 233 175 185 233 175 185 233 175 185 233 175 185 233 175 185 233 175 185 227 171 181 227 171 181 227 171 181 233 175 185 233 175 185 
244 183 194 244 183 194 233 175 185 244 183 194 244 183 194 244 183 194 249 187 198 249 187 198 249 187 198 249 187 198 249 187 198 249 187 198 249 187 198 249 187 198 249 187 198 249 187 198 249 187 198 255 193 204 255 193 204 249 187 198 249 187 198 249 187 198 255 193 204 255 193 204 255 193 204 255 193 204 255 193 204 255 193 204 255 193 204 255 193 204 255 193 204 255 193 204 255 196 206 81 61 64 32 24 25 32 24 25 37 28 30 32 24 25 54 40 43 32 24 25 92 69 73 81 61 64 32 24 25 54 40 43 206 155 164 70 53 56 37 28 30 32 24 25 92 69 73 206 155 164 255 208 216 255 226 231 255 230 235 255 232 236 255 232 236 255 232 236 255 233 237 255 233 237 255 233 237 255 233 237 255 233 237 255 233 237 255 233 237 255 232 236 255 233 237 255 230 235 255 209 217 244 183 194 86 65 69 32 24 25 32 24 25 32 24 25 37 28 30 37 28 30 37 28 30 37 28 30 37 28 30 37 28 30 37 28 30 37 28 30 37 28 30 32 24 25 37 28 30 32 24 25 37 28 30 32 24 25 32 24 25 37 28 30 48 36 38 37 28 30 37 28 30 37 28 30 32 24 25 37 28 30 32 24 25 37 28 30 37 28 30 37 28 30 37 28 30 37 28 30 37 28 30 32 24 25 32 24 25 32 24 25 32 24 25 37 28 30 32 24 25 70 53 56 255 200 209 255 234 238 255 233 237 255 234 238 255 234 238 255 233 237 255 233 237 255 234 238 255 234 238 255 234 238 255 234 238 255 234 238 255 234 238 255 234 238 255 234 238 255 234 238 255 234 238 255 234 238 255 234 238 255 234 238 255 234 238 255 234 238 255 232 236 255 226 231 255 225 230 255 222 228 255 213 220 255 212 219 255 193 204 255 198 208 244 183 194 244 183 194 200 151 159 70 53 56 37 28 30 48 36 38 48 36 38 48 36 38 48 36 38 48 36 38 48 36 38 48 36 38 48 36 38 37 28 30 37 28 30 135 102 107 244 183 194 184 138 146 92 69 73 37 28 30 48 36 38 86 65 69 244 183 194 37 28 30 48 36 38 54 40 43 37 28 30 206 155 164 32 24 25 48 36 38 37 28 30 32 24 25 32 24 25 37 28 30 32 24 25 32 24 25 32 24 25 32 24 25 32 24 25 32 24 25 32 24 25 32 24 25 32 24 25 32 24 25 32 24 25 32 24 25 27 20 21 32 24 25 32 24 25 32 24 25 27 20 21 255 196 206 255 222 228 255 193 204 244 183 194 244 183 194 244 183 194 244 183 194 244 183 194 244 183 194 244 183 194 244 183 194 244 183 194 244 183 194 244 183 194 244 183 194 244 183 194 244 183 194 233 175 185 233 175 185 233 175 185 233 175 185 233 175 185 233 175 185 233 175 185 233 175 185 233 175 185 227 171 181 227 171 181 227 171 181 233 175 185 233 175 185 
244 183 194 244 183 194 233 175 185 244 183 194 244 183 194 249 187 198 249 187 198 249 187 198 249 187 198 249 187 198 249 187 198 249 187 198 249 187 198 249 187 198 249 187 198 249 187 198 249 187 198 249 187 198 249 187 198 249 187 198 249 187 198 249 187 198 249 187 198 249 187 198 249 187 198 255 193 204 255 193 204 255 193 204 255 193 204 255 193 204 249 187 198 255 193 204 255 196 206 227 171 181 37 28 30 37 28 30 32 24 25 32 24 25 32 24 25 32 24 25 37 28 30 54 40 43 37 28 30 32 24 25 48 36 38 48 36 38 32 24 25 32 24 25 130 98 103 157 118 125 255 205 214 255 221 227 255 230 235 255 230 235 255 232 236 255 232 236 255 232 236 255 232 236 255 232 236 255 233 237 255 233 237 255 232 236 255 232 236 255 225 230 255 206 215 255 196 206 81 61 64 27 20 21 32 24 25 32 24 25 32 24 25 32 24 25 32 24 25 37 28 30 37 28 30 37 28 30 37 28 30 32 24 25 32 24 25 32 24 25 32 24 25 70 53 56 92 69 73 48 36 38 32 24 25 32 24 25 27 20 21 146 110 116 211 159 168 249 187 198 249 187 198 130 98 103 32 24 25 32 24 25 146 110 116 54 40 43 32 24 25 32 24 25 32 24 25 32 24 25 32 24 25 37 28 30 32 24 25 37 28 30 37 28 30 37 28 30 37 28 30 37 28 30 48 36 38 32 24 25 255 198 208 255 233 237 255 233 237 255 233 237 255 233 237 255 234 238 255 234 238 255 234 238 255 234 238 255 234 238 255 234 238 255 234 238 255 234 238 255 234 238 255 234 238 255 234 238 255 234 238 255 234 238 255 234 238 255 234 238 255 234 238 255 233 237 255 225 230 255 224 229 255 222 228 255 220 226 255 209 217 255 205 214 244 183 194 157 118 125 157 118 125 65 49 51 48 36 38 86 65 69 48 36 38 48 36 38 48 36 38 48 36 38 48 36 38 48 36 38 48 36 38 37 28 30 37 28 30 65 49 51 146 110 116 37 28 30 135 102 107 255 202 211 217 163 172 37 28 30 32 24 25 86 65 69 222 167 177 146 110 116 37 28 30 37 28 30 32 24 25 37 28 30 54 40 43 32 24 25 32 24 25 32 24 25 32 24 25 32 24 25 32 24 25 32 24 25 32 24 25 32 24 25 32 24 25 32 24 25 32 24 25 32 24 25 32 24 25 27 20 21 32 24 25 27 20 21 37 28 30 211 159 168 255 208 216 255 200 209 249 187 198 244 183 194 244 183 194 244 183 194 244 183 194 244 183 194 244 183 194 244 183 194 244 183 194 244 183 194 244 183 194 244 183 194 244 183 194 244 183 194 244 183 194 244 183 194 233 175 185 233 175 185 233 175 185 233 175 185 233 175 185 233 175 185 233 175 185 233 175 185 233 175 185 227 171 181 227 171 181 227 171 181 227 171 181 233 175 185 
244 183 194 244 183 194 233 175 185 244 183 194 244 183 194 249 187 198 249 187 198 249 187 198 249 187 198 249 187 198 249 187 198 249 187 198 249 187 198 249 187 198 249 187 198 249 187 198 249 187 198 249 187 198 249 187 198 249 187 198 249 187 198 249 187 198 249 187 198 249 187 198 249 187 198 255 193 204 255 193 204 255 193 204 255 193 204 255 193 204 249 187 198 255 193 204 255 196 206 227 171 181 37 28 30 37 28 30 32 24 25 32 24 25 32 24 25 32 24 25 37 28 30 54 40 43 37 28 30 32 24 25 48 36 38 48 36 38 32 24 25 32 24 25 130 98 103 157 118 125 255 205 214 255 221 227 255 230 235 255 230 235 255 232 236 255 232 236 255 232 236 255 232 236 255 232 236 255 233 237 255 233 237 255 232 236 255 232 236 255 225 230 255 206 215 255 196 206 81 61 64 27 20 21 32 24 25 32 24 25 32 24 25 32 24 25 32 24 25 37 28 30 37 28 30 37 28 30 37 28 30 32 24 25 32 24 25 32 24 25 32 24 25 70 53 56 92 69 73 48 36 38 32 24 25 32 24 25 27 20 21 146 110 116 211 159 168 249 187 198 249 187 198 130 98 103 32 24 25 32 24 25 146 110 116 54 40 43 32 24 25 32 24 25 32 24 25 32 24 25 32 24 25 37 28 30 32 24 25 37 28 30 37 28 30 37 28 30 37 28 30 37 28 30 48 36 38 32 24 25 255 198 208 255 233 237 255 233 237 255 233 237 255 233 237 255 234 238 255 234 238 255 234 238 255 234 238 255 234 238 255 234 238 255 234 238 255 234 238 255 234 238 255 234 238 255 234 238 255 234 238 255 234 238 255 234 238 255 234 238 255 234 238 255 233 237 255 225 230 255 224 229 255 222 228 255 220 226 255 209 217 255 205 214 244 183 194 157 118 125 157 118 125 65 49 51 48 36 38 86 65 69 48 36 38 48 36 38 48 36 38 48 36 38 48 36 38 48 36 38 48 36 38 37 28 30 37 28 30 65 49 51 146 110 116 37 28 30 135 102 107 255 202 211 217 163 172 37 28 30 32 24 25 86 65 69 222 167 177 146 110 116 37 28 30 37 28 30 32 24 25 37 28 30 54 40 43 32 24 25 32 24 25 32 24 25 32 24 25 32 24 25 32 24 25 32 24 25 32 24 25 32 24 25 32 24 25 32 24 25 32 24 25 32 24 25 32 24 25 27 20 21 32 24 25 27 20 21 37 28 30 211 159 168 255 208 216 255 200 209 249 187 198 244 183 194 244 183 194 244 183 194 244 183 194 244 183 194 244 183 194 244 183 194 244 183 194 244 183 194 244 183 194 244 183 194 244 183 194 244 183 194 244 183 194 244 183 194 233 175 185 233 175 185 233 175 185 233 175 185 233 175 185 233 175 185 233 175 185 233 175 185 233 175 185 227 171 181 227 171 181 227 171 181 227 171 181 233 175 185 
244 183 194 244 183 194 233 175 185 233 175 185 244 183 194 244 183 194 244 183 194 244 183 194 249 187 198 249 187 198 249 187 198 249 187 198 249 187 198 249 187 198 249 187 198 249 187 198 249 187 198 249 187 198 249 187 198 249 187 198 249 187 198 249 187 198 249 187 198 249 187 198 249 187 198 249 187 198 249 187 198 249 187 198 255 193 204 249 187 198 249 187 198 249 187 198 255 193 204 249 187 198 135 102 107 37 28 30 32 24 25 32 24 25 32 24 25 32 24 25 48 36 38 37 28 30 32 24 25 32 24 25 32 24 25 32 24 25 48 36 38 54 40 43 32 24 25 135 102 107 249 187 198 255 220 226 255 229 233 255 232 236 255 232 236 255 232 236 255 232 236 255 232 236 255 232 236 255 233 237 255 222 228 255 200 209 255 200 209 255 198 208 255 200 209 65 49 51 32 24 25 32 24 25 32 24 25 32 24 25 32 24 25 32 24 25 32 24 25 32 24 25 32 24 25 32 24 25 37 28 30 54 40 43 37 28 30 255 193 204 255 202 211 255 201 210 255 201 210 255 202 211 255 201 210 217 163 172 255 205 214 255 202 211 255 202 211 255 202 211 255 201 210 255 202 211 255 196 206 255 205 214 255 202 211 255 202 211 255 196 206 48 36 38 32 24 25 32 24 25 32 24 25 32 24 25 32 24 25 37 28 30 37 28 30 32 24 25 37 28 30 32 24 25 32 24 25 37 28 30 184 138 146 255 221 227 255 234 238 255 233 237 255 233 237 255 234 238 255 234 238 255 233 237 255 233 237 255 233 237 255 233 237 255 233 237 255 233 237 255 234 238 255 234 238 255 234 238 255 234 238 255 234 238 255 234 238 255 234 238 255 234 238 255 234 238 255 230 235 255 228 232 255 224 229 255 224 229 255 225 230 255 209 217 255 202 211 233 175 185 206 155 164 37 28 30 70 53 56 37 28 30 48 36 38 48 36 38 37 28 30 37 28 30 37 28 30 37 28 30 37 28 30 37 28 30 32 24 25 32 24 25 70 53 56 48 36 38 32 24 25 48 36 38 37 28 30 195 147 155 146 110 116 37 28 30 146 110 116 48 36 38 86 65 69 48 36 38 70 53 56 211 159 168 255 216 222 255 206 215 48 36 38 32 24 25 32 24 25 32 24 25 32 24 25 32 24 25 32 24 25 32 24 25 32 24 25 27 20 21 27 20 21 27 20 21 27 20 21 27 20 21 255 198 208 255 210 218 255 198 208 249 187 198 244 183 194 244 183 194 244 183 194 244 183 194 244 183 194 244 183 194 244 183 194 244 183 194 244 183 194 244 183 194 244 183 194 244 183 194 244 183 194 244 183 194 244 183 194 233 175 185 233 175 185 233 175 185 233 175 185 233 175 185 233 175 185 233 175 185 233 175 185 233 175 185 233 175 185 233 175 185 233 175 185 227 171 181 227 171 181 227 171 181 227 171 181 227 171 181 
244 183 194 244 183 194 233 175 185 233 175 185 244 183 194 244 183 194 244 183 194 244 183 194 249 187 198 249 187 198 249 187 198 249 187 198 249 187 198 249 187 198 249 187 198 249 187 198 249 187 198 249 187 198 249 187 198 249 187 198 249 187 198 249 187 198 249 187 198 249 187 198 249 187 198 249 187 198 249 187 198 249 187 198 255 193 204 249 187 198 249 187 198 249 187 198 255 193 204 249 187 198 135 102 107 37 28 30 32 24 25 32 24 25 32 24 25 32 24 25 48 36 38 37 28 30 32 24 25 32 24 25 32 24 25 32 24 25 48 36 38 54 40 43 32 24 25 135 102 107 249 187 198 255 220 226 255 229 233 255 232 236 255 232 236 255 232 236 255 232 236 255 232 236 255 232 236 255 233 237 255 222 228 255 200 209 255 200 209 255 198 208 255 200 209 65 49 51 32 24 25 32 24 25 32 24 25 32 24 25 32 24 25 32 24 25 32 24 25 32 24 25 32 24 25 32 24 25 37 28 30 54 40 43 37 28 30 255 193 204 255 202 211 255 201 210 255 201 210 255 202 211 255 201 210 217 163 172 255 205 214 255 202 211 255 202 211 255 202 211 255 201 210 255 202 211 255 196 206 255 205 214 255 202 211 255 202 211 255 196 206 48 36 38 32 24 25 32 24 25 32 24 25 32 24 25 32 24 25 37 28 30 37 28 30 32 24 25 37 28 30 32 24 25 32 24 25 37 28 30 184 138 146 255 221 227 255 234 238 255 233 237 255 233 237 255 234 238 255 234 238 255 233 237 255 233 237 255 233 237 255 233 237 255 233 237 255 233 237 255 234 238 255 234 238 255 234 238 255 234 238 255 234 238 255 234 238 255 234 238 255 234 238 255 234 238 255 230 235 255 228 232 255 224 229 255 224 229 255 225 230 255 209 217 255 202 211 233 175 185 206 155 164 37 28 30 70 53 56 37 28 30 48 36 38 48 36 38 37 28 30 37 28 30 37 28 30 37 28 30 37 28 30 37 28 30 32 24 25 32 24 25 70 53 56 48 36 38 32 24 25 48 36 38 37 28 30 195 147 155 146 110 116 37 28 30 146 110 116 48 36 38 86 65 69 48 36 38 70 53 56 211 159 168 255 216 222 255 206 215 48 36 38 32 24 25 32 24 25 32 24 25 32 24 25 32 24 25 32 24 25 32 24 25 32 24 25 27 20 21 27 20 21 27 20 21 27 20 21 27 20 21 255 198 208 255 210 218 255 198 208 249 187 198 244 183 194 244 183 194 244 183 194 244 183 194 244 183 194 244 183 194 244 183 194 244 183 194 244 183 194 244 183 194 244 183 194 244 183 194 244 183 194 244 183 194 244 183 194 233 175 185 233 175 185 233 175 185 233 175 185 233 175 185 233 175 185 233 175 185 233 175 185 233 175 185 233 175 185 233 175 185 233 175 185 227 171 181 227 171 181 227 171 181 227 171 181 227 171 181 
244 183 194 244 183 194 233 175 185 233 175 185 233 175 185 244 183 194 249 187 198 249 187 198 249 187 198 249 187 198 249 187 198 249 187 198 244 183 194 244 183 194 244 183 194 249 187 198 249 187 198 249 187 198 249 187 198 244 183 194 244 183 194 244 183 194 244 183 194 249 187 198 249 187 198 249 187 198 249 187 198 249 187 198 249 187 198 249 187 198 249 187 198 249 187 198 249 187 198 249 187 198 255 196 206 217 163 172 81 61 64 37 28 30 32 24 25 32 24 25 32 24 25 32 24 25 37 28 30 32 24 25 195 147 155 86 65 69 54 40 43 92 69 73 86 65 69 211 159 168 255 209 217 255 216 222 255 222 228 255 232 236 255 232 236 255 232 236 255 232 236 255 232 236 255 232 236 255 232 236 255 232 236 255 230 235 255 205 214 255 200 209 255 201 210 179 134 142 32 24 25 27 20 21 27 20 21 32 24 25 32 24 25 32 24 25 32 24 25 27 20 21 27 20 21 184 138 146 255 206 215 255 202 211 255 205 214 255 201 210 255 201 210 255 201 210 255 201 210 255 201 210 255 201 210 255 201 210 255 201 210 255 201 210 255 202 211 255 202 211 255 202 211 255 202 211 255 202 211 255 201 210 255 201 210 255 201 210 255 202 211 130 98 103 200 151 159 244 183 194 37 28 30 32 24 25 32 24 25 37 28 30 32 24 25 32 24 25 37 28 30 37 28 30 195 147 155 255 205 214 255 217 224 255 234 238 255 233 237 255 233 237 255 233 237 255 234 238 255 234 238 255 233 237 255 233 237 255 233 237 255 233 237 255 233 237 255 233 237 255 233 237 255 233 237 255 234 238 255 234 238 255 234 238 255 234 238 255 234 238 255 234 238 255 232 236 255 229 233 255 229 233 255 224 229 255 206 215 255 202 211 255 220 226 255 206 215 227 171 181 92 69 73 130 98 103 54 40 43 54 40 43 37 28 30 37 28 30 37 28 30 37 28 30 37 28 30 32 24 25 32 24 25 32 24 25 32 24 25 32 24 25 32 24 25 32 24 25 32 24 25 32 24 25 37 28 30 222 167 177 32 24 25 48 36 38 70 53 56 37 28 30 48 36 38 32 24 25 32 24 25 27 20 21 27 20 21 32 24 25 32 24 25 27 20 21 27 20 21 27 20 21 27 20 21 27 20 21 27 20 21 27 20 21 27 20 21 21 16 17 27 20 21 27 20 21 146 110 116 255 228 232 255 202 211 255 193 204 244 183 194 244 183 194 233 175 185 233 175 185 233 175 185 233 175 185 233 175 185 233 175 185 233 175 185 233 175 185 233 175 185 233 175 185 233 175 185 233 175 185 233 175 185 233 175 185 233 175 185 233 175 185 233 175 185 233 175 185 227 171 181 227 171 181 227 171 181 227 171 181 227 171 181 227 171 181 227 171 181 227 171 181 227 171 181 227 171 181 227 171 181 227 171 181 227 171 181 227 171 181 
244 183 194 244 183 194 233 175 185 233 175 185 233 175 185 244 183 194 249 187 198 249 187 198 249 187 198 249 187 198 249 187 198 249 187 198 244 183 194 244 183 194 244 183 194 249 187 198 249 187 198 249 187 198 249 187 198 244 183 194 244 183 194 244 183 194 244 183 194 249 187 198 249 187 198 249 187 198 249 187 198 249 187 198 249 187 198 249 187 198 249 187 198 249 187 198 249 187 198 249 187 198 255 196 206 217 163 172 81 61 64 37 28 30 32 24 25 32 24 25 32 24 25 32 24 25 37 28 30 32 24 25 195 147 155 86 65 69 54 40 43 92 69 73 86 65 69 211 159 168 255 209 217 255 216 222 255 222 228 255 232 236 255 232 236 255 232 236 255 232 236 255 232 236 255 232 236 255 232 236 255 232 236 255 230 235 255 205 214 255 200 209 255 201 210 179 134 142 32 24 25 27 20 21 27 20 21 32 24 25 32 24 25 32 24 25 32 24 25 27 20 21 27 20 21 184 138 146 255 206 215 255 202 211 255 205 214 255 201 210 255 201 210 255 201 210 255 201 210 255 201 210 255 201 210 255 201 210 255 201 210 255 201 210 255 202 211 255 202 211 255 202 211 255 202 211 255 202 211 255 201 210 255 201 210 255 201 210 255 202 211 130 98 103 200 151 159 244 183 194 37 28 30 32 24 25 32 24 25 37 28 30 32 24 25 32 24 25 37 28 30 37 28 30 195 147 155 255 205 214 255 217 224 255 234 238 255 233 237 255 233 237 255 233 237 255 234 238 255 234 238 255 233 237 255 233 237 255 233 237 255 233 237 255 233 237 255 233 237 255 233 237 255 233 237 255 234 238 255 234 238 255 234 238 255 234 238 255 234 238 255 234 238 255 232 236 255 229 233 255 229 233 255 224 229 255 206 215 255 202 211 255 220 226 255 206 215 227 171 181 92 69 73 130 98 103 54 40 43 54 40 43 37 28 30 37 28 30 37 28 30 37 28 30 37 28 30 32 24 25 32 24 25 32 24 25 32 24 25 32 24 25 32 24 25 32 24 25 32 24 25 32 24 25 37 28 30 222 167 177 32 24 25 48 36 38 70 53 56 37 28 30 48 36 38 32 24 25 32 24 25 27 20 21 27 20 21 32 24 25 32 24 25 27 20 21 27 20 21 27 20 21 27 20 21 27 20 21 27 20 21 27 20 21 27 20 21 21 16 17 27 20 21 27 20 21 146 110 116 255 228 232 255 202 211 255 193 204 244 183 194 244 183 194 233 175 185 233 175 185 233 175 185 233 175 185 233 175 185 233 175 185 233 175 185 233 175 185 233 175 185 233 175 185 233 175 185 233 175 185 233 175 185 233 175 185 233 175 185 233 175 185 233 175 185 233 175 185 227 171 181 227 171 181 227 171 181 227 171 181 227 171 181 227 171 181 227 171 181 227 171 181 227 171 181 227 171 181 227 171 181 227 171 181 227 171 181 227 171 181 
233 175 185 233 175 185 233 175 185 233 175 185 233 175 185 233 175 185 244 183 194 244 183 194 244 183 194 244 183 194 244 183 194 244 183 194 244 183 194 244 183 194 244 183 194 244 183 194 244 183 194 244 183 194 244 183 194 244 183 194 244 183 194 244 183 194 244 183 194 244 183 194 244 183 194 244 183 194 249 187 198 249 187 198 249 187 198 244 183 194 249 187 198 249 187 198 249 187 198 249 187 198 249 187 198 249 187 198 255 193 204 255 196 206 179 134 142 27 20 21 32 24 25 32 24 25 200 151 159 54 40 43 37 28 30 37 28 30 54 40 43 146 110 116 65 49 51 179 134 142 146 110 116 255 205 214 255 221 227 255 232 236 255 232 236 255 232 236 255 232 236 255 232 236 255 232 236 255 232 236 255 232 236 255 232 236 255 233 237 255 228 232 255 201 210 255 198 208 255 198 208 48 36 38 27 20 21 27 20 21 27 20 21 32 24 25 27 20 21 27 20 21 27 20 21 27 20 21 200 151 159 255 193 204 81 61 64 255 196 206 255 201 210 255 201 210 255 201 210 255 201 210 255 201 210 255 201 210 255 201 210 255 201 210 255 202 211 255 201 210 255 202 211 255 201 210 146 110 116 200 151 159 217 163 172 222 167 177 179 134 142 32 24 25 32 24 25 37 28 30 32 24 25 32 24 25 32 24 25 32 24 25 37 28 30 32 24 25 184 138 146 255 200 209 255 202 211 255 230 235 255 233 237 255 234 238 255 233 237 255 233 237 255 233 237 255 233 237 255 233 237 255 233 237 255 233 237 255 233 237 255 233 237 255 233 237 255 233 237 255 233 237 255 233 237 255 234 238 255 234 238 255 234 238 255 234 238 255 234 238 255 234 238 255 234 238 255 230 235 255 230 235 255 225 230 255 222 228 255 212 219 255 205 214 233 175 185 222 167 177 146 110 116 81 61 64 37 28 30 37 28 30 37 28 30 32 24 25 32 24 25 32 24 25 32 24 25 32 24 25 32 24 25 32 24 25 32 24 25 32 24 25 32 24 25 32 24 25 32 24 25 27 20 21 37 28 30 157 118 125 255 212 219 195 147 155 48 36 38 32 24 25 32 24 25 32 24 25 27 20 21 27 20 21 27 20 21 27 20 21 27 20 21 27 20 21 27 20 21 27 20 21 27 20 21 27 20 21 27 20 21 27 20 21 27 20 21 135 102 107 255 205 214 255 200 209 255 193 204 244 183 194 244 183 194 233 175 185 233 175 185 233 175 185 233 175 185 227 171 181 233 175 185 227 171 181 227 171 181 227 171 181 227 171 181 227 171 181 227 171 181 227 171 181 227 171 181 227 171 181 227 171 181 227 171 181 227 171 181 227 171 181 227 171 181 227 171 181 227 171 181 227 171 181 227 171 181 227 171 181 222 167 177 222 167 177 222 167 177 222 167 177 222 167 177 222 167 177 222 167 177 222 167 177 222 167 177 222 167 177 
233 175 185 233 175 185 233 175 185 233 175 185 233 175 185 233 175 185 244 183 194 244 183 194 244 183 194 244 183 194 244 183 194 244 183 194 244 183 194 244 183 194 244 183 194 244 183 194 244 183 194 244 183 194 244 183 194 244 183 194 244 183 194 244 183 194 244 183 194 244 183 194 244 183 194 244 183 194 249 187 198 249 187 198 249 187 198 244 183 194 249 187 198 249 187 198 249 187 198 249 187 198 249 187 198 249 187 198 255 193 204 255 196 206 179 134 142 27 20 21 32 24 25 32 24 25 200 151 159 54 40 43 37 28 30 37 28 30 54 40 43 146 110 116 65 49 51 179 134 142 146 110 116 255 205 214 255 221 227 255 232 236 255 232 236 255 232 236 255 232 236 255 232 236 255 232 236 255 232 236 255 232 236 255 232 236 255 233 237 255 228 232 255 201 210 255 198 208 255 198 208 48 36 38 27 20 21 27 20 21 27 20 21 32 24 25 27 20 21 27 20 21 27 20 21 27 20 21 200 151 159 255 193 204 81 61 64 255 196 206 255 201 210 255 201 210 255 201 210 255 201 210 255 201 210 255 201 210 255 201 210 255 201 210 255 202 211 255 201 210 255 202 211 255 201 210 146 110 116 200 151 159 217 163 172 222 167 177 179 134 142 32 24 25 32 24 25 37 28 30 32 24 25 32 24 25 32 24 25 32 24 25 37 28 30 32 24 25 184 138 146 255 200 209 255 202 211 255 230 235 255 233 237 255 234 238 255 233 237 255 233 237 255 233 237 255 233 237 255 233 237 255 233 237 255 233 237 255 233 237 255 233 237 255 233 237 255 233 237 255 233 237 255 233 237 255 234 238 255 234 238 255 234 238 255 234 238 255 234 238 255 234 238 255 234 238 255 230 235 255 230 235 255 225 230 255 222 228 255 212 219 255 205 214 233 175 185 222 167 177 146 110 116 81 61 64 37 28 30 37 28 30 37 28 30 32 24 25 32 24 25 32 24 25 32 24 25 32 24 25 32 24 25 32 24 25 32 24 25 32 24 25 32 24 25 32 24 25 32 24 25 27 20 21 37 28 30 157 118 125 255 212 219 195 147 155 48 36 38 32 24 25 32 24 25 32 24 25 27 20 21 27 20 21 27 20 21 27 20 21 27 20 21 27 20 21 27 20 21 27 20 21 27 20 21 27 20 21 27 20 21 27 20 21 27 20 21 135 102 107 255 205 214 255 200 209 255 193 204 244 183 194 244 183 194 233 175 185 233 175 185 233 175 185 233 175 185 227 171 181 233 175 185 227 171 181 227 171 181 227 171 181 227 171 181 227 171 181 227 171 181 227 171 181 227 171 181 227 171 181 227 171 181 227 171 181 227 171 181 227 171 181 227 171 181 227 171 181 227 171 181 227 171 181 227 171 181 227 171 181 222 167 177 222 167 177 222 167 177 222 167 177 222 167 177 222 167 177 222 167 177 222 167 177 222 167 177 222 167 177 
233 175 185 233 175 185 233 175 185 233 175 185 244 183 194 244 183 194 244 183 194 244 183 194 244 183 194 244 183 194 244 183 194 244 183 194 244 183 194 244 183 194 244 183 194 244 183 194 244 183 194 244 183 194 244 183 194 244 183 194 244 183 194 244 183 194 244 183 194 244 183 194 244 183 194 244 183 194 244 183 194 244 183 194 244 183 194 244 183 194 244 183 194 249 187 198 244 183 194 249 187 198 249 187 198 249 187 198 255 193 204 200 151 159 179 134 142 130 98 103 37 28 30 27 20 21 27 20 21 70 53 56 255 193 204 37 28 30 37 28 30 54 40 43 37 28 30 81 61 64 146 110 116 222 167 177 255 221 227 255 229 233 255 232 236 255 232 236 255 232 236 255 232 236 255 232 236 255 232 236 255 232 236 255 232 236 255 232 236 255 232 236 255 233 237 255 202 211 255 200 209 48 36 38 27 20 21 32 24 25 48 36 38 86 65 69 32 24 25 37 28 30 32 24 25 130 98 103 244 183 194 255 200 209 211 159 168 255 201 210 255 200 209 217 163 172 255 201 210 255 201 210 255 201 210 255 201 210 255 201 210 255 201 210 255 202 211 217 163 172 249 187 198 255 201 210 255 205 214 255 201 210 92 69 73 206 155 164 54 40 43 37 28 30 37 28 30 32 24 25 32 24 25 32 24 25 32 24 25 32 24 25 65 49 51 48 36 38 217 163 172 255 221 227 255 233 237 255 234 238 255 233 237 255 233 237 255 233 237 255 233 237 255 233 237 255 233 237 255 233 237 255 233 237 255 233 237 255 233 237 255 233 237 255 233 237 255 233 237 255 233 237 255 233 237 255 234 238 255 234 238 255 234 238 255 234 238 255 234 238 255 234 238 255 234 238 255 233 237 255 234 238 255 228 232 255 224 229 255 216 222 255 205 214 249 187 198 157 118 125 211 159 168 48 36 38 37 28 30 37 28 30 32 24 25 32 24 25 32 24 25 32 24 25 32 24 25 32 24 25 32 24 25 32 24 25 32 24 25 32 24 25 32 24 25 32 24 25 32 24 25 32 24 25 184 138 146 255 228 232 255 212 219 54 40 43 32 24 25 32 24 25 27 20 21 27 20 21 27 20 21 27 20 21 27 20 21 27 20 21 27 20 21 27 20 21 27 20 21 27 20 21 27 20 21 27 20 21 32 24 25 222 167 177 255 214 221 255 193 204 249 187 198 244 183 194 233 175 185 227 171 181 233 175 185 233 175 185 233 175 185 233 175 185 233 175 185 233 175 185 227 171 181 227 171 181 227 171 181 227 171 181 227 171 181 227 171 181 227 171 181 227 171 181 227 171 181 227 171 181 227 171 181 227 171 181 227 171 181 227 171 181 227 171 181 222 167 177 227 171 181 227 171 181 222 167 177 222 167 177 222 167 177 222 167 177 222 167 177 222 167 177 222 167 177 222 167 177 217 163 172 222 167 177 222 167 177 222 167 177 
233 175 185 233 175 185 233 175 185 233 175 185 244 183 194 244 183 194 244 183 194 244 183 194 244 183 194 244 183 194 244 183 194 244 183 194 244 183 194 244 183 194 244 183 194 244 183 194 244 183 194 244 183 194 244 183 194 244 183 194 244 183 194 244 183 194 244 183 194 244 183 194 244 183 194 244 183 194 244 183 194 244 183 194 244 183 194 244 183 194 244 183 194 249 187 198 244 183 194 249 187 198 249 187 198 249 187 198 255 193 204 200 151 159 179 134 142 130 98 103 37 28 30 27 20 21 27 20 21 70 53 56 255 193 204 37 28 30 37 28 30 54 40 43 37 28 30 81 61 64 146 110 116 222 167 177 255 221 227 255 229 233 255 232 236 255 232 236 255 232 236 255 232 236 255 232 236 255 232 236 255 232 236 255 232 236 255 232 236 255 232 236 255 233 237 255 202 211 255 200 209 48 36 38 27 20 21 32 24 25 48 36 38 86 65 69 32 24 25 37 28 30 32 24 25 130 98 103 244 183 194 255 200 209 211 159 168 255 201 210 255 200 209 217 163 172 255 201 210 255 201 210 255 201 210 255 201 210 255 201 210 255 201 210 255 202 211 217 163 172 249 187 198 255 201 210 255 205 214 255 201 210 92 69 73 206 155 164 54 40 43 37 28 30 37 28 30 32 24 25 32 24 25 32 24 25 32 24 25 32 24 25 65 49 51 48 36 38 217 163 172 255 221 227 255 233 237 255 234 238 255 233 237 255 233 237 255 233 237 255 233 237 255 233 237 255 233 237 255 233 237 255 233 237 255 233 237 255 233 237 255 233 237 255 233 237 255 233 237 255 233 237 255 233 237 255 234 238 255 234 238 255 234 238 255 234 238 255 234 238 255 234 238 255 234 238 255 233 237 255 234 238 255 228 232 255 224 229 255 216 222 255 205 214 249 187 198 157 118 125 211 159 168 48 36 38 37 28 30 37 28 30 32 24 25 32 24 25 32 24 25 32 24 25 32 24 25 32 24 25 32 24 25 32 24 25 32 24 25 32 24 25 32 24 25 32 24 25 32 24 25 32 24 25 184 138 146 255 228 232 255 212 219 54 40 43 32 24 25 32 24 25 27 20 21 27 20 21 27 20 21 27 20 21 27 20 21 27 20 21 27 20 21 27 20 21 27 20 21 27 20 21 27 20 21 27 20 21 32 24 25 222 167 177 255 214 221 255 193 204 249 187 198 244 183 194 233 175 185 227 171 181 233 175 185 233 175 185 233 175 185 233 175 185 233 175 185 233 175 185 227 171 181 227 171 181 227 171 181 227 171 181 227 171 181 227 171 181 227 171 181 227 171 181 227 171 181 227 171 181 227 171 181 227 171 181 227 171 181 227 171 181 227 171 181 222 167 177 227 171 181 227 171 181 222 167 177 222 167 177 222 167 177 222 167 177 222 167 177 222 167 177 222 167 177 222 167 177 217 163 172 222 167 177 222 167 177 222 167 177 
233 175 185 233 175 185 233 175 185 233 175 185 244 183 194 244 183 194 244 183 194 244 183 194 244 183 194 244 183 194 244 183 194 244 183 194 244 183 194 244 183 194 244 183 194 244 183 194 244 183 194 244 183 194 244 183 194 244 183 194 244 183 194 244 183 194 244 183 194 244 183 194 244 183 194 244 183 194 244 183 194 244 183 194 244 183 194 244 183 194 244 183 194 244 183 194 244 183 194 249 187 198 227 171 181 135 102 107 27 20 21 27 20 21 27 20 21 27 20 21 27 20 21 27 20 21 21 16 17 27 20 21 27 20 21 21 16 17 27 20 21 92 69 73 86 65 69 54 40 43 157 118 125 249 187 198 255 224 229 255 229 233 255 232 236 255 232 236 255 232 236 255 232 236 255 232 236 255 232 236 255 232 236 255 232 236 255 232 236 255 232 236 255 232 236 255 222 228 255 200 209 157 118 125 27 20 21 27 20 21 27 20 21 27 20 21 27 20 21 27 20 21 32 24 25 32 24 25 130 98 103 217 163 172 255 193 204 255 193 204 249 187 198 255 198 208 255 200 209 255 200 209 255 200 209 255 200 209 255 201 210 255 200 209 255 200 209 255 198 208 255 198 208 184 138 146 70 53 56 48 36 38 27 20 21 27 20 21 65 49 51 27 20 21 32 24 25 32 24 25 32 24 25 32 24 25 32 24 25 32 24 25 81 61 64 255 208 216 255 232 236 255 233 237 255 233 237 255 233 237 255 233 237 255 233 237 255 233 237 255 233 237 255 233 237 255 233 237 255 233 237 255 233 237 255 233 237 255 233 237 255 233 237 255 233 237 255 233 237 255 233 237 255 233 237 255 233 237 255 233 237 255 233 237 255 233 237 255 233 237 255 233 237 255 233 237 255 234 238 255 233 237 255 226 231 255 213 220 255 217 224 255 201 210 206 155 164 81 61 64 81 61 64 48 36 38 37 28 30 32 24 25 32 24 25 32 24 25 32 24 25 32 24 25 32 24 25 32 24 25 32 24 25 32 24 25 32 24 25 32 24 25 32 24 25 32 24 25 32 24 25 32 24 25 32 24 25 32 24 25 32 24 25 32 24 25 32 24 25 27 20 21 27 20 21 27 20 21 27 20 21 27 20 21 27 20 21 21 16 17 21 16 17 27 20 21 27 20 21 21 16 17 21 16 17 27 20 21 255 193 204 255 208 216 233 175 185 244 183 194 233 175 185 244 183 194 233 175 185 227 171 181 227 171 181 227 171 181 227 171 181 227 171 181 222 167 177 222 167 177 222 167 177 227 171 181 227 171 181 222 167 177 222 167 177 222 167 177 227 171 181 227 171 181 227 171 181 227 171 181 227 171 181 227 171 181 227 171 181 227 171 181 222 167 177 222 167 177 222 167 177 222 167 177 222 167 177 222 167 177 222 167 177 222 167 177 222 167 177 222 167 177 222 167 177 217 163 172 217 163 172 217 163 172 217 163 172 222 167 177 
233 175 185 233 175 185 233 175 185 233 175 185 244 183 194 244 183 194 244 183 194 244 183 194 244 183 194 244 183 194 244 183 194 244 183 194 244 183 194 244 183 194 244 183 194 244 183 194 244 183 194 244 183 194 244 183 194 244 183 194 244 183 194 244 183 194 244 183 194 244 183 194 244 183 194 244 183 194 244 183 194 244 183 194 244 183 194 244 183 194 244 183 194 244 183 194 244 183 194 249 187 198 227 171 181 135 102 107 27 20 21 27 20 21 27 20 21 27 20 21 27 20 21 27 20 21 21 16 17 27 20 21 27 20 21 21 16 17 27 20 21 92 69 73 86 65 69 54 40 43 157 118 125 249 187 198 255 224 229 255 229 233 255 232 236 255 232 236 255 232 236 255 232 236 255 232 236 255 232 236 255 232 236 255 232 236 255 232 236 255 232 236 255 232 236 255 222 228 255 200 209 157 118 125 27 20 21 27 20 21 27 20 21 27 20 21 27 20 21 27 20 21 32 24 25 32 24 25 130 98 103 217 163 172 255 193 204 255 193 204 249 187 198 255 198 208 255 200 209 255 200 209 255 200 209 255 200 209 255 201 210 255 200 209 255 200 209 255 198 208 255 198 208 184 138 146 70 53 56 48 36 38 27 20 21 27 20 21 65 49 51 27 20 21 32 24 25 32 24 25 32 24 25 32 24 25 32 24 25 32 24 25 81 61 64 255 208 216 255 232 236 255 233 237 255 233 237 255 233 237 255 233 237 255 233 237 255 233 237 255 233 237 255 233 237 255 233 237 255 233 237 255 233 237 255 233 237 255 233 237 255 233 237 255 233 237 255 233 237 255 233 237 255 233 237 255 233 237 255 233 237 255 233 237 255 233 237 255 233 237 255 233 237 255 233 237 255 234 238 255 233 237 255 226 231 255 213 220 255 217 224 255 201 210 206 155 164 81 61 64 81 61 64 48 36 38 37 28 30 32 24 25 32 24 25 32 24 25 32 24 25 32 24 25 32 24 25 32 24 25 32 24 25 32 24 25 32 24 25 32 24 25 32 24 25 32 24 25 32 24 25 32 24 25 32 24 25 32 24 25 32 24 25 32 24 25 32 24 25 27 20 21 27 20 21 27 20 21 27 20 21 27 20 21 27 20 21 21 16 17 21 16 17 27 20 21 27 20 21 21 16 17 21 16 17 27 20 21 255 193 204 255 208 216 233 175 185 244 183 194 233 175 185 244 183 194 233 175 185 227 171 181 227 171 181 227 171 181 227 171 181 227 171 181 222 167 177 222 167 177 222 167 177 227 171 181 227 171 181 222 167 177 222 167 177 222 167 177 227 171 181 227 171 181 227 171 181 227 171 181 227 171 181 227 171 181 227 171 181 227 171 181 222 167 177 222 167 177 222 167 177 222 167 177 222 167 177 222 167 177 222 167 177 222 167 177 222 167 177 222 167 177 222 167 177 217 163 172 217 163 172 217 163 172 217 163 172 222 167 177 
227 171 181 227 171 181 227 171 181 227 171 181 233 175 185 233 175 185 233 175 185 233 175 185 244 183 194 244 183 194 244 183 194 244 183 194 244 183 194 244 183 194 244 183 194 244 183 194 233 175 185 244 183 194 244 183 194 244 183 194 244 183 194 244 183 194 244 183 194 244 183 194 244 183 194 244 183 194 244 183 194 244 183 194 244 183 194 244 183 194 244 183 194 244 183 194 244 183 194 249 187 198 222 167 177 37 28 30 21 16 17 27 20 21 27 20 21 27 20 21 27 20 21 27 20 21 27 20 21 27 20 21 27 20 21 27 20 21 27 20 21 32 24 25 32 24 25 37 28 30 195 147 155 222 167 177 255 220 226 255 232 236 255 232 236 255 232 236 255 232 236 255 232 236 255 232 236 255 232 236 255 232 236 255 232 236 255 232 236 255 232 236 255 232 236 255 232 236 255 210 218 255 202 211 86 65 69 27 20 21 27 20 21 27 20 21 27 20 21 32 24 25 27 20 21 32 24 25 32 24 25 217 163 172 255 198 208 255 198 208 255 198 208 217 163 172 92 69 73 146 110 116 184 138 146 217 163 172 255 196 206 211 159 168 233 175 185 217 163 172 48 36 38 195 147 155 70 53 56 32 24 25 27 20 21 32 24 25 32 24 25 32 24 25 32 24 25 32 24 25 32 24 25 32 24 25 54 40 43 255 193 204 255 226 231 255 233 237 255 233 237 255 233 237 255 233 237 255 233 237 255 233 237 255 233 237 255 233 237 255 233 237 255 233 237 255 233 237 255 233 237 255 233 237 255 233 237 255 232 236 255 233 237 255 233 237 255 233 237 255 233 237 255 233 237 255 233 237 255 233 237 255 233 237 255 233 237 255 233 237 255 233 237 255 233 237 255 233 237 255 229 233 255 226 231 255 216 222 255 206 215 217 163 172 206 155 164 135 102 107 92 69 73 37 28 30 32 24 25 32 24 25 32 24 25 32 24 25 32 24 25 32 24 25 32 24 25 32 24 25 32 24 25 32 24 25 32 24 25 32 24 25 32 24 25 32 24 25 32 24 25 27 20 21 32 24 25 27 20 21 27 20 21 27 20 21 27 20 21 27 20 21 27 20 21 27 20 21 27 20 21 27 20 21 27 20 21 27 20 21 27 20 21 27 20 21 27 20 21 21 16 17 27 20 21 37 28 30 255 225 230 255 198 208 233 175 185 227 171 181 227 171 181 227 171 181 211 159 168 227 171 181 227 171 181 222 167 177 222 167 177 222 167 177 222 167 177 222 167 177 222 167 177 222 167 177 222 167 177 222 167 177 222 167 177 222 167 177 222 167 177 222 167 177 222 167 177 222 167 177 222 167 177 222 167 177 222 167 177 222 167 177 222 167 177 222 167 177 222 167 177 222 167 177 217 163 172 217 163 172 217 163 172 217 163 172 217 163 172 222 167 177 217 163 172 211 159 168 211 159 168 211 159 168 211 159 168 217 163 172 
227 171 181 227 171 181 227 171 181 227 171 181 233 175 185 233 175 185 233 175 185 233 175 185 244 183 194 244 183 194 244 183 194 244 183 194 244 183 194 244 183 194 244 183 194 244 183 194 233 175 185 244 183 194 244 183 194 244 183 194 244 183 194 244 183 194 244 183 194 244 183 194 244 183 194 244 183 194 244 183 194 244 183 194 244 183 194 244 183 194 244 183 194 244 183 194 244 183 194 249 187 198 222 167 177 37 28 30 21 16 17 27 20 21 27 20 21 27 20 21 27 20 21 27 20 21 27 20 21 27 20 21 27 20 21 27 20 21 27 20 21 32 24 25 32 24 25 37 28 30 195 147 155 222 167 177 255 220 226 255 232 236 255 232 236 255 232 236 255 232 236 255 232 236 255 232 236 255 232 236 255 232 236 255 232 236 255 232 236 255 232 236 255 232 236 255 232 236 255 210 218 255 202 211 86 65 69 27 20 21 27 20 21 27 20 21 27 20 21 32 24 25 27 20 21 32 24 25 32 24 25 217 163 172 255 198 208 255 198 208 255 198 208 217 163 172 92 69 73 146 110 116 184 138 146 217 163 172 255 196 206 211 159 168 233 175 185 217 163 172 48 36 38 195 147 155 70 53 56 32 24 25 27 20 21 32 24 25 32 24 25 32 24 25 32 24 25 32 24 25 32 24 25 32 24 25 54 40 43 255 193 204 255 226 231 255 233 237 255 233 237 255 233 237 255 233 237 255 233 237 255 233 237 255 233 237 255 233 237 255 233 237 255 233 237 255 233 237 255 233 237 255 233 237 255 233 237 255 232 236 255 233 237 255 233 237 255 233 237 255 233 237 255 233 237 255 233 237 255 233 237 255 233 237 255 233 237 255 233 237 255 233 237 255 233 237 255 233 237 255 229 233 255 226 231 255 216 222 255 206 215 217 163 172 206 155 164 135 102 107 92 69 73 37 28 30 32 24 25 32 24 25 32 24 25 32 24 25 32 24 25 32 24 25 32 24 25 32 24 25 32 24 25 32 24 25 32 24 25 32 24 25 32 24 25 32 24 25 32 24 25 27 20 21 32 24 25 27 20 21 27 20 21 27 20 21 27 20 21 27 20 21 27 20 21 27 20 21 27 20 21 27 20 21 27 20 21 27 20 21 27 20 21 27 20 21 27 20 21 21 16 17 27 20 21 37 28 30 255 225 230 255 198 208 233 175 185 227 171 181 227 171 181 227 171 181 211 159 168 227 171 181 227 171 181 222 167 177 222 167 177 222 167 177 222 167 177 222 167 177 222 167 177 222 167 177 222 167 177 222 167 177 222 167 177 222 167 177 222 167 177 222 167 177 222 167 177 222 167 177 222 167 177 222 167 177 222 167 177 222 167 177 222 167 177 222 167 177 222 167 177 222 167 177 217 163 172 217 163 172 217 163 172 217 163 172 217 163 172 222 167 177 217 163 172 211 159 168 211 159 168 211 159 168 211 159 168 217 163 172 
227 171 181 227 171 181 222 167 177 227 171 181 227 171 181 233 175 185 233 175 185 233 175 185 233 175 185 233 175 185 244 183 194 244 183 194 233 175 185 233 175 185 233 175 185 233 175 185 233 175 185 233 175 185 233 175 185 233 175 185 233 175 185 233 175 185 233 175 185 233 175 185 233 175 185 233 175 185 233 175 185 233 175 185 233 175 185 233 175 185 233 175 185 233 175 185 233 175 185 233 175 185 255 193 204 146 110 116 157 118 125 211 159 168 206 155 164 27 20 21 27 20 21 27 20 21 27 20 21 27 20 21 92 69 73 54 40 43 27 20 21 27 20 21 27 20 21 54 40 43 81 61 64 179 134 142 255 200 209 255 216 222 255 229 233 255 230 235 255 230 235 255 230 235 255 230 235 255 230 235 255 230 235 255 232 236 255 232 236 255 230 235 255 230 235 255 230 235 255 230 235 255 208 216 255 193 204 70 53 56 27 20 21 27 20 21 27 20 21 27 20 21 27 20 21 27 20 21 32 24 25 27 20 21 157 118 125 249 187 198 255 198 208 255 201 210 206 155 164 92 69 73 81 61 64 255 196 206 227 171 181 233 175 185 255 201 210 255 201 210 184 138 146 135 102 107 65 49 51 32 24 25 27 20 21 32 24 25 32 24 25 32 24 25 32 24 25 32 24 25 70 53 56 255 193 204 255 225 230 255 233 237 255 232 236 255 233 237 255 233 237 255 233 237 255 232 236 255 232 236 255 233 237 255 233 237 255 233 237 255 233 237 255 233 237 255 233 237 255 233 237 255 232 236 255 232 236 255 232 236 255 232 236 255 232 236 255 233 237 255 233 237 255 233 237 255 233 237 255 233 237 255 233 237 255 233 237 255 233 237 255 232 236 255 229 233 255 228 232 255 224 229 255 212 219 255 208 216 211 159 168 184 138 146 195 147 155 81 61 64 37 28 30 32 24 25 32 24 25 32 24 25 32 24 25 32 24 25 32 24 25 32 24 25 32 24 25 32 24 25 32 24 25 32 24 25 32 24 25 32 24 25 32 24 25 32 24 25 27 20 21 27 20 21 27 20 21 27 20 21 27 20 21 27 20 21 27 20 21 27 20 21 27 20 21 27 20 21 27 20 21 27 20 21 21 16 17 27 20 21 27 20 21 27 20 21 27 20 21 21 16 17 21 16 17 21 16 17 92 69 73 217 163 172 233 175 185 227 171 181 233 175 185 179 134 142 32 24 25 200 151 159 227 171 181 222 167 177 222 167 177 222 167 177 222 167 177 222 167 177 222 167 177 222 167 177 222 167 177 217 163 172 217 163 172 217 163 172 222 167 177 222 167 177 217 163 172 217 163 172 217 163 172 217 163 172 217 163 172 217 163 172 217 163 172 217 163 172 217 163 172 217 163 172 217 163 172 217 163 172 217 163 172 217 163 172 217 163 172 217 163 172 217 163 172 211 159 168 211 159 168 211 159 168 211 159 168 211 159 168 
227 171 181 227 171 181 222 167 177 227 171 181 227 171 181 233 175 185 233 175 185 233 175 185 233 175 185 233 175 185 244 183 194 244 183 194 233 175 185 233 175 185 233 175 185 233 175 185 233 175 185 233 175 185 233 175 185 233 175 185 233 175 185 233 175 185 233 175 185 233 175 185 233 175 185 233 175 185 233 175 185 233 175 185 233 175 185 233 175 185 233 175 185 233 175 185 233 175 185 233 175 185 255 193 204 146 110 116 157 118 125 211 159 168 206 155 164 27 20 21 27 20 21 27 20 21 27 20 21 27 20 21 92 69 73 54 40 43 27 20 21 27 20 21 27 20 21 54 40 43 81 61 64 179 134 142 255 200 209 255 216 222 255 229 233 255 230 235 255 230 235 255 230 235 255 230 235 255 230 235 255 230 235 255 232 236 255 232 236 255 230 235 255 230 235 255 230 235 255 230 235 255 208 216 255 193 204 70 53 56 27 20 21 27 20 21 27 20 21 27 20 21 27 20 21 27 20 21 32 24 25 27 20 21 157 118 125 249 187 198 255 198 208 255 201 210 206 155 164 92 69 73 81 61 64 255 196 206 227 171 181 233 175 185 255 201 210 255 201 210 184 138 146 135 102 107 65 49 51 32 24 25 27 20 21 32 24 25 32 24 25 32 24 25 32 24 25 32 24 25 70 53 56 255 193 204 255 225 230 255 233 237 255 232 236 255 233 237 255 233 237 255 233 237 255 232 236 255 232 236 255 233 237 255 233 237 255 233 237 255 233 237 255 233 237 255 233 237 255 233 237 255 232 236 255 232 236 255 232 236 255 232 236 255 232 236 255 233 237 255 233 237 255 233 237 255 233 237 255 233 237 255 233 237 255 233 237 255 233 237 255 232 236 255 229 233 255 228 232 255 224 229 255 212 219 255 208 216 211 159 168 184 138 146 195 147 155 81 61 64 37 28 30 32 24 25 32 24 25 32 24 25 32 24 25 32 24 25 32 24 25 32 24 25 32 24 25 32 24 25 32 24 25 32 24 25 32 24 25 32 24 25 32 24 25 32 24 25 27 20 21 27 20 21 27 20 21 27 20 21 27 20 21 27 20 21 27 20 21 27 20 21 27 20 21 27 20 21 27 20 21 27 20 21 21 16 17 27 20 21 27 20 21 27 20 21 27 20 21 21 16 17 21 16 17 21 16 17 92 69 73 217 163 172 233 175 185 227 171 181 233 175 185 179 134 142 32 24 25 200 151 159 227 171 181 222 167 177 222 167 177 222 167 177 222 167 177 222 167 177 222 167 177 222 167 177 222 167 177 217 163 172 217 163 172 217 163 172 222 167 177 222 167 177 217 163 172 217 163 172 217 163 172 217 163 172 217 163 172 217 163 172 217 163 172 217 163 172 217 163 172 217 163 172 217 163 172 217 163 172 217 163 172 217 163 172 217 163 172 217 163 172 217 163 172 211 159 168 211 159 168 211 159 168 211 159 168 211 159 168 
227 171 181 222 167 177 222 167 177 222 167 177 227 171 181 233 175 185 233 175 185 233 175 185 233 175 185 233 175 185 233 175 185 233 175 185 233 175 185 233 175 185 233 175 185 233 175 185 233 175 185 233 175 185 233 175 185 233 175 185 233 175 185 233 175 185 233 175 185 233 175 185 233 175 185 233 175 185 233 175 185 233 175 185 233 175 185 233 175 185 233 175 185 233 175 185 233 175 185 233 175 185 227 171 181 233 175 185 249 187 198 65 49 51 27 20 21 27 20 21 27 20 21 27 20 21 27 20 21 21 16 17 21 16 17 21 16 17 27 20 21 27 20 21 27 20 21 27 20 21 27 20 21 48 36 38 146 110 116 255 196 206 255 220 226 255 228 232 255 230 235 255 230 235 255 230 235 255 230 235 255 230 235 255 232 236 255 232 236 255 230 235 255 230 235 255 230 235 255 232 236 255 232 236 255 217 224 255 198 208 195 147 155 27 20 21 27 20 21 27 20 21 27 20 21 27 20 21 27 20 21 27 20 21 27 20 21 21 16 17 32 24 25 70 53 56 255 193 204 146 110 116 233 175 185 233 175 185 135 102 107 227 171 181 249 187 198 195 147 155 157 118 125 37 28 30 32 24 25 32 24 25 32 24 25 27 20 21 32 24 25 54 40 43 217 163 172 255 210 218 255 228 232 255 232 236 255 232 236 255 232 236 255 232 236 255 233 237 255 233 237 255 233 237 255 232 236 255 232 236 255 233 237 255 233 237 255 233 237 255 233 237 255 233 237 255 232 236 255 232 236 255 232 236 255 232 236 255 232 236 255 232 236 255 232 236 255 232 236 255 232 236 255 232 236 255 233 237 255 233 237 255 233 237 255 233 237 255 232 236 255 229 233 255 225 230 255 225 230 255 222 228 255 212 219 255 201 210 179 134 142 54 40 43 48 36 38 32 24 25 32 24 25 27 20 21 32 24 25 32 24 25 32 24 25 32 24 25 32 24 25 32 24 25 32 24 25 32 24 25 32 24 25 32 24 25 32 24 25 32 24 25 32 24 25 32 24 25 32 24 25 32 24 25 32 24 25 27 20 21 27 20 21 27 20 21 27 20 21 27 20 21 27 20 21 27 20 21 27 20 21 27 20 21 21 16 17 21 16 17 21 16 17 27 20 21 27 20 21 21 16 17 21 16 17 135 102 107 249 187 198 227 171 181 227 171 181 233 175 185 222 167 177 217 163 172 222 167 177 217 163 172 217 163 172 217 163 172 222 167 177 222 167 177 211 159 168 217 163 172 217 163 172 211 159 168 211 159 168 211 159 168 211 159 168 211 159 168 211 159 168 211 159 168 211 159 168 211 159 168 217 163 172 217 163 172 217 163 172 211 159 168 211 159 168 211 159 168 211 159 168 211 159 168 217 163 172 217 163 172 217 163 172 217 163 172 217 163 172 217 163 172 217 163 172 211 159 168 206 155 164 206 155 164 211 159 168 211 159 168 
227 171 181 222 167 177 222 167 177 222 167 177 227 171 181 233 175 185 233 175 185 233 175 185 233 175 185 233 175 185 233 175 185 233 175 185 233 175 185 233 175 185 233 175 185 233 175 185 233 175 185 233 175 185 233 175 185 233 175 185 233 175 185 233 175 185 233 175 185 233 175 185 233 175 185 233 175 185 233 175 185 233 175 185 233 175 185 233 175 185 233 175 185 233 175 185 233 175 185 233 175 185 227 171 181 233 175 185 249 187 198 65 49 51 27 20 21 27 20 21 27 20 21 27 20 21 27 20 21 21 16 17 21 16 17 21 16 17 27 20 21 27 20 21 27 20 21 27 20 21 27 20 21 48 36 38 146 110 116 255 196 206 255 220 226 255 228 232 255 230 235 255 230 235 255 230 235 255 230 235 255 230 235 255 232 236 255 232 236 255 230 235 255 230 235 255 230 235 255 232 236 255 232 236 255 217 224 255 198 208 195 147 155 27 20 21 27 20 21 27 20 21 27 20 21 27 20 21 27 20 21 27 20 21 27 20 21 21 16 17 32 24 25 70 53 56 255 193 204 146 110 116 233 175 185 233 175 185 135 102 107 227 171 181 249 187 198 195 147 155 157 118 125 37 28 30 32 24 25 32 24 25 32 24 25 27 20 21 32 24 25 54 40 43 217 163 172 255 210 218 255 228 232 255 232 236 255 232 236 255 232 236 255 232 236 255 233 237 255 233 237 255 233 237 255 232 236 255 232 236 255 233 237 255 233 237 255 233 237 255 233 237 255 233 237 255 232 236 255 232 236 255 232 236 255 232 236 255 232 236 255 232 236 255 232 236 255 232 236 255 232 236 255 232 236 255 233 237 255 233 237 255 233 237 255 233 237 255 232 236 255 229 233 255 225 230 255 225 230 255 222 228 255 212 219 255 201 210 179 134 142 54 40 43 48 36 38 32 24 25 32 24 25 27 20 21 32 24 25 32 24 25 32 24 25 32 24 25 32 24 25 32 24 25 32 24 25 32 24 25 32 24 25 32 24 25 32 24 25 32 24 25 32 24 25 32 24 25 32 24 25 32 24 25 32 24 25 27 20 21 27 20 21 27 20 21 27 20 21 27 20 21 27 20 21 27 20 21 27 20 21 27 20 21 21 16 17 21 16 17 21 16 17 27 20 21 27 20 21 21 16 17 21 16 17 135 102 107 249 187 198 227 171 181 227 171 181 233 175 185 222 167 177 217 163 172 222 167 177 217 163 172 217 163 172 217 163 172 222 167 177 222 167 177 211 159 168 217 163 172 217 163 172 211 159 168 211 159 168 211 159 168 211 159 168 211 159 168 211 159 168 211 159 168 211 159 168 211 159 168 217 163 172 217 163 172 217 163 172 211 159 168 211 159 168 211 159 168 211 159 168 211 159 168 217 163 172 217 163 172 217 163 172 217 163 172 217 163 172 217 163 172 217 163 172 211 159 168 206 155 164 206 155 164 211 159 168 211 159 168 
222 167 177 222 167 177 222 167 177 222 167 177 227 171 181 233 175 185 233 175 185 244 183 194 244 183 194 244 183 194 233 175 185 233 175 185 233 175 185 233 175 185 233 175 185 233 175 185 233 175 185 233 175 185 233 175 185 233 175 185 233 175 185 233 175 185 233 175 185 233 175 185 227 171 181 227 171 181 227 171 181 227 171 181 227 171 181 227 171 181 227 171 181 227 171 181 233 175 185 233 175 185 227 171 181 227 171 181 227 171 181 244 183 194 92 69 73 27 20 21 27 20 21 27 20 21 27 20 21 27 20 21 27 20 21 21 16 17 21 16 17 21 16 17 21 16 17 27 20 21 27 20 21 37 28 30 81 61 64 184 138 146 233 175 185 255 206 215 255 224 229 255 229 233 255 230 235 255 230 235 255 230 235 255 230 235 255 230 235 255 230 235 255 230 235 255 232 236 255 232 236 255 232 236 255 230 235 255 232 236 255 209 217 249 187 198 92 69 73 32 24 25 27 20 21 27 20 21 27 20 21 27 20 21 27 20 21 27 20 21 27 20 21 21 16 17 54 40 43 48 36 38 54 40 43 48 36 38 37 28 30 27 20 21 32 24 25 32 24 25 32 24 25 27 20 21 32 24 25 37 28 30 157 118 125 255 198 208 255 209 217 255 224 229 255 232 236 255 232 236 255 232 236 255 232 236 255 232 236 255 232 236 255 232 236 255 232 236 255 232 236 255 232 236 255 232 236 255 232 236 255 232 236 255 232 236 255 232 236 255 232 236 255 232 236 255 232 236 255 232 236 255 232 236 255 232 236 255 232 236 255 232 236 255 232 236 255 232 236 255 232 236 255 232 236 255 232 236 255 232 236 255 232 236 255 232 236 255 229 233 255 226 231 255 212 219 255 201 210 255 196 206 227 171 181 135 102 107 37 28 30 32 24 25 32 24 25 32 24 25 32 24 25 32 24 25 32 24 25 32 24 25 32 24 25 32 24 25 27 20 21 27 20 21 27 20 21 32 24 25 32 24 25 32 24 25 32 24 25 32 24 25 32 24 25 32 24 25 32 24 25 32 24 25 32 24 25 32 24 25 32 24 25 27 20 21 27 20 21 27 20 21 27 20 21 27 20 21 27 20 21 27 20 21 27 20 21 21 16 17 21 16 17 21 16 17 21 16 17 21 16 17 48 36 38 222 167 177 227 171 181 222 167 177 227 171 181 184 138 146 217 163 172 222 167 177 200 151 159 217 163 172 217 163 172 217 163 172 217 163 172 217 163 172 211 159 168 211 159 168 211 159 168 206 155 164 206 155 164 211 159 168 211 159 168 211 159 168 211 159 168 211 159 168 211 159 168 211 159 168 211 159 168 211 159 168 211 159 168 211 159 168 211 159 168 211 159 168 211 159 168 211 159 168 211 159 168 211 159 168 211 159 168 211 159 168 211 159 168 211 159 168 206 155 164 206 155 164 200 151 159 200 151 159 206 155 164 206 155 164 
222 167 177 222 167 177 222 167 177 222 167 177 227 171 181 233 175 185 233 175 185 244 183 194 244 183 194 244 183 194 233 175 185 233 175 185 233 175 185 233 175 185 233 175 185 233 175 185 233 175 185 233 175 185 233 175 185 233 175 185 233 175 185 233 175 185 233 175 185 233 175 185 227 171 181 227 171 181 227 171 181 227 171 181 227 171 181 227 171 181 227 171 181 227 171 181 233 175 185 233 175 185 227 171 181 227 171 181 227 171 181 244 183 194 92 69 73 27 20 21 27 20 21 27 20 21 27 20 21 27 20 21 27 20 21 21 16 17 21 16 17 21 16 17 21 16 17 27 20 21 27 20 21 37 28 30 81 61 64 184 138 146 233 175 185 255 206 215 255 224 229 255 229 233 255 230 235 255 230 235 255 230 235 255 230 235 255 230 235 255 230 235 255 230 235 255 232 236 255 232 236 255 232 236 255 230 235 255 232 236 255 209 217 249 187 198 92 69 73 32 24 25 27 20 21 27 20 21 27 20 21 27 20 21 27 20 21 27 20 21 27 20 21 21 16 17 54 40 43 48 36 38 54 40 43 48 36 38 37 28 30 27 20 21 32 24 25 32 24 25 32 24 25 27 20 21 32 24 25 37 28 30 157 118 125 255 198 208 255 209 217 255 224 229 255 232 236 255 232 236 255 232 236 255 232 236 255 232 236 255 232 236 255 232 236 255 232 236 255 232 236 255 232 236 255 232 236 255 232 236 255 232 236 255 232 236 255 232 236 255 232 236 255 232 236 255 232 236 255 232 236 255 232 236 255 232 236 255 232 236 255 232 236 255 232 236 255 232 236 255 232 236 255 232 236 255 232 236 255 232 236 255 232 236 255 232 236 255 229 233 255 226 231 255 212 219 255 201 210 255 196 206 227 171 181 135 102 107 37 28 30 32 24 25 32 24 25 32 24 25 32 24 25 32 24 25 32 24 25 32 24 25 32 24 25 32 24 25 27 20 21 27 20 21 27 20 21 32 24 25 32 24 25 32 24 25 32 24 25 32 24 25 32 24 25 32 24 25 32 24 25 32 24 25 32 24 25 32 24 25 32 24 25 27 20 21 27 20 21 27 20 21 27 20 21 27 20 21 27 20 21 27 20 21 27 20 21 21 16 17 21 16 17 21 16 17 21 16 17 21 16 17 48 36 38 222 167 177 227 171 181 222 167 177 227 171 181 184 138 146 217 163 172 222 167 177 200 151 159 217 163 172 217 163 172 217 163 172 217 163 172 217 163 172 211 159 168 211 159 168 211 159 168 206 155 164 206 155 164 211 159 168 211 159 168 211 159 168 211 159 168 211 159 168 211 159 168 211 159 168 211 159 168 211 159 168 211 159 168 211 159 168 211 159 168 211 159 168 211 159 168 211 159 168 211 159 168 211 159 168 211 159 168 211 159 168 211 159 168 211 159 168 206 155 164 206 155 164 200 151 159 200 151 159 206 155 164 206 155 164 
227 171 181 222 167 177 222 167 177 222 167 177 227 171 181 227 171 181 233 175 185 233 175 185 233 175 185 233 175 185 233 175 185 233 175 185 233 175 185 233 175 185 233 175 185 233 175 185 233 175 185 233 175 185 233 175 185 233 175 185 233 175 185 233 175 185 227 171 181 227 171 181 227 171 181 227 171 181 227 171 181 227 171 181 227 171 181 227 171 181 227 171 181 227 171 181 227 171 181 227 171 181 227 171 181 227 171 181 227 171 181 222 167 177 249 187 198 135 102 107 27 20 21 21 16 17 27 20 21 27 20 21 21 16 17 21 16 17 21 16 17 21 16 17 21 16 17 21 16 17 32 24 25 32 24 25 27 20 21 48 36 38 179 134 142 195 147 155 255 196 206 255 221 227 255 226 231 255 229 233 255 229 233 255 229 233 255 230 235 255 230 235 255 230 235 255 230 235 255 232 236 255 232 236 255 232 236 255 232 236 255 232 236 255 230 235 255 212 219 244 183 194 217 163 172 179 134 142 37 28 30 27 20 21 27 20 21 27 20 21 27 20 21 32 24 25 27 20 21 32 24 25 27 20 21 32 24 25 32 24 25 32 24 25 27 20 21 32 24 25 65 49 51 200 151 159 255 208 216 255 224 229 255 232 236 255 232 236 255 232 236 255 232 236 255 230 235 255 232 236 255 232 236 255 232 236 255 232 236 255 232 236 255 232 236 255 232 236 255 232 236 255 232 236 255 232 236 255 232 236 255 232 236 255 232 236 255 232 236 255 232 236 255 232 236 255 232 236 255 232 236 255 232 236 255 232 236 255 232 236 255 232 236 255 232 236 255 233 237 255 232 236 255 232 236 255 230 235 255 230 235 255 221 227 249 187 198 255 205 214 255 200 209 211 159 168 130 98 103 184 138 146 65 49 51 32 24 25 32 24 25 32 24 25 32 24 25 32 24 25 32 24 25 32 24 25 32 24 25 32 24 25 32 24 25 32 24 25 32 24 25 32 24 25 32 24 25 32 24 25 32 24 25 27 20 21 32 24 25 27 20 21 32 24 25 32 24 25 27 20 21 32 24 25 32 24 25 32 24 25 27 20 21 32 24 25 27 20 21 21 16 17 27 20 21 27 20 21 27 20 21 27 20 21 27 20 21 21 16 17 21 16 17 21 16 17 21 16 17 92 69 73 255 232 236 255 214 221 244 183 194 217 163 172 222 167 177 222 167 177 211 159 168 211 159 168 206 155 164 211 159 168 211 159 168 211 159 168 211 159 168 211 159 168 206 155 164 206 155 164 206 155 164 206 155 164 206 155 164 206 155 164 206 155 164 206 155 164 206 155 164 206 155 164 206 155 164 206 155 164 206 155 164 206 155 164 206 155 164 206 155 164 206 155 164 206 155 164 206 155 164 206 155 164 206 155 164 206 155 164 206 155 164 206 155 164 211 159 168 211 159 168 206 155 164 200 151 159 200 151 159 200 151 159 200 151 159 206 155 164 
227 171 181 222 167 177 222 167 177 222 167 177 227 171 181 227 171 181 233 175 185 233 175 185 233 175 185 233 175 185 233 175 185 233 175 185 233 175 185 233 175 185 233 175 185 233 175 185 233 175 185 233 175 185 233 175 185 233 175 185 233 175 185 233 175 185 227 171 181 227 171 181 227 171 181 227 171 181 227 171 181 227 171 181 227 171 181 227 171 181 227 171 181 227 171 181 227 171 181 227 171 181 227 171 181 227 171 181 227 171 181 222 167 177 249 187 198 135 102 107 27 20 21 21 16 17 27 20 21 27 20 21 21 16 17 21 16 17 21 16 17 21 16 17 21 16 17 21 16 17 32 24 25 32 24 25 27 20 21 48 36 38 179 134 142 195 147 155 255 196 206 255 221 227 255 226 231 255 229 233 255 229 233 255 229 233 255 230 235 255 230 235 255 230 235 255 230 235 255 232 236 255 232 236 255 232 236 255 232 236 255 232 236 255 230 235 255 212 219 244 183 194 217 163 172 179 134 142 37 28 30 27 20 21 27 20 21 27 20 21 27 20 21 32 24 25 27 20 21 32 24 25 27 20 21 32 24 25 32 24 25 32 24 25 27 20 21 32 24 25 65 49 51 200 151 159 255 208 216 255 224 229 255 232 236 255 232 236 255 232 236 255 232 236 255 230 235 255 232 236 255 232 236 255 232 236 255 232 236 255 232 236 255 232 236 255 232 236 255 232 236 255 232 236 255 232 236 255 232 236 255 232 236 255 232 236 255 232 236 255 232 236 255 232 236 255 232 236 255 232 236 255 232 236 255 232 236 255 232 236 255 232 236 255 232 236 255 233 237 255 232 236 255 232 236 255 230 235 255 230 235 255 221 227 249 187 198 255 205 214 255 200 209 211 159 168 130 98 103 184 138 146 65 49 51 32 24 25 32 24 25 32 24 25 32 24 25 32 24 25 32 24 25 32 24 25 32 24 25 32 24 25 32 24 25 32 24 25 32 24 25 32 24 25 32 24 25 32 24 25 32 24 25 27 20 21 32 24 25 27 20 21 32 24 25 32 24 25 27 20 21 32 24 25 32 24 25 32 24 25 27 20 21 32 24 25 27 20 21 21 16 17 27 20 21 27 20 21 27 20 21 27 20 21 27 20 21 21 16 17 21 16 17 21 16 17 21 16 17 92 69 73 255 232 236 255 214 221 244 183 194 217 163 172 222 167 177 222 167 177 211 159 168 211 159 168 206 155 164 211 159 168 211 159 168 211 159 168 211 159 168 211 159 168 206 155 164 206 155 164 206 155 164 206 155 164 206 155 164 206 155 164 206 155 164 206 155 164 206 155 164 206 155 164 206 155 164 206 155 164 206 155 164 206 155 164 206 155 164 206 155 164 206 155 164 206 155 164 206 155 164 206 155 164 206 155 164 206 155 164 206 155 164 206 155 164 211 159 168 211 159 168 206 155 164 200 151 159 200 151 159 200 151 159 200 151 159 206 155 164 
227 171 181 222 167 177 222 167 177 222 167 177 227 171 181 227 171 181 233 175 185 233 175 185 233 175 185 233 175 185 233 175 185 233 175 185 233 175 185 233 175 185 233 175 185 233 175 185 233 175 185 233 175 185 233 175 185 233 175 185 233 175 185 233 175 185 227 171 181 227 171 181 227 171 181 227 171 181 227 171 181 227 171 181 227 171 181 227 171 181 227 171 181 227 171 181 227 171 181 227 171 181 227 171 181 227 171 181 227 171 181 227 171 181 227 171 181 233 175 185 184 138 146 37 28 30 27 20 21 27 20 21 21 16 17 21 16 17 21 16 17 21 16 17 21 16 17 27 20 21 21 16 17 27 20 21 27 20 21 65 49 51 146 110 116 130 98 103 217 163 172 255 212 219 255 216 222 255 228 232 255 228 232 255 229 233 255 229 233 255 230 235 255 230 235 255 230 235 255 230 235 255 230 235 255 230 235 255 232 236 255 232 236 255 232 236 255 230 235 255 232 236 255 233 237 255 224 229 255 212 219 255 198 208 233 175 185 200 151 159 179 134 142 157 118 125 157 118 125 135 102 107 130 98 103 179 134 142 211 159 168 227 171 181 255 208 216 255 221 227 255 232 236 255 232 236 255 230 235 255 232 236 255 232 236 255 232 236 255 232 236 255 232 236 255 232 236 255 232 236 255 232 236 255 232 236 255 232 236 255 232 236 255 232 236 255 232 236 255 232 236 255 232 236 255 232 236 255 232 236 255 232 236 255 232 236 255 232 236 255 232 236 255 232 236 255 232 236 255 232 236 255 232 236 255 232 236 255 232 236 255 232 236 255 232 236 255 233 237 255 228 232 255 226 231 255 216 222 255 214 221 255 210 218 255 217 224 255 201 210 249 187 198 249 187 198 86 65 69 135 102 107 48 36 38 54 40 43 27 20 21 32 24 25 32 24 25 32 24 25 32 24 25 32 24 25 32 24 25 32 24 25 32 24 25 32 24 25 32 24 25 32 24 25 32 24 25 32 24 25 32 24 25 130 98 103 37 28 30 27 20 21 32 24 25 32 24 25 32 24 25 32 24 25 32 24 25 32 24 25 27 20 21 27 20 21 27 20 21 21 16 17 27 20 21 27 20 21 27 20 21 27 20 21 27 20 21 21 16 17 21 16 17 21 16 17 21 16 17 21 16 17 27 20 21 27 20 21 86 65 69 244 183 194 217 163 172 211 159 168 211 159 168 211 159 168 211 159 168 211 159 168 211 159 168 211 159 168 211 159 168 211 159 168 206 155 164 206 155 164 206 155 164 206 155 164 206 155 164 206 155 164 206 155 164 206 155 164 206 155 164 206 155 164 206 155 164 206 155 164 206 155 164 206 155 164 206 155 164 206 155 164 206 155 164 206 155 164 206 155 164 206 155 164 206 155 164 206 155 164 206 155 164 206 155 164 211 159 168 211 159 168 206 155 164 200 151 159 200 151 159 200 151 159 200 151 159 206 155 164 
227 171 181 222 167 177 222 167 177 222 167 177 227 171 181 227 171 181 233 175 185 233 175 185 233 175 185 233 175 185 233 175 185 233 175 185 233 175 185 233 175 185 233 175 185 233 175 185 233 175 185 233 175 185 233 175 185 233 175 185 233 175 185 233 175 185 227 171 181 227 171 181 227 171 181 227 171 181 227 171 181 227 171 181 227 171 181 227 171 181 227 171 181 227 171 181 227 171 181 227 171 181 227 171 181 227 171 181 227 171 181 227 171 181 227 171 181 233 175 185 184 138 146 37 28 30 27 20 21 27 20 21 21 16 17 21 16 17 21 16 17 21 16 17 21 16 17 27 20 21 21 16 17 27 20 21 27 20 21 65 49 51 146 110 116 130 98 103 217 163 172 255 212 219 255 216 222 255 228 232 255 228 232 255 229 233 255 229 233 255 230 235 255 230 235 255 230 235 255 230 235 255 230 235 255 230 235 255 232 236 255 232 236 255 232 236 255 230 235 255 232 236 255 233 237 255 224 229 255 212 219 255 198 208 233 175 185 200 151 159 179 134 142 157 118 125 157 118 125 135 102 107 130 98 103 179 134 142 211 159 168 227 171 181 255 208 216 255 221 227 255 232 236 255 232 236 255 230 235 255 232 236 255 232 236 255 232 236 255 232 236 255 232 236 255 232 236 255 232 236 255 232 236 255 232 236 255 232 236 255 232 236 255 232 236 255 232 236 255 232 236 255 232 236 255 232 236 255 232 236 255 232 236 255 232 236 255 232 236 255 232 236 255 232 236 255 232 236 255 232 236 255 232 236 255 232 236 255 232 236 255 232 236 255 232 236 255 233 237 255 228 232 255 226 231 255 216 222 255 214 221 255 210 218 255 217 224 255 201 210 249 187 198 249 187 198 86 65 69 135 102 107 48 36 38 54 40 43 27 20 21 32 24 25 32 24 25 32 24 25 32 24 25 32 24 25 32 24 25 32 24 25 32 24 25 32 24 25 32 24 25 32 24 25 32 24 25 32 24 25 32 24 25 130 98 103 37 28 30 27 20 21 32 24 25 32 24 25 32 24 25 32 24 25 32 24 25 32 24 25 27 20 21 27 20 21 27 20 21 21 16 17 27 20 21 27 20 21 27 20 21 27 20 21 27 20 21 21 16 17 21 16 17 21 16 17 21 16 17 21 16 17 27 20 21 27 20 21 86 65 69 244 183 194 217 163 172 211 159 168 211 159 168 211 159 168 211 159 168 211 159 168 211 159 168 211 159 168 211 159 168 211 159 168 206 155 164 206 155 164 206 155 164 206 155 164 206 155 164 206 155 164 206 155 164 206 155 164 206 155 164 206 155 164 206 155 164 206 155 164 206 155 164 206 155 164 206 155 164 206 155 164 206 155 164 206 155 164 206 155 164 206 155 164 206 155 164 206 155 164 206 155 164 206 155 164 211 159 168 211 159 168 206 155 164 200 151 159 200 151 159 200 151 159 200 151 159 206 155 164 
222 167 177 217 163 172 217 163 172 222 167 177 222 167 177 227 171 181 227 171 181 233 175 185 233 175 185 233 175 185 233 175 185 233 175 185 233 175 185 233 175 185 233 175 185 233 175 185 233 175 185 227 171 181 227 171 181 227 171 181 227 171 181 227 171 181 227 171 181 227 171 181 222 167 177 227 171 181 227 171 181 227 171 181 227 171 181 222 167 177 227 171 181 227 171 181 222 167 177 222 167 177 222 167 177 222 167 177 222 167 177 222 167 177 222 167 177 227 171 181 222 167 177 244 183 194 244 183 194 37 28 30 21 16 17 21 16 17 21 16 17 21 16 17 21 16 17 27 20 21 27 20 21 27 20 21 27 20 21 27 20 21 21 16 17 135 102 107 179 134 142 255 206 215 255 209 217 255 220 226 255 228 232 255 229 233 255 229 233 255 229 233 255 229 233 255 230 235 255 230 235 255 230 235 255 230 235 255 232 236 255 232 236 255 232 236 255 232 236 255 230 235 255 230 235 255 232 236 255 230 235 255 230 235 255 230 235 255 232 236 255 232 236 255 233 237 255 233 237 255 233 237 255 233 237 255 232 236 255 230 235 255 230 235 255 230 235 255 230 235 255 232 236 255 232 236 255 232 236 255 232 236 255 232 236 255 232 236 255 232 236 255 232 236 255 232 236 255 232 236 255 232 236 255 232 236 255 232 236 255 232 236 255 232 236 255 232 236 255 232 236 255 232 236 255 232 236 255 232 236 255 232 236 255 232 236 255 232 236 255 232 236 255 232 236 255 232 236 255 232 236 255 232 236 255 232 236 255 232 236 255 230 235 255 230 235 255 225 230 255 222 228 255 214 221 255 216 222 255 201 210 255 193 204 217 163 172 135 102 107 157 118 125 92 69 73 48 36 38 37 28 30 37 28 30 27 20 21 32 24 25 32 24 25 32 24 25 32 24 25 32 24 25 32 24 25 32 24 25 32 24 25 32 24 25 32 24 25 32 24 25 32 24 25 32 24 25 32 24 25 32 24 25 32 24 25 32 24 25 32 24 25 32 24 25 130 98 103 48 36 38 27 20 21 27 20 21 27 20 21 27 20 21 27 20 21 27 20 21 27 20 21 27 20 21 27 20 21 27 20 21 27 20 21 27 20 21 21 16 17 21 16 17 21 16 17 21 16 17 21 16 17 21 16 17 21 16 17 65 49 51 206 155 164 217 163 172 211 159 168 211 159 168 206 155 164 206 155 164 206 155 164 206 155 164 206 155 164 211 159 168 211 159 168 206 155 164 206 155 164 206 155 164 206 155 164 206 155 164 206 155 164 206 155 164 206 155 164 206 155 164 206 155 164 206 155 164 206 155 164 206 155 164 206 155 164 206 155 164 206 155 164 200 151 159 206 155 164 206 155 164 206 155 164 200 151 159 200 151 159 206 155 164 206 155 164 206 155 164 206 155 164 206 155 164 206 155 164 200 151 159 200 151 159 200 151 159 200 151 159 
222 167 177 217 163 172 217 163 172 222 167 177 222 167 177 227 171 181 227 171 181 233 175 185 233 175 185 233 175 185 233 175 185 233 175 185 233 175 185 233 175 185 233 175 185 233 175 185 233 175 185 227 171 181 227 171 181 227 171 181 227 171 181 227 171 181 227 171 181 227 171 181 222 167 177 227 171 181 227 171 181 227 171 181 227 171 181 222 167 177 227 171 181 227 171 181 222 167 177 222 167 177 222 167 177 222 167 177 222 167 177 222 167 177 222 167 177 227 171 181 222 167 177 244 183 194 244 183 194 37 28 30 21 16 17 21 16 17 21 16 17 21 16 17 21 16 17 27 20 21 27 20 21 27 20 21 27 20 21 27 20 21 21 16 17 135 102 107 179 134 142 255 206 215 255 209 217 255 220 226 255 228 232 255 229 233 255 229 233 255 229 233 255 229 233 255 230 235 255 230 235 255 230 235 255 230 235 255 232 236 255 232 236 255 232 236 255 232 236 255 230 235 255 230 235 255 232 236 255 230 235 255 230 235 255 230 235 255 232 236 255 232 236 255 233 237 255 233 237 255 233 237 255 233 237 255 232 236 255 230 235 255 230 235 255 230 235 255 230 235 255 232 236 255 232 236 255 232 236 255 232 236 255 232 236 255 232 236 255 232 236 255 232 236 255 232 236 255 232 236 255 232 236 255 232 236 255 232 236 255 232 236 255 232 236 255 232 236 255 232 236 255 232 236 255 232 236 255 232 236 255 232 236 255 232 236 255 232 236 255 232 236 255 232 236 255 232 236 255 232 236 255 232 236 255 232 236 255 232 236 255 230 235 255 230 235 255 225 230 255 222 228 255 214 221 255 216 222 255 201 210 255 193 204 217 163 172 135 102 107 157 118 125 92 69 73 48 36 38 37 28 30 37 28 30 27 20 21 32 24 25 32 24 25 32 24 25 32 24 25 32 24 25 32 24 25 32 24 25 32 24 25 32 24 25 32 24 25 32 24 25 32 24 25 32 24 25 32 24 25 32 24 25 32 24 25 32 24 25 32 24 25 32 24 25 130 98 103 48 36 38 27 20 21 27 20 21 27 20 21 27 20 21 27 20 21 27 20 21 27 20 21 27 20 21 27 20 21 27 20 21 27 20 21 27 20 21 21 16 17 21 16 17 21 16 17 21 16 17 21 16 17 21 16 17 21 16 17 65 49 51 206 155 164 217 163 172 211 159 168 211 159 168 206 155 164 206 155 164 206 155 164 206 155 164 206 155 164 211 159 168 211 159 168 206 155 164 206 155 164 206 155 164 206 155 164 206 155 164 206 155 164 206 155 164 206 155 164 206 155 164 206 155 164 206 155 164 206 155 164 206 155 164 206 155 164 206 155 164 206 155 164 200 151 159 206 155 164 206 155 164 206 155 164 200 151 159 200 151 159 206 155 164 206 155 164 206 155 164 206 155 164 206 155 164 206 155 164 200 151 159 200 151 159 200 151 159 200 151 159 
222 167 177 217 163 172 211 159 168 217 163 172 217 163 172 227 171 181 227 171 181 227 171 181 227 171 181 227 171 181 227 171 181 227 171 181 227 171 181 227 171 181 227 171 181 233 175 185 233 175 185 227 171 181 227 171 181 222 167 177 222 167 177 222 167 177 222 167 177 222 167 177 222 167 177 222 167 177 222 167 177 222 167 177 222 167 177 222 167 177 222 167 177 222 167 177 222 167 177 222 167 177 217 163 172 222 167 177 222 167 177 222 167 177 222 167 177 222 167 177 222 167 177 227 171 181 255 193 204 130 98 103 27 20 21 21 16 17 21 16 17 21 16 17 27 20 21 27 20 21 21 16 17 21 16 17 21 16 17 27 20 21 27 20 21 27 20 21 37 28 30 70 53 56 217 163 172 255 205 214 255 216 222 255 228 232 255 229 233 255 229 233 255 229 233 255 229 233 255 230 235 255 230 235 255 230 235 255 230 235 255 230 235 255 230 235 255 230 235 255 230 235 255 230 235 255 230 235 255 230 235 255 230 235 255 230 235 255 230 235 255 230 235 255 230 235 255 230 235 255 232 236 255 232 236 255 232 236 255 232 236 255 232 236 255 232 236 255 232 236 255 232 236 255 232 236 255 232 236 255 232 236 255 232 236 255 232 236 255 232 236 255 232 236 255 232 236 255 232 236 255 232 236 255 232 236 255 232 236 255 232 236 255 232 236 255 232 236 255 232 236 255 232 236 255 232 236 255 232 236 255 232 236 255 232 236 255 232 236 255 232 236 255 232 236 255 232 236 255 232 236 255 232 236 255 232 236 255 232 236 255 230 235 255 228 232 255 220 226 255 208 216 222 167 177 184 138 146 222 167 177 184 138 146 86 65 69 48 36 38 65 49 51 32 24 25 130 98 103 54 40 43 32 24 25 32 24 25 32 24 25 32 24 25 32 24 25 32 24 25 32 24 25 32 24 25 32 24 25 32 24 25 32 24 25 32 24 25 32 24 25 32 24 25 32 24 25 32 24 25 27 20 21 48 36 38 130 98 103 217 163 172 86 65 69 200 151 159 244 183 194 217 163 172 130 98 103 70 53 56 27 20 21 27 20 21 27 20 21 27 20 21 27 20 21 27 20 21 27 20 21 27 20 21 21 16 17 21 16 17 21 16 17 21 16 17 21 16 17 21 16 17 21 16 17 21 16 17 249 187 198 249 187 198 217 163 172 206 155 164 206 155 164 206 155 164 206 155 164 206 155 164 206 155 164 206 155 164 206 155 164 206 155 164 206 155 164 206 155 164 206 155 164 206 155 164 206 155 164 206 155 164 206 155 164 206 155 164 206 155 164 206 155 164 206 155 164 206 155 164 206 155 164 206 155 164 206 155 164 206 155 164 206 155 164 206 155 164 206 155 164 206 155 164 200 151 159 200 151 159 200 151 159 200 151 159 200 151 159 206 155 164 206 155 164 200 151 159 200 151 159 200 151 159 200 151 159 200 151 159 
222 167 177 217 163 172 211 159 168 217 163 172 217 163 172 227 171 181 227 171 181 227 171 181 227 171 181 227 171 181 227 171 181 227 171 181 227 171 181 227 171 181 227 171 181 233 175 185 233 175 185 227 171 181 227 171 181 222 167 177 222 167 177 222 167 177 222 167 177 222 167 177 222 167 177 222 167 177 222 167 177 222 167 177 222 167 177 222 167 177 222 167 177 222 167 177 222 167 177 222 167 177 217 163 172 222 167 177 222 167 177 222 167 177 222 167 177 222 167 177 222 167 177 227 171 181 255 193 204 130 98 103 27 20 21 21 16 17 21 16 17 21 16 17 27 20 21 27 20 21 21 16 17 21 16 17 21 16 17 27 20 21 27 20 21 27 20 21 37 28 30 70 53 56 217 163 172 255 205 214 255 216 222 255 228 232 255 229 233 255 229 233 255 229 233 255 229 233 255 230 235 255 230 235 255 230 235 255 230 235 255 230 235 255 230 235 255 230 235 255 230 235 255 230 235 255 230 235 255 230 235 255 230 235 255 230 235 255 230 235 255 230 235 255 230 235 255 230 235 255 232 236 255 232 236 255 232 236 255 232 236 255 232 236 255 232 236 255 232 236 255 232 236 255 232 236 255 232 236 255 232 236 255 232 236 255 232 236 255 232 236 255 232 236 255 232 236 255 232 236 255 232 236 255 232 236 255 232 236 255 232 236 255 232 236 255 232 236 255 232 236 255 232 236 255 232 236 255 232 236 255 232 236 255 232 236 255 232 236 255 232 236 255 232 236 255 232 236 255 232 236 255 232 236 255 232 236 255 232 236 255 230 235 255 228 232 255 220 226 255 208 216 222 167 177 184 138 146 222 167 177 184 138 146 86 65 69 48 36 38 65 49 51 32 24 25 130 98 103 54 40 43 32 24 25 32 24 25 32 24 25 32 24 25 32 24 25 32 24 25 32 24 25 32 24 25 32 24 25 32 24 25 32 24 25 32 24 25 32 24 25 32 24 25 32 24 25 32 24 25 27 20 21 48 36 38 130 98 103 217 163 172 86 65 69 200 151 159 244 183 194 217 163 172 130 98 103 70 53 56 27 20 21 27 20 21 27 20 21 27 20 21 27 20 21 27 20 21 27 20 21 27 20 21 21 16 17 21 16 17 21 16 17 21 16 17 21 16 17 21 16 17 21 16 17 21 16 17 249 187 198 249 187 198 217 163 172 206 155 164 206 155 164 206 155 164 206 155 164 206 155 164 206 155 164 206 155 164 206 155 164 206 155 164 206 155 164 206 155 164 206 155 164 206 155 164 206 155 164 206 155 164 206 155 164 206 155 164 206 155 164 206 155 164 206 155 164 206 155 164 206 155 164 206 155 164 206 155 164 206 155 164 206 155 164 206 155 164 206 155 164 206 155 164 200 151 159 200 151 159 200 151 159 200 151 159 200 151 159 206 155 164 206 155 164 200 151 159 200 151 159 200 151 159 200 151 159 200 151 159 
222 167 177 217 163 172 211 159 168 217 163 172 217 163 172 227 171 181 227 171 181 227 171 181 227 171 181 227 171 181 227 171 181 227 171 181 227 171 181 227 171 181 227 171 181 227 171 181 227 171 181 227 171 181 227 171 181 222 167 177 222 167 177 222 167 177 222 167 177 222 167 177 222 167 177 222 167 177 222 167 177 222 167 177 222 167 177 222 167 177 222 167 177 222 167 177 222 167 177 222 167 177 222 167 177 217 163 172 222 167 177 217 163 172 222 167 177 222 167 177 222 167 177 222 167 177 222 167 177 233 175 185 32 24 25 27 20 21 21 16 17 21 16 17 21 16 17 27 20 21 27 20 21 27 20 21 27 20 21 27 20 21 27 20 21 27 20 21 21 16 17 21 16 17 146 110 116 249 187 198 222 167 177 255 208 216 255 226 231 255 229 233 255 230 235 255 230 235 255 230 235 255 230 235 255 230 235 255 230 235 255 230 235 255 230 235 255 230 235 255 230 235 255 230 235 255 230 235 255 230 235 255 230 235 255 230 235 255 232 236 255 232 236 255 232 236 255 232 236 255 232 236 255 232 236 255 232 236 255 232 236 255 232 236 255 232 236 255 232 236 255 232 236 255 232 236 255 232 236 255 232 236 255 232 236 255 232 236 255 232 236 255 232 236 255 232 236 255 232 236 255 232 236 255 232 236 255 232 236 255 232 236 255 232 236 255 232 236 255 232 236 255 232 236 255 232 236 255 232 236 255 232 236 255 232 236 255 232 236 255 232 236 255 232 236 255 232 236 255 232 236 255 232 236 255 230 235 255 229 233 255 228 232 255 220 226 255 213 220 255 196 206 211 159 168 86 65 69 65 49 51 65 49 51 37 28 30 48 36 38 157 118 125 65 49 51 37 28 30 37 28 30 37 28 30 37 28 30 37 28 30 37 28 30 37 28 30 32 24 25 32 24 25 32 24 25 32 24 25 32 24 25 32 24 25 32 24 25 32 24 25 32 24 25 32 24 25 37 28 30 32 24 25 65 49 51 255 196 206 249 187 198 255 193 204 217 163 172 227 171 181 244 183 194 244 183 194 54 40 43 157 118 125 92 69 73 32 24 25 32 24 25 21 16 17 27 20 21 27 20 21 27 20 21 27 20 21 21 16 17 21 16 17 21 16 17 21 16 17 21 16 17 21 16 17 21 16 17 217 163 172 255 226 231 217 163 172 211 159 168 206 155 164 206 155 164 206 155 164 206 155 164 206 155 164 206 155 164 206 155 164 206 155 164 206 155 164 206 155 164 206 155 164 200 151 159 200 151 159 200 151 159 200 151 159 200 151 159 206 155 164 206 155 164 206 155 164 206 155 164 206 155 164 206 155 164 206 155 164 206 155 164 206 155 164 200 151 159 200 151 159 200 151 159 200 151 159 200 151 159 200 151 159 200 151 159 200 151 159 200 151 159 200 151 159 200 151 159 200 151 159 200 151 159 200 151 159 195 147 155 
222 167 177 217 163 172 211 159 168 217 163 172 217 163 172 227 171 181 227 171 181 227 171 181 227 171 181 227 171 181 227 171 181 227 171 181 227 171 181 227 171 181 227 171 181 227 171 181 227 171 181 227 171 181 227 171 181 222 167 177 222 167 177 222 167 177 222 167 177 222 167 177 222 167 177 222 167 177 222 167 177 222 167 177 222 167 177 222 167 177 222 167 177 222 167 177 222 167 177 222 167 177 222 167 177 217 163 172 222 167 177 217 163 172 222 167 177 222 167 177 222 167 177 222 167 177 222 167 177 233 175 185 32 24 25 27 20 21 21 16 17 21 16 17 21 16 17 27 20 21 27 20 21 27 20 21 27 20 21 27 20 21 27 20 21 27 20 21 21 16 17 21 16 17 146 110 116 249 187 198 222 167 177 255 208 216 255 226 231 255 229 233 255 230 235 255 230 235 255 230 235 255 230 235 255 230 235 255 230 235 255 230 235 255 230 235 255 230 235 255 230 235 255 230 235 255 230 235 255 230 235 255 230 235 255 230 235 255 232 236 255 232 236 255 232 236 255 232 236 255 232 236 255 232 236 255 232 236 255 232 236 255 232 236 255 232 236 255 232 236 255 232 236 255 232 236 255 232 236 255 232 236 255 232 236 255 232 236 255 232 236 255 232 236 255 232 236 255 232 236 255 232 236 255 232 236 255 232 236 255 232 236 255 232 236 255 232 236 255 232 236 255 232 236 255 232 236 255 232 236 255 232 236 255 232 236 255 232 236 255 232 236 255 232 236 255 232 236 255 232 236 255 232 236 255 230 235 255 229 233 255 228 232 255 220 226 255 213 220 255 196 206 211 159 168 86 65 69 65 49 51 65 49 51 37 28 30 48 36 38 157 118 125 65 49 51 37 28 30 37 28 30 37 28 30 37 28 30 37 28 30 37 28 30 37 28 30 32 24 25 32 24 25 32 24 25 32 24 25 32 24 25 32 24 25 32 24 25 32 24 25 32 24 25 32 24 25 37 28 30 32 24 25 65 49 51 255 196 206 249 187 198 255 193 204 217 163 172 227 171 181 244 183 194 244 183 194 54 40 43 157 118 125 92 69 73 32 24 25 32 24 25 21 16 17 27 20 21 27 20 21 27 20 21 27 20 21 21 16 17 21 16 17 21 16 17 21 16 17 21 16 17 21 16 17 21 16 17 217 163 172 255 226 231 217 163 172 211 159 168 206 155 164 206 155 164 206 155 164 206 155 164 206 155 164 206 155 164 206 155 164 206 155 164 206 155 164 206 155 164 206 155 164 200 151 159 200 151 159 200 151 159 200 151 159 200 151 159 206 155 164 206 155 164 206 155 164 206 155 164 206 155 164 206 155 164 206 155 164 206 155 164 206 155 164 200 151 159 200 151 159 200 151 159 200 151 159 200 151 159 200 151 159 200 151 159 200 151 159 200 151 159 200 151 159 200 151 159 200 151 159 200 151 159 200 151 159 195 147 155 
217 163 172 217 163 172 217 163 172 217 163 172 217 163 172 227 171 181 227 171 181 227 171 181 227 171 181 227 171 181 227 171 181 227 171 181 227 171 181 227 171 181 227 171 181 227 171 181 227 171 181 222 167 177 222 167 177 222 167 177 222 167 177 222 167 177 222 167 177 222 167 177 222 167 177 222 167 177 222 167 177 222 167 177 222 167 177 222 167 177 222 167 177 222 167 177 222 167 177 222 167 177 217 163 172 222 167 177 217 163 172 217 163 172 222 167 177 222 167 177 222 167 177 222 167 177 222 167 177 222 167 177 227 171 181 65 49 51 21 16 17 21 16 17 21 16 17 27 20 21 27 20 21 27 20 21 21 16 17 27 20 21 27 20 21 27 20 21 27 20 21 27 20 21 27 20 21 65 49 51 184 138 146 195 147 155 255 213 220 255 221 227 255 229 233 255 230 235 255 230 235 255 230 235 255 230 235 255 230 235 255 230 235 255 230 235 255 230 235 255 230 235 255 230 235 255 230 235 255 230 235 255 230 235 255 230 235 255 232 236 255 232 236 255 232 236 255 232 236 255 232 236 255 232 236 255 232 236 255 232 236 255 232 236 255 232 236 255 232 236 255 232 236 255 232 236 255 232 236 255 232 236 255 232 236 255 232 236 255 232 236 255 232 236 255 232 236 255 232 236 255 232 236 255 232 236 255 232 236 255 232 236 255 232 236 255 232 236 255 232 236 255 232 236 255 232 236 255 232 236 255 232 236 255 232 236 255 232 236 255 232 236 255 232 236 255 232 236 255 232 236 255 232 236 255 232 236 255 226 231 255 216 222 255 206 215 244 183 194 200 151 159 86 65 69 37 28 30 48 36 38 37 28 30 37 28 30 37 28 30 37 28 30 37 28 30 37 28 30 37 28 30 37 28 30 37 28 30 37 28 30 32 24 25 32 24 25 32 24 25 32 24 25 32 24 25 32 24 25 32 24 25 32 24 25 32 24 25 32 24 25 32 24 25 37 28 30 130 98 103 222 167 177 233 175 185 249 187 198 249 187 198 249 187 198 249 187 198 233 175 185 222 167 177 206 155 164 157 118 125 130 98 103 195 147 155 200 151 159 200 151 159 135 102 107 21 16 17 27 20 21 27 20 21 21 16 17 21 16 17 21 16 17 21 16 17 21 16 17 27 20 21 27 20 21 27 20 21 37 28 30 233 175 185 211 159 168 206 155 164 206 155 164 206 155 164 206 155 164 206 155 164 206 155 164 206 155 164 206 155 164 206 155 164 206 155 164 206 155 164 206 155 164 200 151 159 200 151 159 200 151 159 200 151 159 200 151 159 200 151 159 200 151 159 200 151 159 200 151 159 200 151 159 200 151 159 200 151 159 200 151 159 200 151 159 200 151 159 200 151 159 200 151 159 200 151 159 200 151 159 200 151 159 200 151 159 200 151 159 200 151 159 200 151 159 200 151 159 200 151 159 200 151 159 200 151 159 195 147 155 
217 163 172 217 163 172 217 163 172 217 163 172 217 163 172 227 171 181 227 171 181 227 171 181 227 171 181 227 171 181 227 171 181 227 171 181 227 171 181 227 171 181 227 171 181 227 171 181 227 171 181 222 167 177 222 167 177 222 167 177 222 167 177 222 167 177 222 167 177 222 167 177 222 167 177 222 167 177 222 167 177 222 167 177 222 167 177 222 167 177 222 167 177 222 167 177 222 167 177 222 167 177 217 163 172 222 167 177 217 163 172 217 163 172 222 167 177 222 167 177 222 167 177 222 167 177 222 167 177 222 167 177 227 171 181 65 49 51 21 16 17 21 16 17 21 16 17 27 20 21 27 20 21 27 20 21 21 16 17 27 20 21 27 20 21 27 20 21 27 20 21 27 20 21 27 20 21 65 49 51 184 138 146 195 147 155 255 213 220 255 221 227 255 229 233 255 230 235 255 230 235 255 230 235 255 230 235 255 230 235 255 230 235 255 230 235 255 230 235 255 230 235 255 230 235 255 230 235 255 230 235 255 230 235 255 230 235 255 232 236 255 232 236 255 232 236 255 232 236 255 232 236 255 232 236 255 232 236 255 232 236 255 232 236 255 232 236 255 232 236 255 232 236 255 232 236 255 232 236 255 232 236 255 232 236 255 232 236 255 232 236 255 232 236 255 232 236 255 232 236 255 232 236 255 232 236 255 232 236 255 232 236 255 232 236 255 232 236 255 232 236 255 232 236 255 232 236 255 232 236 255 232 236 255 232 236 255 232 236 255 232 236 255 232 236 255 232 236 255 232 236 255 232 236 255 232 236 255 226 231 255 216 222 255 206 215 244 183 194 200 151 159 86 65 69 37 28 30 48 36 38 37 28 30 37 28 30 37 28 30 37 28 30 37 28 30 37 28 30 37 28 30 37 28 30 37 28 30 37 28 30 32 24 25 32 24 25 32 24 25 32 24 25 32 24 25 32 24 25 32 24 25 32 24 25 32 24 25 32 24 25 32 24 25 37 28 30 130 98 103 222 167 177 233 175 185 249 187 198 249 187 198 249 187 198 249 187 198 233 175 185 222 167 177 206 155 164 157 118 125 130 98 103 195 147 155 200 151 159 200 151 159 135 102 107 21 16 17 27 20 21 27 20 21 21 16 17 21 16 17 21 16 17 21 16 17 21 16 17 27 20 21 27 20 21 27 20 21 37 28 30 233 175 185 211 159 168 206 155 164 206 155 164 206 155 164 206 155 164 206 155 164 206 155 164 206 155 164 206 155 164 206 155 164 206 155 164 206 155 164 206 155 164 200 151 159 200 151 159 200 151 159 200 151 159 200 151 159 200 151 159 200 151 159 200 151 159 200 151 159 200 151 159 200 151 159 200 151 159 200 151 159 200 151 159 200 151 159 200 151 159 200 151 159 200 151 159 200 151 159 200 151 159 200 151 159 200 151 159 200 151 159 200 151 159 200 151 159 200 151 159 200 151 159 200 151 159 195 147 155 
217 163 172 217 163 172 217 163 172 217 163 172 222 167 177 227 171 181 227 171 181 227 171 181 227 171 181 227 171 181 227 171 181 227 171 181 227 171 181 227 171 181 227 171 181 222 167 177 222 167 177 222 167 177 222 167 177 222 167 177 222 167 177 222 167 177 222 167 177 222 167 177 222 167 177 222 167 177 222 167 177 217 163 172 211 159 168 217 163 172 222 167 177 222 167 177 217 163 172 217 163 172 217 163 172 217 163 172 217 163 172 217 163 172 217 163 172 217 163 172 217 163 172 222 167 177 222 167 177 222 167 177 227 171 181 227 171 181 70 53 56 179 134 142 54 40 43 37 28 30 27 20 21 27 20 21 54 40 43 54 40 43 32 24 25 27 20 21 27 20 21 27 20 21 27 20 21 27 20 21 65 49 51 37 28 30 135 102 107 255 206 215 255 226 231 255 230 235 255 230 235 255 230 235 255 230 235 255 230 235 255 230 235 255 230 235 255 230 235 255 230 235 255 232 236 255 232 236 255 230 235 255 230 235 255 230 235 255 232 236 255 232 236 255 232 236 255 232 236 255 232 236 255 232 236 255 232 236 255 232 236 255 232 236 255 232 236 255 232 236 255 232 236 255 232 236 255 232 236 255 232 236 255 232 236 255 232 236 255 232 236 255 232 236 255 232 236 255 232 236 255 232 236 255 232 236 255 232 236 255 232 236 255 232 236 255 232 236 255 232 236 255 232 236 255 232 236 255 232 236 255 232 236 255 232 236 255 232 236 255 232 236 255 232 236 255 232 236 255 229 233 255 226 231 255 213 220 255 220 226 255 196 206 211 159 168 135 102 107 157 118 125 65 49 51 48 36 38 54 40 43 48 36 38 37 28 30 37 28 30 37 28 30 37 28 30 37 28 30 37 28 30 37 28 30 37 28 30 37 28 30 37 28 30 37 28 30 37 28 30 37 28 30 37 28 30 32 24 25 32 24 25 32 24 25 32 24 25 32 24 25 32 24 25 130 98 103 227 171 181 255 193 204 249 187 198 255 193 204 244 183 194 233 175 185 227 171 181 249 187 198 249 187 198 249 187 198 249 187 198 244 183 194 244 183 194 249 187 198 244 183 194 244 183 194 217 163 172 27 20 21 32 24 25 21 16 17 32 24 25 27 20 21 27 20 21 27 20 21 27 20 21 86 65 69 227 171 181 227 171 181 206 155 164 206 155 164 206 155 164 206 155 164 206 155 164 206 155 164 206 155 164 206 155 164 206 155 164 206 155 164 206 155 164 206 155 164 206 155 164 206 155 164 200 151 159 200 151 159 200 151 159 200 151 159 200 151 159 200 151 159 200 151 159 200 151 159 200 151 159 200 151 159 200 151 159 200 151 159 200 151 159 200 151 159 200 151 159 200 151 159 200 151 159 200 151 159 200 151 159 200 151 159 200 151 159 200 151 159 200 151 159 200 151 159 200 151 159 200 151 159 200 151 159 206 155 164 206 155 164 
217 163 172 217 163 172 217 163 172 217 163 172 222 167 177 227 171 181 227 171 181 227 171 181 227 171 181 227 171 181 227 171 181 227 171 181 227 171 181 227 171 181 227 171 181 222 167 177 222 167 177 222 167 177 222 167 177 222 167 177 222 167 177 222 167 177 222 167 177 222 167 177 222 167 177 222 167 177 222 167 177 217 163 172 211 159 168 217 163 172 222 167 177 222 167 177 217 163 172 217 163 172 217 163 172 217 163 172 217 163 172 217 163 172 217 163 172 217 163 172 217 163 172 222 167 177 222 167 177 222 167 177 227 171 181 227 171 181 70 53 56 179 134 142 54 40 43 37 28 30 27 20 21 27 20 21 54 40 43 54 40 43 32 24 25 27 20 21 27 20 21 27 20 21 27 20 21 27 20 21 65 49 51 37 28 30 135 102 107 255 206 215 255 226 231 255 230 235 255 230 235 255 230 235 255 230 235 255 230 235 255 230 235 255 230 235 255 230 235 255 230 235 255 232 236 255 232 236 255 230 235 255 230 235 255 230 235 255 232 236 255 232 236 255 232 236 255 232 236 255 232 236 255 232 236 255 232 236 255 232 236 255 232 236 255 232 236 255 232 236 255 232 236 255 232 236 255 232 236 255 232 236 255 232 236 255 232 236 255 232 236 255 232 236 255 232 236 255 232 236 255 232 236 255 232 236 255 232 236 255 232 236 255 232 236 255 232 236 255 232 236 255 232 236 255 232 236 255 232 236 255 232 236 255 232 236 255 232 236 255 232 236 255 232 236 255 232 236 255 229 233 255 226 231 255 213 220 255 220 226 255 196 206 211 159 168 135 102 107 157 118 125 65 49 51 48 36 38 54 40 43 48 36 38 37 28 30 37 28 30 37 28 30 37 28 30 37 28 30 37 28 30 37 28 30 37 28 30 37 28 30 37 28 30 37 28 30 37 28 30 37 28 30 37 28 30 32 24 25 32 24 25 32 24 25 32 24 25 32 24 25 32 24 25 130 98 103 227 171 181 255 193 204 249 187 198 255 193 204 244 183 194 233 175 185 227 171 181 249 187 198 249 187 198 249 187 198 249 187 198 244 183 194 244 183 194 249 187 198 244 183 194 244 183 194 217 163 172 27 20 21 32 24 25 21 16 17 32 24 25 27 20 21 27 20 21 27 20 21 27 20 21 86 65 69 227 171 181 227 171 181 206 155 164 206 155 164 206 155 164 206 155 164 206 155 164 206 155 164 206 155 164 206 155 164 206 155 164 206 155 164 206 155 164 206 155 164 206 155 164 206 155 164 200 151 159 200 151 159 200 151 159 200 151 159 200 151 159 200 151 159 200 151 159 200 151 159 200 151 159 200 151 159 200 151 159 200 151 159 200 151 159 200 151 159 200 151 159 200 151 159 200 151 159 200 151 159 200 151 159 200 151 159 200 151 159 200 151 159 200 151 159 200 151 159 200 151 159 200 151 159 200 151 159 206 155 164 206 155 164 
222 167 177 217 163 172 211 159 168 217 163 172 222 167 177 233 175 185 227 171 181 227 171 181 227 171 181 227 171 181 227 171 181 227 171 181 227 171 181 227 171 181 227 171 181 222 167 177 222 167 177 222 167 177 222 167 177 222 167 177 222 167 177 222 167 177 222 167 177 222 167 177 222 167 177 222 167 177 222 167 177 217 163 172 217 163 172 217 163 172 217 163 172 217 163 172 217 163 172 217 163 172 217 163 172 217 163 172 217 163 172 217 163 172 222 167 177 222 167 177 222 167 177 222 167 177 222 167 177 222 167 177 222 167 177 227 171 181 233 175 185 206 155 164 65 49 51 92 69 73 86 65 69 255 221 227 255 214 221 92 69 73 146 110 116 32 24 25 27 20 21 27 20 21 27 20 21 32 24 25 37 28 30 21 16 17 92 69 73 255 196 206 255 221 227 255 229 233 255 230 235 255 230 235 255 230 235 255 230 235 255 232 236 255 232 236 255 232 236 255 230 235 255 230 235 255 230 235 255 230 235 255 230 235 255 232 236 255 232 236 255 232 236 255 232 236 255 232 236 255 232 236 255 232 236 255 232 236 255 232 236 255 232 236 255 232 236 255 232 236 255 232 236 255 232 236 255 232 236 255 232 236 255 232 236 255 232 236 255 232 236 255 232 236 255 232 236 255 232 236 255 232 236 255 232 236 255 232 236 255 232 236 255 232 236 255 232 236 255 232 236 255 232 236 255 232 236 255 232 236 255 233 237 255 229 233 255 230 235 255 226 231 255 225 230 255 225 230 255 217 224 249 187 198 206 155 164 195 147 155 81 61 64 65 49 51 48 36 38 48 36 38 54 40 43 48 36 38 48 36 38 48 36 38 48 36 38 48 36 38 37 28 30 37 28 30 48 36 38 48 36 38 48 36 38 37 28 30 37 28 30 48 36 38 48 36 38 48 36 38 48 36 38 37 28 30 37 28 30 37 28 30 37 28 30 37 28 30 32 24 25 32 24 25 211 159 168 217 163 172 249 187 198 249 187 198 255 193 204 255 193 204 255 193 204 249 187 198 249 187 198 249 187 198 249 187 198 249 187 198 249 187 198 249 187 198 249 187 198 249 187 198 249 187 198 244 183 194 217 163 172 65 49 51 27 20 21 135 102 107 146 110 116 146 110 116 255 196 206 255 233 237 255 213 220 157 118 125 206 155 164 211 159 168 206 155 164 206 155 164 206 155 164 206 155 164 206 155 164 206 155 164 206 155 164 206 155 164 206 155 164 206 155 164 206 155 164 206 155 164 206 155 164 200 151 159 200 151 159 200 151 159 200 151 159 200 151 159 200 151 159 200 151 159 200 151 159 200 151 159 200 151 159 200 151 159 200 151 159 200 151 159 200 151 159 200 151 159 200 151 159 200 151 159 200 151 159 200 151 159 200 151 159 200 151 159 200 151 159 200 151 159 200 151 159 200 151 159 200 151 159 200 151 159 206 155 164 217 163 172 
222 167 177 217 163 172 211 159 168 217 163 172 222 167 177 233 175 185 227 171 181 227 171 181 227 171 181 227 171 181 227 171 181 227 171 181 227 171 181 227 171 181 227 171 181 222 167 177 222 167 177 222 167 177 222 167 177 222 167 177 222 167 177 222 167 177 222 167 177 222 167 177 222 167 177 222 167 177 222 167 177 217 163 172 217 163 172 217 163 172 217 163 172 217 163 172 217 163 172 217 163 172 217 163 172 217 163 172 217 163 172 217 163 172 222 167 177 222 167 177 222 167 177 222 167 177 222 167 177 222 167 177 222 167 177 227 171 181 233 175 185 206 155 164 65 49 51 92 69 73 86 65 69 255 221 227 255 214 221 92 69 73 146 110 116 32 24 25 27 20 21 27 20 21 27 20 21 32 24 25 37 28 30 21 16 17 92 69 73 255 196 206 255 221 227 255 229 233 255 230 235 255 230 235 255 230 235 255 230 235 255 232 236 255 232 236 255 232 236 255 230 235 255 230 235 255 230 235 255 230 235 255 230 235 255 232 236 255 232 236 255 232 236 255 232 236 255 232 236 255 232 236 255 232 236 255 232 236 255 232 236 255 232 236 255 232 236 255 232 236 255 232 236 255 232 236 255 232 236 255 232 236 255 232 236 255 232 236 255 232 236 255 232 236 255 232 236 255 232 236 255 232 236 255 232 236 255 232 236 255 232 236 255 232 236 255 232 236 255 232 236 255 232 236 255 232 236 255 232 236 255 233 237 255 229 233 255 230 235 255 226 231 255 225 230 255 225 230 255 217 224 249 187 198 206 155 164 195 147 155 81 61 64 65 49 51 48 36 38 48 36 38 54 40 43 48 36 38 48 36 38 48 36 38 48 36 38 48 36 38 37 28 30 37 28 30 48 36 38 48 36 38 48 36 38 37 28 30 37 28 30 48 36 38 48 36 38 48 36 38 48 36 38 37 28 30 37 28 30 37 28 30 37 28 30 37 28 30 32 24 25 32 24 25 211 159 168 217 163 172 249 187 198 249 187 198 255 193 204 255 193 204 255 193 204 249 187 198 249 187 198 249 187 198 249 187 198 249 187 198 249 187 198 249 187 198 249 187 198 249 187 198 249 187 198 244 183 194 217 163 172 65 49 51 27 20 21 135 102 107 146 110 116 146 110 116 255 196 206 255 233 237 255 213 220 157 118 125 206 155 164 211 159 168 206 155 164 206 155 164 206 155 164 206 155 164 206 155 164 206 155 164 206 155 164 206 155 164 206 155 164 206 155 164 206 155 164 206 155 164 206 155 164 200 151 159 200 151 159 200 151 159 200 151 159 200 151 159 200 151 159 200 151 159 200 151 159 200 151 159 200 151 159 200 151 159 200 151 159 200 151 159 200 151 159 200 151 159 200 151 159 200 151 159 200 151 159 200 151 159 200 151 159 200 151 159 200 151 159 200 151 159 200 151 159 200 151 159 200 151 159 200 151 159 206 155 164 217 163 172 
233 175 185 217 163 172 217 163 172 217 163 172 222 167 177 227 171 181 227 171 181 233 175 185 233 175 185 233 175 185 233 175 185 233 175 185 233 175 185 233 175 185 227 171 181 227 171 181 222 167 177 227 171 181 222 167 177 222 167 177 222 167 177 222 167 177 222 167 177 222 167 177 217 163 172 217 163 172 217 163 172 217 163 172 217 163 172 217 163 172 222 167 177 222 167 177 222 167 177 217 163 172 222 167 177 222 167 177 222 167 177 222 167 177 222 167 177 222 167 177 222 167 177 222 167 177 222 167 177 222 167 177 227 171 181 227 171 181 249 187 198 200 151 159 32 24 25 37 28 30 54 40 43 54 40 43 37 28 30 32 24 25 32 24 25 37 28 30 32 24 25 32 24 25 48 36 38 32 24 25 32 24 25 27 20 21 32 24 25 48 36 38 184 138 146 255 213 220 255 229 233 255 232 236 255 232 236 255 232 236 255 232 236 255 232 236 255 232 236 255 232 236 255 232 236 255 232 236 255 232 236 255 232 236 255 232 236 255 232 236 255 232 236 255 232 236 255 232 236 255 233 237 255 233 237 255 233 237 255 233 237 255 233 237 255 233 237 255 233 237 255 232 236 255 232 236 255 232 236 255 232 236 255 232 236 255 232 236 255 232 236 255 232 236 255 232 236 255 232 236 255 232 236 255 233 237 255 233 237 255 233 237 255 233 237 255 233 237 255 233 237 255 233 237 255 232 236 255 226 231 255 224 229 255 209 217 255 221 227 255 196 206 233 175 185 255 208 216 146 110 116 70 53 56 81 61 64 130 98 103 54 40 43 54 40 43 54 40 43 54 40 43 54 40 43 48 36 38 48 36 38 48 36 38 48 36 38 48 36 38 54 40 43 54 40 43 48 36 38 48 36 38 54 40 43 48 36 38 54 40 43 48 36 38 48 36 38 48 36 38 48 36 38 48 36 38 48 36 38 48 36 38 48 36 38 37 28 30 37 28 30 37 28 30 54 40 43 217 163 172 255 196 206 255 193 204 255 193 204 255 193 204 255 193 204 255 193 204 255 193 204 255 193 204 255 193 204 255 193 204 255 193 204 249 187 198 249 187 198 249 187 198 249 187 198 249 187 198 249 187 198 222 167 177 54 40 43 32 24 25 195 147 155 206 155 164 255 210 218 255 224 229 255 228 232 255 193 204 227 171 181 206 155 164 206 155 164 206 155 164 206 155 164 206 155 164 206 155 164 206 155 164 206 155 164 206 155 164 206 155 164 206 155 164 206 155 164 206 155 164 206 155 164 200 151 159 200 151 159 200 151 159 200 151 159 200 151 159 200 151 159 200 151 159 200 151 159 200 151 159 200 151 159 200 151 159 200 151 159 200 151 159 200 151 159 200 151 159 200 151 159 200 151 159 200 151 159 200 151 159 200 151 159 200 151 159 200 151 159 200 151 159 200 151 159 200 151 159 200 151 159 200 151 159 206 155 164 217 163 172 
233 175 185 217 163 172 217 163 172 217 163 172 222 167 177 227 171 181 227 171 181 233 175 185 233 175 185 233 175 185 233 175 185 233 175 185 233 175 185 233 175 185 227 171 181 227 171 181 222 167 177 227 171 181 222 167 177 222 167 177 222 167 177 222 167 177 222 167 177 222 167 177 217 163 172 217 163 172 217 163 172 217 163 172 217 163 172 217 163 172 222 167 177 222 167 177 222 167 177 217 163 172 222 167 177 222 167 177 222 167 177 222 167 177 222 167 177 222 167 177 222 167 177 222 167 177 222 167 177 222 167 177 227 171 181 227 171 181 249 187 198 200 151 159 32 24 25 37 28 30 54 40 43 54 40 43 37 28 30 32 24 25 32 24 25 37 28 30 32 24 25 32 24 25 48 36 38 32 24 25 32 24 25 27 20 21 32 24 25 48 36 38 184 138 146 255 213 220 255 229 233 255 232 236 255 232 236 255 232 236 255 232 236 255 232 236 255 232 236 255 232 236 255 232 236 255 232 236 255 232 236 255 232 236 255 232 236 255 232 236 255 232 236 255 232 236 255 232 236 255 233 237 255 233 237 255 233 237 255 233 237 255 233 237 255 233 237 255 233 237 255 232 236 255 232 236 255 232 236 255 232 236 255 232 236 255 232 236 255 232 236 255 232 236 255 232 236 255 232 236 255 232 236 255 233 237 255 233 237 255 233 237 255 233 237 255 233 237 255 233 237 255 233 237 255 232 236 255 226 231 255 224 229 255 209 217 255 221 227 255 196 206 233 175 185 255 208 216 146 110 116 70 53 56 81 61 64 130 98 103 54 40 43 54 40 43 54 40 43 54 40 43 54 40 43 48 36 38 48 36 38 48 36 38 48 36 38 48 36 38 54 40 43 54 40 43 48 36 38 48 36 38 54 40 43 48 36 38 54 40 43 48 36 38 48 36 38 48 36 38 48 36 38 48 36 38 48 36 38 48 36 38 48 36 38 37 28 30 37 28 30 37 28 30 54 40 43 217 163 172 255 196 206 255 193 204 255 193 204 255 193 204 255 193 204 255 193 204 255 193 204 255 193 204 255 193 204 255 193 204 255 193 204 249 187 198 249 187 198 249 187 198 249 187 198 249 187 198 249 187 198 222 167 177 54 40 43 32 24 25 195 147 155 206 155 164 255 210 218 255 224 229 255 228 232 255 193 204 227 171 181 206 155 164 206 155 164 206 155 164 206 155 164 206 155 164 206 155 164 206 155 164 206 155 164 206 155 164 206 155 164 206 155 164 206 155 164 206 155 164 206 155 164 200 151 159 200 151 159 200 151 159 200 151 159 200 151 159 200 151 159 200 151 159 200 151 159 200 151 159 200 151 159 200 151 159 200 151 159 200 151 159 200 151 159 200 151 159 200 151 159 200 151 159 200 151 159 200 151 159 200 151 159 200 151 159 200 151 159 200 151 159 200 151 159 200 151 159 200 151 159 200 151 159 206 155 164 217 163 172 
244 183 194 227 171 181 217 163 172 217 163 172 222 167 177 233 175 185 233 175 185 233 175 185 227 171 181 233 175 185 233 175 185 233 175 185 227 171 181 227 171 181 227 171 181 227 171 181 227 171 181 227 171 181 222 167 177 222 167 177 222 167 177 222 167 177 222 167 177 222 167 177 217 163 172 217 163 172 217 163 172 217 163 172 217 163 172 217 163 172 222 167 177 222 167 177 222 167 177 222 167 177 222 167 177 222 167 177 222 167 177 222 167 177 222 167 177 222 167 177 222 167 177 222 167 177 222 167 177 227 171 181 227 171 181 233 175 185 227 171 181 92 69 73 37 28 30 37 28 30 37 28 30 48 36 38 54 40 43 54 40 43 54 40 43 65 49 51 65 49 51 65 49 51 37 28 30 81 61 64 146 110 116 32 24 25 32 24 25 32 24 25 32 24 25 211 159 168 255 210 218 255 230 235 255 232 236 255 232 236 255 232 236 255 232 236 255 232 236 255 232 236 255 232 236 255 232 236 255 232 236 255 232 236 255 232 236 255 232 236 255 232 236 255 232 236 255 232 236 255 233 237 255 233 237 255 233 237 255 233 237 255 233 237 255 233 237 255 233 237 255 233 237 255 233 237 255 233 237 255 233 237 255 233 237 255 233 237 255 233 237 255 233 237 255 233 237 255 232 236 255 232 236 255 233 237 255 233 237 255 233 237 255 233 237 255 233 237 255 232 236 255 229 233 255 221 227 255 201 210 146 110 116 211 159 168 195 147 155 146 110 116 81 61 64 65 49 51 65 49 51 54 40 43 65 49 51 65 49 51 54 40 43 54 40 43 65 49 51 65 49 51 65 49 51 65 49 51 65 49 51 65 49 51 65 49 51 65 49 51 54 40 43 54 40 43 54 40 43 54 40 43 54 40 43 48 36 38 54 40 43 54 40 43 48 36 38 54 40 43 54 40 43 54 40 43 48 36 38 48 36 38 48 36 38 48 36 38 48 36 38 48 36 38 65 49 51 249 187 198 255 193 204 255 196 206 255 193 204 255 193 204 255 196 206 255 196 206 255 196 206 255 193 204 255 193 204 255 193 204 255 193 204 255 193 204 255 193 204 255 193 204 255 193 204 249 187 198 244 183 194 249 187 198 217 163 172 217 163 172 70 53 56 233 175 185 206 155 164 211 159 168 244 183 194 255 226 231 255 220 226 233 175 185 211 159 168 206 155 164 206 155 164 206 155 164 206 155 164 206 155 164 206 155 164 206 155 164 206 155 164 206 155 164 206 155 164 206 155 164 206 155 164 200 151 159 200 151 159 200 151 159 200 151 159 200 151 159 200 151 159 200 151 159 200 151 159 200 151 159 200 151 159 200 151 159 200 151 159 200 151 159 200 151 159 200 151 159 200 151 159 200 151 159 200 151 159 200 151 159 200 151 159 200 151 159 200 151 159 200 151 159 200 151 159 200 151 159 200 151 159 200 151 159 206 155 164 211 159 168 
244 183 194 227 171 181 217 163 172 217 163 172 222 167 177 233 175 185 233 175 185 233 175 185 227 171 181 233 175 185 233 175 185 233 175 185 227 171 181 227 171 181 227 171 181 227 171 181 227 171 181 227 171 181 222 167 177 222 167 177 222 167 177 222 167 177 222 167 177 222 167 177 217 163 172 217 163 172 217 163 172 217 163 172 217 163 172 217 163 172 222 167 177 222 167 177 222 167 177 222 167 177 222 167 177 222 167 177 222 167 177 222 167 177 222 167 177 222 167 177 222 167 177 222 167 177 222 167 177 227 171 181 227 171 181 233 175 185 227 171 181 92 69 73 37 28 30 37 28 30 37 28 30 48 36 38 54 40 43 54 40 43 54 40 43 65 49 51 65 49 51 65 49 51 37 28 30 81 61 64 146 110 116 32 24 25 32 24 25 32 24 25 32 24 25 211 159 168 255 210 218 255 230 235 255 232 236 255 232 236 255 232 236 255 232 236 255 232 236 255 232 236 255 232 236 255 232 236 255 232 236 255 232 236 255 232 236 255 232 236 255 232 236 255 232 236 255 232 236 255 233 237 255 233 237 255 233 237 255 233 237 255 233 237 255 233 237 255 233 237 255 233 237 255 233 237 255 233 237 255 233 237 255 233 237 255 233 237 255 233 237 255 233 237 255 233 237 255 232 236 255 232 236 255 233 237 255 233 237 255 233 237 255 233 237 255 233 237 255 232 236 255 229 233 255 221 227 255 201 210 146 110 116 211 159 168 195 147 155 146 110 116 81 61 64 65 49 51 65 49 51 54 40 43 65 49 51 65 49 51 54 40 43 54 40 43 65 49 51 65 49 51 65 49 51 65 49 51 65 49 51 65 49 51 65 49 51 65 49 51 54 40 43 54 40 43 54 40 43 54 40 43 54 40 43 48 36 38 54 40 43 54 40 43 48 36 38 54 40 43 54 40 43 54 40 43 48 36 38 48 36 38 48 36 38 48 36 38 48 36 38 48 36 38 65 49 51 249 187 198 255 193 204 255 196 206 255 193 204 255 193 204 255 196 206 255 196 206 255 196 206 255 193 204 255 193 204 255 193 204 255 193 204 255 193 204 255 193 204 255 193 204 255 193 204 249 187 198 244 183 194 249 187 198 217 163 172 217 163 172 70 53 56 233 175 185 206 155 164 211 159 168 244 183 194 255 226 231 255 220 226 233 175 185 211 159 168 206 155 164 206 155 164 206 155 164 206 155 164 206 155 164 206 155 164 206 155 164 206 155 164 206 155 164 206 155 164 206 155 164 206 155 164 200 151 159 200 151 159 200 151 159 200 151 159 200 151 159 200 151 159 200 151 159 200 151 159 200 151 159 200 151 159 200 151 159 200 151 159 200 151 159 200 151 159 200 151 159 200 151 159 200 151 159 200 151 159 200 151 159 200 151 159 200 151 159 200 151 159 200 151 159 200 151 159 200 151 159 200 151 159 200 151 159 206 155 164 211 159 168 
255 193 204 233 175 185 227 171 181 227 171 181 233 175 185 233 175 185 233 175 185 233 175 185 233 175 185 233 175 185 233 175 185 233 175 185 233 175 185 233 175 185 233 175 185 233 175 185 233 175 185 227 171 181 227 171 181 227 171 181 227 171 181 222 167 177 227 171 181 222 167 177 222 167 177 222 167 177 222 167 177 222 167 177 222 167 177 222 167 177 222 167 177 222 167 177 227 171 181 227 171 181 227 171 181 227 171 181 227 171 181 233 175 185 233 175 185 233 175 185 233 175 185 227 171 181 233 175 185 233 175 185 233 175 185 233 175 185 233 175 185 244 183 194 255 193 204 255 198 208 255 193 204 255 193 204 206 155 164 195 147 155 206 155 164 255 198 208 255 198 208 255 198 208 244 183 194 65 49 51 37 28 30 48 36 38 48 36 38 37 28 30 32 24 25 54 40 43 81 61 64 255 213 220 255 230 235 255 232 236 255 233 237 255 233 237 255 233 237 255 233 237 255 233 237 255 233 237 255 233 237 255 233 237 255 233 237 255 233 237 255 233 237 255 233 237 255 233 237 255 233 237 255 233 237 255 233 237 255 233 237 255 233 237 255 233 237 255 233 237 255 233 237 255 234 238 255 234 238 255 234 238 255 234 238 255 234 238 255 234 238 255 234 238 255 234 238 255 233 237 255 233 237 255 234 238 255 234 238 255 234 238 255 233 237 255 228 232 255 226 231 255 200 209 206 155 164 195 147 155 179 134 142 70 53 56 81 61 64 70 53 56 70 53 56 65 49 51 70 53 56 70 53 56 70 53 56 70 53 56 70 53 56 70 53 56 70 53 56 70 53 56 70 53 56 65 49 51 65 49 51 65 49 51 65 49 51 65 49 51 70 53 56 70 53 56 70 53 56 70 53 56 70 53 56 70 53 56 70 53 56 65 49 51 65 49 51 65 49 51 65 49 51 54 40 43 65 49 51 54 40 43 54 40 43 54 40 43 48 36 38 54 40 43 146 110 116 255 200 209 255 193 204 255 196 206 255 196 206 255 196 206 255 198 208 255 196 206 255 196 206 255 196 206 255 196 206 255 193 204 255 193 204 255 196 206 255 193 204 255 193 204 255 193 204 255 193 204 249 187 198 249 187 198 227 171 181 222 167 177 249 187 198 184 138 146 217 163 172 227 171 181 244 183 194 211 159 168 255 198 208 255 230 235 255 202 211 217 163 172 206 155 164 211 159 168 211 159 168 206 155 164 206 155 164 206 155 164 211 159 168 211 159 168 206 155 164 206 155 164 206 155 164 206 155 164 206 155 164 206 155 164 206 155 164 206 155 164 206 155 164 206 155 164 206 155 164 206 155 164 200 151 159 200 151 159 200 151 159 200 151 159 200 151 159 200 151 159 200 151 159 200 151 159 200 151 159 200 151 159 200 151 159 200 151 159 200 151 159 200 151 159 200 151 159 200 151 159 200 151 159 200 151 159 211 159 168 211 159 168 
255 193 204 233 175 185 227 171 181 227 171 181 233 175 185 233 175 185 233 175 185 233 175 185 233 175 185 233 175 185 233 175 185 233 175 185 233 175 185 233 175 185 233 175 185 233 175 185 233 175 185 227 171 181 227 171 181 227 171 181 227 171 181 222 167 177 227 171 181 222 167 177 222 167 177 222 167 177 222 167 177 222 167 177 222 167 177 222 167 177 222 167 177 222 167 177 227 171 181 227 171 181 227 171 181 227 171 181 227 171 181 233 175 185 233 175 185 233 175 185 233 175 185 227 171 181 233 175 185 233 175 185 233 175 185 233 175 185 233 175 185 244 183 194 255 193 204 255 198 208 255 193 204 255 193 204 206 155 164 195 147 155 206 155 164 255 198 208 255 198 208 255 198 208 244 183 194 65 49 51 37 28 30 48 36 38 48 36 38 37 28 30 32 24 25 54 40 43 81 61 64 255 213 220 255 230 235 255 232 236 255 233 237 255 233 237 255 233 237 255 233 237 255 233 237 255 233 237 255 233 237 255 233 237 255 233 237 255 233 237 255 233 237 255 233 237 255 233 237 255 233 237 255 233 237 255 233 237 255 233 237 255 233 237 255 233 237 255 233 237 255 233 237 255 234 238 255 234 238 255 234 238 255 234 238 255 234 238 255 234 238 255 234 238 255 234 238 255 233 237 255 233 237 255 234 238 255 234 238 255 234 238 255 233 237 255 228 232 255 226 231 255 200 209 206 155 164 195 147 155 179 134 142 70 53 56 81 61 64 70 53 56 70 53 56 65 49 51 70 53 56 70 53 56 70 53 56 70 53 56 70 53 56 70 53 56 70 53 56 70 53 56 70 53 56 65 49 51 65 49 51 65 49 51 65 49 51 65 49 51 70 53 56 70 53 56 70 53 56 70 53 56 70 53 56 70 53 56 70 53 56 65 49 51 65 49 51 65 49 51 65 49 51 54 40 43 65 49 51 54 40 43 54 40 43 54 40 43 48 36 38 54 40 43 146 110 116 255 200 209 255 193 204 255 196 206 255 196 206 255 196 206 255 198 208 255 196 206 255 196 206 255 196 206 255 196 206 255 193 204 255 193 204 255 196 206 255 193 204 255 193 204 255 193 204 255 193 204 249 187 198 249 187 198 227 171 181 222 167 177 249 187 198 184 138 146 217 163 172 227 171 181 244 183 194 211 159 168 255 198 208 255 230 235 255 202 211 217 163 172 206 155 164 211 159 168 211 159 168 206 155 164 206 155 164 206 155 164 211 159 168 211 159 168 206 155 164 206 155 164 206 155 164 206 155 164 206 155 164 206 155 164 206 155 164 206 155 164 206 155 164 206 155 164 206 155 164 206 155 164 200 151 159 200 151 159 200 151 159 200 151 159 200 151 159 200 151 159 200 151 159 200 151 159 200 151 159 200 151 159 200 151 159 200 151 159 200 151 159 200 151 159 200 151 159 200 151 159 200 151 159 200 151 159 211 159 168 211 159 168 
255 198 208 249 187 198 244 183 194 244 183 194 249 187 198 244 183 194 244 183 194 244 183 194 244 183 194 244 183 194 244 183 194 244 183 194 244 183 194 244 183 194 233 175 185 233 175 185 233 175 185 233 175 185 233 175 185 233 175 185 233 175 185 233 175 185 233 175 185 233 175 185 227 171 181 227 171 181 227 171 181 227 171 181 227 171 181 227 171 181 233 175 185 233 175 185 233 175 185 233 175 185 244 183 194 244 183 194 244 183 194 244 183 194 244 183 194 233 175 185 233 175 185 233 175 185 244 183 194 244 183 194 249 187 198 249 187 198 249 187 198 249 187 198 249 187 198 249 187 198 249 187 198 249 187 198 249 187 198 249 187 198 249 187 198 255 193 204 255 193 204 249 187 198 217 163 172 146 110 116 255 200 209 48 36 38 48 36 38 48 36 38 48 36 38 54 40 43 54 40 43 130 98 103 184 138 146 255 193 204 255 225 230 255 233 237 255 234 238 255 233 237 255 234 238 255 234 238 255 233 237 255 233 237 255 234 238 255 234 238 255 234 238 255 234 238 255 234 238 255 234 238 255 234 238 255 234 238 255 234 238 255 234 238 255 234 238 255 236 239 255 236 239 255 234 238 255 234 238 255 234 238 255 234 238 255 234 238 255 234 238 255 234 238 255 234 238 255 234 238 255 233 237 255 233 237 255 233 237 255 232 236 255 202 211 255 202 211 195 147 155 217 163 172 130 98 103 92 69 73 86 65 69 70 53 56 81 61 64 81 61 64 81 61 64 81 61 64 86 65 69 86 65 69 86 65 69 86 65 69 86 65 69 86 65 69 86 65 69 86 65 69 86 65 69 86 65 69 86 65 69 86 65 69 86 65 69 81 61 64 81 61 64 81 61 64 81 61 64 81 61 64 81 61 64 81 61 64 81 61 64 81 61 64 81 61 64 81 61 64 81 61 64 81 61 64 70 53 56 70 53 56 70 53 56 65 49 51 65 49 51 54 40 43 195 147 155 255 200 209 255 198 208 255 198 208 255 198 208 255 198 208 255 198 208 255 198 208 255 198 208 255 196 206 255 196 206 255 196 206 255 196 206 255 196 206 255 196 206 255 196 206 255 196 206 255 193 204 255 193 204 255 193 204 249 187 198 227 171 181 233 175 185 244 183 194 227 171 181 222 167 177 222 167 177 222 167 177 227 171 181 200 151 159 255 201 210 222 167 177 217 163 172 211 159 168 211 159 168 211 159 168 211 159 168 211 159 168 211 159 168 211 159 168 211 159 168 206 155 164 206 155 164 206 155 164 206 155 164 206 155 164 206 155 164 206 155 164 206 155 164 211 159 168 206 155 164 206 155 164 206 155 164 200 151 159 200 151 159 200 151 159 206 155 164 200 151 159 200 151 159 200 151 159 200 151 159 200 151 159 200 151 159 200 151 159 200 151 159 200 151 159 200 151 159 200 151 159 200 151 159 200 151 159 211 159 168 211 159 168 
255 198 208 249 187 198 244 183 194 244 183 194 249 187 198 244 183 194 244 183 194 244 183 194 244 183 194 244 183 194 244 183 194 244 183 194 244 183 194 244 183 194 233 175 185 233 175 185 233 175 185 233 175 185 233 175 185 233 175 185 233 175 185 233 175 185 233 175 185 233 175 185 227 171 181 227 171 181 227 171 181 227 171 181 227 171 181 227 171 181 233 175 185 233 175 185 233 175 185 233 175 185 244 183 194 244 183 194 244 183 194 244 183 194 244 183 194 233 175 185 233 175 185 233 175 185 244 183 194 244 183 194 249 187 198 249 187 198 249 187 198 249 187 198 249 187 198 249 187 198 249 187 198 249 187 198 249 187 198 249 187 198 249 187 198 255 193 204 255 193 204 249 187 198 217 163 172 146 110 116 255 200 209 48 36 38 48 36 38 48 36 38 48 36 38 54 40 43 54 40 43 130 98 103 184 138 146 255 193 204 255 225 230 255 233 237 255 234 238 255 233 237 255 234 238 255 234 238 255 233 237 255 233 237 255 234 238 255 234 238 255 234 238 255 234 238 255 234 238 255 234 238 255 234 238 255 234 238 255 234 238 255 234 238 255 234 238 255 236 239 255 236 239 255 234 238 255 234 238 255 234 238 255 234 238 255 234 238 255 234 238 255 234 238 255 234 238 255 234 238 255 233 237 255 233 237 255 233 237 255 232 236 255 202 211 255 202 211 195 147 155 217 163 172 130 98 103 92 69 73 86 65 69 70 53 56 81 61 64 81 61 64 81 61 64 81 61 64 86 65 69 86 65 69 86 65 69 86 65 69 86 65 69 86 65 69 86 65 69 86 65 69 86 65 69 86 65 69 86 65 69 86 65 69 86 65 69 81 61 64 81 61 64 81 61 64 81 61 64 81 61 64 81 61 64 81 61 64 81 61 64 81 61 64 81 61 64 81 61 64 81 61 64 81 61 64 70 53 56 70 53 56 70 53 56 65 49 51 65 49 51 54 40 43 195 147 155 255 200 209 255 198 208 255 198 208 255 198 208 255 198 208 255 198 208 255 198 208 255 198 208 255 196 206 255 196 206 255 196 206 255 196 206 255 196 206 255 196 206 255 196 206 255 196 206 255 193 204 255 193 204 255 193 204 249 187 198 227 171 181 233 175 185 244 183 194 227 171 181 222 167 177 222 167 177 222 167 177 227 171 181 200 151 159 255 201 210 222 167 177 217 163 172 211 159 168 211 159 168 211 159 168 211 159 168 211 159 168 211 159 168 211 159 168 211 159 168 206 155 164 206 155 164 206 155 164 206 155 164 206 155 164 206 155 164 206 155 164 206 155 164 211 159 168 206 155 164 206 155 164 206 155 164 200 151 159 200 151 159 200 151 159 206 155 164 200 151 159 200 151 159 200 151 159 200 151 159 200 151 159 200 151 159 200 151 159 200 151 159 200 151 159 200 151 159 200 151 159 200 151 159 200 151 159 211 159 168 211 159 168 
255 201 210 244 183 194 244 183 194 244 183 194 249 187 198 249 187 198 249 187 198 249 187 198 249 187 198 249 187 198 244 183 194 244 183 194 244 183 194 244 183 194 244 183 194 244 183 194 244 183 194 249 187 198 249 187 198 244 183 194 244 183 194 244 183 194 233 175 185 233 175 185 233 175 185 233 175 185 233 175 185 233 175 185 233 175 185 233 175 185 233 175 185 233 175 185 233 175 185 244 183 194 244 183 194 244 183 194 244 183 194 244 183 194 244 183 194 249 187 198 249 187 198 249 187 198 249 187 198 249 187 198 255 193 204 255 193 204 249 187 198 249 187 198 249 187 198 255 193 204 255 193 204 255 193 204 255 193 204 255 196 206 255 193 204 255 193 204 255 193 204 255 193 204 255 193 204 255 196 206 211 159 168 70 53 56 54 40 43 54 40 43 65 49 51 70 53 56 70 53 56 70 53 56 65 49 51 130 98 103 255 208 216 255 206 215 255 210 218 255 228 232 255 234 238 255 232 236 255 236 239 255 234 238 255 236 239 255 236 239 255 237 240 255 236 239 255 236 239 255 236 239 255 234 238 255 234 238 255 237 240 255 236 239 255 237 240 255 237 240 255 237 240 255 236 239 255 236 239 255 236 239 255 236 239 255 234 238 255 234 238 255 236 239 255 233 237 255 225 230 255 214 221 255 214 221 255 201 210 206 155 164 222 167 177 157 118 125 146 110 116 92 69 73 86 65 69 86 65 69 92 69 73 130 98 103 130 98 103 130 98 103 130 98 103 92 69 73 92 69 73 130 98 103 92 69 73 92 69 73 130 98 103 130 98 103 92 69 73 92 69 73 92 69 73 92 69 73 92 69 73 92 69 73 92 69 73 92 69 73 92 69 73 92 69 73 92 69 73 92 69 73 92 69 73 92 69 73 92 69 73 92 69 73 92 69 73 92 69 73 92 69 73 92 69 73 86 65 69 86 65 69 86 65 69 86 65 69 81 61 64 65 49 51 249 187 198 255 200 209 255 198 208 255 200 209 255 200 209 255 198 208 255 200 209 255 201 210 255 200 209 255 198 208 255 196 206 255 196 206 255 198 208 255 196 206 255 196 206 255 196 206 255 196 206 255 196 206 255 196 206 255 193 204 255 193 204 255 193 204 244 183 194 249 187 198 233 175 185 233 175 185 233 175 185 233 175 185 233 175 185 255 228 232 244 183 194 222 167 177 222 167 177 222 167 177 222 167 177 217 163 172 217 163 172 217 163 172 217 163 172 217 163 172 217 163 172 211 159 168 211 159 168 211 159 168 211 159 168 206 155 164 206 155 164 211 159 168 211 159 168 211 159 168 211 159 168 211 159 168 206 155 164 206 155 164 211 159 168 206 155 164 206 155 164 200 151 159 206 155 164 206 155 164 206 155 164 206 155 164 200 151 159 200 151 159 206 155 164 206 155 164 211 159 168 211 159 168 206 155 164 206 155 164 217 163 172 217 163 172 
255 201 210 244 183 194 244 183 194 244 183 194 249 187 198 249 187 198 249 187 198 249 187 198 249 187 198 249 187 198 244 183 194 244 183 194 244 183 194 244 183 194 244 183 194 244 183 194 244 183 194 249 187 198 249 187 198 244 183 194 244 183 194 244 183 194 233 175 185 233 175 185 233 175 185 233 175 185 233 175 185 233 175 185 233 175 185 233 175 185 233 175 185 233 175 185 233 175 185 244 183 194 244 183 194 244 183 194 244 183 194 244 183 194 244 183 194 249 187 198 249 187 198 249 187 198 249 187 198 249 187 198 255 193 204 255 193 204 249 187 198 249 187 198 249 187 198 255 193 204 255 193 204 255 193 204 255 193 204 255 196 206 255 193 204 255 193 204 255 193 204 255 193 204 255 193 204 255 196 206 211 159 168 70 53 56 54 40 43 54 40 43 65 49 51 70 53 56 70 53 56 70 53 56 65 49 51 130 98 103 255 208 216 255 206 215 255 210 218 255 228 232 255 234 238 255 232 236 255 236 239 255 234 238 255 236 239 255 236 239 255 237 240 255 236 239 255 236 239 255 236 239 255 234 238 255 234 238 255 237 240 255 236 239 255 237 240 255 237 240 255 237 240 255 236 239 255 236 239 255 236 239 255 236 239 255 234 238 255 234 238 255 236 239 255 233 237 255 225 230 255 214 221 255 214 221 255 201 210 206 155 164 222 167 177 157 118 125 146 110 116 92 69 73 86 65 69 86 65 69 92 69 73 130 98 103 130 98 103 130 98 103 130 98 103 92 69 73 92 69 73 130 98 103 92 69 73 92 69 73 130 98 103 130 98 103 92 69 73 92 69 73 92 69 73 92 69 73 92 69 73 92 69 73 92 69 73 92 69 73 92 69 73 92 69 73 92 69 73 92 69 73 92 69 73 92 69 73 92 69 73 92 69 73 92 69 73 92 69 73 92 69 73 92 69 73 86 65 69 86 65 69 86 65 69 86 65 69 81 61 64 65 49 51 249 187 198 255 200 209 255 198 208 255 200 209 255 200 209 255 198 208 255 200 209 255 201 210 255 200 209 255 198 208 255 196 206 255 196 206 255 198 208 255 196 206 255 196 206 255 196 206 255 196 206 255 196 206 255 196 206 255 193 204 255 193 204 255 193 204 244 183 194 249 187 198 233 175 185 233 175 185 233 175 185 233 175 185 233 175 185 255 228 232 244 183 194 222 167 177 222 167 177 222 167 177 222 167 177 217 163 172 217 163 172 217 163 172 217 163 172 217 163 172 217 163 172 211 159 168 211 159 168 211 159 168 211 159 168 206 155 164 206 155 164 211 159 168 211 159 168 211 159 168 211 159 168 211 159 168 206 155 164 206 155 164 211 159 168 206 155 164 206 155 164 200 151 159 206 155 164 206 155 164 206 155 164 206 155 164 200 151 159 200 151 159 206 155 164 206 155 164 211 159 168 211 159 168 206 155 164 206 155 164 217 163 172 217 163 172 
255 202 211 255 193 204 249 187 198 255 193 204 255 193 204 255 193 204 255 193 204 255 193 204 255 193 204 255 193 204 249 187 198 249 187 198 249 187 198 249 187 198 249 187 198 249 187 198 249 187 198 255 193 204 255 193 204 249 187 198 249 187 198 249 187 198 244 183 194 249 187 198 249 187 198 249 187 198 249 187 198 249 187 198 249 187 198 249 187 198 249 187 198 249 187 198 249 187 198 255 193 204 255 193 204 255 193 204 255 193 204 255 193 204 255 193 204 255 193 204 255 193 204 255 193 204 255 193 204 255 196 206 255 196 206 255 196 206 255 196 206 255 196 206 255 196 206 255 196 206 255 196 206 255 198 208 255 198 208 255 198 208 255 196 206 255 196 206 255 196 206 255 196 206 255 196 206 255 200 209 211 159 168 81 61 64 135 102 107 65 49 51 70 53 56 70 53 56 81 61 64 70 53 56 81 61 64 70 53 56 81 61 64 81 61 64 130 98 103 206 155 164 233 175 185 255 209 217 249 187 198 255 193 204 255 217 224 255 230 235 255 233 237 255 232 236 255 206 215 255 225 230 255 216 222 255 205 214 255 230 235 255 233 237 255 236 239 255 237 240 255 236 239 255 232 236 255 228 232 255 209 217 255 208 216 255 198 208 255 200 209 255 200 209 206 155 164 184 138 146 157 118 125 146 110 116 179 134 142 146 110 116 86 65 69 130 98 103 86 65 69 130 98 103 135 102 107 135 102 107 146 110 116 146 110 116 135 102 107 135 102 107 135 102 107 135 102 107 135 102 107 130 98 103 135 102 107 146 110 116 135 102 107 135 102 107 135 102 107 135 102 107 135 102 107 135 102 107 135 102 107 135 102 107 135 102 107 135 102 107 135 102 107 135 102 107 135 102 107 135 102 107 130 98 103 92 69 73 92 69 73 130 98 103 130 98 103 130 98 103 130 98 103 130 98 103 130 98 103 130 98 103 92 69 73 92 69 73 86 65 69 92 69 73 255 201 210 255 201 210 255 201 210 255 201 210 255 201 210 255 201 210 255 201 210 255 201 210 255 201 210 255 201 210 255 200 209 255 198 208 255 198 208 255 198 208 255 196 206 255 196 206 255 196 206 255 196 206 255 196 206 255 196 206 255 196 206 255 196 206 227 171 181 249 187 198 233 175 185 244 183 194 233 175 185 244 183 194 255 200 209 227 171 181 233 175 185 222 167 177 222 167 177 227 171 181 227 171 181 227 171 181 227 171 181 222 167 177 217 163 172 217 163 172 217 163 172 222 167 177 211 159 168 217 163 172 222 167 177 217 163 172 217 163 172 217 163 172 217 163 172 217 163 172 211 159 168 211 159 168 211 159 168 217 163 172 222 167 177 217 163 172 217 163 172 211 159 168 217 163 172 217 163 172 222 167 177 222 167 177 222 167 177 227 171 181 227 171 181 233 175 185 244 183 194 233 175 185 249 187 198 255 222 228 255 216 222 227 171 181 
255 202 211 255 193 204 249 187 198 255 193 204 255 193 204 255 193 204 255 193 204 255 193 204 255 193 204 255 193 204 249 187 198 249 187 198 249 187 198 249 187 198 249 187 198 249 187 198 249 187 198 255 193 204 255 193 204 249 187 198 249 187 198 249 187 198 244 183 194 249 187 198 249 187 198 249 187 198 249 187 198 249 187 198 249 187 198 249 187 198 249 187 198 249 187 198 249 187 198 255 193 204 255 193 204 255 193 204 255 193 204 255 193 204 255 193 204 255 193 204 255 193 204 255 193 204 255 193 204 255 196 206 255 196 206 255 196 206 255 196 206 255 196 206 255 196 206 255 196 206 255 196 206 255 198 208 255 198 208 255 198 208 255 196 206 255 196 206 255 196 206 255 196 206 255 196 206 255 200 209 211 159 168 81 61 64 135 102 107 65 49 51 70 53 56 70 53 56 81 61 64 70 53 56 81 61 64 70 53 56 81 61 64 81 61 64 130 98 103 206 155 164 233 175 185 255 209 217 249 187 198 255 193 204 255 217 224 255 230 235 255 233 237 255 232 236 255 206 215 255 225 230 255 216 222 255 205 214 255 230 235 255 233 237 255 236 239 255 237 240 255 236 239 255 232 236 255 228 232 255 209 217 255 208 216 255 198 208 255 200 209 255 200 209 206 155 164 184 138 146 157 118 125 146 110 116 179 134 142 146 110 116 86 65 69 130 98 103 86 65 69 130 98 103 135 102 107 135 102 107 146 110 116 146 110 116 135 102 107 135 102 107 135 102 107 135 102 107 135 102 107 130 98 103 135 102 107 146 110 116 135 102 107 135 102 107 135 102 107 135 102 107 135 102 107 135 102 107 135 102 107 135 102 107 135 102 107 135 102 107 135 102 107 135 102 107 135 102 107 135 102 107 130 98 103 92 69 73 92 69 73 130 98 103 130 98 103 130 98 103 130 98 103 130 98 103 130 98 103 130 98 103 92 69 73 92 69 73 86 65 69 92 69 73 255 201 210 255 201 210 255 201 210 255 201 210 255 201 210 255 201 210 255 201 210 255 201 210 255 201 210 255 201 210 255 200 209 255 198 208 255 198 208 255 198 208 255 196 206 255 196 206 255 196 206 255 196 206 255 196 206 255 196 206 255 196 206 255 196 206 227 171 181 249 187 198 233 175 185 244 183 194 233 175 185 244 183 194 255 200 209 227 171 181 233 175 185 222 167 177 222 167 177 227 171 181 227 171 181 227 171 181 227 171 181 222 167 177 217 163 172 217 163 172 217 163 172 222 167 177 211 159 168 217 163 172 222 167 177 217 163 172 217 163 172 217 163 172 217 163 172 217 163 172 211 159 168 211 159 168 211 159 168 217 163 172 222 167 177 217 163 172 217 163 172 211 159 168 217 163 172 217 163 172 222 167 177 222 167 177 222 167 177 227 171 181 227 171 181 233 175 185 244 183 194 233 175 185 249 187 198 255 222 228 255 216 222 227 171 181 
255 202 211 244 183 194 255 196 206 255 200 209 255 196 206 255 198 208 255 196 206 255 198 208 255 200 209 255 201 210 255 196 206 255 198 208 255 196 206 255 198 208 255 200 209 255 201 210 255 201 210 255 200 209 255 201 210 255 201 210 255 193 204 255 200 209 255 196 206 255 201 210 255 202 211 255 201 210 255 200 209 255 200 209 255 201 210 255 200 209 255 201 210 255 200 209 255 200 209 255 196 206 255 200 209 255 201 210 255 200 209 255 200 209 255 201 210 255 202 211 255 202 211 255 202 211 255 205 214 255 206 215 255 205 214 255 206 215 255 205 214 255 206 215 255 205 214 255 205 214 255 202 211 255 208 216 255 205 214 255 206 215 255 205 214 255 201 210 255 198 208 255 198 208 255 198 208 255 198 208 255 200 209 255 193 204 81 61 64 81 61 64 81 61 64 81 61 64 86 65 69 86 65 69 86 65 69 86 65 69 86 65 69 92 69 73 92 69 73 92 69 73 92 69 73 86 65 69 92 69 73 135 102 107 92 69 73 92 69 73 130 98 103 130 98 103 130 98 103 130 98 103 86 65 69 130 98 103 86 65 69 157 118 125 146 110 116 195 147 155 130 98 103 130 98 103 130 98 103 130 98 103 92 69 73 146 110 116 146 110 116 130 98 103 130 98 103 135 102 107 130 98 103 130 98 103 92 69 73 130 98 103 130 98 103 130 98 103 130 98 103 135 102 107 135 102 107 135 102 107 146 110 116 146 110 116 146 110 116 135 102 107 146 110 116 146 110 116 146 110 116 146 110 116 146 110 116 146 110 116 146 110 116 135 102 107 135 102 107 146 110 116 146 110 116 146 110 116 146 110 116 157 118 125 157 118 125 146 110 116 146 110 116 146 110 116 146 110 116 135 102 107 135 102 107 135 102 107 135 102 107 135 102 107 130 98 103 135 102 107 130 98 103 130 98 103 130 98 103 130 98 103 92 69 73 130 98 103 86 65 69 135 102 107 255 206 215 255 202 211 255 202 211 255 201 210 255 201 210 255 201 210 255 201 210 255 201 210 255 201 210 255 200 209 255 200 209 255 200 209 255 200 209 255 200 209 255 198 208 255 198 208 255 200 209 255 198 208 255 196 206 255 196 206 255 196 206 255 198 208 255 196 206 244 183 194 255 193 204 249 187 198 244 183 194 233 175 185 222 167 177 244 183 194 233 175 185 233 175 185 233 175 185 233 175 185 227 171 181 227 171 181 233 175 185 233 175 185 233 175 185 227 171 181 222 167 177 233 175 185 227 171 181 227 171 181 227 171 181 222 167 177 227 171 181 227 171 181 233 175 185 222 167 177 227 171 181 227 171 181 222 167 177 227 171 181 233 175 185 227 171 181 227 171 181 227 171 181 227 171 181 233 175 185 227 171 181 233 175 185 227 171 181 233 175 185 227 171 181 233 175 185 244 183 194 244 183 194 222 167 177 255 210 218 255 213 220 233 175 185 
255 202 211 244 183 194 255 196 206 255 200 209 255 196 206 255 198 208 255 196 206 255 198 208 255 200 209 255 201 210 255 196 206 255 198 208 255 196 206 255 198 208 255 200 209 255 201 210 255 201 210 255 200 209 255 201 210 255 201 210 255 193 204 255 200 209 255 196 206 255 201 210 255 202 211 255 201 210 255 200 209 255 200 209 255 201 210 255 200 209 255 201 210 255 200 209 255 200 209 255 196 206 255 200 209 255 201 210 255 200 209 255 200 209 255 201 210 255 202 211 255 202 211 255 202 211 255 205 214 255 206 215 255 205 214 255 206 215 255 205 214 255 206 215 255 205 214 255 205 214 255 202 211 255 208 216 255 205 214 255 206 215 255 205 214 255 201 210 255 198 208 255 198 208 255 198 208 255 198 208 255 200 209 255 193 204 81 61 64 81 61 64 81 61 64 81 61 64 86 65 69 86 65 69 86 65 69 86 65 69 86 65 69 92 69 73 92 69 73 92 69 73 92 69 73 86 65 69 92 69 73 135 102 107 92 69 73 92 69 73 130 98 103 130 98 103 130 98 103 130 98 103 86 65 69 130 98 103 86 65 69 157 118 125 146 110 116 195 147 155 130 98 103 130 98 103 130 98 103 130 98 103 92 69 73 146 110 116 146 110 116 130 98 103 130 98 103 135 102 107 130 98 103 130 98 103 92 69 73 130 98 103 130 98 103 130 98 103 130 98 103 135 102 107 135 102 107 135 102 107 146 110 116 146 110 116 146 110 116 135 102 107 146 110 116 146 110 116 146 110 116 146 110 116 146 110 116 146 110 116 146 110 116 135 102 107 135 102 107 146 110 116 146 110 116 146 110 116 146 110 116 157 118 125 157 118 125 146 110 116 146 110 116 146 110 116 146 110 116 135 102 107 135 102 107 135 102 107 135 102 107 135 102 107 130 98 103 135 102 107 130 98 103 130 98 103 130 98 103 130 98 103 92 69 73 130 98 103 86 65 69 135 102 107 255 206 215 255 202 211 255 202 211 255 201 210 255 201 210 255 201 210 255 201 210 255 201 210 255 201 210 255 200 209 255 200 209 255 200 209 255 200 209 255 200 209 255 198 208 255 198 208 255 200 209 255 198 208 255 196 206 255 196 206 255 196 206 255 198 208 255 196 206 244 183 194 255 193 204 249 187 198 244 183 194 233 175 185 222 167 177 244 183 194 233 175 185 233 175 185 233 175 185 233 175 185 227 171 181 227 171 181 233 175 185 233 175 185 233 175 185 227 171 181 222 167 177 233 175 185 227 171 181 227 171 181 227 171 181 222 167 177 227 171 181 227 171 181 233 175 185 222 167 177 227 171 181 227 171 181 222 167 177 227 171 181 233 175 185 227 171 181 227 171 181 227 171 181 227 171 181 233 175 185 227 171 181 233 175 185 227 171 181 233 175 185 227 171 181 233 175 185 244 183 194 244 183 194 222 167 177 255 210 218 255 213 220 233 175 185 
