P3
220 162
255
214 121 0 214 121 0 214 121 0 214 121 0 214 121 0 212 113 0 214 121 0 214 121 0 214 121 0 214 121 0 214 121 0 214 121 0 214 121 0 212 113 0 214 121 0 214 121 0 212 113 0 212 113 0 212 113 0 212 113 0 214 121 0 214 121 0 212 113 0 212 113 0 214 121 0 212 113 0 214 121 0 212 113 0 214 121 0 212 113 0 212 113 0 212 113 0 212 113 0 214 121 0 214 121 0 214 121 0 214 121 0 214 121 0 214 121 0 214 121 0 214 121 0 214 121 0 212 113 0 214 121 0 214 121 0 212 113 0 214 121 0 214 121 0 212 113 0 212 113 0 212 113 0 212 113 0 212 113 0 214 121 0 212 113 0 214 121 0 214 121 0 212 113 0 212 113 0 212 113 0 212 113 0 212 113 0 212 113 0 214 121 0 212 113 0 212 113 0 212 113 0 212 113 0 212 113 0 212 113 0 212 113 0 212 113 0 212 113 0 212 113 0 212 113 0 212 113 0 212 113 0 212 113 0 214 121 0 212 113 0 212 113 0 212 113 0 212 113 0 212 113 0 212 113 0 214 121 0 214 121 0 212 113 0 212 113 0 212 113 0 212 113 0 212 113 0 212 113 0 212 113 0 214 121 0 212 113 0 212 113 0 212 113 0 212 113 0 212 113 0 214 121 0 212 113 0 212 113 0 212 113 0 212 113 0 214 121 0 214 121 0 212 113 0 214 121 0 212 113 0 214 121 0 212 113 0 212 113 0 212 113 0 214 121 0 212 113 0 212 113 0 212 113 0 212 113 0 212 113 0 212 113 0 212 113 0 212 113 0 212 113 0 212 113 0 212 113 0 212 113 0 212 113 0 212 113 0 212 113 0 212 113 0 212 113 0 212 113 0 212 113 0 212 113 0 212 113 0 212 113 0 212 113 0 212 113 0 212 113 0 212 113 0 212 113 0 212 113 0 212 113 0 212 113 0 212 113 0 214 121 0 214 121 0 214 121 0 214 121 0 212 113 0 212 113 0 212 113 0 212 113 0 214 121 0 212 113 0 212 113 0 212 113 0 212 113 0 212 113 0 212 113 0 212 113 0 214 121 0 212 113 0 212 113 0 212 113 0 214 121 0 212 113 0 212 113 0 212 113 0 212 113 0 212 113 0 212 113 0 212 113 0 212 113 0 212 113 0 212 113 0 212 113 0 212 113 0 212 113 0 212 113 0 212 113 0 212 113 0 214 121 0 214 121 0 212 113 0 214 121 0 212 113 0 212 113 0 214 121 0 214 121 0 212 113 0 212 113 0 212 113 0 212 113 0 212 113 0 212 113 0 212 113 0 212 113 0 212 113 0 214 121 0 214 121 0 214 121 0 212 113 0 212 113 0 212 113 0 214 121 0 214 121 0 214 121 0 212 113 0 212 113 0 212 113 0 212 113 0 212 113 0 214 121 0 214 121 0 212 113 0 214 121 0 214 121 0 214 121 0 
214 121 0 214 121 0 214 121 0 214 121 0 214 121 0 212 113 0 214 121 0 214 121 0 214 121 0 214 121 0 214 121 0 214 121 0 214 121 0 212 113 0 214 121 0 214 121 0 212 113 0 212 113 0 212 113 0 212 113 0 214 121 0 214 121 0 212 113 0 212 113 0 214 121 0 212 113 0 214 121 0 212 113 0 214 121 0 212 113 0 212 113 0 212 113 0 212 113 0 214 121 0 214 121 0 214 121 0 214 121 0 214 121 0 214 121 0 214 121 0 214 121 0 214 121 0 212 113 0 214 121 0 214 121 0 212 113 0 214 121 0 214 121 0 212 113 0 212 113 0 212 113 0 212 113 0 212 113 0 214 121 0 212 113 0 214 121 0 214 121 0 212 113 0 212 113 0 212 113 0 212 113 0 212 113 0 212 113 0 214 121 0 212 113 0 212 113 0 212 113 0 212 113 0 212 113 0 212 113 0 212 113 0 212 113 0 212 113 0 212 113 0 212 113 0 212 113 0 212 113 0 212 113 0 214 121 0 212 113 0 212 113 0 212 113 0 212 113 0 212 113 0 212 113 0 214 121 0 214 121 0 212 113 0 212 113 0 212 113 0 212 113 0 212 113 0 212 113 0 212 113 0 214 121 0 212 113 0 212 113 0 212 113 0 212 113 0 212 113 0 214 121 0 212 113 0 212 113 0 212 113 0 212 113 0 214 121 0 214 121 0 212 113 0 214 121 0 212 113 0 214 121 0 212 113 0 212 113 0 212 113 0 214 121 0 212 113 0 212 113 0 212 113 0 212 113 0 212 113 0 212 113 0 212 113 0 212 113 0 212 113 0 212 113 0 212 113 0 212 113 0 212 113 0 212 113 0 212 113 0 212 113 0 212 113 0 212 113 0 212 113 0 212 113 0 212 113 0 212 113 0 212 113 0 212 113 0 212 113 0 212 113 0 212 113 0 212 113 0 212 113 0 212 113 0 212 113 0 214 121 0 214 121 0 214 121 0 214 121 0 212 113 0 212 113 0 212 113 0 212 113 0 214 121 0 212 113 0 212 113 0 212 113 0 212 113 0 212 113 0 212 113 0 212 113 0 214 121 0 212 113 0 212 113 0 212 113 0 214 121 0 212 113 0 212 113 0 212 113 0 212 113 0 212 113 0 212 113 0 212 113 0 212 113 0 212 113 0 212 113 0 212 113 0 212 113 0 212 113 0 212 113 0 212 113 0 212 113 0 214 121 0 214 121 0 212 113 0 214 121 0 212 113 0 212 113 0 214 121 0 214 121 0 212 113 0 212 113 0 212 113 0 212 113 0 212 113 0 212 113 0 212 113 0 212 113 0 212 113 0 214 121 0 214 121 0 214 121 0 212 113 0 212 113 0 212 113 0 214 121 0 214 121 0 214 121 0 212 113 0 212 113 0 212 113 0 212 113 0 212 113 0 214 121 0 214 121 0 212 113 0 214 121 0 214 121 0 214 121 0 
212 113 0 212 113 0 212 113 0 212 113 0 212 113 0 214 121 0 212 113 0 212 113 0 214 121 0 214 121 0 214 121 0 212 113 0 212 113 0 212 113 0 214 121 0 212 113 0 212 113 0 212 113 0 214 121 0 214 121 0 212 113 0 212 113 0 212 113 0 212 113 0 212 113 0 212 113 0 214 121 0 214 121 0 214 121 0 212 113 0 212 113 0 212 113 0 214 121 0 214 121 0 214 121 0 214 121 0 212 113 0 214 121 0 214 121 0 212 113 0 212 113 0 212 113 0 212 113 0 214 121 0 212 113 0 212 113 0 214 121 0 212 113 0 212 113 0 212 113 0 212 113 0 212 113 0 214 121 0 212 113 0 212 113 0 214 121 0 212 113 0 212 113 0 212 113 0 212 113 0 212 113 0 212 113 0 212 113 0 212 113 0 212 113 0 212 113 0 212 113 0 212 113 0 212 113 0 212 113 0 212 113 0 212 113 0 212 113 0 212 113 0 212 113 0 214 121 0 212 113 0 212 113 0 212 113 0 212 113 0 212 113 0 212 113 0 212 113 0 212 113 0 212 113 0 214 121 0 214 121 0 214 121 0 212 113 0 212 113 0 212 113 0 212 113 0 212 113 0 212 113 0 214 121 0 212 113 0 212 113 0 214 121 0 212 113 0 214 121 0 214 121 0 214 121 0 214 121 0 214 121 0 214 121 0 212 113 0 212 113 0 214 121 0 212 113 0 212 113 0 212 113 0 212 113 0 212 113 0 212 113 0 212 113 0 212 113 0 212 113 0 212 113 0 212 113 0 212 113 0 212 113 0 214 121 0 212 113 0 212 113 0 212 113 0 212 113 0 212 113 0 212 113 0 212 113 0 212 113 0 212 113 0 212 113 0 212 113 0 212 113 0 212 113 0 212 113 0 212 113 0 212 113 0 212 113 0 212 113 0 212 113 0 212 113 0 212 113 0 212 113 0 212 113 0 212 113 0 212 113 0 212 113 0 212 113 0 212 113 0 212 113 0 212 113 0 212 113 0 212 113 0 211 110 0 212 113 0 212 113 0 212 113 0 212 113 0 212 113 0 212 113 0 212 113 0 212 113 0 212 113 0 212 113 0 212 113 0 212 113 0 212 113 0 212 113 0 211 110 0 212 113 0 212 113 0 212 113 0 212 113 0 212 113 0 212 113 0 212 113 0 212 113 0 212 113 0 212 113 0 212 113 0 212 113 0 212 113 0 212 113 0 212 113 0 212 113 0 212 113 0 212 113 0 212 113 0 212 113 0 212 113 0 212 113 0 212 113 0 212 113 0 212 113 0 212 113 0 212 113 0 212 113 0 214 121 0 212 113 0 214 121 0 214 121 0 212 113 0 212 113 0 212 113 0 212 113 0 212 113 0 214 121 0 214 121 0 212 113 0 212 113 0 212 113 0 214 121 0 214 121 0 214 121 0 214 121 0 214 121 0 214 121 0 214 121 0 214 121 0 
212 113 0 212 113 0 212 113 0 212 113 0 212 113 0 214 121 0 212 113 0 212 113 0 214 121 0 214 121 0 214 121 0 212 113 0 212 113 0 212 113 0 214 121 0 212 113 0 212 113 0 212 113 0 214 121 0 214 121 0 212 113 0 212 113 0 212 113 0 212 113 0 212 113 0 212 113 0 214 121 0 214 121 0 214 121 0 212 113 0 212 113 0 212 113 0 214 121 0 214 121 0 214 121 0 214 121 0 212 113 0 214 121 0 214 121 0 212 113 0 212 113 0 212 113 0 212 113 0 214 121 0 212 113 0 212 113 0 214 121 0 212 113 0 212 113 0 212 113 0 212 113 0 212 113 0 214 121 0 212 113 0 212 113 0 214 121 0 212 113 0 212 113 0 212 113 0 212 113 0 212 113 0 212 113 0 212 113 0 212 113 0 212 113 0 212 113 0 212 113 0 212 113 0 212 113 0 212 113 0 212 113 0 212 113 0 212 113 0 212 113 0 212 113 0 214 121 0 212 113 0 212 113 0 212 113 0 212 113 0 212 113 0 212 113 0 212 113 0 212 113 0 212 113 0 214 121 0 214 121 0 214 121 0 212 113 0 212 113 0 212 113 0 212 113 0 212 113 0 212 113 0 214 121 0 212 113 0 212 113 0 214 121 0 212 113 0 214 121 0 214 121 0 214 121 0 214 121 0 214 121 0 214 121 0 212 113 0 212 113 0 214 121 0 212 113 0 212 113 0 212 113 0 212 113 0 212 113 0 212 113 0 212 113 0 212 113 0 212 113 0 212 113 0 212 113 0 212 113 0 212 113 0 214 121 0 212 113 0 212 113 0 212 113 0 212 113 0 212 113 0 212 113 0 212 113 0 212 113 0 212 113 0 212 113 0 212 113 0 212 113 0 212 113 0 212 113 0 212 113 0 212 113 0 212 113 0 212 113 0 212 113 0 212 113 0 212 113 0 212 113 0 212 113 0 212 113 0 212 113 0 212 113 0 212 113 0 212 113 0 212 113 0 212 113 0 212 113 0 212 113 0 211 110 0 212 113 0 212 113 0 212 113 0 212 113 0 212 113 0 212 113 0 212 113 0 212 113 0 212 113 0 212 113 0 212 113 0 212 113 0 212 113 0 212 113 0 211 110 0 212 113 0 212 113 0 212 113 0 212 113 0 212 113 0 212 113 0 212 113 0 212 113 0 212 113 0 212 113 0 212 113 0 212 113 0 212 113 0 212 113 0 212 113 0 212 113 0 212 113 0 212 113 0 212 113 0 212 113 0 212 113 0 212 113 0 212 113 0 212 113 0 212 113 0 212 113 0 212 113 0 212 113 0 214 121 0 212 113 0 214 121 0 214 121 0 212 113 0 212 113 0 212 113 0 212 113 0 212 113 0 214 121 0 214 121 0 212 113 0 212 113 0 212 113 0 214 121 0 214 121 0 214 121 0 214 121 0 214 121 0 214 121 0 214 121 0 214 121 0 
212 113 0 212 113 0 214 121 0 214 121 0 212 113 0 212 113 0 214 121 0 214 121 0 214 121 0 214 121 0 212 113 0 212 113 0 212 113 0 212 113 0 212 113 0 212 113 0 212 113 0 214 121 0 214 121 0 214 121 0 214 121 0 212 113 0 212 113 0 212 113 0 212 113 0 212 113 0 212 113 0 214 121 0 214 121 0 214 121 0 212 113 0 212 113 0 212 113 0 214 121 0 214 121 0 212 113 0 214 121 0 214 121 0 214 121 0 214 121 0 214 121 0 212 113 0 212 113 0 214 121 0 214 121 0 214 121 0 214 121 0 212 113 0 212 113 0 212 113 0 212 113 0 214 121 0 212 113 0 212 113 0 212 113 0 212 113 0 214 121 0 212 113 0 212 113 0 212 113 0 212 113 0 214 121 0 212 113 0 212 113 0 214 121 0 214 121 0 212 113 0 214 121 0 214 121 0 212 113 0 212 113 0 212 113 0 214 121 0 212 113 0 212 113 0 212 113 0 212 113 0 212 113 0 214 121 0 214 121 0 214 121 0 214 121 0 212 113 0 212 113 0 214 121 0 212 113 0 214 121 0 214 121 0 214 121 0 214 121 0 214 121 0 214 121 0 214 121 0 214 121 0 212 113 0 212 113 0 214 121 0 214 121 0 214 121 0 214 121 0 214 121 0 214 121 0 212 113 0 212 113 0 214 121 0 214 121 0 212 113 0 212 113 0 214 121 0 212 113 0 212 113 0 214 121 0 212 113 0 212 113 0 212 113 0 212 113 0 214 121 0 212 113 0 212 113 0 212 113 0 212 113 0 212 113 0 212 113 0 214 121 0 212 113 0 212 113 0 212 113 0 212 113 0 212 113 0 214 121 0 214 121 0 214 121 0 214 121 0 214 121 0 212 113 0 214 121 0 214 121 0 212 113 0 212 113 0 212 113 0 212 113 0 212 113 0 212 113 0 212 113 0 212 113 0 214 121 0 212 113 0 212 113 0 212 113 0 212 113 0 212 113 0 212 113 0 212 113 0 212 113 0 212 113 0 212 113 0 212 113 0 212 113 0 212 113 0 214 121 0 212 113 0 212 113 0 212 113 0 212 113 0 212 113 0 212 113 0 212 113 0 212 113 0 212 113 0 212 113 0 212 113 0 212 113 0 212 113 0 212 113 0 212 113 0 212 113 0 212 113 0 212 113 0 212 113 0 212 113 0 212 113 0 212 113 0 212 113 0 212 113 0 214 121 0 212 113 0 214 121 0 214 121 0 212 113 0 214 121 0 214 121 0 214 121 0 214 121 0 214 121 0 212 113 0 214 121 0 214 121 0 212 113 0 214 121 0 212 113 0 212 113 0 214 121 0 214 121 0 214 121 0 214 121 0 212 113 0 214 121 0 214 121 0 212 113 0 214 121 0 214 121 0 214 121 0 214 121 0 214 121 0 214 121 0 214 121 0 214 121 0 214 121 0 214 121 0 214 121 0 
212 113 0 212 113 0 214 121 0 214 121 0 212 113 0 212 113 0 214 121 0 214 121 0 214 121 0 214 121 0 212 113 0 212 113 0 212 113 0 212 113 0 212 113 0 212 113 0 212 113 0 214 121 0 214 121 0 214 121 0 214 121 0 212 113 0 212 113 0 212 113 0 212 113 0 212 113 0 212 113 0 214 121 0 214 121 0 214 121 0 212 113 0 212 113 0 212 113 0 214 121 0 214 121 0 212 113 0 214 121 0 214 121 0 214 121 0 214 121 0 214 121 0 212 113 0 212 113 0 214 121 0 214 121 0 214 121 0 214 121 0 212 113 0 212 113 0 212 113 0 212 113 0 214 121 0 212 113 0 212 113 0 212 113 0 212 113 0 214 121 0 212 113 0 212 113 0 212 113 0 212 113 0 214 121 0 212 113 0 212 113 0 214 121 0 214 121 0 212 113 0 214 121 0 214 121 0 212 113 0 212 113 0 212 113 0 214 121 0 212 113 0 212 113 0 212 113 0 212 113 0 212 113 0 214 121 0 214 121 0 214 121 0 214 121 0 212 113 0 212 113 0 214 121 0 212 113 0 214 121 0 214 121 0 214 121 0 214 121 0 214 121 0 214 121 0 214 121 0 214 121 0 212 113 0 212 113 0 214 121 0 214 121 0 214 121 0 214 121 0 214 121 0 214 121 0 212 113 0 212 113 0 214 121 0 214 121 0 212 113 0 212 113 0 214 121 0 212 113 0 212 113 0 214 121 0 212 113 0 212 113 0 212 113 0 212 113 0 214 121 0 212 113 0 212 113 0 212 113 0 212 113 0 212 113 0 212 113 0 214 121 0 212 113 0 212 113 0 212 113 0 212 113 0 212 113 0 214 121 0 214 121 0 214 121 0 214 121 0 214 121 0 212 113 0 214 121 0 214 121 0 212 113 0 212 113 0 212 113 0 212 113 0 212 113 0 212 113 0 212 113 0 212 113 0 214 121 0 212 113 0 212 113 0 212 113 0 212 113 0 212 113 0 212 113 0 212 113 0 212 113 0 212 113 0 212 113 0 212 113 0 212 113 0 212 113 0 214 121 0 212 113 0 212 113 0 212 113 0 212 113 0 212 113 0 212 113 0 212 113 0 212 113 0 212 113 0 212 113 0 212 113 0 212 113 0 212 113 0 212 113 0 212 113 0 212 113 0 212 113 0 212 113 0 212 113 0 212 113 0 212 113 0 212 113 0 212 113 0 212 113 0 214 121 0 212 113 0 214 121 0 214 121 0 212 113 0 214 121 0 214 121 0 214 121 0 214 121 0 214 121 0 212 113 0 214 121 0 214 121 0 212 113 0 214 121 0 212 113 0 212 113 0 214 121 0 214 121 0 214 121 0 214 121 0 212 113 0 214 121 0 214 121 0 212 113 0 214 121 0 214 121 0 214 121 0 214 121 0 214 121 0 214 121 0 214 121 0 214 121 0 214 121 0 214 121 0 214 121 0 
214 121 0 214 121 0 214 121 0 214 121 0 214 121 0 214 121 0 214 121 0 214 121 0 214 121 0 215 124 0 214 121 0 214 121 0 214 121 0 214 121 0 212 113 0 214 121 0 214 121 0 214 121 0 214 121 0 214 121 0 214 121 0 214 121 0 212 113 0 212 113 0 212 113 0 214 121 0 214 121 0 212 113 0 214 121 0 214 121 0 214 121 0 214 121 0 214 121 0 214 121 0 214 121 0 214 121 0 214 121 0 214 121 0 214 121 0 214 121 0 214 121 0 214 121 0 214 121 0 214 121 0 214 121 0 214 121 0 214 121 0 212 113 0 214 121 0 214 121 0 214 121 0 214 121 0 212 113 0 214 121 0 214 121 0 212 113 0 214 121 0 214 121 0 214 121 0 212 113 0 214 121 0 214 121 0 214 121 0 214 121 0 214 121 0 214 121 0 214 121 0 214 121 0 214 121 0 212 113 0 214 121 0 214 121 0 212 113 0 212 113 0 214 121 0 212 113 0 212 113 0 214 121 0 214 121 0 214 121 0 214 121 0 214 121 0 214 121 0 214 121 0 214 121 0 214 121 0 215 124 0 214 121 0 214 121 0 214 121 0 214 121 0 214 121 0 214 121 0 214 121 0 214 121 0 214 121 0 214 121 0 214 121 0 215 124 0 214 121 0 214 121 0 214 121 0 214 121 0 214 121 0 214 121 0 214 121 0 214 121 0 214 121 0 214 121 0 214 121 0 214 121 0 214 121 0 214 121 0 214 121 0 214 121 0 214 121 0 214 121 0 214 121 0 214 121 0 214 121 0 214 121 0 214 121 0 214 121 0 214 121 0 214 121 0 214 121 0 214 121 0 214 121 0 214 121 0 214 121 0 214 121 0 214 121 0 214 121 0 214 121 0 214 121 0 214 121 0 214 121 0 214 121 0 212 113 0 212 113 0 212 113 0 212 113 0 212 113 0 214 121 0 214 121 0 214 121 0 214 121 0 212 113 0 214 121 0 212 113 0 212 113 0 212 113 0 214 121 0 212 113 0 214 121 0 214 121 0 214 121 0 214 121 0 212 113 0 214 121 0 212 113 0 214 121 0 214 121 0 214 121 0 214 121 0 214 121 0 214 121 0 214 121 0 214 121 0 212 113 0 212 113 0 212 113 0 212 113 0 214 121 0 214 121 0 214 121 0 214 121 0 214 121 0 212 113 0 214 121 0 214 121 0 214 121 0 212 113 0 212 113 0 214 121 0 214 121 0 214 121 0 214 121 0 214 121 0 214 121 0 214 121 0 214 121 0 214 121 0 214 121 0 214 121 0 214 121 0 214 121 0 214 121 0 214 121 0 214 121 0 214 121 0 214 121 0 214 121 0 214 121 0 214 121 0 214 121 0 212 113 0 214 121 0 214 121 0 214 121 0 214 121 0 214 121 0 214 121 0 214 121 0 214 121 0 214 121 0 214 121 0 214 121 0 214 121 0 215 124 0 
214 121 0 214 121 0 214 121 0 214 121 0 214 121 0 214 121 0 214 121 0 214 121 0 214 121 0 215 124 0 214 121 0 214 121 0 214 121 0 214 121 0 212 113 0 214 121 0 214 121 0 214 121 0 214 121 0 214 121 0 214 121 0 214 121 0 212 113 0 212 113 0 212 113 0 214 121 0 214 121 0 212 113 0 214 121 0 214 121 0 214 121 0 214 121 0 214 121 0 214 121 0 214 121 0 214 121 0 214 121 0 214 121 0 214 121 0 214 121 0 214 121 0 214 121 0 214 121 0 214 121 0 214 121 0 214 121 0 214 121 0 212 113 0 214 121 0 214 121 0 214 121 0 214 121 0 212 113 0 214 121 0 214 121 0 212 113 0 214 121 0 214 121 0 214 121 0 212 113 0 214 121 0 214 121 0 214 121 0 214 121 0 214 121 0 214 121 0 214 121 0 214 121 0 214 121 0 212 113 0 214 121 0 214 121 0 212 113 0 212 113 0 214 121 0 212 113 0 212 113 0 214 121 0 214 121 0 214 121 0 214 121 0 214 121 0 214 121 0 214 121 0 214 121 0 214 121 0 215 124 0 214 121 0 214 121 0 214 121 0 214 121 0 214 121 0 214 121 0 214 121 0 214 121 0 214 121 0 214 121 0 214 121 0 215 124 0 214 121 0 214 121 0 214 121 0 214 121 0 214 121 0 214 121 0 214 121 0 214 121 0 214 121 0 214 121 0 214 121 0 214 121 0 214 121 0 214 121 0 214 121 0 214 121 0 214 121 0 214 121 0 214 121 0 214 121 0 214 121 0 214 121 0 214 121 0 214 121 0 214 121 0 214 121 0 214 121 0 214 121 0 214 121 0 214 121 0 214 121 0 214 121 0 214 121 0 214 121 0 214 121 0 214 121 0 214 121 0 214 121 0 214 121 0 212 113 0 212 113 0 212 113 0 212 113 0 212 113 0 214 121 0 214 121 0 214 121 0 214 121 0 212 113 0 214 121 0 212 113 0 212 113 0 212 113 0 214 121 0 212 113 0 214 121 0 214 121 0 214 121 0 214 121 0 212 113 0 214 121 0 212 113 0 214 121 0 214 121 0 214 121 0 214 121 0 214 121 0 214 121 0 214 121 0 214 121 0 212 113 0 212 113 0 212 113 0 212 113 0 214 121 0 214 121 0 214 121 0 214 121 0 214 121 0 212 113 0 214 121 0 214 121 0 214 121 0 212 113 0 212 113 0 214 121 0 214 121 0 214 121 0 214 121 0 214 121 0 214 121 0 214 121 0 214 121 0 214 121 0 214 121 0 214 121 0 214 121 0 214 121 0 214 121 0 214 121 0 214 121 0 214 121 0 214 121 0 214 121 0 214 121 0 214 121 0 214 121 0 212 113 0 214 121 0 214 121 0 214 121 0 214 121 0 214 121 0 214 121 0 214 121 0 214 121 0 214 121 0 214 121 0 214 121 0 214 121 0 215 124 0 
215 124 0 215 124 0 215 124 0 215 124 0 215 124 0 214 121 0 214 121 0 214 121 0 214 121 0 215 124 0 214 121 0 214 121 0 214 121 0 214 121 0 214 121 0 214 121 0 214 121 0 214 121 0 214 121 0 214 121 0 214 121 0 214 121 0 214 121 0 214 121 0 214 121 0 214 121 0 214 121 0 214 121 0 214 121 0 214 121 0 214 121 0 214 121 0 214 121 0 214 121 0 214 121 0 214 121 0 214 121 0 214 121 0 215 124 0 214 121 0 214 121 0 214 121 0 214 121 0 214 121 0 214 121 0 214 121 0 215 124 0 214 121 0 214 121 0 215 124 0 214 121 0 214 121 0 214 121 0 212 113 0 214 121 0 214 121 0 214 121 0 214 121 0 214 121 0 214 121 0 214 121 0 214 121 0 214 121 0 214 121 0 214 121 0 214 121 0 214 121 0 214 121 0 214 121 0 214 121 0 214 121 0 214 121 0 214 121 0 214 121 0 214 121 0 214 121 0 214 121 0 214 121 0 214 121 0 214 121 0 214 121 0 214 121 0 214 121 0 214 121 0 214 121 0 214 121 0 214 121 0 215 124 0 214 121 0 214 121 0 214 121 0 214 121 0 214 121 0 214 121 0 214 121 0 214 121 0 214 121 0 214 121 0 214 121 0 214 121 0 214 121 0 214 121 0 214 121 0 214 121 0 214 121 0 214 121 0 214 121 0 214 121 0 214 121 0 214 121 0 214 121 0 214 121 0 214 121 0 214 121 0 214 121 0 214 121 0 215 124 0 214 121 0 214 121 0 214 121 0 214 121 0 214 121 0 215 124 0 214 121 0 214 121 0 214 121 0 215 124 0 214 121 0 214 121 0 214 121 0 214 121 0 214 121 0 214 121 0 214 121 0 214 121 0 214 121 0 214 121 0 214 121 0 215 124 0 214 121 0 212 113 0 214 121 0 214 121 0 214 121 0 214 121 0 214 121 0 214 121 0 214 121 0 214 121 0 214 121 0 214 121 0 214 121 0 214 121 0 214 121 0 214 121 0 214 121 0 215 124 0 214 121 0 214 121 0 214 121 0 214 121 0 214 121 0 212 113 0 214 121 0 214 121 0 214 121 0 214 121 0 214 121 0 214 121 0 214 121 0 212 113 0 212 113 0 212 113 0 214 121 0 214 121 0 214 121 0 214 121 0 214 121 0 214 121 0 214 121 0 214 121 0 214 121 0 214 121 0 214 121 0 214 121 0 214 121 0 214 121 0 214 121 0 214 121 0 214 121 0 214 121 0 214 121 0 214 121 0 214 121 0 214 121 0 214 121 0 214 121 0 214 121 0 214 121 0 214 121 0 214 121 0 214 121 0 215 124 0 215 124 0 215 124 0 214 121 0 215 124 0 214 121 0 214 121 0 215 124 0 215 124 0 215 124 0 215 124 0 214 121 0 214 121 0 214 121 0 215 124 0 214 121 0 215 124 0 215 124 0 
215 124 0 215 124 0 215 124 0 215 124 0 215 124 0 214 121 0 214 121 0 214 121 0 214 121 0 215 124 0 214 121 0 214 121 0 214 121 0 214 121 0 214 121 0 214 121 0 214 121 0 214 121 0 214 121 0 214 121 0 214 121 0 214 121 0 214 121 0 214 121 0 214 121 0 214 121 0 214 121 0 214 121 0 214 121 0 214 121 0 214 121 0 214 121 0 214 121 0 214 121 0 214 121 0 214 121 0 214 121 0 214 121 0 215 124 0 214 121 0 214 121 0 214 121 0 214 121 0 214 121 0 214 121 0 214 121 0 215 124 0 214 121 0 214 121 0 215 124 0 214 121 0 214 121 0 214 121 0 212 113 0 214 121 0 214 121 0 214 121 0 214 121 0 214 121 0 214 121 0 214 121 0 214 121 0 214 121 0 214 121 0 214 121 0 214 121 0 214 121 0 214 121 0 214 121 0 214 121 0 214 121 0 214 121 0 214 121 0 214 121 0 214 121 0 214 121 0 214 121 0 214 121 0 214 121 0 214 121 0 214 121 0 214 121 0 214 121 0 214 121 0 214 121 0 214 121 0 214 121 0 215 124 0 214 121 0 214 121 0 214 121 0 214 121 0 214 121 0 214 121 0 214 121 0 214 121 0 214 121 0 214 121 0 214 121 0 214 121 0 214 121 0 214 121 0 214 121 0 214 121 0 214 121 0 214 121 0 214 121 0 214 121 0 214 121 0 214 121 0 214 121 0 214 121 0 214 121 0 214 121 0 214 121 0 214 121 0 215 124 0 214 121 0 214 121 0 214 121 0 214 121 0 214 121 0 215 124 0 214 121 0 214 121 0 214 121 0 215 124 0 214 121 0 214 121 0 214 121 0 214 121 0 214 121 0 214 121 0 214 121 0 214 121 0 214 121 0 214 121 0 214 121 0 215 124 0 214 121 0 212 113 0 214 121 0 214 121 0 214 121 0 214 121 0 214 121 0 214 121 0 214 121 0 214 121 0 214 121 0 214 121 0 214 121 0 214 121 0 214 121 0 214 121 0 214 121 0 215 124 0 214 121 0 214 121 0 214 121 0 214 121 0 214 121 0 212 113 0 214 121 0 214 121 0 214 121 0 214 121 0 214 121 0 214 121 0 214 121 0 212 113 0 212 113 0 212 113 0 214 121 0 214 121 0 214 121 0 214 121 0 214 121 0 214 121 0 214 121 0 214 121 0 214 121 0 214 121 0 214 121 0 214 121 0 214 121 0 214 121 0 214 121 0 214 121 0 214 121 0 214 121 0 214 121 0 214 121 0 214 121 0 214 121 0 214 121 0 214 121 0 214 121 0 214 121 0 214 121 0 214 121 0 214 121 0 215 124 0 215 124 0 215 124 0 214 121 0 215 124 0 214 121 0 214 121 0 215 124 0 215 124 0 215 124 0 215 124 0 214 121 0 214 121 0 214 121 0 215 124 0 214 121 0 215 124 0 215 124 0 
215 124 0 215 124 0 215 124 0 215 124 0 215 124 0 215 124 0 215 124 0 215 124 0 215 124 0 215 124 0 215 124 0 215 124 0 215 124 0 215 124 0 215 124 0 214 121 0 214 121 0 214 121 0 215 124 0 215 124 0 214 121 0 214 121 0 215 124 0 214 121 0 215 124 0 215 124 0 215 124 0 215 124 0 215 124 0 215 124 0 214 121 0 215 124 0 214 121 0 215 124 0 215 124 0 215 124 0 215 124 0 215 124 0 215 124 0 215 124 0 214 121 0 215 124 0 214 121 0 215 124 0 215 124 0 215 124 0 215 124 0 215 124 0 215 124 0 215 124 0 215 124 0 215 124 0 214 121 0 215 124 0 214 121 0 214 121 0 214 121 0 214 121 0 214 121 0 214 121 0 215 124 0 215 124 0 215 124 0 214 121 0 214 121 0 214 121 0 215 124 0 215 124 0 215 124 0 214 121 0 215 124 0 214 121 0 215 124 0 214 121 0 215 124 0 215 124 0 215 124 0 214 121 0 214 121 0 214 121 0 215 124 0 215 124 0 215 124 0 215 124 0 215 124 0 214 121 0 214 121 0 214 121 0 214 121 0 215 124 0 215 124 0 215 124 0 215 124 0 215 124 0 215 124 0 214 121 0 214 121 0 214 121 0 215 124 0 215 124 0 215 124 0 214 121 0 215 124 0 215 124 0 214 121 0 214 121 0 215 124 0 215 124 0 215 124 0 214 121 0 215 124 0 215 124 0 214 121 0 215 124 0 214 121 0 214 121 0 214 121 0 214 121 0 214 121 0 214 121 0 214 121 0 215 124 0 214 121 0 214 121 0 214 121 0 215 124 0 215 124 0 214 121 0 214 121 0 215 124 0 215 124 0 215 124 0 215 124 0 214 121 0 214 121 0 215 124 0 214 121 0 214 121 0 214 121 0 214 121 0 214 121 0 214 121 0 215 124 0 215 124 0 215 124 0 214 121 0 214 121 0 214 121 0 214 121 0 214 121 0 215 124 0 214 121 0 214 121 0 215 124 0 214 121 0 215 124 0 215 124 0 215 124 0 214 121 0 214 121 0 214 121 0 215 124 0 214 121 0 214 121 0 214 121 0 214 121 0 214 121 0 215 124 0 214 121 0 215 124 0 214 121 0 214 121 0 214 121 0 214 121 0 215 124 0 214 121 0 214 121 0 214 121 0 214 121 0 214 121 0 215 124 0 214 121 0 214 121 0 214 121 0 215 124 0 215 124 0 214 121 0 214 121 0 214 121 0 214 121 0 214 121 0 215 124 0 214 121 0 214 121 0 215 124 0 215 124 0 215 124 0 215 124 0 215 124 0 215 124 0 215 124 0 215 124 0 215 124 0 215 124 0 214 121 0 214 121 0 214 121 0 215 124 0 215 124 0 215 124 0 215 124 0 215 124 0 215 124 0 215 124 0 215 124 0 215 124 0 215 124 0 215 124 0 215 124 0 215 124 0 
215 124 0 215 124 0 215 124 0 215 124 0 215 124 0 215 124 0 215 124 0 215 124 0 215 124 0 215 124 0 215 124 0 215 124 0 215 124 0 215 124 0 215 124 0 214 121 0 214 121 0 214 121 0 215 124 0 215 124 0 214 121 0 214 121 0 215 124 0 214 121 0 215 124 0 215 124 0 215 124 0 215 124 0 215 124 0 215 124 0 214 121 0 215 124 0 214 121 0 215 124 0 215 124 0 215 124 0 215 124 0 215 124 0 215 124 0 215 124 0 214 121 0 215 124 0 214 121 0 215 124 0 215 124 0 215 124 0 215 124 0 215 124 0 215 124 0 215 124 0 215 124 0 215 124 0 214 121 0 215 124 0 214 121 0 214 121 0 214 121 0 214 121 0 214 121 0 214 121 0 215 124 0 215 124 0 215 124 0 214 121 0 214 121 0 214 121 0 215 124 0 215 124 0 215 124 0 214 121 0 215 124 0 214 121 0 215 124 0 214 121 0 215 124 0 215 124 0 215 124 0 214 121 0 214 121 0 214 121 0 215 124 0 215 124 0 215 124 0 215 124 0 215 124 0 214 121 0 214 121 0 214 121 0 214 121 0 215 124 0 215 124 0 215 124 0 215 124 0 215 124 0 215 124 0 214 121 0 214 121 0 214 121 0 215 124 0 215 124 0 215 124 0 214 121 0 215 124 0 215 124 0 214 121 0 214 121 0 215 124 0 215 124 0 215 124 0 214 121 0 215 124 0 215 124 0 214 121 0 215 124 0 214 121 0 214 121 0 214 121 0 214 121 0 214 121 0 214 121 0 214 121 0 215 124 0 214 121 0 214 121 0 214 121 0 215 124 0 215 124 0 214 121 0 214 121 0 215 124 0 215 124 0 215 124 0 215 124 0 214 121 0 214 121 0 215 124 0 214 121 0 214 121 0 214 121 0 214 121 0 214 121 0 214 121 0 215 124 0 215 124 0 215 124 0 214 121 0 214 121 0 214 121 0 214 121 0 214 121 0 215 124 0 214 121 0 214 121 0 215 124 0 214 121 0 215 124 0 215 124 0 215 124 0 214 121 0 214 121 0 214 121 0 215 124 0 214 121 0 214 121 0 214 121 0 214 121 0 214 121 0 215 124 0 214 121 0 215 124 0 214 121 0 214 121 0 214 121 0 214 121 0 215 124 0 214 121 0 214 121 0 214 121 0 214 121 0 214 121 0 215 124 0 214 121 0 214 121 0 214 121 0 215 124 0 215 124 0 214 121 0 214 121 0 214 121 0 214 121 0 214 121 0 215 124 0 214 121 0 214 121 0 215 124 0 215 124 0 215 124 0 215 124 0 215 124 0 215 124 0 215 124 0 215 124 0 215 124 0 215 124 0 214 121 0 214 121 0 214 121 0 215 124 0 215 124 0 215 124 0 215 124 0 215 124 0 215 124 0 215 124 0 215 124 0 215 124 0 215 124 0 215 124 0 215 124 0 215 124 0 
217 128 0 217 128 0 217 128 0 217 128 0 217 128 0 217 128 0 217 128 0 218 132 0 217 128 0 217 128 0 217 128 0 217 128 0 217 128 0 217 128 0 217 128 0 217 128 0 217 128 0 217 128 0 217 128 0 215 124 0 217 128 0 217 128 0 217 128 0 217 128 0 215 124 0 217 128 0 215 124 0 217 128 0 217 128 0 217 128 0 215 124 0 215 124 0 217 128 0 215 124 0 215 124 0 215 124 0 215 124 0 215 124 0 215 124 0 215 124 0 215 124 0 215 124 0 215 124 0 215 124 0 215 124 0 217 128 0 217 128 0 217 128 0 217 128 0 217 128 0 218 132 0 217 128 0 217 128 0 217 128 0 215 124 0 215 124 0 215 124 0 215 124 0 214 121 0 215 124 0 215 124 0 215 124 0 215 124 0 215 124 0 215 124 0 215 124 0 215 124 0 215 124 0 215 124 0 215 124 0 215 124 0 215 124 0 215 124 0 215 124 0 215 124 0 215 124 0 215 124 0 215 124 0 215 124 0 215 124 0 215 124 0 215 124 0 215 124 0 215 124 0 215 124 0 215 124 0 215 124 0 214 121 0 215 124 0 215 124 0 215 124 0 215 124 0 215 124 0 215 124 0 215 124 0 215 124 0 215 124 0 215 124 0 215 124 0 215 124 0 215 124 0 215 124 0 215 124 0 215 124 0 215 124 0 215 124 0 214 121 0 215 124 0 215 124 0 215 124 0 215 124 0 215 124 0 215 124 0 215 124 0 215 124 0 214 121 0 214 121 0 214 121 0 215 124 0 215 124 0 215 124 0 215 124 0 215 124 0 215 124 0 215 124 0 215 124 0 215 124 0 215 124 0 217 128 0 215 124 0 215 124 0 215 124 0 215 124 0 215 124 0 214 121 0 215 124 0 214 121 0 215 124 0 215 124 0 214 121 0 215 124 0 214 121 0 215 124 0 215 124 0 214 121 0 214 121 0 215 124 0 214 121 0 215 124 0 215 124 0 214 121 0 215 124 0 215 124 0 215 124 0 215 124 0 215 124 0 215 124 0 215 124 0 215 124 0 215 124 0 215 124 0 214 121 0 214 121 0 214 121 0 214 121 0 215 124 0 215 124 0 215 124 0 215 124 0 215 124 0 214 121 0 214 121 0 214 121 0 214 121 0 215 124 0 215 124 0 215 124 0 215 124 0 215 124 0 215 124 0 215 124 0 215 124 0 215 124 0 215 124 0 215 124 0 215 124 0 215 124 0 215 124 0 215 124 0 214 121 0 214 121 0 215 124 0 215 124 0 215 124 0 215 124 0 215 124 0 215 124 0 215 124 0 215 124 0 215 124 0 215 124 0 215 124 0 215 124 0 215 124 0 215 124 0 215 124 0 215 124 0 215 124 0 215 124 0 215 124 0 215 124 0 215 124 0 215 124 0 215 124 0 215 124 0 215 124 0 215 124 0 215 124 0 215 124 0 215 124 0 
217 128 0 217 128 0 217 128 0 217 128 0 217 128 0 217 128 0 217 128 0 218 132 0 217 128 0 217 128 0 217 128 0 217 128 0 217 128 0 217 128 0 217 128 0 217 128 0 217 128 0 217 128 0 217 128 0 215 124 0 217 128 0 217 128 0 217 128 0 217 128 0 215 124 0 217 128 0 215 124 0 217 128 0 217 128 0 217 128 0 215 124 0 215 124 0 217 128 0 215 124 0 215 124 0 215 124 0 215 124 0 215 124 0 215 124 0 215 124 0 215 124 0 215 124 0 215 124 0 215 124 0 215 124 0 217 128 0 217 128 0 217 128 0 217 128 0 217 128 0 218 132 0 217 128 0 217 128 0 217 128 0 215 124 0 215 124 0 215 124 0 215 124 0 214 121 0 215 124 0 215 124 0 215 124 0 215 124 0 215 124 0 215 124 0 215 124 0 215 124 0 215 124 0 215 124 0 215 124 0 215 124 0 215 124 0 215 124 0 215 124 0 215 124 0 215 124 0 215 124 0 215 124 0 215 124 0 215 124 0 215 124 0 215 124 0 215 124 0 215 124 0 215 124 0 215 124 0 215 124 0 214 121 0 215 124 0 215 124 0 215 124 0 215 124 0 215 124 0 215 124 0 215 124 0 215 124 0 215 124 0 215 124 0 215 124 0 215 124 0 215 124 0 215 124 0 215 124 0 215 124 0 215 124 0 215 124 0 214 121 0 215 124 0 215 124 0 215 124 0 215 124 0 215 124 0 215 124 0 215 124 0 215 124 0 214 121 0 214 121 0 214 121 0 215 124 0 215 124 0 215 124 0 215 124 0 215 124 0 215 124 0 215 124 0 215 124 0 215 124 0 215 124 0 217 128 0 215 124 0 215 124 0 215 124 0 215 124 0 215 124 0 214 121 0 215 124 0 214 121 0 215 124 0 215 124 0 214 121 0 215 124 0 214 121 0 215 124 0 215 124 0 214 121 0 214 121 0 215 124 0 214 121 0 215 124 0 215 124 0 214 121 0 215 124 0 215 124 0 215 124 0 215 124 0 215 124 0 215 124 0 215 124 0 215 124 0 215 124 0 215 124 0 214 121 0 214 121 0 214 121 0 214 121 0 215 124 0 215 124 0 215 124 0 215 124 0 215 124 0 214 121 0 214 121 0 214 121 0 214 121 0 215 124 0 215 124 0 215 124 0 215 124 0 215 124 0 215 124 0 215 124 0 215 124 0 215 124 0 215 124 0 215 124 0 215 124 0 215 124 0 215 124 0 215 124 0 214 121 0 214 121 0 215 124 0 215 124 0 215 124 0 215 124 0 215 124 0 215 124 0 215 124 0 215 124 0 215 124 0 215 124 0 215 124 0 215 124 0 215 124 0 215 124 0 215 124 0 215 124 0 215 124 0 215 124 0 215 124 0 215 124 0 215 124 0 215 124 0 215 124 0 215 124 0 215 124 0 215 124 0 215 124 0 215 124 0 215 124 0 
218 132 0 218 132 0 218 132 0 217 128 0 217 128 0 218 132 0 218 132 0 218 132 0 218 132 0 217 128 0 218 132 0 218 132 0 218 132 0 218 132 0 218 132 0 218 132 0 218 132 0 218 132 0 217 128 0 218 132 0 217 128 0 217 128 0 217 128 0 217 128 0 217 128 0 217 128 0 218 132 0 218 132 0 218 132 0 218 132 0 218 132 0 218 132 0 217 128 0 218 132 0 218 132 0 218 132 0 218 132 0 218 132 0 218 132 0 218 132 0 218 132 0 218 132 0 217 128 0 217 128 0 217 128 0 218 132 0 218 132 0 218 132 0 218 132 0 218 132 0 218 132 0 218 132 0 218 132 0 218 132 0 218 132 0 218 132 0 218 132 0 219 135 0 218 132 0 219 135 0 218 132 0 218 132 0 219 135 0 219 135 0 217 128 0 218 132 0 219 135 0 219 135 0 219 135 0 219 135 0 218 132 0 218 132 0 219 135 0 218 132 0 219 135 0 218 132 0 218 132 0 219 135 0 218 132 0 219 135 0 219 135 0 219 135 0 218 132 0 219 135 0 218 132 0 218 132 0 219 135 0 219 135 0 219 135 0 219 135 0 219 135 0 219 135 0 219 135 0 218 132 0 218 132 0 219 135 0 219 135 0 219 135 0 219 135 0 219 135 0 218 132 0 218 132 0 218 132 0 218 132 0 218 132 0 218 132 0 218 132 0 219 135 0 219 135 0 219 135 0 219 135 0 218 132 0 218 132 0 218 132 0 218 132 0 219 135 0 218 132 0 218 132 0 219 135 0 218 132 0 219 135 0 218 132 0 219 135 0 218 132 0 218 132 0 219 135 0 218 132 0 219 135 0 218 132 0 219 135 0 219 135 0 219 135 0 219 135 0 218 132 0 218 132 0 219 135 0 218 132 0 219 135 0 218 132 0 218 132 0 218 132 0 218 132 0 219 135 0 219 135 0 218 132 0 218 132 0 219 135 0 218 132 0 218 132 0 218 132 0 218 132 0 218 132 0 218 132 0 218 132 0 218 132 0 218 132 0 218 132 0 219 135 0 218 132 0 219 135 0 218 132 0 218 132 0 219 135 0 218 132 0 219 135 0 218 132 0 218 132 0 218 132 0 218 132 0 218 132 0 219 135 0 219 135 0 218 132 0 218 132 0 219 135 0 219 135 0 219 135 0 218 132 0 218 132 0 218 132 0 218 132 0 218 132 0 218 132 0 218 132 0 219 135 0 219 135 0 218 132 0 218 132 0 219 135 0 218 132 0 219 135 0 219 135 0 218 132 0 218 132 0 218 132 0 218 132 0 219 135 0 219 135 0 219 135 0 219 135 0 219 135 0 218 132 0 218 132 0 218 132 0 218 132 0 218 132 0 218 132 0 218 132 0 218 132 0 218 132 0 218 132 0 219 135 0 219 135 0 219 135 0 218 132 0 219 135 0 218 132 0 219 135 0 219 135 0 219 135 0 
218 132 0 218 132 0 218 132 0 217 128 0 217 128 0 218 132 0 218 132 0 218 132 0 218 132 0 217 128 0 218 132 0 218 132 0 218 132 0 218 132 0 218 132 0 218 132 0 218 132 0 218 132 0 217 128 0 218 132 0 217 128 0 217 128 0 217 128 0 217 128 0 217 128 0 217 128 0 218 132 0 218 132 0 218 132 0 218 132 0 218 132 0 218 132 0 217 128 0 218 132 0 218 132 0 218 132 0 218 132 0 218 132 0 218 132 0 218 132 0 218 132 0 218 132 0 217 128 0 217 128 0 217 128 0 218 132 0 218 132 0 218 132 0 218 132 0 218 132 0 218 132 0 218 132 0 218 132 0 218 132 0 218 132 0 218 132 0 218 132 0 219 135 0 218 132 0 219 135 0 218 132 0 218 132 0 219 135 0 219 135 0 217 128 0 218 132 0 219 135 0 219 135 0 219 135 0 219 135 0 218 132 0 218 132 0 219 135 0 218 132 0 219 135 0 218 132 0 218 132 0 219 135 0 218 132 0 219 135 0 219 135 0 219 135 0 218 132 0 219 135 0 218 132 0 218 132 0 219 135 0 219 135 0 219 135 0 219 135 0 219 135 0 219 135 0 219 135 0 218 132 0 218 132 0 219 135 0 219 135 0 219 135 0 219 135 0 219 135 0 218 132 0 218 132 0 218 132 0 218 132 0 218 132 0 218 132 0 218 132 0 219 135 0 219 135 0 219 135 0 219 135 0 218 132 0 218 132 0 218 132 0 218 132 0 219 135 0 218 132 0 218 132 0 219 135 0 218 132 0 219 135 0 218 132 0 219 135 0 218 132 0 218 132 0 219 135 0 218 132 0 219 135 0 218 132 0 219 135 0 219 135 0 219 135 0 219 135 0 218 132 0 218 132 0 219 135 0 218 132 0 219 135 0 218 132 0 218 132 0 218 132 0 218 132 0 219 135 0 219 135 0 218 132 0 218 132 0 219 135 0 218 132 0 218 132 0 218 132 0 218 132 0 218 132 0 218 132 0 218 132 0 218 132 0 218 132 0 218 132 0 219 135 0 218 132 0 219 135 0 218 132 0 218 132 0 219 135 0 218 132 0 219 135 0 218 132 0 218 132 0 218 132 0 218 132 0 218 132 0 219 135 0 219 135 0 218 132 0 218 132 0 219 135 0 219 135 0 219 135 0 218 132 0 218 132 0 218 132 0 218 132 0 218 132 0 218 132 0 218 132 0 219 135 0 219 135 0 218 132 0 218 132 0 219 135 0 218 132 0 219 135 0 219 135 0 218 132 0 218 132 0 218 132 0 218 132 0 219 135 0 219 135 0 219 135 0 219 135 0 219 135 0 218 132 0 218 132 0 218 132 0 218 132 0 218 132 0 218 132 0 218 132 0 218 132 0 218 132 0 218 132 0 219 135 0 219 135 0 219 135 0 218 132 0 219 135 0 218 132 0 219 135 0 219 135 0 219 135 0 
218 132 0 218 132 0 218 132 0 218 132 0 218 132 0 217 128 0 218 132 0 217 128 0 218 132 0 218 132 0 218 132 0 217 128 0 218 132 0 218 132 0 218 132 0 218 132 0 218 132 0 218 132 0 218 132 0 217 128 0 218 132 0 218 132 0 218 132 0 217 128 0 218 132 0 217 128 0 218 132 0 218 132 0 218 132 0 218 132 0 218 132 0 218 132 0 218 132 0 218 132 0 218 132 0 218 132 0 218 132 0 218 132 0 218 132 0 218 132 0 218 132 0 218 132 0 218 132 0 218 132 0 218 132 0 218 132 0 218 132 0 218 132 0 218 132 0 218 132 0 218 132 0 218 132 0 218 132 0 218 132 0 219 135 0 218 132 0 218 132 0 219 135 0 219 135 0 219 135 0 219 135 0 218 132 0 218 132 0 218 132 0 218 132 0 218 132 0 219 135 0 219 135 0 219 135 0 218 132 0 218 132 0 218 132 0 218 132 0 218 132 0 218 132 0 218 132 0 218 132 0 219 135 0 219 135 0 219 135 0 218 132 0 218 132 0 219 135 0 219 135 0 219 135 0 219 135 0 218 132 0 218 132 0 218 132 0 218 132 0 219 135 0 219 135 0 219 135 0 219 135 0 219 135 0 219 135 0 218 132 0 219 135 0 218 132 0 218 132 0 219 135 0 218 132 0 218 132 0 219 135 0 219 135 0 219 135 0 219 135 0 219 135 0 219 135 0 219 135 0 219 135 0 218 132 0 218 132 0 218 132 0 219 135 0 218 132 0 219 135 0 218 132 0 219 135 0 218 132 0 219 135 0 218 132 0 218 132 0 219 135 0 219 135 0 218 132 0 218 132 0 218 132 0 218 132 0 219 135 0 219 135 0 219 135 0 218 132 0 218 132 0 218 132 0 218 132 0 218 132 0 218 132 0 218 132 0 219 135 0 219 135 0 219 135 0 218 132 0 218 132 0 218 132 0 218 132 0 218 132 0 218 132 0 218 132 0 218 132 0 218 132 0 218 132 0 219 135 0 218 132 0 218 132 0 218 132 0 218 132 0 219 135 0 219 135 0 219 135 0 219 135 0 219 135 0 219 135 0 219 135 0 219 135 0 218 132 0 218 132 0 218 132 0 218 132 0 219 135 0 218 132 0 219 135 0 218 132 0 218 132 0 219 135 0 218 132 0 219 135 0 218 132 0 218 132 0 218 132 0 218 132 0 218 132 0 218 132 0 219 135 0 218 132 0 219 135 0 218 132 0 218 132 0 218 132 0 218 132 0 218 132 0 219 135 0 219 135 0 218 132 0 218 132 0 218 132 0 218 132 0 218 132 0 218 132 0 218 132 0 218 132 0 218 132 0 218 132 0 218 132 0 218 132 0 219 135 0 218 132 0 218 132 0 218 132 0 218 132 0 218 132 0 219 135 0 219 135 0 219 135 0 219 135 0 218 132 0 219 135 0 218 132 0 219 135 0 219 135 0 
218 132 0 218 132 0 218 132 0 218 132 0 218 132 0 217 128 0 218 132 0 217 128 0 218 132 0 218 132 0 218 132 0 217 128 0 218 132 0 218 132 0 218 132 0 218 132 0 218 132 0 218 132 0 218 132 0 217 128 0 218 132 0 218 132 0 218 132 0 217 128 0 218 132 0 217 128 0 218 132 0 218 132 0 218 132 0 218 132 0 218 132 0 218 132 0 218 132 0 218 132 0 218 132 0 218 132 0 218 132 0 218 132 0 218 132 0 218 132 0 218 132 0 218 132 0 218 132 0 218 132 0 218 132 0 218 132 0 218 132 0 218 132 0 218 132 0 218 132 0 218 132 0 218 132 0 218 132 0 218 132 0 219 135 0 218 132 0 218 132 0 219 135 0 219 135 0 219 135 0 219 135 0 218 132 0 218 132 0 218 132 0 218 132 0 218 132 0 219 135 0 219 135 0 219 135 0 218 132 0 218 132 0 218 132 0 218 132 0 218 132 0 218 132 0 218 132 0 218 132 0 219 135 0 219 135 0 219 135 0 218 132 0 218 132 0 219 135 0 219 135 0 219 135 0 219 135 0 218 132 0 218 132 0 218 132 0 218 132 0 219 135 0 219 135 0 219 135 0 219 135 0 219 135 0 219 135 0 218 132 0 219 135 0 218 132 0 218 132 0 219 135 0 218 132 0 218 132 0 219 135 0 219 135 0 219 135 0 219 135 0 219 135 0 219 135 0 219 135 0 219 135 0 218 132 0 218 132 0 218 132 0 219 135 0 218 132 0 219 135 0 218 132 0 219 135 0 218 132 0 219 135 0 218 132 0 218 132 0 219 135 0 219 135 0 218 132 0 218 132 0 218 132 0 218 132 0 219 135 0 219 135 0 219 135 0 218 132 0 218 132 0 218 132 0 218 132 0 218 132 0 218 132 0 218 132 0 219 135 0 219 135 0 219 135 0 218 132 0 218 132 0 218 132 0 218 132 0 218 132 0 218 132 0 218 132 0 218 132 0 218 132 0 218 132 0 219 135 0 218 132 0 218 132 0 218 132 0 218 132 0 219 135 0 219 135 0 219 135 0 219 135 0 219 135 0 219 135 0 219 135 0 219 135 0 218 132 0 218 132 0 218 132 0 218 132 0 219 135 0 218 132 0 219 135 0 218 132 0 218 132 0 219 135 0 218 132 0 219 135 0 218 132 0 218 132 0 218 132 0 218 132 0 218 132 0 218 132 0 219 135 0 218 132 0 219 135 0 218 132 0 218 132 0 218 132 0 218 132 0 218 132 0 219 135 0 219 135 0 218 132 0 218 132 0 218 132 0 218 132 0 218 132 0 218 132 0 218 132 0 218 132 0 218 132 0 218 132 0 218 132 0 218 132 0 219 135 0 218 132 0 218 132 0 218 132 0 218 132 0 218 132 0 219 135 0 219 135 0 219 135 0 219 135 0 218 132 0 219 135 0 218 132 0 219 135 0 219 135 0 
218 132 0 218 132 0 218 132 0 218 132 0 218 132 0 218 132 0 218 132 0 218 132 0 218 132 0 218 132 0 218 132 0 218 132 0 218 132 0 218 132 0 218 132 0 218 132 0 218 132 0 218 132 0 218 132 0 218 132 0 219 135 0 219 135 0 219 135 0 218 132 0 218 132 0 218 132 0 218 132 0 218 132 0 218 132 0 218 132 0 218 132 0 218 132 0 218 132 0 218 132 0 218 132 0 218 132 0 218 132 0 218 132 0 218 132 0 218 132 0 218 132 0 218 132 0 218 132 0 218 132 0 218 132 0 218 132 0 218 132 0 218 132 0 218 132 0 218 132 0 218 132 0 219 135 0 218 132 0 218 132 0 218 132 0 218 132 0 219 135 0 219 135 0 219 135 0 219 135 0 219 135 0 219 135 0 218 132 0 218 132 0 218 132 0 219 135 0 218 132 0 219 135 0 218 132 0 219 135 0 219 135 0 219 135 0 218 132 0 218 132 0 219 135 0 219 135 0 219 135 0 219 135 0 219 135 0 219 135 0 219 135 0 219 135 0 219 135 0 218 132 0 219 135 0 219 135 0 219 135 0 218 132 0 218 132 0 219 135 0 219 135 0 219 135 0 219 135 0 219 135 0 219 135 0 219 135 0 219 135 0 219 135 0 218 132 0 219 135 0 219 135 0 219 135 0 219 135 0 219 135 0 219 135 0 219 135 0 219 135 0 219 135 0 219 135 0 219 135 0 219 135 0 219 135 0 219 135 0 219 135 0 219 135 0 219 135 0 219 135 0 219 135 0 219 135 0 219 135 0 219 135 0 219 135 0 219 135 0 219 135 0 219 135 0 219 135 0 219 135 0 219 135 0 219 135 0 219 135 0 219 135 0 219 135 0 219 135 0 218 132 0 218 132 0 218 132 0 218 132 0 218 132 0 218 132 0 218 132 0 218 132 0 218 132 0 218 132 0 218 132 0 218 132 0 219 135 0 219 135 0 219 135 0 219 135 0 218 132 0 218 132 0 218 132 0 218 132 0 218 132 0 219 135 0 219 135 0 218 132 0 218 132 0 219 135 0 219 135 0 218 132 0 219 135 0 218 132 0 218 132 0 218 132 0 218 132 0 219 135 0 219 135 0 218 132 0 218 132 0 219 135 0 218 132 0 219 135 0 218 132 0 219 135 0 219 135 0 219 135 0 218 132 0 219 135 0 219 135 0 219 135 0 219 135 0 219 135 0 219 135 0 218 132 0 218 132 0 218 132 0 218 132 0 218 132 0 219 135 0 219 135 0 219 135 0 218 132 0 219 135 0 219 135 0 218 132 0 218 132 0 218 132 0 219 135 0 218 132 0 219 135 0 219 135 0 218 132 0 219 135 0 219 135 0 219 135 0 219 135 0 219 135 0 219 135 0 219 135 0 219 135 0 219 135 0 219 135 0 219 135 0 219 135 0 219 135 0 219 135 0 219 135 0 219 135 0 219 135 0 
218 132 0 218 132 0 218 132 0 218 132 0 218 132 0 218 132 0 218 132 0 218 132 0 218 132 0 218 132 0 218 132 0 218 132 0 218 132 0 218 132 0 218 132 0 218 132 0 218 132 0 218 132 0 218 132 0 218 132 0 219 135 0 219 135 0 219 135 0 218 132 0 218 132 0 218 132 0 218 132 0 218 132 0 218 132 0 218 132 0 218 132 0 218 132 0 218 132 0 218 132 0 218 132 0 218 132 0 218 132 0 218 132 0 218 132 0 218 132 0 218 132 0 218 132 0 218 132 0 218 132 0 218 132 0 218 132 0 218 132 0 218 132 0 218 132 0 218 132 0 218 132 0 219 135 0 218 132 0 218 132 0 218 132 0 218 132 0 219 135 0 219 135 0 219 135 0 219 135 0 219 135 0 219 135 0 218 132 0 218 132 0 218 132 0 219 135 0 218 132 0 219 135 0 218 132 0 219 135 0 219 135 0 219 135 0 218 132 0 218 132 0 219 135 0 219 135 0 219 135 0 219 135 0 219 135 0 219 135 0 219 135 0 219 135 0 219 135 0 218 132 0 219 135 0 219 135 0 219 135 0 218 132 0 218 132 0 219 135 0 219 135 0 219 135 0 219 135 0 219 135 0 219 135 0 219 135 0 219 135 0 219 135 0 218 132 0 219 135 0 219 135 0 219 135 0 219 135 0 219 135 0 219 135 0 219 135 0 219 135 0 219 135 0 219 135 0 219 135 0 219 135 0 219 135 0 219 135 0 219 135 0 219 135 0 219 135 0 219 135 0 219 135 0 219 135 0 219 135 0 219 135 0 219 135 0 219 135 0 219 135 0 219 135 0 219 135 0 219 135 0 219 135 0 219 135 0 219 135 0 219 135 0 219 135 0 219 135 0 218 132 0 218 132 0 218 132 0 218 132 0 218 132 0 218 132 0 218 132 0 218 132 0 218 132 0 218 132 0 218 132 0 218 132 0 219 135 0 219 135 0 219 135 0 219 135 0 218 132 0 218 132 0 218 132 0 218 132 0 218 132 0 219 135 0 219 135 0 218 132 0 218 132 0 219 135 0 219 135 0 218 132 0 219 135 0 218 132 0 218 132 0 218 132 0 218 132 0 219 135 0 219 135 0 218 132 0 218 132 0 219 135 0 218 132 0 219 135 0 218 132 0 219 135 0 219 135 0 219 135 0 218 132 0 219 135 0 219 135 0 219 135 0 219 135 0 219 135 0 219 135 0 218 132 0 218 132 0 218 132 0 218 132 0 218 132 0 219 135 0 219 135 0 219 135 0 218 132 0 219 135 0 219 135 0 218 132 0 218 132 0 218 132 0 219 135 0 218 132 0 219 135 0 219 135 0 218 132 0 219 135 0 219 135 0 219 135 0 219 135 0 219 135 0 219 135 0 219 135 0 219 135 0 219 135 0 219 135 0 219 135 0 219 135 0 219 135 0 219 135 0 219 135 0 219 135 0 219 135 0 
218 132 0 219 135 0 218 132 0 218 132 0 218 132 0 219 135 0 219 135 0 218 132 0 218 132 0 218 132 0 218 132 0 218 132 0 218 132 0 218 132 0 218 132 0 218 132 0 218 132 0 218 132 0 218 132 0 218 132 0 219 135 0 219 135 0 218 132 0 218 132 0 218 132 0 218 132 0 219 135 0 219 135 0 218 132 0 219 135 0 219 135 0 218 132 0 218 132 0 218 132 0 219 135 0 219 135 0 219 135 0 219 135 0 219 135 0 219 135 0 219 135 0 218 132 0 219 135 0 219 135 0 218 132 0 219 135 0 219 135 0 219 135 0 219 135 0 218 132 0 219 135 0 219 135 0 219 135 0 219 135 0 219 135 0 219 135 0 219 135 0 219 135 0 219 135 0 218 132 0 218 132 0 219 135 0 219 135 0 219 135 0 219 135 0 219 135 0 219 135 0 219 135 0 219 135 0 219 135 0 219 135 0 219 135 0 219 135 0 219 135 0 219 135 0 219 135 0 219 135 0 218 132 0 219 135 0 219 135 0 219 135 0 219 135 0 219 135 0 219 135 0 219 135 0 219 135 0 219 135 0 219 135 0 219 135 0 219 135 0 219 135 0 219 135 0 219 135 0 219 135 0 219 135 0 219 135 0 219 135 0 219 135 0 219 135 0 219 135 0 219 135 0 219 135 0 219 135 0 219 135 0 219 135 0 219 135 0 219 135 0 219 135 0 219 135 0 218 132 0 219 135 0 219 135 0 219 135 0 219 135 0 219 135 0 219 135 0 219 135 0 219 135 0 219 135 0 219 135 0 219 135 0 219 135 0 218 132 0 219 135 0 219 135 0 219 135 0 219 135 0 219 135 0 219 135 0 219 135 0 219 135 0 219 135 0 219 135 0 218 132 0 218 132 0 219 135 0 218 132 0 219 135 0 219 135 0 219 135 0 218 132 0 218 132 0 218 132 0 218 132 0 219 135 0 219 135 0 219 135 0 219 135 0 219 135 0 219 135 0 219 135 0 219 135 0 219 135 0 219 135 0 218 132 0 218 132 0 219 135 0 219 135 0 219 135 0 218 132 0 218 132 0 219 135 0 219 135 0 219 135 0 218 132 0 218 132 0 219 135 0 219 135 0 219 135 0 219 135 0 219 135 0 219 135 0 219 135 0 219 135 0 219 135 0 219 135 0 219 135 0 219 135 0 219 135 0 219 135 0 219 135 0 219 135 0 219 135 0 219 135 0 219 135 0 219 135 0 218 132 0 218 132 0 219 135 0 219 135 0 219 135 0 219 135 0 219 135 0 220 139 0 220 139 0 219 135 0 220 139 0 219 135 0 219 135 0 219 135 0 219 135 0 219 135 0 219 135 0 220 139 0 219 135 0 219 135 0 219 135 0 219 135 0 219 135 0 219 135 0 220 139 0 220 139 0 219 135 0 219 135 0 219 135 0 219 135 0 219 135 0 219 135 0 219 135 0 219 135 0 
218 132 0 219 135 0 218 132 0 218 132 0 218 132 0 219 135 0 219 135 0 218 132 0 218 132 0 218 132 0 218 132 0 218 132 0 218 132 0 218 132 0 218 132 0 218 132 0 218 132 0 218 132 0 218 132 0 218 132 0 219 135 0 219 135 0 218 132 0 218 132 0 218 132 0 218 132 0 219 135 0 219 135 0 218 132 0 219 135 0 219 135 0 218 132 0 218 132 0 218 132 0 219 135 0 219 135 0 219 135 0 219 135 0 219 135 0 219 135 0 219 135 0 218 132 0 219 135 0 219 135 0 218 132 0 219 135 0 219 135 0 219 135 0 219 135 0 218 132 0 219 135 0 219 135 0 219 135 0 219 135 0 219 135 0 219 135 0 219 135 0 219 135 0 219 135 0 218 132 0 218 132 0 219 135 0 219 135 0 219 135 0 219 135 0 219 135 0 219 135 0 219 135 0 219 135 0 219 135 0 219 135 0 219 135 0 219 135 0 219 135 0 219 135 0 219 135 0 219 135 0 218 132 0 219 135 0 219 135 0 219 135 0 219 135 0 219 135 0 219 135 0 219 135 0 219 135 0 219 135 0 219 135 0 219 135 0 219 135 0 219 135 0 219 135 0 219 135 0 219 135 0 219 135 0 219 135 0 219 135 0 219 135 0 219 135 0 219 135 0 219 135 0 219 135 0 219 135 0 219 135 0 219 135 0 219 135 0 219 135 0 219 135 0 219 135 0 218 132 0 219 135 0 219 135 0 219 135 0 219 135 0 219 135 0 219 135 0 219 135 0 219 135 0 219 135 0 219 135 0 219 135 0 219 135 0 218 132 0 219 135 0 219 135 0 219 135 0 219 135 0 219 135 0 219 135 0 219 135 0 219 135 0 219 135 0 219 135 0 218 132 0 218 132 0 219 135 0 218 132 0 219 135 0 219 135 0 219 135 0 218 132 0 218 132 0 218 132 0 218 132 0 219 135 0 219 135 0 219 135 0 219 135 0 219 135 0 219 135 0 219 135 0 219 135 0 219 135 0 219 135 0 218 132 0 218 132 0 219 135 0 219 135 0 219 135 0 218 132 0 218 132 0 219 135 0 219 135 0 219 135 0 218 132 0 218 132 0 219 135 0 219 135 0 219 135 0 219 135 0 219 135 0 219 135 0 219 135 0 219 135 0 219 135 0 219 135 0 219 135 0 219 135 0 219 135 0 219 135 0 219 135 0 219 135 0 219 135 0 219 135 0 219 135 0 219 135 0 218 132 0 218 132 0 219 135 0 219 135 0 219 135 0 219 135 0 219 135 0 220 139 0 220 139 0 219 135 0 220 139 0 219 135 0 219 135 0 219 135 0 219 135 0 219 135 0 219 135 0 220 139 0 219 135 0 219 135 0 219 135 0 219 135 0 219 135 0 219 135 0 220 139 0 220 139 0 219 135 0 219 135 0 219 135 0 219 135 0 219 135 0 219 135 0 219 135 0 219 135 0 
219 135 0 219 135 0 219 135 0 219 135 0 219 135 0 219 135 0 219 135 0 219 135 0 217 128 0 211 110 0 207 95 0 207 95 0 207 95 0 207 95 0 207 95 0 207 95 0 210 106 0 214 121 0 219 135 0 219 135 0 219 135 0 219 135 0 219 135 0 219 135 0 219 135 0 219 135 0 219 135 0 219 135 0 219 135 0 219 135 0 219 135 0 219 135 0 219 135 0 219 135 0 219 135 0 219 135 0 219 135 0 220 139 0 219 135 0 220 139 0 219 135 0 219 135 0 220 139 0 220 139 0 219 135 0 220 139 0 219 135 0 219 135 0 219 135 0 220 139 0 219 135 0 219 135 0 219 135 0 219 135 0 220 139 0 220 139 0 220 139 0 219 135 0 219 135 0 219 135 0 219 135 0 219 135 0 219 135 0 219 135 0 219 135 0 219 135 0 219 135 0 219 135 0 220 139 0 220 139 0 220 139 0 219 135 0 220 139 0 219 135 0 219 135 0 220 139 0 219 135 0 219 135 0 219 135 0 220 139 0 219 135 0 219 135 0 219 135 0 219 135 0 220 139 0 220 139 0 220 139 0 220 139 0 220 139 0 219 135 0 219 135 0 219 135 0 219 135 0 220 139 0 220 139 0 219 135 0 219 135 0 219 135 0 220 139 0 220 139 0 219 135 0 220 139 0 220 139 0 220 139 0 219 135 0 219 135 0 220 139 0 219 135 0 220 139 0 219 135 0 219 135 0 220 139 0 219 135 0 219 135 0 219 135 0 219 135 0 220 139 0 220 139 0 220 139 0 220 139 0 220 139 0 220 139 0 219 135 0 220 139 0 219 135 0 219 135 0 219 135 0 219 135 0 220 139 0 220 139 0 219 135 0 220 139 0 219 135 0 219 135 0 219 135 0 220 139 0 219 135 0 219 135 0 219 135 0 219 135 0 219 135 0 220 139 0 219 135 0 219 135 0 220 139 0 219 135 0 219 135 0 219 135 0 219 135 0 220 139 0 219 135 0 219 135 0 220 139 0 220 139 0 219 135 0 219 135 0 219 135 0 219 135 0 219 135 0 219 135 0 219 135 0 219 135 0 220 139 0 219 135 0 219 135 0 219 135 0 219 135 0 219 135 0 219 135 0 219 135 0 220 139 0 219 135 0 219 135 0 219 135 0 219 135 0 219 135 0 220 139 0 219 135 0 220 139 0 219 135 0 220 139 0 219 135 0 219 135 0 219 135 0 219 135 0 219 135 0 219 135 0 219 135 0 220 139 0 219 135 0 220 139 0 219 135 0 220 139 0 220 139 0 220 139 0 219 135 0 219 135 0 219 135 0 219 135 0 219 135 0 219 135 0 220 139 0 220 139 0 220 139 0 220 139 0 219 135 0 220 139 0 220 139 0 220 139 0 220 139 0 220 139 0 220 139 0 220 139 0 220 139 0 219 135 0 219 135 0 220 139 0 220 139 0 220 139 0 220 139 0 
219 135 0 219 135 0 219 135 0 219 135 0 219 135 0 219 135 0 219 135 0 219 135 0 217 128 0 211 110 0 207 95 0 207 95 0 207 95 0 207 95 0 207 95 0 207 95 0 210 106 0 214 121 0 219 135 0 219 135 0 219 135 0 219 135 0 219 135 0 219 135 0 219 135 0 219 135 0 219 135 0 219 135 0 219 135 0 219 135 0 219 135 0 219 135 0 219 135 0 219 135 0 219 135 0 219 135 0 219 135 0 220 139 0 219 135 0 220 139 0 219 135 0 219 135 0 220 139 0 220 139 0 219 135 0 220 139 0 219 135 0 219 135 0 219 135 0 220 139 0 219 135 0 219 135 0 219 135 0 219 135 0 220 139 0 220 139 0 220 139 0 219 135 0 219 135 0 219 135 0 219 135 0 219 135 0 219 135 0 219 135 0 219 135 0 219 135 0 219 135 0 219 135 0 220 139 0 220 139 0 220 139 0 219 135 0 220 139 0 219 135 0 219 135 0 220 139 0 219 135 0 219 135 0 219 135 0 220 139 0 219 135 0 219 135 0 219 135 0 219 135 0 220 139 0 220 139 0 220 139 0 220 139 0 220 139 0 219 135 0 219 135 0 219 135 0 219 135 0 220 139 0 220 139 0 219 135 0 219 135 0 219 135 0 220 139 0 220 139 0 219 135 0 220 139 0 220 139 0 220 139 0 219 135 0 219 135 0 220 139 0 219 135 0 220 139 0 219 135 0 219 135 0 220 139 0 219 135 0 219 135 0 219 135 0 219 135 0 220 139 0 220 139 0 220 139 0 220 139 0 220 139 0 220 139 0 219 135 0 220 139 0 219 135 0 219 135 0 219 135 0 219 135 0 220 139 0 220 139 0 219 135 0 220 139 0 219 135 0 219 135 0 219 135 0 220 139 0 219 135 0 219 135 0 219 135 0 219 135 0 219 135 0 220 139 0 219 135 0 219 135 0 220 139 0 219 135 0 219 135 0 219 135 0 219 135 0 220 139 0 219 135 0 219 135 0 220 139 0 220 139 0 219 135 0 219 135 0 219 135 0 219 135 0 219 135 0 219 135 0 219 135 0 219 135 0 220 139 0 219 135 0 219 135 0 219 135 0 219 135 0 219 135 0 219 135 0 219 135 0 220 139 0 219 135 0 219 135 0 219 135 0 219 135 0 219 135 0 220 139 0 219 135 0 220 139 0 219 135 0 220 139 0 219 135 0 219 135 0 219 135 0 219 135 0 219 135 0 219 135 0 219 135 0 220 139 0 219 135 0 220 139 0 219 135 0 220 139 0 220 139 0 220 139 0 219 135 0 219 135 0 219 135 0 219 135 0 219 135 0 219 135 0 220 139 0 220 139 0 220 139 0 220 139 0 219 135 0 220 139 0 220 139 0 220 139 0 220 139 0 220 139 0 220 139 0 220 139 0 220 139 0 219 135 0 219 135 0 220 139 0 220 139 0 220 139 0 220 139 0 
219 135 0 219 135 0 219 135 0 220 139 0 220 139 0 211 110 0 205 88 0 205 88 0 205 88 0 205 88 0 205 88 0 205 88 0 205 88 0 205 88 0 205 88 0 205 88 0 205 88 0 205 88 0 207 95 0 207 95 0 209 103 0 218 132 0 219 135 0 219 135 0 219 135 0 219 135 0 219 135 0 219 135 0 219 135 0 219 135 0 218 132 0 219 135 0 219 135 0 219 135 0 219 135 0 219 135 0 220 139 0 220 139 0 220 139 0 220 139 0 220 139 0 220 139 0 220 139 0 220 139 0 220 139 0 220 139 0 220 139 0 220 139 0 220 139 0 220 139 0 220 139 0 220 139 0 219 135 0 220 139 0 220 139 0 220 139 0 220 139 0 220 139 0 220 139 0 220 139 0 219 135 0 220 139 0 220 139 0 220 139 0 220 139 0 220 139 0 220 139 0 220 139 0 220 139 0 220 139 0 220 139 0 220 139 0 220 139 0 220 139 0 220 139 0 220 139 0 220 139 0 219 135 0 219 135 0 219 135 0 219 135 0 219 135 0 220 139 0 219 135 0 219 135 0 220 139 0 219 135 0 219 135 0 220 139 0 220 139 0 219 135 0 220 139 0 219 135 0 220 139 0 219 135 0 220 139 0 220 139 0 220 139 0 219 135 0 220 139 0 220 139 0 220 139 0 219 135 0 219 135 0 220 139 0 220 139 0 220 139 0 219 135 0 220 139 0 219 135 0 219 135 0 220 139 0 220 139 0 220 139 0 219 135 0 220 139 0 219 135 0 220 139 0 220 139 0 219 135 0 220 139 0 219 135 0 219 135 0 220 139 0 220 139 0 220 139 0 220 139 0 219 135 0 220 139 0 220 139 0 220 139 0 220 139 0 220 139 0 220 139 0 220 139 0 220 139 0 219 135 0 219 135 0 219 135 0 220 139 0 219 135 0 219 135 0 219 135 0 219 135 0 220 139 0 219 135 0 220 139 0 219 135 0 219 135 0 219 135 0 220 139 0 219 135 0 219 135 0 219 135 0 220 139 0 220 139 0 219 135 0 220 139 0 220 139 0 219 135 0 220 139 0 219 135 0 220 139 0 220 139 0 220 139 0 219 135 0 220 139 0 220 139 0 220 139 0 220 139 0 219 135 0 219 135 0 220 139 0 219 135 0 219 135 0 219 135 0 219 135 0 219 135 0 220 139 0 220 139 0 219 135 0 219 135 0 220 139 0 219 135 0 219 135 0 219 135 0 219 135 0 219 135 0 219 135 0 219 135 0 220 139 0 220 139 0 220 139 0 220 139 0 220 139 0 219 135 0 220 139 0 219 135 0 220 139 0 220 139 0 220 139 0 220 139 0 220 139 0 220 139 0 220 139 0 220 139 0 219 135 0 220 139 0 219 135 0 220 139 0 220 139 0 220 139 0 220 139 0 220 139 0 220 139 0 220 139 0 220 139 0 220 139 0 221 142 0 221 142 0 
219 135 0 219 135 0 219 135 0 220 139 0 220 139 0 211 110 0 205 88 0 205 88 0 205 88 0 205 88 0 205 88 0 205 88 0 205 88 0 205 88 0 205 88 0 205 88 0 205 88 0 205 88 0 207 95 0 207 95 0 209 103 0 218 132 0 219 135 0 219 135 0 219 135 0 219 135 0 219 135 0 219 135 0 219 135 0 219 135 0 218 132 0 219 135 0 219 135 0 219 135 0 219 135 0 219 135 0 220 139 0 220 139 0 220 139 0 220 139 0 220 139 0 220 139 0 220 139 0 220 139 0 220 139 0 220 139 0 220 139 0 220 139 0 220 139 0 220 139 0 220 139 0 220 139 0 219 135 0 220 139 0 220 139 0 220 139 0 220 139 0 220 139 0 220 139 0 220 139 0 219 135 0 220 139 0 220 139 0 220 139 0 220 139 0 220 139 0 220 139 0 220 139 0 220 139 0 220 139 0 220 139 0 220 139 0 220 139 0 220 139 0 220 139 0 220 139 0 220 139 0 219 135 0 219 135 0 219 135 0 219 135 0 219 135 0 220 139 0 219 135 0 219 135 0 220 139 0 219 135 0 219 135 0 220 139 0 220 139 0 219 135 0 220 139 0 219 135 0 220 139 0 219 135 0 220 139 0 220 139 0 220 139 0 219 135 0 220 139 0 220 139 0 220 139 0 219 135 0 219 135 0 220 139 0 220 139 0 220 139 0 219 135 0 220 139 0 219 135 0 219 135 0 220 139 0 220 139 0 220 139 0 219 135 0 220 139 0 219 135 0 220 139 0 220 139 0 219 135 0 220 139 0 219 135 0 219 135 0 220 139 0 220 139 0 220 139 0 220 139 0 219 135 0 220 139 0 220 139 0 220 139 0 220 139 0 220 139 0 220 139 0 220 139 0 220 139 0 219 135 0 219 135 0 219 135 0 220 139 0 219 135 0 219 135 0 219 135 0 219 135 0 220 139 0 219 135 0 220 139 0 219 135 0 219 135 0 219 135 0 220 139 0 219 135 0 219 135 0 219 135 0 220 139 0 220 139 0 219 135 0 220 139 0 220 139 0 219 135 0 220 139 0 219 135 0 220 139 0 220 139 0 220 139 0 219 135 0 220 139 0 220 139 0 220 139 0 220 139 0 219 135 0 219 135 0 220 139 0 219 135 0 219 135 0 219 135 0 219 135 0 219 135 0 220 139 0 220 139 0 219 135 0 219 135 0 220 139 0 219 135 0 219 135 0 219 135 0 219 135 0 219 135 0 219 135 0 219 135 0 220 139 0 220 139 0 220 139 0 220 139 0 220 139 0 219 135 0 220 139 0 219 135 0 220 139 0 220 139 0 220 139 0 220 139 0 220 139 0 220 139 0 220 139 0 220 139 0 219 135 0 220 139 0 219 135 0 220 139 0 220 139 0 220 139 0 220 139 0 220 139 0 220 139 0 220 139 0 220 139 0 220 139 0 221 142 0 221 142 0 
209 103 0 214 121 0 218 132 0 211 110 0 205 88 0 205 88 0 205 88 0 205 88 0 205 88 0 205 88 0 205 88 0 205 88 0 205 88 0 205 88 0 205 88 0 205 88 0 205 88 0 205 88 0 205 88 0 205 88 0 207 95 0 207 95 0 205 88 0 217 128 0 219 135 0 218 132 0 217 128 0 215 124 0 215 124 0 217 128 0 218 132 0 220 139 0 220 139 0 220 139 0 220 139 0 220 139 0 219 135 0 219 135 0 220 139 0 219 135 0 220 139 0 220 139 0 220 139 0 220 139 0 220 139 0 220 139 0 219 135 0 220 139 0 220 139 0 220 139 0 220 139 0 219 135 0 220 139 0 220 139 0 220 139 0 220 139 0 220 139 0 220 139 0 220 139 0 220 139 0 220 139 0 219 135 0 220 139 0 220 139 0 220 139 0 221 142 0 220 139 0 220 139 0 220 139 0 220 139 0 220 139 0 219 135 0 220 139 0 220 139 0 220 139 0 219 135 0 220 139 0 220 139 0 220 139 0 219 135 0 219 135 0 220 139 0 220 139 0 220 139 0 219 135 0 219 135 0 219 135 0 220 139 0 220 139 0 220 139 0 220 139 0 220 139 0 220 139 0 220 139 0 220 139 0 220 139 0 220 139 0 220 139 0 220 139 0 220 139 0 220 139 0 220 139 0 220 139 0 220 139 0 220 139 0 220 139 0 220 139 0 220 139 0 220 139 0 219 135 0 219 135 0 220 139 0 220 139 0 220 139 0 220 139 0 220 139 0 220 139 0 220 139 0 220 139 0 220 139 0 220 139 0 220 139 0 220 139 0 220 139 0 219 135 0 220 139 0 219 135 0 220 139 0 220 139 0 220 139 0 219 135 0 220 139 0 220 139 0 220 139 0 220 139 0 219 135 0 220 139 0 220 139 0 220 139 0 220 139 0 220 139 0 220 139 0 219 135 0 219 135 0 219 135 0 219 135 0 219 135 0 219 135 0 220 139 0 220 139 0 220 139 0 219 135 0 220 139 0 220 139 0 220 139 0 220 139 0 220 139 0 220 139 0 220 139 0 220 139 0 219 135 0 220 139 0 220 139 0 220 139 0 220 139 0 220 139 0 220 139 0 220 139 0 220 139 0 219 135 0 220 139 0 220 139 0 220 139 0 220 139 0 220 139 0 220 139 0 220 139 0 220 139 0 220 139 0 220 139 0 219 135 0 219 135 0 220 139 0 220 139 0 219 135 0 219 135 0 220 139 0 220 139 0 219 135 0 220 139 0 220 139 0 220 139 0 220 139 0 220 139 0 219 135 0 220 139 0 220 139 0 220 139 0 220 139 0 220 139 0 220 139 0 220 139 0 220 139 0 220 139 0 220 139 0 220 139 0 220 139 0 220 139 0 220 139 0 220 139 0 221 142 0 220 139 0 220 139 0 220 139 0 220 139 0 220 139 0 220 139 0 220 139 0 221 142 0 220 139 0 
209 103 0 214 121 0 218 132 0 211 110 0 205 88 0 205 88 0 205 88 0 205 88 0 205 88 0 205 88 0 205 88 0 205 88 0 205 88 0 205 88 0 205 88 0 205 88 0 205 88 0 205 88 0 205 88 0 205 88 0 207 95 0 207 95 0 205 88 0 217 128 0 219 135 0 218 132 0 217 128 0 215 124 0 215 124 0 217 128 0 218 132 0 220 139 0 220 139 0 220 139 0 220 139 0 220 139 0 219 135 0 219 135 0 220 139 0 219 135 0 220 139 0 220 139 0 220 139 0 220 139 0 220 139 0 220 139 0 219 135 0 220 139 0 220 139 0 220 139 0 220 139 0 219 135 0 220 139 0 220 139 0 220 139 0 220 139 0 220 139 0 220 139 0 220 139 0 220 139 0 220 139 0 219 135 0 220 139 0 220 139 0 220 139 0 221 142 0 220 139 0 220 139 0 220 139 0 220 139 0 220 139 0 219 135 0 220 139 0 220 139 0 220 139 0 219 135 0 220 139 0 220 139 0 220 139 0 219 135 0 219 135 0 220 139 0 220 139 0 220 139 0 219 135 0 219 135 0 219 135 0 220 139 0 220 139 0 220 139 0 220 139 0 220 139 0 220 139 0 220 139 0 220 139 0 220 139 0 220 139 0 220 139 0 220 139 0 220 139 0 220 139 0 220 139 0 220 139 0 220 139 0 220 139 0 220 139 0 220 139 0 220 139 0 220 139 0 219 135 0 219 135 0 220 139 0 220 139 0 220 139 0 220 139 0 220 139 0 220 139 0 220 139 0 220 139 0 220 139 0 220 139 0 220 139 0 220 139 0 220 139 0 219 135 0 220 139 0 219 135 0 220 139 0 220 139 0 220 139 0 219 135 0 220 139 0 220 139 0 220 139 0 220 139 0 219 135 0 220 139 0 220 139 0 220 139 0 220 139 0 220 139 0 220 139 0 219 135 0 219 135 0 219 135 0 219 135 0 219 135 0 219 135 0 220 139 0 220 139 0 220 139 0 219 135 0 220 139 0 220 139 0 220 139 0 220 139 0 220 139 0 220 139 0 220 139 0 220 139 0 219 135 0 220 139 0 220 139 0 220 139 0 220 139 0 220 139 0 220 139 0 220 139 0 220 139 0 219 135 0 220 139 0 220 139 0 220 139 0 220 139 0 220 139 0 220 139 0 220 139 0 220 139 0 220 139 0 220 139 0 219 135 0 219 135 0 220 139 0 220 139 0 219 135 0 219 135 0 220 139 0 220 139 0 219 135 0 220 139 0 220 139 0 220 139 0 220 139 0 220 139 0 219 135 0 220 139 0 220 139 0 220 139 0 220 139 0 220 139 0 220 139 0 220 139 0 220 139 0 220 139 0 220 139 0 220 139 0 220 139 0 220 139 0 220 139 0 220 139 0 221 142 0 220 139 0 220 139 0 220 139 0 220 139 0 220 139 0 220 139 0 220 139 0 221 142 0 220 139 0 
205 88 0 205 88 0 205 88 0 205 88 0 205 88 0 205 88 0 205 88 0 205 88 0 205 88 0 205 88 0 205 88 0 205 88 0 205 88 0 207 95 0 205 88 0 205 88 0 207 95 0 205 88 0 205 88 0 205 88 0 207 95 0 207 95 0 205 88 0 205 88 0 205 88 0 205 88 0 205 88 0 207 95 0 207 95 0 207 95 0 207 95 0 207 95 0 209 103 0 217 128 0 220 139 0 220 139 0 220 139 0 220 139 0 220 139 0 220 139 0 220 139 0 220 139 0 220 139 0 220 139 0 220 139 0 220 139 0 220 139 0 220 139 0 220 139 0 220 139 0 220 139 0 220 139 0 220 139 0 220 139 0 220 139 0 220 139 0 220 139 0 220 139 0 220 139 0 220 139 0 220 139 0 220 139 0 220 139 0 220 139 0 220 139 0 220 139 0 220 139 0 220 139 0 220 139 0 220 139 0 220 139 0 220 139 0 219 135 0 220 139 0 220 139 0 220 139 0 220 139 0 220 139 0 220 139 0 220 139 0 220 139 0 220 139 0 220 139 0 220 139 0 220 139 0 220 139 0 220 139 0 220 139 0 220 139 0 220 139 0 220 139 0 220 139 0 220 139 0 220 139 0 220 139 0 220 139 0 220 139 0 220 139 0 220 139 0 220 139 0 220 139 0 220 139 0 220 139 0 220 139 0 220 139 0 220 139 0 220 139 0 220 139 0 220 139 0 220 139 0 220 139 0 221 142 0 220 139 0 220 139 0 220 139 0 220 139 0 220 139 0 220 139 0 220 139 0 220 139 0 220 139 0 220 139 0 219 135 0 220 139 0 220 139 0 220 139 0 220 139 0 220 139 0 220 139 0 220 139 0 221 142 0 220 139 0 221 142 0 220 139 0 221 142 0 220 139 0 220 139 0 220 139 0 220 139 0 220 139 0 220 139 0 220 139 0 220 139 0 220 139 0 220 139 0 220 139 0 220 139 0 220 139 0 220 139 0 219 135 0 219 135 0 219 135 0 220 139 0 220 139 0 220 139 0 220 139 0 220 139 0 220 139 0 220 139 0 220 139 0 220 139 0 220 139 0 220 139 0 220 139 0 220 139 0 220 139 0 220 139 0 220 139 0 220 139 0 220 139 0 220 139 0 220 139 0 221 142 0 220 139 0 221 142 0 220 139 0 220 139 0 221 142 0 220 139 0 220 139 0 220 139 0 220 139 0 220 139 0 221 142 0 220 139 0 220 139 0 221 142 0 221 142 0 220 139 0 220 139 0 220 139 0 221 142 0 220 139 0 220 139 0 221 142 0 220 139 0 220 139 0 220 139 0 220 139 0 220 139 0 220 139 0 220 139 0 220 139 0 220 139 0 220 139 0 220 139 0 220 139 0 220 139 0 220 139 0 221 142 0 221 142 0 221 142 0 221 142 0 221 142 0 221 142 0 221 142 0 220 139 0 220 139 0 221 142 0 220 139 0 
205 88 0 205 88 0 205 88 0 205 88 0 205 88 0 205 88 0 205 88 0 205 88 0 205 88 0 205 88 0 205 88 0 205 88 0 205 88 0 207 95 0 205 88 0 205 88 0 207 95 0 205 88 0 205 88 0 205 88 0 207 95 0 207 95 0 205 88 0 205 88 0 205 88 0 205 88 0 205 88 0 207 95 0 207 95 0 207 95 0 207 95 0 207 95 0 209 103 0 217 128 0 220 139 0 220 139 0 220 139 0 220 139 0 220 139 0 220 139 0 220 139 0 220 139 0 220 139 0 220 139 0 220 139 0 220 139 0 220 139 0 220 139 0 220 139 0 220 139 0 220 139 0 220 139 0 220 139 0 220 139 0 220 139 0 220 139 0 220 139 0 220 139 0 220 139 0 220 139 0 220 139 0 220 139 0 220 139 0 220 139 0 220 139 0 220 139 0 220 139 0 220 139 0 220 139 0 220 139 0 220 139 0 220 139 0 219 135 0 220 139 0 220 139 0 220 139 0 220 139 0 220 139 0 220 139 0 220 139 0 220 139 0 220 139 0 220 139 0 220 139 0 220 139 0 220 139 0 220 139 0 220 139 0 220 139 0 220 139 0 220 139 0 220 139 0 220 139 0 220 139 0 220 139 0 220 139 0 220 139 0 220 139 0 220 139 0 220 139 0 220 139 0 220 139 0 220 139 0 220 139 0 220 139 0 220 139 0 220 139 0 220 139 0 220 139 0 220 139 0 220 139 0 221 142 0 220 139 0 220 139 0 220 139 0 220 139 0 220 139 0 220 139 0 220 139 0 220 139 0 220 139 0 220 139 0 219 135 0 220 139 0 220 139 0 220 139 0 220 139 0 220 139 0 220 139 0 220 139 0 221 142 0 220 139 0 221 142 0 220 139 0 221 142 0 220 139 0 220 139 0 220 139 0 220 139 0 220 139 0 220 139 0 220 139 0 220 139 0 220 139 0 220 139 0 220 139 0 220 139 0 220 139 0 220 139 0 219 135 0 219 135 0 219 135 0 220 139 0 220 139 0 220 139 0 220 139 0 220 139 0 220 139 0 220 139 0 220 139 0 220 139 0 220 139 0 220 139 0 220 139 0 220 139 0 220 139 0 220 139 0 220 139 0 220 139 0 220 139 0 220 139 0 220 139 0 221 142 0 220 139 0 221 142 0 220 139 0 220 139 0 221 142 0 220 139 0 220 139 0 220 139 0 220 139 0 220 139 0 221 142 0 220 139 0 220 139 0 221 142 0 221 142 0 220 139 0 220 139 0 220 139 0 221 142 0 220 139 0 220 139 0 221 142 0 220 139 0 220 139 0 220 139 0 220 139 0 220 139 0 220 139 0 220 139 0 220 139 0 220 139 0 220 139 0 220 139 0 220 139 0 220 139 0 220 139 0 221 142 0 221 142 0 221 142 0 221 142 0 221 142 0 221 142 0 221 142 0 220 139 0 220 139 0 221 142 0 220 139 0 
205 88 0 205 88 0 205 88 0 205 88 0 205 88 0 205 88 0 205 88 0 205 88 0 205 88 0 205 88 0 207 95 0 207 95 0 207 95 0 207 95 0 207 95 0 207 95 0 207 95 0 207 95 0 207 95 0 207 95 0 207 95 0 207 95 0 207 95 0 207 95 0 207 95 0 207 95 0 205 88 0 205 88 0 207 95 0 207 95 0 207 95 0 207 95 0 209 103 0 207 95 0 210 106 0 220 139 0 221 142 0 221 142 0 220 139 0 220 139 0 220 139 0 220 139 0 220 139 0 220 139 0 220 139 0 220 139 0 220 139 0 220 139 0 220 139 0 220 139 0 220 139 0 221 142 0 220 139 0 220 139 0 220 139 0 220 139 0 220 139 0 221 142 0 220 139 0 221 142 0 221 142 0 221 142 0 221 142 0 220 139 0 220 139 0 220 139 0 220 139 0 221 142 0 220 139 0 220 139 0 220 139 0 220 139 0 220 139 0 220 139 0 220 139 0 221 142 0 221 142 0 221 142 0 220 139 0 220 139 0 221 142 0 220 139 0 220 139 0 220 139 0 220 139 0 220 139 0 220 139 0 221 142 0 221 142 0 221 142 0 221 142 0 221 142 0 221 142 0 220 139 0 220 139 0 221 142 0 221 142 0 220 139 0 221 142 0 221 142 0 221 142 0 221 142 0 221 142 0 221 142 0 220 139 0 220 139 0 220 139 0 221 142 0 221 142 0 221 142 0 221 142 0 221 142 0 220 139 0 221 142 0 220 139 0 220 139 0 221 142 0 221 142 0 221 142 0 221 142 0 220 139 0 220 139 0 220 139 0 221 142 0 221 142 0 220 139 0 220 139 0 221 142 0 221 142 0 221 142 0 221 142 0 220 139 0 220 139 0 220 139 0 220 139 0 221 142 0 220 139 0 220 139 0 221 142 0 220 139 0 221 142 0 221 142 0 220 139 0 220 139 0 220 139 0 220 139 0 220 139 0 220 139 0 220 139 0 220 139 0 220 139 0 220 139 0 220 139 0 221 142 0 220 139 0 221 142 0 220 139 0 221 142 0 220 139 0 220 139 0 220 139 0 220 139 0 220 139 0 220 139 0 220 139 0 221 142 0 220 139 0 220 139 0 220 139 0 220 139 0 220 139 0 220 139 0 221 142 0 220 139 0 220 139 0 221 142 0 220 139 0 220 139 0 220 139 0 220 139 0 220 139 0 220 139 0 220 139 0 220 139 0 221 142 0 221 142 0 220 139 0 221 142 0 221 142 0 220 139 0 220 139 0 220 139 0 221 142 0 220 139 0 221 142 0 220 139 0 220 139 0 220 139 0 220 139 0 220 139 0 220 139 0 221 142 0 221 142 0 221 142 0 221 142 0 221 142 0 221 142 0 220 139 0 221 142 0 221 142 0 220 139 0 221 142 0 220 139 0 221 142 0 220 139 0 220 139 0 220 139 0 221 142 0 221 142 0 220 139 0 
205 88 0 205 88 0 205 88 0 205 88 0 205 88 0 205 88 0 205 88 0 205 88 0 205 88 0 205 88 0 207 95 0 207 95 0 207 95 0 207 95 0 207 95 0 207 95 0 207 95 0 207 95 0 207 95 0 207 95 0 207 95 0 207 95 0 207 95 0 207 95 0 207 95 0 207 95 0 205 88 0 205 88 0 207 95 0 207 95 0 207 95 0 207 95 0 209 103 0 207 95 0 210 106 0 220 139 0 221 142 0 221 142 0 220 139 0 220 139 0 220 139 0 220 139 0 220 139 0 220 139 0 220 139 0 220 139 0 220 139 0 220 139 0 220 139 0 220 139 0 220 139 0 221 142 0 220 139 0 220 139 0 220 139 0 220 139 0 220 139 0 221 142 0 220 139 0 221 142 0 221 142 0 221 142 0 221 142 0 220 139 0 220 139 0 220 139 0 220 139 0 221 142 0 220 139 0 220 139 0 220 139 0 220 139 0 220 139 0 220 139 0 220 139 0 221 142 0 221 142 0 221 142 0 220 139 0 220 139 0 221 142 0 220 139 0 220 139 0 220 139 0 220 139 0 220 139 0 220 139 0 221 142 0 221 142 0 221 142 0 221 142 0 221 142 0 221 142 0 220 139 0 220 139 0 221 142 0 221 142 0 220 139 0 221 142 0 221 142 0 221 142 0 221 142 0 221 142 0 221 142 0 220 139 0 220 139 0 220 139 0 221 142 0 221 142 0 221 142 0 221 142 0 221 142 0 220 139 0 221 142 0 220 139 0 220 139 0 221 142 0 221 142 0 221 142 0 221 142 0 220 139 0 220 139 0 220 139 0 221 142 0 221 142 0 220 139 0 220 139 0 221 142 0 221 142 0 221 142 0 221 142 0 220 139 0 220 139 0 220 139 0 220 139 0 221 142 0 220 139 0 220 139 0 221 142 0 220 139 0 221 142 0 221 142 0 220 139 0 220 139 0 220 139 0 220 139 0 220 139 0 220 139 0 220 139 0 220 139 0 220 139 0 220 139 0 220 139 0 221 142 0 220 139 0 221 142 0 220 139 0 221 142 0 220 139 0 220 139 0 220 139 0 220 139 0 220 139 0 220 139 0 220 139 0 221 142 0 220 139 0 220 139 0 220 139 0 220 139 0 220 139 0 220 139 0 221 142 0 220 139 0 220 139 0 221 142 0 220 139 0 220 139 0 220 139 0 220 139 0 220 139 0 220 139 0 220 139 0 220 139 0 221 142 0 221 142 0 220 139 0 221 142 0 221 142 0 220 139 0 220 139 0 220 139 0 221 142 0 220 139 0 221 142 0 220 139 0 220 139 0 220 139 0 220 139 0 220 139 0 220 139 0 221 142 0 221 142 0 221 142 0 221 142 0 221 142 0 221 142 0 220 139 0 221 142 0 221 142 0 220 139 0 221 142 0 220 139 0 221 142 0 220 139 0 220 139 0 220 139 0 221 142 0 221 142 0 220 139 0 
205 88 0 205 88 0 207 95 0 207 95 0 205 88 0 205 88 0 205 88 0 205 88 0 205 88 0 207 95 0 205 88 0 207 95 0 207 95 0 207 95 0 207 95 0 207 95 0 207 95 0 207 95 0 207 95 0 207 95 0 207 95 0 207 95 0 207 95 0 207 95 0 207 95 0 207 95 0 207 95 0 207 95 0 207 95 0 207 95 0 207 95 0 207 95 0 207 95 0 207 95 0 207 95 0 211 110 0 221 142 0 220 139 0 220 139 0 220 139 0 220 139 0 220 139 0 220 139 0 220 139 0 220 139 0 220 139 0 221 142 0 220 139 0 221 142 0 221 142 0 220 139 0 221 142 0 221 142 0 221 142 0 221 142 0 221 142 0 221 142 0 221 142 0 220 139 0 221 142 0 221 142 0 221 142 0 221 142 0 221 142 0 221 142 0 221 142 0 220 139 0 221 142 0 221 142 0 220 139 0 221 142 0 221 142 0 221 142 0 221 142 0 221 142 0 221 142 0 221 142 0 221 142 0 220 139 0 221 142 0 220 139 0 221 142 0 221 142 0 221 142 0 221 142 0 220 139 0 221 142 0 221 142 0 221 142 0 221 142 0 221 142 0 221 142 0 221 142 0 220 139 0 221 142 0 221 142 0 220 139 0 220 139 0 220 139 0 221 142 0 221 142 0 220 139 0 221 142 0 220 139 0 221 142 0 220 139 0 220 139 0 221 142 0 221 142 0 221 142 0 222 146 0 221 142 0 221 142 0 221 142 0 221 142 0 220 139 0 221 142 0 221 142 0 221 142 0 221 142 0 221 142 0 221 142 0 221 142 0 221 142 0 221 142 0 221 142 0 221 142 0 220 139 0 220 139 0 221 142 0 221 142 0 221 142 0 220 139 0 221 142 0 221 142 0 221 142 0 221 142 0 221 142 0 221 142 0 220 139 0 221 142 0 221 142 0 221 142 0 221 142 0 221 142 0 221 142 0 221 142 0 220 139 0 221 142 0 221 142 0 221 142 0 220 139 0 220 139 0 221 142 0 221 142 0 221 142 0 221 142 0 221 142 0 220 139 0 221 142 0 221 142 0 221 142 0 221 142 0 220 139 0 221 142 0 221 142 0 221 142 0 221 142 0 220 139 0 220 139 0 220 139 0 221 142 0 221 142 0 221 142 0 220 139 0 221 142 0 220 139 0 220 139 0 220 139 0 220 139 0 220 139 0 221 142 0 221 142 0 221 142 0 220 139 0 220 139 0 221 142 0 221 142 0 221 142 0 220 139 0 221 142 0 221 142 0 221 142 0 221 142 0 221 142 0 221 142 0 221 142 0 220 139 0 221 142 0 220 139 0 220 139 0 221 142 0 221 142 0 221 142 0 221 142 0 221 142 0 221 142 0 220 139 0 220 139 0 220 139 0 221 142 0 221 142 0 221 142 0 221 142 0 221 142 0 220 139 0 212 113 0 207 95 0 207 95 0 207 95 0 
205 88 0 205 88 0 207 95 0 207 95 0 205 88 0 205 88 0 205 88 0 205 88 0 205 88 0 207 95 0 205 88 0 207 95 0 207 95 0 207 95 0 207 95 0 207 95 0 207 95 0 207 95 0 207 95 0 207 95 0 207 95 0 207 95 0 207 95 0 207 95 0 207 95 0 207 95 0 207 95 0 207 95 0 207 95 0 207 95 0 207 95 0 207 95 0 207 95 0 207 95 0 207 95 0 211 110 0 221 142 0 220 139 0 220 139 0 220 139 0 220 139 0 220 139 0 220 139 0 220 139 0 220 139 0 220 139 0 221 142 0 220 139 0 221 142 0 221 142 0 220 139 0 221 142 0 221 142 0 221 142 0 221 142 0 221 142 0 221 142 0 221 142 0 220 139 0 221 142 0 221 142 0 221 142 0 221 142 0 221 142 0 221 142 0 221 142 0 220 139 0 221 142 0 221 142 0 220 139 0 221 142 0 221 142 0 221 142 0 221 142 0 221 142 0 221 142 0 221 142 0 221 142 0 220 139 0 221 142 0 220 139 0 221 142 0 221 142 0 221 142 0 221 142 0 220 139 0 221 142 0 221 142 0 221 142 0 221 142 0 221 142 0 221 142 0 221 142 0 220 139 0 221 142 0 221 142 0 220 139 0 220 139 0 220 139 0 221 142 0 221 142 0 220 139 0 221 142 0 220 139 0 221 142 0 220 139 0 220 139 0 221 142 0 221 142 0 221 142 0 222 146 0 221 142 0 221 142 0 221 142 0 221 142 0 220 139 0 221 142 0 221 142 0 221 142 0 221 142 0 221 142 0 221 142 0 221 142 0 221 142 0 221 142 0 221 142 0 221 142 0 220 139 0 220 139 0 221 142 0 221 142 0 221 142 0 220 139 0 221 142 0 221 142 0 221 142 0 221 142 0 221 142 0 221 142 0 220 139 0 221 142 0 221 142 0 221 142 0 221 142 0 221 142 0 221 142 0 221 142 0 220 139 0 221 142 0 221 142 0 221 142 0 220 139 0 220 139 0 221 142 0 221 142 0 221 142 0 221 142 0 221 142 0 220 139 0 221 142 0 221 142 0 221 142 0 221 142 0 220 139 0 221 142 0 221 142 0 221 142 0 221 142 0 220 139 0 220 139 0 220 139 0 221 142 0 221 142 0 221 142 0 220 139 0 221 142 0 220 139 0 220 139 0 220 139 0 220 139 0 220 139 0 221 142 0 221 142 0 221 142 0 220 139 0 220 139 0 221 142 0 221 142 0 221 142 0 220 139 0 221 142 0 221 142 0 221 142 0 221 142 0 221 142 0 221 142 0 221 142 0 220 139 0 221 142 0 220 139 0 220 139 0 221 142 0 221 142 0 221 142 0 221 142 0 221 142 0 221 142 0 220 139 0 220 139 0 220 139 0 221 142 0 221 142 0 221 142 0 221 142 0 221 142 0 220 139 0 212 113 0 207 95 0 207 95 0 207 95 0 
205 88 0 207 95 0 207 95 0 207 95 0 205 88 0 205 88 0 207 95 0 207 95 0 207 95 0 207 95 0 207 95 0 207 95 0 207 95 0 207 95 0 205 88 0 207 95 0 207 95 0 207 95 0 207 95 0 207 95 0 207 95 0 205 88 0 207 95 0 207 95 0 207 95 0 207 95 0 207 95 0 207 95 0 207 95 0 207 95 0 207 95 0 207 95 0 207 95 0 207 95 0 209 103 0 209 103 0 212 113 0 210 106 0 210 106 0 210 106 0 210 106 0 211 110 0 214 121 0 219 135 0 220 139 0 221 142 0 221 142 0 221 142 0 221 142 0 221 142 0 221 142 0 221 142 0 221 142 0 221 142 0 221 142 0 221 142 0 222 146 0 221 142 0 220 139 0 221 142 0 221 142 0 221 142 0 221 142 0 221 142 0 221 142 0 222 146 0 221 142 0 221 142 0 221 142 0 221 142 0 221 142 0 221 142 0 222 146 0 221 142 0 222 146 0 221 142 0 221 142 0 221 142 0 221 142 0 221 142 0 221 142 0 221 142 0 221 142 0 221 142 0 222 146 0 222 146 0 222 146 0 222 146 0 222 146 0 221 142 0 221 142 0 221 142 0 222 146 0 222 146 0 221 142 0 221 142 0 221 142 0 221 142 0 222 146 0 221 142 0 221 142 0 221 142 0 221 142 0 221 142 0 221 142 0 221 142 0 221 142 0 222 146 0 221 142 0 221 142 0 221 142 0 222 146 0 221 142 0 221 142 0 221 142 0 221 142 0 221 142 0 221 142 0 221 142 0 222 146 0 222 146 0 221 142 0 220 139 0 221 142 0 221 142 0 221 142 0 221 142 0 221 142 0 221 142 0 221 142 0 221 142 0 221 142 0 221 142 0 221 142 0 221 142 0 221 142 0 221 142 0 221 142 0 221 142 0 220 139 0 220 139 0 221 142 0 221 142 0 221 142 0 221 142 0 221 142 0 222 146 0 221 142 0 222 146 0 221 142 0 220 139 0 221 142 0 221 142 0 221 142 0 221 142 0 221 142 0 221 142 0 221 142 0 221 142 0 221 142 0 221 142 0 221 142 0 222 146 0 221 142 0 221 142 0 221 142 0 222 146 0 221 142 0 221 142 0 221 142 0 221 142 0 221 142 0 221 142 0 221 142 0 221 142 0 221 142 0 221 142 0 221 142 0 221 142 0 221 142 0 221 142 0 221 142 0 221 142 0 221 142 0 221 142 0 221 142 0 220 139 0 221 142 0 221 142 0 221 142 0 221 142 0 221 142 0 221 142 0 221 142 0 221 142 0 221 142 0 222 146 0 221 142 0 221 142 0 221 142 0 221 142 0 221 142 0 221 142 0 221 142 0 219 135 0 214 121 0 211 110 0 210 106 0 210 106 0 210 106 0 211 110 0 214 121 0 220 139 0 219 135 0 209 103 0 207 95 0 205 88 0 205 88 0 207 95 0 207 95 0 
205 88 0 207 95 0 207 95 0 207 95 0 205 88 0 205 88 0 207 95 0 207 95 0 207 95 0 207 95 0 207 95 0 207 95 0 207 95 0 207 95 0 205 88 0 207 95 0 207 95 0 207 95 0 207 95 0 207 95 0 207 95 0 205 88 0 207 95 0 207 95 0 207 95 0 207 95 0 207 95 0 207 95 0 207 95 0 207 95 0 207 95 0 207 95 0 207 95 0 207 95 0 209 103 0 209 103 0 212 113 0 210 106 0 210 106 0 210 106 0 210 106 0 211 110 0 214 121 0 219 135 0 220 139 0 221 142 0 221 142 0 221 142 0 221 142 0 221 142 0 221 142 0 221 142 0 221 142 0 221 142 0 221 142 0 221 142 0 222 146 0 221 142 0 220 139 0 221 142 0 221 142 0 221 142 0 221 142 0 221 142 0 221 142 0 222 146 0 221 142 0 221 142 0 221 142 0 221 142 0 221 142 0 221 142 0 222 146 0 221 142 0 222 146 0 221 142 0 221 142 0 221 142 0 221 142 0 221 142 0 221 142 0 221 142 0 221 142 0 221 142 0 222 146 0 222 146 0 222 146 0 222 146 0 222 146 0 221 142 0 221 142 0 221 142 0 222 146 0 222 146 0 221 142 0 221 142 0 221 142 0 221 142 0 222 146 0 221 142 0 221 142 0 221 142 0 221 142 0 221 142 0 221 142 0 221 142 0 221 142 0 222 146 0 221 142 0 221 142 0 221 142 0 222 146 0 221 142 0 221 142 0 221 142 0 221 142 0 221 142 0 221 142 0 221 142 0 222 146 0 222 146 0 221 142 0 220 139 0 221 142 0 221 142 0 221 142 0 221 142 0 221 142 0 221 142 0 221 142 0 221 142 0 221 142 0 221 142 0 221 142 0 221 142 0 221 142 0 221 142 0 221 142 0 221 142 0 220 139 0 220 139 0 221 142 0 221 142 0 221 142 0 221 142 0 221 142 0 222 146 0 221 142 0 222 146 0 221 142 0 220 139 0 221 142 0 221 142 0 221 142 0 221 142 0 221 142 0 221 142 0 221 142 0 221 142 0 221 142 0 221 142 0 221 142 0 222 146 0 221 142 0 221 142 0 221 142 0 222 146 0 221 142 0 221 142 0 221 142 0 221 142 0 221 142 0 221 142 0 221 142 0 221 142 0 221 142 0 221 142 0 221 142 0 221 142 0 221 142 0 221 142 0 221 142 0 221 142 0 221 142 0 221 142 0 221 142 0 220 139 0 221 142 0 221 142 0 221 142 0 221 142 0 221 142 0 221 142 0 221 142 0 221 142 0 221 142 0 222 146 0 221 142 0 221 142 0 221 142 0 221 142 0 221 142 0 221 142 0 221 142 0 219 135 0 214 121 0 211 110 0 210 106 0 210 106 0 210 106 0 211 110 0 214 121 0 220 139 0 219 135 0 209 103 0 207 95 0 205 88 0 205 88 0 207 95 0 207 95 0 
207 95 0 205 88 0 205 88 0 205 88 0 207 95 0 207 95 0 207 95 0 207 95 0 207 95 0 207 95 0 207 95 0 207 95 0 207 95 0 207 95 0 207 95 0 207 95 0 207 95 0 207 95 0 207 95 0 207 95 0 207 95 0 207 95 0 207 95 0 207 95 0 207 95 0 207 95 0 207 95 0 207 95 0 209 103 0 209 103 0 209 103 0 209 103 0 209 103 0 207 95 0 209 103 0 209 103 0 209 103 0 209 103 0 209 103 0 209 103 0 209 103 0 209 103 0 209 103 0 209 103 0 209 103 0 210 106 0 220 139 0 221 142 0 221 142 0 221 142 0 221 142 0 221 142 0 221 142 0 222 146 0 221 142 0 222 146 0 221 142 0 221 142 0 221 142 0 221 142 0 221 142 0 221 142 0 221 142 0 221 142 0 221 142 0 222 146 0 221 142 0 221 142 0 221 142 0 221 142 0 221 142 0 222 146 0 222 146 0 222 146 0 222 146 0 221 142 0 221 142 0 221 142 0 221 142 0 221 142 0 221 142 0 222 146 0 222 146 0 222 146 0 222 146 0 222 146 0 222 146 0 221 142 0 221 142 0 221 142 0 222 146 0 222 146 0 221 142 0 222 146 0 221 142 0 222 146 0 222 146 0 221 142 0 221 142 0 221 142 0 221 142 0 221 142 0 221 142 0 221 142 0 221 142 0 221 142 0 222 146 0 222 146 0 222 146 0 222 146 0 222 146 0 222 146 0 221 142 0 222 146 0 221 142 0 221 142 0 221 142 0 221 142 0 222 146 0 222 146 0 221 142 0 221 142 0 221 142 0 221 142 0 221 142 0 221 142 0 221 142 0 221 142 0 222 146 0 221 142 0 221 142 0 221 142 0 221 142 0 221 142 0 221 142 0 221 142 0 221 142 0 221 142 0 221 142 0 221 142 0 221 142 0 221 142 0 221 142 0 222 146 0 222 146 0 222 146 0 221 142 0 221 142 0 221 142 0 221 142 0 221 142 0 221 142 0 222 146 0 222 146 0 222 146 0 222 146 0 222 146 0 221 142 0 221 142 0 221 142 0 221 142 0 222 146 0 222 146 0 222 146 0 222 146 0 222 146 0 222 146 0 222 146 0 221 142 0 222 146 0 222 146 0 222 146 0 222 146 0 221 142 0 221 142 0 222 146 0 222 146 0 221 142 0 222 146 0 222 146 0 222 146 0 221 142 0 222 146 0 222 146 0 222 146 0 221 142 0 221 142 0 221 142 0 221 142 0 222 146 0 222 146 0 222 146 0 222 146 0 222 146 0 222 146 0 222 146 0 222 146 0 221 142 0 221 142 0 221 142 0 220 139 0 211 110 0 209 103 0 207 95 0 207 95 0 207 95 0 207 95 0 207 95 0 205 88 0 205 88 0 205 88 0 205 88 0 205 88 0 205 88 0 205 88 0 205 88 0 205 88 0 205 88 0 207 95 0 207 95 0 
207 95 0 205 88 0 205 88 0 205 88 0 207 95 0 207 95 0 207 95 0 207 95 0 207 95 0 207 95 0 207 95 0 207 95 0 207 95 0 207 95 0 207 95 0 207 95 0 207 95 0 207 95 0 207 95 0 207 95 0 207 95 0 207 95 0 207 95 0 207 95 0 207 95 0 207 95 0 207 95 0 207 95 0 209 103 0 209 103 0 209 103 0 209 103 0 209 103 0 207 95 0 209 103 0 209 103 0 209 103 0 209 103 0 209 103 0 209 103 0 209 103 0 209 103 0 209 103 0 209 103 0 209 103 0 210 106 0 220 139 0 221 142 0 221 142 0 221 142 0 221 142 0 221 142 0 221 142 0 222 146 0 221 142 0 222 146 0 221 142 0 221 142 0 221 142 0 221 142 0 221 142 0 221 142 0 221 142 0 221 142 0 221 142 0 222 146 0 221 142 0 221 142 0 221 142 0 221 142 0 221 142 0 222 146 0 222 146 0 222 146 0 222 146 0 221 142 0 221 142 0 221 142 0 221 142 0 221 142 0 221 142 0 222 146 0 222 146 0 222 146 0 222 146 0 222 146 0 222 146 0 221 142 0 221 142 0 221 142 0 222 146 0 222 146 0 221 142 0 222 146 0 221 142 0 222 146 0 222 146 0 221 142 0 221 142 0 221 142 0 221 142 0 221 142 0 221 142 0 221 142 0 221 142 0 221 142 0 222 146 0 222 146 0 222 146 0 222 146 0 222 146 0 222 146 0 221 142 0 222 146 0 221 142 0 221 142 0 221 142 0 221 142 0 222 146 0 222 146 0 221 142 0 221 142 0 221 142 0 221 142 0 221 142 0 221 142 0 221 142 0 221 142 0 222 146 0 221 142 0 221 142 0 221 142 0 221 142 0 221 142 0 221 142 0 221 142 0 221 142 0 221 142 0 221 142 0 221 142 0 221 142 0 221 142 0 221 142 0 222 146 0 222 146 0 222 146 0 221 142 0 221 142 0 221 142 0 221 142 0 221 142 0 221 142 0 222 146 0 222 146 0 222 146 0 222 146 0 222 146 0 221 142 0 221 142 0 221 142 0 221 142 0 222 146 0 222 146 0 222 146 0 222 146 0 222 146 0 222 146 0 222 146 0 221 142 0 222 146 0 222 146 0 222 146 0 222 146 0 221 142 0 221 142 0 222 146 0 222 146 0 221 142 0 222 146 0 222 146 0 222 146 0 221 142 0 222 146 0 222 146 0 222 146 0 221 142 0 221 142 0 221 142 0 221 142 0 222 146 0 222 146 0 222 146 0 222 146 0 222 146 0 222 146 0 222 146 0 222 146 0 221 142 0 221 142 0 221 142 0 220 139 0 211 110 0 209 103 0 207 95 0 207 95 0 207 95 0 207 95 0 207 95 0 205 88 0 205 88 0 205 88 0 205 88 0 205 88 0 205 88 0 205 88 0 205 88 0 205 88 0 205 88 0 207 95 0 207 95 0 
211 110 0 212 113 0 212 113 0 212 113 0 212 113 0 210 106 0 209 103 0 207 95 0 207 95 0 207 95 0 207 95 0 207 95 0 207 95 0 207 95 0 207 95 0 209 103 0 209 103 0 209 103 0 207 95 0 207 95 0 207 95 0 209 103 0 209 103 0 209 103 0 207 95 0 209 103 0 207 95 0 209 103 0 209 103 0 209 103 0 209 103 0 209 103 0 209 103 0 209 103 0 209 103 0 209 103 0 209 103 0 209 103 0 209 103 0 209 103 0 209 103 0 210 106 0 210 106 0 210 106 0 210 106 0 210 106 0 210 106 0 212 113 0 221 142 0 221 142 0 221 142 0 222 146 0 222 146 0 221 142 0 221 142 0 222 146 0 222 146 0 222 146 0 222 146 0 221 142 0 221 142 0 221 142 0 222 146 0 221 142 0 221 142 0 221 142 0 221 142 0 221 142 0 221 142 0 222 146 0 222 146 0 222 146 0 221 142 0 222 146 0 222 146 0 222 146 0 222 146 0 221 142 0 221 142 0 221 142 0 222 146 0 222 146 0 222 146 0 222 146 0 222 146 0 222 146 0 221 142 0 222 146 0 221 142 0 222 146 0 221 142 0 221 142 0 222 146 0 222 146 0 221 142 0 221 142 0 222 146 0 222 146 0 222 146 0 222 146 0 222 146 0 222 146 0 222 146 0 222 146 0 222 146 0 222 146 0 222 146 0 222 146 0 221 142 0 221 142 0 221 142 0 221 142 0 221 142 0 221 142 0 221 142 0 222 146 0 222 146 0 222 146 0 222 146 0 222 146 0 222 146 0 222 146 0 221 142 0 221 142 0 222 146 0 222 146 0 222 146 0 222 146 0 222 146 0 222 146 0 222 146 0 222 146 0 222 146 0 222 146 0 222 146 0 222 146 0 222 146 0 222 146 0 222 146 0 222 146 0 222 146 0 222 146 0 222 146 0 222 146 0 222 146 0 221 142 0 221 142 0 221 142 0 222 146 0 221 142 0 221 142 0 222 146 0 221 142 0 222 146 0 221 142 0 222 146 0 222 146 0 222 146 0 222 146 0 221 142 0 221 142 0 221 142 0 222 146 0 222 146 0 222 146 0 222 146 0 222 146 0 222 146 0 221 142 0 222 146 0 222 146 0 221 142 0 221 142 0 221 142 0 222 146 0 221 142 0 222 146 0 222 146 0 222 146 0 222 146 0 222 146 0 222 146 0 222 146 0 222 146 0 222 146 0 222 146 0 222 146 0 221 142 0 222 146 0 222 146 0 222 146 0 221 142 0 222 146 0 222 146 0 222 146 0 222 146 0 222 146 0 222 146 0 221 142 0 210 106 0 207 95 0 207 95 0 207 95 0 209 103 0 207 95 0 207 95 0 207 95 0 207 95 0 207 95 0 207 95 0 207 95 0 207 95 0 207 95 0 205 88 0 207 95 0 207 95 0 207 95 0 205 88 0 205 88 0 207 95 0 
211 110 0 212 113 0 212 113 0 212 113 0 212 113 0 210 106 0 209 103 0 207 95 0 207 95 0 207 95 0 207 95 0 207 95 0 207 95 0 207 95 0 207 95 0 209 103 0 209 103 0 209 103 0 207 95 0 207 95 0 207 95 0 209 103 0 209 103 0 209 103 0 207 95 0 209 103 0 207 95 0 209 103 0 209 103 0 209 103 0 209 103 0 209 103 0 209 103 0 209 103 0 209 103 0 209 103 0 209 103 0 209 103 0 209 103 0 209 103 0 209 103 0 210 106 0 210 106 0 210 106 0 210 106 0 210 106 0 210 106 0 212 113 0 221 142 0 221 142 0 221 142 0 222 146 0 222 146 0 221 142 0 221 142 0 222 146 0 222 146 0 222 146 0 222 146 0 221 142 0 221 142 0 221 142 0 222 146 0 221 142 0 221 142 0 221 142 0 221 142 0 221 142 0 221 142 0 222 146 0 222 146 0 222 146 0 221 142 0 222 146 0 222 146 0 222 146 0 222 146 0 221 142 0 221 142 0 221 142 0 222 146 0 222 146 0 222 146 0 222 146 0 222 146 0 222 146 0 221 142 0 222 146 0 221 142 0 222 146 0 221 142 0 221 142 0 222 146 0 222 146 0 221 142 0 221 142 0 222 146 0 222 146 0 222 146 0 222 146 0 222 146 0 222 146 0 222 146 0 222 146 0 222 146 0 222 146 0 222 146 0 222 146 0 221 142 0 221 142 0 221 142 0 221 142 0 221 142 0 221 142 0 221 142 0 222 146 0 222 146 0 222 146 0 222 146 0 222 146 0 222 146 0 222 146 0 221 142 0 221 142 0 222 146 0 222 146 0 222 146 0 222 146 0 222 146 0 222 146 0 222 146 0 222 146 0 222 146 0 222 146 0 222 146 0 222 146 0 222 146 0 222 146 0 222 146 0 222 146 0 222 146 0 222 146 0 222 146 0 222 146 0 222 146 0 221 142 0 221 142 0 221 142 0 222 146 0 221 142 0 221 142 0 222 146 0 221 142 0 222 146 0 221 142 0 222 146 0 222 146 0 222 146 0 222 146 0 221 142 0 221 142 0 221 142 0 222 146 0 222 146 0 222 146 0 222 146 0 222 146 0 222 146 0 221 142 0 222 146 0 222 146 0 221 142 0 221 142 0 221 142 0 222 146 0 221 142 0 222 146 0 222 146 0 222 146 0 222 146 0 222 146 0 222 146 0 222 146 0 222 146 0 222 146 0 222 146 0 222 146 0 221 142 0 222 146 0 222 146 0 222 146 0 221 142 0 222 146 0 222 146 0 222 146 0 222 146 0 222 146 0 222 146 0 221 142 0 210 106 0 207 95 0 207 95 0 207 95 0 209 103 0 207 95 0 207 95 0 207 95 0 207 95 0 207 95 0 207 95 0 207 95 0 207 95 0 207 95 0 205 88 0 207 95 0 207 95 0 207 95 0 205 88 0 205 88 0 207 95 0 
212 113 0 212 113 0 212 113 0 214 121 0 212 113 0 214 121 0 214 121 0 214 121 0 214 121 0 214 121 0 210 106 0 209 103 0 209 103 0 209 103 0 209 103 0 209 103 0 209 103 0 209 103 0 209 103 0 209 103 0 209 103 0 210 106 0 210 106 0 210 106 0 209 103 0 209 103 0 209 103 0 209 103 0 209 103 0 210 106 0 210 106 0 210 106 0 209 103 0 210 106 0 209 103 0 209 103 0 210 106 0 210 106 0 209 103 0 209 103 0 210 106 0 210 106 0 210 106 0 210 106 0 210 106 0 210 106 0 210 106 0 210 106 0 217 128 0 227 164 0 227 164 0 227 164 0 227 164 0 227 164 0 227 164 0 228 168 0 227 164 0 228 168 0 228 168 0 227 164 0 227 164 0 228 168 0 227 164 0 228 168 0 228 168 0 228 168 0 228 168 0 228 168 0 227 164 0 227 164 0 228 168 0 228 168 0 228 168 0 228 168 0 228 168 0 227 164 0 228 168 0 228 168 0 227 164 0 227 164 0 227 164 0 228 168 0 228 168 0 228 168 0 228 168 0 228 168 0 228 168 0 228 168 0 228 168 0 228 168 0 228 168 0 228 168 0 228 168 0 228 168 0 228 168 0 228 168 0 228 168 0 228 168 0 227 164 0 228 168 0 228 168 0 228 168 0 228 168 0 228 168 0 228 168 0 228 168 0 228 168 0 228 168 0 228 168 0 228 168 0 228 168 0 228 168 0 228 168 0 228 168 0 227 164 0 227 164 0 227 164 0 228 168 0 228 168 0 228 168 0 228 168 0 228 168 0 228 168 0 228 168 0 228 168 0 228 168 0 228 168 0 230 171 0 228 168 0 228 168 0 228 168 0 228 168 0 228 168 0 228 168 0 228 168 0 228 168 0 228 168 0 228 168 0 228 168 0 228 168 0 228 168 0 228 168 0 228 168 0 228 168 0 228 168 0 228 168 0 227 164 0 227 164 0 228 168 0 227 164 0 227 164 0 228 168 0 228 168 0 228 168 0 228 168 0 228 168 0 228 168 0 228 168 0 227 164 0 227 164 0 227 164 0 227 164 0 227 164 0 227 164 0 227 164 0 227 164 0 227 164 0 227 164 0 227 164 0 227 164 0 226 160 0 226 160 0 226 160 0 227 164 0 227 164 0 227 164 0 227 164 0 227 164 0 227 164 0 226 160 0 226 160 0 227 164 0 227 164 0 226 160 0 226 160 0 226 160 0 226 160 0 226 160 0 226 160 0 226 160 0 226 160 0 227 164 0 227 164 0 226 160 0 226 160 0 226 160 0 224 153 0 222 146 0 209 103 0 209 103 0 207 95 0 207 95 0 207 95 0 207 95 0 209 103 0 207 95 0 207 95 0 207 95 0 207 95 0 207 95 0 207 95 0 207 95 0 207 95 0 207 95 0 207 95 0 207 95 0 207 95 0 207 95 0 207 95 0 207 95 0 
212 113 0 212 113 0 212 113 0 214 121 0 212 113 0 214 121 0 214 121 0 214 121 0 214 121 0 214 121 0 210 106 0 209 103 0 209 103 0 209 103 0 209 103 0 209 103 0 209 103 0 209 103 0 209 103 0 209 103 0 209 103 0 210 106 0 210 106 0 210 106 0 209 103 0 209 103 0 209 103 0 209 103 0 209 103 0 210 106 0 210 106 0 210 106 0 209 103 0 210 106 0 209 103 0 209 103 0 210 106 0 210 106 0 209 103 0 209 103 0 210 106 0 210 106 0 210 106 0 210 106 0 210 106 0 210 106 0 210 106 0 210 106 0 217 128 0 227 164 0 227 164 0 227 164 0 227 164 0 227 164 0 227 164 0 228 168 0 227 164 0 228 168 0 228 168 0 227 164 0 227 164 0 228 168 0 227 164 0 228 168 0 228 168 0 228 168 0 228 168 0 228 168 0 227 164 0 227 164 0 228 168 0 228 168 0 228 168 0 228 168 0 228 168 0 227 164 0 228 168 0 228 168 0 227 164 0 227 164 0 227 164 0 228 168 0 228 168 0 228 168 0 228 168 0 228 168 0 228 168 0 228 168 0 228 168 0 228 168 0 228 168 0 228 168 0 228 168 0 228 168 0 228 168 0 228 168 0 228 168 0 228 168 0 227 164 0 228 168 0 228 168 0 228 168 0 228 168 0 228 168 0 228 168 0 228 168 0 228 168 0 228 168 0 228 168 0 228 168 0 228 168 0 228 168 0 228 168 0 228 168 0 227 164 0 227 164 0 227 164 0 228 168 0 228 168 0 228 168 0 228 168 0 228 168 0 228 168 0 228 168 0 228 168 0 228 168 0 228 168 0 230 171 0 228 168 0 228 168 0 228 168 0 228 168 0 228 168 0 228 168 0 228 168 0 228 168 0 228 168 0 228 168 0 228 168 0 228 168 0 228 168 0 228 168 0 228 168 0 228 168 0 228 168 0 228 168 0 227 164 0 227 164 0 228 168 0 227 164 0 227 164 0 228 168 0 228 168 0 228 168 0 228 168 0 228 168 0 228 168 0 228 168 0 227 164 0 227 164 0 227 164 0 227 164 0 227 164 0 227 164 0 227 164 0 227 164 0 227 164 0 227 164 0 227 164 0 227 164 0 226 160 0 226 160 0 226 160 0 227 164 0 227 164 0 227 164 0 227 164 0 227 164 0 227 164 0 226 160 0 226 160 0 227 164 0 227 164 0 226 160 0 226 160 0 226 160 0 226 160 0 226 160 0 226 160 0 226 160 0 226 160 0 227 164 0 227 164 0 226 160 0 226 160 0 226 160 0 224 153 0 222 146 0 209 103 0 209 103 0 207 95 0 207 95 0 207 95 0 207 95 0 209 103 0 207 95 0 207 95 0 207 95 0 207 95 0 207 95 0 207 95 0 207 95 0 207 95 0 207 95 0 207 95 0 207 95 0 207 95 0 207 95 0 207 95 0 207 95 0 
212 113 0 214 121 0 212 113 0 214 121 0 214 121 0 214 121 0 214 121 0 214 121 0 214 121 0 215 124 0 215 124 0 215 124 0 212 113 0 209 103 0 210 106 0 209 103 0 209 103 0 209 103 0 209 103 0 210 106 0 210 106 0 210 106 0 210 106 0 210 106 0 210 106 0 209 103 0 210 106 0 210 106 0 210 106 0 210 106 0 210 106 0 210 106 0 210 106 0 210 106 0 210 106 0 210 106 0 210 106 0 210 106 0 210 106 0 210 106 0 209 103 0 209 103 0 210 106 0 210 106 0 210 106 0 210 106 0 210 106 0 210 106 0 211 110 0 223 150 0 226 160 0 227 164 0 227 164 0 227 164 0 226 160 0 226 160 0 226 160 0 226 160 0 227 164 0 227 164 0 227 164 0 227 164 0 228 168 0 227 164 0 227 164 0 228 168 0 228 168 0 228 168 0 228 168 0 228 168 0 228 168 0 228 168 0 228 168 0 228 168 0 228 168 0 228 168 0 228 168 0 227 164 0 228 168 0 228 168 0 228 168 0 228 168 0 227 164 0 227 164 0 228 168 0 228 168 0 228 168 0 228 168 0 228 168 0 228 168 0 228 168 0 228 168 0 228 168 0 228 168 0 228 168 0 228 168 0 228 168 0 228 168 0 228 168 0 228 168 0 228 168 0 228 168 0 228 168 0 228 168 0 228 168 0 228 168 0 228 168 0 230 171 0 228 168 0 228 168 0 228 168 0 228 168 0 228 168 0 228 168 0 228 168 0 227 164 0 228 168 0 228 168 0 228 168 0 228 168 0 228 168 0 228 168 0 230 171 0 228 168 0 228 168 0 228 168 0 228 168 0 228 168 0 228 168 0 228 168 0 228 168 0 228 168 0 228 168 0 228 168 0 228 168 0 228 168 0 228 168 0 228 168 0 228 168 0 228 168 0 228 168 0 228 168 0 228 168 0 228 168 0 228 168 0 228 168 0 228 168 0 228 168 0 228 168 0 228 168 0 228 168 0 228 168 0 228 168 0 228 168 0 228 168 0 228 168 0 228 168 0 228 168 0 228 168 0 228 168 0 228 168 0 228 168 0 228 168 0 227 164 0 228 168 0 228 168 0 228 168 0 227 164 0 228 168 0 228 168 0 227 164 0 228 168 0 228 168 0 228 168 0 228 168 0 228 168 0 228 168 0 228 168 0 228 168 0 228 168 0 228 168 0 228 168 0 228 168 0 228 168 0 228 168 0 228 168 0 228 168 0 228 168 0 228 168 0 227 164 0 227 164 0 228 168 0 227 164 0 227 164 0 227 164 0 227 164 0 226 160 0 209 103 0 209 103 0 209 103 0 209 103 0 207 95 0 207 95 0 209 103 0 209 103 0 209 103 0 209 103 0 209 103 0 207 95 0 207 95 0 207 95 0 207 95 0 207 95 0 207 95 0 207 95 0 207 95 0 207 95 0 207 95 0 209 103 0 207 95 0 
212 113 0 214 121 0 212 113 0 214 121 0 214 121 0 214 121 0 214 121 0 214 121 0 214 121 0 215 124 0 215 124 0 215 124 0 212 113 0 209 103 0 210 106 0 209 103 0 209 103 0 209 103 0 209 103 0 210 106 0 210 106 0 210 106 0 210 106 0 210 106 0 210 106 0 209 103 0 210 106 0 210 106 0 210 106 0 210 106 0 210 106 0 210 106 0 210 106 0 210 106 0 210 106 0 210 106 0 210 106 0 210 106 0 210 106 0 210 106 0 209 103 0 209 103 0 210 106 0 210 106 0 210 106 0 210 106 0 210 106 0 210 106 0 211 110 0 223 150 0 226 160 0 227 164 0 227 164 0 227 164 0 226 160 0 226 160 0 226 160 0 226 160 0 227 164 0 227 164 0 227 164 0 227 164 0 228 168 0 227 164 0 227 164 0 228 168 0 228 168 0 228 168 0 228 168 0 228 168 0 228 168 0 228 168 0 228 168 0 228 168 0 228 168 0 228 168 0 228 168 0 227 164 0 228 168 0 228 168 0 228 168 0 228 168 0 227 164 0 227 164 0 228 168 0 228 168 0 228 168 0 228 168 0 228 168 0 228 168 0 228 168 0 228 168 0 228 168 0 228 168 0 228 168 0 228 168 0 228 168 0 228 168 0 228 168 0 228 168 0 228 168 0 228 168 0 228 168 0 228 168 0 228 168 0 228 168 0 228 168 0 230 171 0 228 168 0 228 168 0 228 168 0 228 168 0 228 168 0 228 168 0 228 168 0 227 164 0 228 168 0 228 168 0 228 168 0 228 168 0 228 168 0 228 168 0 230 171 0 228 168 0 228 168 0 228 168 0 228 168 0 228 168 0 228 168 0 228 168 0 228 168 0 228 168 0 228 168 0 228 168 0 228 168 0 228 168 0 228 168 0 228 168 0 228 168 0 228 168 0 228 168 0 228 168 0 228 168 0 228 168 0 228 168 0 228 168 0 228 168 0 228 168 0 228 168 0 228 168 0 228 168 0 228 168 0 228 168 0 228 168 0 228 168 0 228 168 0 228 168 0 228 168 0 228 168 0 228 168 0 228 168 0 228 168 0 228 168 0 227 164 0 228 168 0 228 168 0 228 168 0 227 164 0 228 168 0 228 168 0 227 164 0 228 168 0 228 168 0 228 168 0 228 168 0 228 168 0 228 168 0 228 168 0 228 168 0 228 168 0 228 168 0 228 168 0 228 168 0 228 168 0 228 168 0 228 168 0 228 168 0 228 168 0 228 168 0 227 164 0 227 164 0 228 168 0 227 164 0 227 164 0 227 164 0 227 164 0 226 160 0 209 103 0 209 103 0 209 103 0 209 103 0 207 95 0 207 95 0 209 103 0 209 103 0 209 103 0 209 103 0 209 103 0 207 95 0 207 95 0 207 95 0 207 95 0 207 95 0 207 95 0 207 95 0 207 95 0 207 95 0 207 95 0 209 103 0 207 95 0 
212 113 0 212 113 0 212 113 0 214 121 0 214 121 0 214 121 0 214 121 0 215 124 0 214 121 0 214 121 0 215 124 0 215 124 0 215 124 0 215 124 0 210 106 0 210 106 0 210 106 0 210 106 0 210 106 0 210 106 0 210 106 0 210 106 0 210 106 0 210 106 0 211 110 0 212 113 0 214 121 0 214 121 0 214 121 0 212 113 0 210 106 0 210 106 0 210 106 0 210 106 0 210 106 0 210 106 0 210 106 0 210 106 0 210 106 0 210 106 0 210 106 0 210 106 0 210 106 0 210 106 0 211 110 0 211 110 0 211 110 0 212 113 0 212 113 0 212 113 0 212 113 0 212 113 0 211 110 0 211 110 0 211 110 0 211 110 0 211 110 0 211 110 0 211 110 0 211 110 0 211 110 0 214 121 0 220 139 0 226 160 0 227 164 0 227 164 0 227 164 0 227 164 0 227 164 0 227 164 0 228 168 0 228 168 0 227 164 0 227 164 0 228 168 0 228 168 0 228 168 0 228 168 0 228 168 0 228 168 0 227 164 0 228 168 0 228 168 0 228 168 0 228 168 0 228 168 0 228 168 0 228 168 0 228 168 0 228 168 0 228 168 0 228 168 0 228 168 0 228 168 0 228 168 0 228 168 0 228 168 0 228 168 0 228 168 0 228 168 0 228 168 0 228 168 0 228 168 0 228 168 0 228 168 0 228 168 0 228 168 0 228 168 0 228 168 0 228 168 0 228 168 0 228 168 0 228 168 0 228 168 0 228 168 0 228 168 0 228 168 0 228 168 0 228 168 0 228 168 0 228 168 0 228 168 0 228 168 0 228 168 0 228 168 0 228 168 0 228 168 0 228 168 0 228 168 0 230 171 0 228 168 0 230 171 0 228 168 0 228 168 0 228 168 0 228 168 0 228 168 0 228 168 0 228 168 0 228 168 0 228 168 0 228 168 0 228 168 0 228 168 0 228 168 0 228 168 0 228 168 0 228 168 0 228 168 0 228 168 0 228 168 0 227 164 0 228 168 0 228 168 0 228 168 0 228 168 0 228 168 0 228 168 0 228 168 0 228 168 0 228 168 0 228 168 0 227 164 0 228 168 0 228 168 0 228 168 0 228 168 0 228 168 0 228 168 0 228 168 0 228 168 0 228 168 0 228 168 0 228 168 0 227 164 0 227 164 0 227 164 0 227 164 0 227 164 0 227 164 0 227 164 0 227 164 0 227 164 0 227 164 0 228 168 0 228 168 0 227 164 0 224 153 0 220 139 0 215 124 0 214 121 0 214 121 0 214 121 0 215 124 0 220 139 0 220 139 0 220 139 0 209 103 0 210 106 0 209 103 0 209 103 0 209 103 0 209 103 0 209 103 0 209 103 0 209 103 0 209 103 0 209 103 0 209 103 0 207 95 0 209 103 0 207 95 0 207 95 0 207 95 0 207 95 0 207 95 0 207 95 0 207 95 0 207 95 0 209 103 0 
212 113 0 212 113 0 212 113 0 214 121 0 214 121 0 214 121 0 214 121 0 215 124 0 214 121 0 214 121 0 215 124 0 215 124 0 215 124 0 215 124 0 210 106 0 210 106 0 210 106 0 210 106 0 210 106 0 210 106 0 210 106 0 210 106 0 210 106 0 210 106 0 211 110 0 212 113 0 214 121 0 214 121 0 214 121 0 212 113 0 210 106 0 210 106 0 210 106 0 210 106 0 210 106 0 210 106 0 210 106 0 210 106 0 210 106 0 210 106 0 210 106 0 210 106 0 210 106 0 210 106 0 211 110 0 211 110 0 211 110 0 212 113 0 212 113 0 212 113 0 212 113 0 212 113 0 211 110 0 211 110 0 211 110 0 211 110 0 211 110 0 211 110 0 211 110 0 211 110 0 211 110 0 214 121 0 220 139 0 226 160 0 227 164 0 227 164 0 227 164 0 227 164 0 227 164 0 227 164 0 228 168 0 228 168 0 227 164 0 227 164 0 228 168 0 228 168 0 228 168 0 228 168 0 228 168 0 228 168 0 227 164 0 228 168 0 228 168 0 228 168 0 228 168 0 228 168 0 228 168 0 228 168 0 228 168 0 228 168 0 228 168 0 228 168 0 228 168 0 228 168 0 228 168 0 228 168 0 228 168 0 228 168 0 228 168 0 228 168 0 228 168 0 228 168 0 228 168 0 228 168 0 228 168 0 228 168 0 228 168 0 228 168 0 228 168 0 228 168 0 228 168 0 228 168 0 228 168 0 228 168 0 228 168 0 228 168 0 228 168 0 228 168 0 228 168 0 228 168 0 228 168 0 228 168 0 228 168 0 228 168 0 228 168 0 228 168 0 228 168 0 228 168 0 228 168 0 230 171 0 228 168 0 230 171 0 228 168 0 228 168 0 228 168 0 228 168 0 228 168 0 228 168 0 228 168 0 228 168 0 228 168 0 228 168 0 228 168 0 228 168 0 228 168 0 228 168 0 228 168 0 228 168 0 228 168 0 228 168 0 228 168 0 227 164 0 228 168 0 228 168 0 228 168 0 228 168 0 228 168 0 228 168 0 228 168 0 228 168 0 228 168 0 228 168 0 227 164 0 228 168 0 228 168 0 228 168 0 228 168 0 228 168 0 228 168 0 228 168 0 228 168 0 228 168 0 228 168 0 228 168 0 227 164 0 227 164 0 227 164 0 227 164 0 227 164 0 227 164 0 227 164 0 227 164 0 227 164 0 227 164 0 228 168 0 228 168 0 227 164 0 224 153 0 220 139 0 215 124 0 214 121 0 214 121 0 214 121 0 215 124 0 220 139 0 220 139 0 220 139 0 209 103 0 210 106 0 209 103 0 209 103 0 209 103 0 209 103 0 209 103 0 209 103 0 209 103 0 209 103 0 209 103 0 209 103 0 207 95 0 209 103 0 207 95 0 207 95 0 207 95 0 207 95 0 207 95 0 207 95 0 207 95 0 207 95 0 209 103 0 
214 121 0 215 124 0 214 121 0 214 121 0 214 121 0 215 124 0 215 124 0 215 124 0 215 124 0 215 124 0 215 124 0 214 121 0 215 124 0 217 128 0 215 124 0 211 110 0 211 110 0 210 106 0 210 106 0 210 106 0 210 106 0 211 110 0 211 110 0 212 113 0 214 121 0 214 121 0 214 121 0 215 124 0 217 128 0 217 128 0 217 128 0 215 124 0 215 124 0 212 113 0 215 124 0 217 128 0 217 128 0 217 128 0 217 128 0 217 128 0 217 128 0 217 128 0 214 121 0 211 110 0 211 110 0 212 113 0 211 110 0 211 110 0 211 110 0 211 110 0 211 110 0 211 110 0 211 110 0 211 110 0 211 110 0 212 113 0 211 110 0 211 110 0 211 110 0 211 110 0 211 110 0 211 110 0 212 113 0 212 113 0 212 113 0 223 150 0 228 168 0 228 168 0 227 164 0 227 164 0 227 164 0 227 164 0 228 168 0 228 168 0 228 168 0 228 168 0 228 168 0 228 168 0 228 168 0 228 168 0 228 168 0 228 168 0 228 168 0 228 168 0 228 168 0 228 168 0 228 168 0 228 168 0 228 168 0 228 168 0 228 168 0 228 168 0 228 168 0 228 168 0 228 168 0 228 168 0 228 168 0 228 168 0 228 168 0 228 168 0 228 168 0 228 168 0 228 168 0 230 171 0 228 168 0 228 168 0 230 171 0 228 168 0 228 168 0 228 168 0 228 168 0 228 168 0 228 168 0 228 168 0 228 168 0 228 168 0 230 171 0 230 171 0 230 171 0 230 171 0 228 168 0 228 168 0 230 171 0 230 171 0 228 168 0 228 168 0 228 168 0 230 171 0 230 171 0 230 171 0 230 171 0 228 168 0 230 171 0 228 168 0 228 168 0 228 168 0 228 168 0 228 168 0 228 168 0 228 168 0 228 168 0 228 168 0 228 168 0 228 168 0 228 168 0 228 168 0 228 168 0 228 168 0 228 168 0 228 168 0 228 168 0 228 168 0 228 168 0 228 168 0 228 168 0 228 168 0 230 171 0 230 171 0 228 168 0 228 168 0 228 168 0 228 168 0 228 168 0 228 168 0 228 168 0 228 168 0 228 168 0 228 168 0 228 168 0 228 168 0 228 168 0 228 168 0 228 168 0 228 168 0 228 168 0 228 168 0 228 168 0 227 164 0 227 164 0 227 164 0 227 164 0 228 168 0 228 168 0 230 171 0 222 146 0 214 121 0 210 106 0 210 106 0 210 106 0 209 103 0 209 103 0 209 103 0 209 103 0 210 106 0 210 106 0 210 106 0 210 106 0 209 103 0 209 103 0 209 103 0 209 103 0 210 106 0 210 106 0 210 106 0 210 106 0 210 106 0 209 103 0 209 103 0 209 103 0 207 95 0 207 95 0 207 95 0 207 95 0 207 95 0 207 95 0 207 95 0 209 103 0 210 106 0 218 132 0 218 132 0 
214 121 0 215 124 0 214 121 0 214 121 0 214 121 0 215 124 0 215 124 0 215 124 0 215 124 0 215 124 0 215 124 0 214 121 0 215 124 0 217 128 0 215 124 0 211 110 0 211 110 0 210 106 0 210 106 0 210 106 0 210 106 0 211 110 0 211 110 0 212 113 0 214 121 0 214 121 0 214 121 0 215 124 0 217 128 0 217 128 0 217 128 0 215 124 0 215 124 0 212 113 0 215 124 0 217 128 0 217 128 0 217 128 0 217 128 0 217 128 0 217 128 0 217 128 0 214 121 0 211 110 0 211 110 0 212 113 0 211 110 0 211 110 0 211 110 0 211 110 0 211 110 0 211 110 0 211 110 0 211 110 0 211 110 0 212 113 0 211 110 0 211 110 0 211 110 0 211 110 0 211 110 0 211 110 0 212 113 0 212 113 0 212 113 0 223 150 0 228 168 0 228 168 0 227 164 0 227 164 0 227 164 0 227 164 0 228 168 0 228 168 0 228 168 0 228 168 0 228 168 0 228 168 0 228 168 0 228 168 0 228 168 0 228 168 0 228 168 0 228 168 0 228 168 0 228 168 0 228 168 0 228 168 0 228 168 0 228 168 0 228 168 0 228 168 0 228 168 0 228 168 0 228 168 0 228 168 0 228 168 0 228 168 0 228 168 0 228 168 0 228 168 0 228 168 0 228 168 0 230 171 0 228 168 0 228 168 0 230 171 0 228 168 0 228 168 0 228 168 0 228 168 0 228 168 0 228 168 0 228 168 0 228 168 0 228 168 0 230 171 0 230 171 0 230 171 0 230 171 0 228 168 0 228 168 0 230 171 0 230 171 0 228 168 0 228 168 0 228 168 0 230 171 0 230 171 0 230 171 0 230 171 0 228 168 0 230 171 0 228 168 0 228 168 0 228 168 0 228 168 0 228 168 0 228 168 0 228 168 0 228 168 0 228 168 0 228 168 0 228 168 0 228 168 0 228 168 0 228 168 0 228 168 0 228 168 0 228 168 0 228 168 0 228 168 0 228 168 0 228 168 0 228 168 0 228 168 0 230 171 0 230 171 0 228 168 0 228 168 0 228 168 0 228 168 0 228 168 0 228 168 0 228 168 0 228 168 0 228 168 0 228 168 0 228 168 0 228 168 0 228 168 0 228 168 0 228 168 0 228 168 0 228 168 0 228 168 0 228 168 0 227 164 0 227 164 0 227 164 0 227 164 0 228 168 0 228 168 0 230 171 0 222 146 0 214 121 0 210 106 0 210 106 0 210 106 0 209 103 0 209 103 0 209 103 0 209 103 0 210 106 0 210 106 0 210 106 0 210 106 0 209 103 0 209 103 0 209 103 0 209 103 0 210 106 0 210 106 0 210 106 0 210 106 0 210 106 0 209 103 0 209 103 0 209 103 0 207 95 0 207 95 0 207 95 0 207 95 0 207 95 0 207 95 0 207 95 0 209 103 0 210 106 0 218 132 0 218 132 0 
214 121 0 212 113 0 212 113 0 214 121 0 214 121 0 214 121 0 215 124 0 215 124 0 215 124 0 215 124 0 215 124 0 214 121 0 215 124 0 215 124 0 215 124 0 215 124 0 214 121 0 214 121 0 214 121 0 214 121 0 214 121 0 215 124 0 215 124 0 214 121 0 211 110 0 211 110 0 212 113 0 212 113 0 212 113 0 214 121 0 217 128 0 217 128 0 217 128 0 215 124 0 215 124 0 217 128 0 217 128 0 217 128 0 217 128 0 217 128 0 217 128 0 217 128 0 217 128 0 217 128 0 217 128 0 212 113 0 211 110 0 211 110 0 212 113 0 211 110 0 211 110 0 211 110 0 211 110 0 211 110 0 212 113 0 212 113 0 212 113 0 212 113 0 212 113 0 212 113 0 211 110 0 211 110 0 211 110 0 212 113 0 212 113 0 212 113 0 217 128 0 228 168 0 228 168 0 228 168 0 228 168 0 228 168 0 227 164 0 228 168 0 228 168 0 228 168 0 228 168 0 228 168 0 228 168 0 228 168 0 228 168 0 228 168 0 228 168 0 228 168 0 228 168 0 228 168 0 228 168 0 228 168 0 228 168 0 228 168 0 228 168 0 228 168 0 230 171 0 230 171 0 230 171 0 228 168 0 228 168 0 228 168 0 228 168 0 228 168 0 228 168 0 228 168 0 230 171 0 228 168 0 228 168 0 228 168 0 228 168 0 230 171 0 228 168 0 228 168 0 228 168 0 228 168 0 228 168 0 228 168 0 228 168 0 230 171 0 228 168 0 228 168 0 230 171 0 228 168 0 228 168 0 230 171 0 230 171 0 230 171 0 228 168 0 230 171 0 230 171 0 228 168 0 230 171 0 228 168 0 230 171 0 230 171 0 230 171 0 228 168 0 230 171 0 228 168 0 228 168 0 228 168 0 228 168 0 230 171 0 228 168 0 228 168 0 228 168 0 228 168 0 230 171 0 230 171 0 230 171 0 228 168 0 230 171 0 228 168 0 228 168 0 228 168 0 228 168 0 228 168 0 228 168 0 230 171 0 228 168 0 228 168 0 228 168 0 228 168 0 228 168 0 228 168 0 230 171 0 228 168 0 228 168 0 228 168 0 228 168 0 228 168 0 228 168 0 228 168 0 230 171 0 228 168 0 230 171 0 228 168 0 228 168 0 228 168 0 228 168 0 228 168 0 228 168 0 228 168 0 228 168 0 228 168 0 223 150 0 211 110 0 211 110 0 210 106 0 210 106 0 210 106 0 210 106 0 210 106 0 210 106 0 210 106 0 210 106 0 210 106 0 210 106 0 210 106 0 210 106 0 210 106 0 210 106 0 210 106 0 210 106 0 210 106 0 209 103 0 209 103 0 210 106 0 210 106 0 209 103 0 209 103 0 210 106 0 209 103 0 209 103 0 209 103 0 209 103 0 215 124 0 218 132 0 218 132 0 217 128 0 218 132 0 218 132 0 218 132 0 
214 121 0 212 113 0 212 113 0 214 121 0 214 121 0 214 121 0 215 124 0 215 124 0 215 124 0 215 124 0 215 124 0 214 121 0 215 124 0 215 124 0 215 124 0 215 124 0 214 121 0 214 121 0 214 121 0 214 121 0 214 121 0 215 124 0 215 124 0 214 121 0 211 110 0 211 110 0 212 113 0 212 113 0 212 113 0 214 121 0 217 128 0 217 128 0 217 128 0 215 124 0 215 124 0 217 128 0 217 128 0 217 128 0 217 128 0 217 128 0 217 128 0 217 128 0 217 128 0 217 128 0 217 128 0 212 113 0 211 110 0 211 110 0 212 113 0 211 110 0 211 110 0 211 110 0 211 110 0 211 110 0 212 113 0 212 113 0 212 113 0 212 113 0 212 113 0 212 113 0 211 110 0 211 110 0 211 110 0 212 113 0 212 113 0 212 113 0 217 128 0 228 168 0 228 168 0 228 168 0 228 168 0 228 168 0 227 164 0 228 168 0 228 168 0 228 168 0 228 168 0 228 168 0 228 168 0 228 168 0 228 168 0 228 168 0 228 168 0 228 168 0 228 168 0 228 168 0 228 168 0 228 168 0 228 168 0 228 168 0 228 168 0 228 168 0 230 171 0 230 171 0 230 171 0 228 168 0 228 168 0 228 168 0 228 168 0 228 168 0 228 168 0 228 168 0 230 171 0 228 168 0 228 168 0 228 168 0 228 168 0 230 171 0 228 168 0 228 168 0 228 168 0 228 168 0 228 168 0 228 168 0 228 168 0 230 171 0 228 168 0 228 168 0 230 171 0 228 168 0 228 168 0 230 171 0 230 171 0 230 171 0 228 168 0 230 171 0 230 171 0 228 168 0 230 171 0 228 168 0 230 171 0 230 171 0 230 171 0 228 168 0 230 171 0 228 168 0 228 168 0 228 168 0 228 168 0 230 171 0 228 168 0 228 168 0 228 168 0 228 168 0 230 171 0 230 171 0 230 171 0 228 168 0 230 171 0 228 168 0 228 168 0 228 168 0 228 168 0 228 168 0 228 168 0 230 171 0 228 168 0 228 168 0 228 168 0 228 168 0 228 168 0 228 168 0 230 171 0 228 168 0 228 168 0 228 168 0 228 168 0 228 168 0 228 168 0 228 168 0 230 171 0 228 168 0 230 171 0 228 168 0 228 168 0 228 168 0 228 168 0 228 168 0 228 168 0 228 168 0 228 168 0 228 168 0 223 150 0 211 110 0 211 110 0 210 106 0 210 106 0 210 106 0 210 106 0 210 106 0 210 106 0 210 106 0 210 106 0 210 106 0 210 106 0 210 106 0 210 106 0 210 106 0 210 106 0 210 106 0 210 106 0 210 106 0 209 103 0 209 103 0 210 106 0 210 106 0 209 103 0 209 103 0 210 106 0 209 103 0 209 103 0 209 103 0 209 103 0 215 124 0 218 132 0 218 132 0 217 128 0 218 132 0 218 132 0 218 132 0 
214 121 0 214 121 0 214 121 0 214 121 0 214 121 0 214 121 0 215 124 0 215 124 0 215 124 0 215 124 0 215 124 0 215 124 0 214 121 0 214 121 0 215 124 0 215 124 0 215 124 0 214 121 0 214 121 0 215 124 0 214 121 0 215 124 0 214 121 0 214 121 0 217 128 0 218 132 0 218 132 0 218 132 0 218 132 0 218 132 0 214 121 0 214 121 0 217 128 0 217 128 0 217 128 0 217 128 0 217 128 0 217 128 0 217 128 0 217 128 0 217 128 0 218 132 0 218 132 0 218 132 0 218 132 0 218 132 0 212 113 0 212 113 0 212 113 0 212 113 0 212 113 0 212 113 0 212 113 0 212 113 0 212 113 0 212 113 0 212 113 0 212 113 0 214 121 0 212 113 0 212 113 0 212 113 0 212 113 0 212 113 0 212 113 0 212 113 0 212 113 0 215 124 0 223 150 0 214 121 0 214 121 0 214 121 0 214 121 0 214 121 0 214 121 0 215 124 0 223 150 0 228 168 0 228 168 0 228 168 0 228 168 0 228 168 0 228 168 0 230 171 0 230 171 0 230 171 0 228 168 0 230 171 0 230 171 0 230 171 0 230 171 0 228 168 0 230 171 0 230 171 0 230 171 0 230 171 0 230 171 0 228 168 0 230 171 0 230 171 0 228 168 0 228 168 0 230 171 0 230 171 0 230 171 0 230 171 0 230 171 0 230 171 0 230 171 0 228 168 0 230 171 0 230 171 0 230 171 0 230 171 0 230 171 0 230 171 0 228 168 0 228 168 0 228 168 0 230 171 0 230 171 0 230 171 0 230 171 0 230 171 0 230 171 0 230 171 0 230 171 0 230 171 0 228 168 0 230 171 0 230 171 0 230 171 0 230 171 0 230 171 0 228 168 0 230 171 0 228 168 0 228 168 0 230 171 0 230 171 0 230 171 0 228 168 0 228 168 0 228 168 0 230 171 0 230 171 0 230 171 0 230 171 0 228 168 0 230 171 0 230 171 0 230 171 0 230 171 0 230 171 0 230 171 0 230 171 0 230 171 0 230 171 0 230 171 0 228 168 0 228 168 0 228 168 0 230 171 0 228 168 0 230 171 0 228 168 0 230 171 0 228 168 0 230 171 0 228 168 0 230 171 0 230 171 0 228 168 0 228 168 0 228 168 0 228 168 0 221 142 0 215 124 0 212 113 0 212 113 0 212 113 0 215 124 0 210 106 0 211 110 0 211 110 0 211 110 0 211 110 0 211 110 0 210 106 0 210 106 0 210 106 0 211 110 0 210 106 0 210 106 0 210 106 0 210 106 0 210 106 0 210 106 0 210 106 0 210 106 0 210 106 0 210 106 0 210 106 0 210 106 0 214 121 0 218 132 0 218 132 0 218 132 0 218 132 0 218 132 0 218 132 0 218 132 0 218 132 0 218 132 0 218 132 0 218 132 0 218 132 0 218 132 0 218 132 0 218 132 0 
214 121 0 214 121 0 214 121 0 214 121 0 214 121 0 214 121 0 215 124 0 215 124 0 215 124 0 215 124 0 215 124 0 215 124 0 214 121 0 214 121 0 215 124 0 215 124 0 215 124 0 214 121 0 214 121 0 215 124 0 214 121 0 215 124 0 214 121 0 214 121 0 217 128 0 218 132 0 218 132 0 218 132 0 218 132 0 218 132 0 214 121 0 214 121 0 217 128 0 217 128 0 217 128 0 217 128 0 217 128 0 217 128 0 217 128 0 217 128 0 217 128 0 218 132 0 218 132 0 218 132 0 218 132 0 218 132 0 212 113 0 212 113 0 212 113 0 212 113 0 212 113 0 212 113 0 212 113 0 212 113 0 212 113 0 212 113 0 212 113 0 212 113 0 214 121 0 212 113 0 212 113 0 212 113 0 212 113 0 212 113 0 212 113 0 212 113 0 212 113 0 215 124 0 223 150 0 214 121 0 214 121 0 214 121 0 214 121 0 214 121 0 214 121 0 215 124 0 223 150 0 228 168 0 228 168 0 228 168 0 228 168 0 228 168 0 228 168 0 230 171 0 230 171 0 230 171 0 228 168 0 230 171 0 230 171 0 230 171 0 230 171 0 228 168 0 230 171 0 230 171 0 230 171 0 230 171 0 230 171 0 228 168 0 230 171 0 230 171 0 228 168 0 228 168 0 230 171 0 230 171 0 230 171 0 230 171 0 230 171 0 230 171 0 230 171 0 228 168 0 230 171 0 230 171 0 230 171 0 230 171 0 230 171 0 230 171 0 228 168 0 228 168 0 228 168 0 230 171 0 230 171 0 230 171 0 230 171 0 230 171 0 230 171 0 230 171 0 230 171 0 230 171 0 228 168 0 230 171 0 230 171 0 230 171 0 230 171 0 230 171 0 228 168 0 230 171 0 228 168 0 228 168 0 230 171 0 230 171 0 230 171 0 228 168 0 228 168 0 228 168 0 230 171 0 230 171 0 230 171 0 230 171 0 228 168 0 230 171 0 230 171 0 230 171 0 230 171 0 230 171 0 230 171 0 230 171 0 230 171 0 230 171 0 230 171 0 228 168 0 228 168 0 228 168 0 230 171 0 228 168 0 230 171 0 228 168 0 230 171 0 228 168 0 230 171 0 228 168 0 230 171 0 230 171 0 228 168 0 228 168 0 228 168 0 228 168 0 221 142 0 215 124 0 212 113 0 212 113 0 212 113 0 215 124 0 210 106 0 211 110 0 211 110 0 211 110 0 211 110 0 211 110 0 210 106 0 210 106 0 210 106 0 211 110 0 210 106 0 210 106 0 210 106 0 210 106 0 210 106 0 210 106 0 210 106 0 210 106 0 210 106 0 210 106 0 210 106 0 210 106 0 214 121 0 218 132 0 218 132 0 218 132 0 218 132 0 218 132 0 218 132 0 218 132 0 218 132 0 218 132 0 218 132 0 218 132 0 218 132 0 218 132 0 218 132 0 218 132 0 
214 121 0 214 121 0 214 121 0 215 124 0 214 121 0 214 121 0 214 121 0 214 121 0 214 121 0 215 124 0 215 124 0 214 121 0 214 121 0 214 121 0 214 121 0 215 124 0 214 121 0 215 124 0 217 128 0 217 128 0 217 128 0 217 128 0 217 128 0 217 128 0 215 124 0 215 124 0 217 128 0 218 132 0 218 132 0 218 132 0 219 135 0 219 135 0 218 132 0 219 135 0 219 135 0 219 135 0 219 135 0 218 132 0 219 135 0 219 135 0 219 135 0 218 132 0 218 132 0 219 135 0 219 135 0 219 135 0 219 135 0 218 132 0 212 113 0 214 121 0 215 124 0 215 124 0 214 121 0 214 121 0 212 113 0 212 113 0 214 121 0 214 121 0 214 121 0 212 113 0 212 113 0 212 113 0 212 113 0 212 113 0 214 121 0 212 113 0 214 121 0 214 121 0 214 121 0 214 121 0 214 121 0 214 121 0 214 121 0 215 124 0 215 124 0 215 124 0 215 124 0 217 128 0 218 132 0 227 164 0 228 168 0 230 171 0 230 171 0 230 171 0 230 171 0 230 171 0 230 171 0 230 171 0 230 171 0 230 171 0 230 171 0 230 171 0 230 171 0 230 171 0 230 171 0 230 171 0 230 171 0 230 171 0 230 171 0 230 171 0 230 171 0 230 171 0 230 171 0 228 168 0 230 171 0 230 171 0 230 171 0 230 171 0 230 171 0 230 171 0 230 171 0 230 171 0 230 171 0 230 171 0 230 171 0 230 171 0 231 175 0 230 171 0 230 171 0 230 171 0 230 171 0 230 171 0 230 171 0 230 171 0 230 171 0 230 171 0 230 171 0 230 171 0 230 171 0 230 171 0 230 171 0 230 171 0 230 171 0 230 171 0 230 171 0 228 168 0 230 171 0 230 171 0 230 171 0 230 171 0 230 171 0 230 171 0 230 171 0 230 171 0 230 171 0 230 171 0 230 171 0 230 171 0 230 171 0 230 171 0 230 171 0 230 171 0 230 171 0 230 171 0 230 171 0 230 171 0 230 171 0 230 171 0 230 171 0 230 171 0 230 171 0 230 171 0 230 171 0 230 171 0 230 171 0 228 168 0 228 168 0 230 171 0 230 171 0 230 171 0 228 168 0 230 171 0 228 168 0 218 132 0 212 113 0 212 113 0 211 110 0 211 110 0 211 110 0 211 110 0 211 110 0 211 110 0 211 110 0 211 110 0 211 110 0 211 110 0 211 110 0 211 110 0 211 110 0 211 110 0 211 110 0 211 110 0 211 110 0 211 110 0 211 110 0 210 106 0 211 110 0 210 106 0 210 106 0 210 106 0 211 110 0 215 124 0 218 132 0 218 132 0 218 132 0 219 135 0 218 132 0 218 132 0 218 132 0 218 132 0 218 132 0 218 132 0 218 132 0 218 132 0 218 132 0 218 132 0 218 132 0 218 132 0 219 135 0 218 132 0 
214 121 0 214 121 0 214 121 0 215 124 0 214 121 0 214 121 0 214 121 0 214 121 0 214 121 0 215 124 0 215 124 0 214 121 0 214 121 0 214 121 0 214 121 0 215 124 0 214 121 0 215 124 0 217 128 0 217 128 0 217 128 0 217 128 0 217 128 0 217 128 0 215 124 0 215 124 0 217 128 0 218 132 0 218 132 0 218 132 0 219 135 0 219 135 0 218 132 0 219 135 0 219 135 0 219 135 0 219 135 0 218 132 0 219 135 0 219 135 0 219 135 0 218 132 0 218 132 0 219 135 0 219 135 0 219 135 0 219 135 0 218 132 0 212 113 0 214 121 0 215 124 0 215 124 0 214 121 0 214 121 0 212 113 0 212 113 0 214 121 0 214 121 0 214 121 0 212 113 0 212 113 0 212 113 0 212 113 0 212 113 0 214 121 0 212 113 0 214 121 0 214 121 0 214 121 0 214 121 0 214 121 0 214 121 0 214 121 0 215 124 0 215 124 0 215 124 0 215 124 0 217 128 0 218 132 0 227 164 0 228 168 0 230 171 0 230 171 0 230 171 0 230 171 0 230 171 0 230 171 0 230 171 0 230 171 0 230 171 0 230 171 0 230 171 0 230 171 0 230 171 0 230 171 0 230 171 0 230 171 0 230 171 0 230 171 0 230 171 0 230 171 0 230 171 0 230 171 0 228 168 0 230 171 0 230 171 0 230 171 0 230 171 0 230 171 0 230 171 0 230 171 0 230 171 0 230 171 0 230 171 0 230 171 0 230 171 0 231 175 0 230 171 0 230 171 0 230 171 0 230 171 0 230 171 0 230 171 0 230 171 0 230 171 0 230 171 0 230 171 0 230 171 0 230 171 0 230 171 0 230 171 0 230 171 0 230 171 0 230 171 0 230 171 0 228 168 0 230 171 0 230 171 0 230 171 0 230 171 0 230 171 0 230 171 0 230 171 0 230 171 0 230 171 0 230 171 0 230 171 0 230 171 0 230 171 0 230 171 0 230 171 0 230 171 0 230 171 0 230 171 0 230 171 0 230 171 0 230 171 0 230 171 0 230 171 0 230 171 0 230 171 0 230 171 0 230 171 0 230 171 0 230 171 0 228 168 0 228 168 0 230 171 0 230 171 0 230 171 0 228 168 0 230 171 0 228 168 0 218 132 0 212 113 0 212 113 0 211 110 0 211 110 0 211 110 0 211 110 0 211 110 0 211 110 0 211 110 0 211 110 0 211 110 0 211 110 0 211 110 0 211 110 0 211 110 0 211 110 0 211 110 0 211 110 0 211 110 0 211 110 0 211 110 0 210 106 0 211 110 0 210 106 0 210 106 0 210 106 0 211 110 0 215 124 0 218 132 0 218 132 0 218 132 0 219 135 0 218 132 0 218 132 0 218 132 0 218 132 0 218 132 0 218 132 0 218 132 0 218 132 0 218 132 0 218 132 0 218 132 0 218 132 0 219 135 0 218 132 0 
227 164 0 227 164 0 226 160 0 227 164 0 224 153 0 220 139 0 219 135 0 219 135 0 218 132 0 217 128 0 215 124 0 217 128 0 218 132 0 217 128 0 218 132 0 218 132 0 218 132 0 218 132 0 217 128 0 217 128 0 217 128 0 217 128 0 217 128 0 217 128 0 218 132 0 217 128 0 217 128 0 217 128 0 217 128 0 217 128 0 217 128 0 218 132 0 219 135 0 219 135 0 220 139 0 220 139 0 219 135 0 220 139 0 220 139 0 219 135 0 219 135 0 218 132 0 218 132 0 218 132 0 219 135 0 219 135 0 219 135 0 219 135 0 218 132 0 219 135 0 219 135 0 219 135 0 219 135 0 219 135 0 219 135 0 218 132 0 218 132 0 218 132 0 215 124 0 214 121 0 212 113 0 212 113 0 212 113 0 214 121 0 214 121 0 214 121 0 214 121 0 214 121 0 214 121 0 214 121 0 214 121 0 215 124 0 217 128 0 217 128 0 218 132 0 219 135 0 219 135 0 218 132 0 219 135 0 219 135 0 221 142 0 223 150 0 227 164 0 226 160 0 226 160 0 228 168 0 230 171 0 230 171 0 230 171 0 230 171 0 230 171 0 230 171 0 230 171 0 230 171 0 230 171 0 230 171 0 230 171 0 230 171 0 230 171 0 230 171 0 231 175 0 230 171 0 230 171 0 230 171 0 231 175 0 231 175 0 230 171 0 230 171 0 230 171 0 230 171 0 231 175 0 231 175 0 231 175 0 231 175 0 230 171 0 230 171 0 230 171 0 230 171 0 231 175 0 230 171 0 230 171 0 230 171 0 230 171 0 230 171 0 230 171 0 230 171 0 230 171 0 230 171 0 230 171 0 230 171 0 230 171 0 230 171 0 230 171 0 230 171 0 230 171 0 230 171 0 230 171 0 230 171 0 230 171 0 230 171 0 230 171 0 230 171 0 230 171 0 231 175 0 231 175 0 230 171 0 230 171 0 230 171 0 230 171 0 230 171 0 230 171 0 230 171 0 230 171 0 230 171 0 230 171 0 231 175 0 230 171 0 231 175 0 230 171 0 230 171 0 230 171 0 230 171 0 230 171 0 230 171 0 230 171 0 230 171 0 230 171 0 230 171 0 230 171 0 230 171 0 230 171 0 227 164 0 214 121 0 214 121 0 212 113 0 212 113 0 212 113 0 212 113 0 212 113 0 211 110 0 212 113 0 212 113 0 212 113 0 214 121 0 214 121 0 214 121 0 214 121 0 212 113 0 211 110 0 211 110 0 211 110 0 211 110 0 211 110 0 211 110 0 211 110 0 211 110 0 210 106 0 210 106 0 210 106 0 215 124 0 218 132 0 218 132 0 218 132 0 218 132 0 218 132 0 218 132 0 219 135 0 218 132 0 218 132 0 218 132 0 218 132 0 218 132 0 219 135 0 218 132 0 218 132 0 218 132 0 218 132 0 218 132 0 218 132 0 218 132 0 
227 164 0 227 164 0 226 160 0 227 164 0 224 153 0 220 139 0 219 135 0 219 135 0 218 132 0 217 128 0 215 124 0 217 128 0 218 132 0 217 128 0 218 132 0 218 132 0 218 132 0 218 132 0 217 128 0 217 128 0 217 128 0 217 128 0 217 128 0 217 128 0 218 132 0 217 128 0 217 128 0 217 128 0 217 128 0 217 128 0 217 128 0 218 132 0 219 135 0 219 135 0 220 139 0 220 139 0 219 135 0 220 139 0 220 139 0 219 135 0 219 135 0 218 132 0 218 132 0 218 132 0 219 135 0 219 135 0 219 135 0 219 135 0 218 132 0 219 135 0 219 135 0 219 135 0 219 135 0 219 135 0 219 135 0 218 132 0 218 132 0 218 132 0 215 124 0 214 121 0 212 113 0 212 113 0 212 113 0 214 121 0 214 121 0 214 121 0 214 121 0 214 121 0 214 121 0 214 121 0 214 121 0 215 124 0 217 128 0 217 128 0 218 132 0 219 135 0 219 135 0 218 132 0 219 135 0 219 135 0 221 142 0 223 150 0 227 164 0 226 160 0 226 160 0 228 168 0 230 171 0 230 171 0 230 171 0 230 171 0 230 171 0 230 171 0 230 171 0 230 171 0 230 171 0 230 171 0 230 171 0 230 171 0 230 171 0 230 171 0 231 175 0 230 171 0 230 171 0 230 171 0 231 175 0 231 175 0 230 171 0 230 171 0 230 171 0 230 171 0 231 175 0 231 175 0 231 175 0 231 175 0 230 171 0 230 171 0 230 171 0 230 171 0 231 175 0 230 171 0 230 171 0 230 171 0 230 171 0 230 171 0 230 171 0 230 171 0 230 171 0 230 171 0 230 171 0 230 171 0 230 171 0 230 171 0 230 171 0 230 171 0 230 171 0 230 171 0 230 171 0 230 171 0 230 171 0 230 171 0 230 171 0 230 171 0 230 171 0 231 175 0 231 175 0 230 171 0 230 171 0 230 171 0 230 171 0 230 171 0 230 171 0 230 171 0 230 171 0 230 171 0 230 171 0 231 175 0 230 171 0 231 175 0 230 171 0 230 171 0 230 171 0 230 171 0 230 171 0 230 171 0 230 171 0 230 171 0 230 171 0 230 171 0 230 171 0 230 171 0 230 171 0 227 164 0 214 121 0 214 121 0 212 113 0 212 113 0 212 113 0 212 113 0 212 113 0 211 110 0 212 113 0 212 113 0 212 113 0 214 121 0 214 121 0 214 121 0 214 121 0 212 113 0 211 110 0 211 110 0 211 110 0 211 110 0 211 110 0 211 110 0 211 110 0 211 110 0 210 106 0 210 106 0 210 106 0 215 124 0 218 132 0 218 132 0 218 132 0 218 132 0 218 132 0 218 132 0 219 135 0 218 132 0 218 132 0 218 132 0 218 132 0 218 132 0 219 135 0 218 132 0 218 132 0 218 132 0 218 132 0 218 132 0 218 132 0 218 132 0 
226 160 0 226 160 0 226 160 0 226 160 0 227 164 0 227 164 0 227 164 0 227 164 0 222 146 0 218 132 0 217 128 0 217 128 0 217 128 0 217 128 0 217 128 0 218 132 0 218 132 0 218 132 0 217 128 0 217 128 0 217 128 0 217 128 0 217 128 0 218 132 0 218 132 0 218 132 0 218 132 0 218 132 0 218 132 0 218 132 0 218 132 0 219 135 0 219 135 0 221 142 0 221 142 0 221 142 0 222 146 0 224 153 0 230 171 0 231 175 0 230 171 0 230 171 0 230 171 0 230 171 0 230 171 0 230 171 0 228 168 0 230 171 0 230 171 0 230 171 0 230 171 0 230 171 0 230 171 0 230 171 0 230 171 0 228 168 0 228 168 0 228 168 0 228 168 0 228 168 0 228 168 0 228 168 0 227 164 0 227 164 0 227 164 0 227 164 0 227 164 0 227 164 0 227 164 0 227 164 0 227 164 0 227 164 0 227 164 0 228 168 0 228 168 0 227 164 0 227 164 0 228 168 0 227 164 0 228 168 0 228 168 0 227 164 0 227 164 0 227 164 0 227 164 0 227 164 0 227 164 0 228 168 0 231 175 0 231 175 0 231 175 0 231 175 0 231 175 0 231 175 0 231 175 0 230 171 0 231 175 0 230 171 0 230 171 0 230 171 0 230 171 0 230 171 0 231 175 0 231 175 0 231 175 0 231 175 0 231 175 0 231 175 0 231 175 0 231 175 0 231 175 0 231 175 0 231 175 0 231 175 0 231 175 0 231 175 0 231 175 0 231 175 0 231 175 0 231 175 0 231 175 0 231 175 0 230 171 0 230 171 0 230 171 0 230 171 0 230 171 0 230 171 0 230 171 0 231 175 0 230 171 0 231 175 0 230 171 0 231 175 0 230 171 0 230 171 0 231 175 0 231 175 0 230 171 0 231 175 0 230 171 0 231 175 0 231 175 0 230 171 0 230 171 0 231 175 0 231 175 0 230 171 0 230 171 0 230 171 0 230 171 0 230 171 0 230 171 0 230 171 0 230 171 0 231 175 0 231 175 0 231 175 0 231 175 0 231 175 0 231 175 0 230 171 0 230 171 0 227 164 0 226 160 0 224 153 0 224 153 0 226 160 0 227 164 0 230 171 0 223 150 0 218 132 0 217 128 0 218 132 0 217 128 0 218 132 0 217 128 0 215 124 0 217 128 0 217 128 0 217 128 0 217 128 0 215 124 0 215 124 0 217 128 0 217 128 0 217 128 0 217 128 0 218 132 0 215 124 0 211 110 0 211 110 0 211 110 0 211 110 0 211 110 0 211 110 0 211 110 0 211 110 0 215 124 0 218 132 0 218 132 0 218 132 0 218 132 0 218 132 0 218 132 0 219 135 0 219 135 0 218 132 0 218 132 0 218 132 0 218 132 0 218 132 0 218 132 0 220 139 0 221 142 0 223 150 0 223 150 0 224 153 0 224 153 0 224 153 0 
226 160 0 226 160 0 226 160 0 226 160 0 227 164 0 227 164 0 227 164 0 227 164 0 222 146 0 218 132 0 217 128 0 217 128 0 217 128 0 217 128 0 217 128 0 218 132 0 218 132 0 218 132 0 217 128 0 217 128 0 217 128 0 217 128 0 217 128 0 218 132 0 218 132 0 218 132 0 218 132 0 218 132 0 218 132 0 218 132 0 218 132 0 219 135 0 219 135 0 221 142 0 221 142 0 221 142 0 222 146 0 224 153 0 230 171 0 231 175 0 230 171 0 230 171 0 230 171 0 230 171 0 230 171 0 230 171 0 228 168 0 230 171 0 230 171 0 230 171 0 230 171 0 230 171 0 230 171 0 230 171 0 230 171 0 228 168 0 228 168 0 228 168 0 228 168 0 228 168 0 228 168 0 228 168 0 227 164 0 227 164 0 227 164 0 227 164 0 227 164 0 227 164 0 227 164 0 227 164 0 227 164 0 227 164 0 227 164 0 228 168 0 228 168 0 227 164 0 227 164 0 228 168 0 227 164 0 228 168 0 228 168 0 227 164 0 227 164 0 227 164 0 227 164 0 227 164 0 227 164 0 228 168 0 231 175 0 231 175 0 231 175 0 231 175 0 231 175 0 231 175 0 231 175 0 230 171 0 231 175 0 230 171 0 230 171 0 230 171 0 230 171 0 230 171 0 231 175 0 231 175 0 231 175 0 231 175 0 231 175 0 231 175 0 231 175 0 231 175 0 231 175 0 231 175 0 231 175 0 231 175 0 231 175 0 231 175 0 231 175 0 231 175 0 231 175 0 231 175 0 231 175 0 231 175 0 230 171 0 230 171 0 230 171 0 230 171 0 230 171 0 230 171 0 230 171 0 231 175 0 230 171 0 231 175 0 230 171 0 231 175 0 230 171 0 230 171 0 231 175 0 231 175 0 230 171 0 231 175 0 230 171 0 231 175 0 231 175 0 230 171 0 230 171 0 231 175 0 231 175 0 230 171 0 230 171 0 230 171 0 230 171 0 230 171 0 230 171 0 230 171 0 230 171 0 231 175 0 231 175 0 231 175 0 231 175 0 231 175 0 231 175 0 230 171 0 230 171 0 227 164 0 226 160 0 224 153 0 224 153 0 226 160 0 227 164 0 230 171 0 223 150 0 218 132 0 217 128 0 218 132 0 217 128 0 218 132 0 217 128 0 215 124 0 217 128 0 217 128 0 217 128 0 217 128 0 215 124 0 215 124 0 217 128 0 217 128 0 217 128 0 217 128 0 218 132 0 215 124 0 211 110 0 211 110 0 211 110 0 211 110 0 211 110 0 211 110 0 211 110 0 211 110 0 215 124 0 218 132 0 218 132 0 218 132 0 218 132 0 218 132 0 218 132 0 219 135 0 219 135 0 218 132 0 218 132 0 218 132 0 218 132 0 218 132 0 218 132 0 220 139 0 221 142 0 223 150 0 223 150 0 224 153 0 224 153 0 224 153 0 
226 160 0 226 160 0 226 160 0 226 160 0 226 160 0 227 164 0 227 164 0 228 168 0 228 168 0 227 164 0 220 139 0 217 128 0 218 132 0 218 132 0 217 128 0 217 128 0 218 132 0 218 132 0 218 132 0 218 132 0 218 132 0 218 132 0 218 132 0 218 132 0 218 132 0 218 132 0 218 132 0 218 132 0 218 132 0 219 135 0 219 135 0 219 135 0 219 135 0 219 135 0 219 135 0 219 135 0 219 135 0 220 139 0 219 135 0 226 160 0 228 168 0 228 168 0 231 175 0 227 164 0 226 160 0 224 153 0 226 160 0 228 168 0 231 175 0 231 175 0 231 175 0 232 179 0 231 175 0 231 175 0 231 175 0 231 175 0 231 175 0 231 175 0 231 175 0 231 175 0 231 175 0 231 175 0 231 175 0 231 175 0 231 175 0 231 175 0 231 175 0 231 175 0 231 175 0 231 175 0 231 175 0 231 175 0 231 175 0 231 175 0 231 175 0 231 175 0 231 175 0 231 175 0 231 175 0 232 179 0 232 179 0 231 175 0 231 175 0 231 175 0 231 175 0 231 175 0 231 175 0 231 175 0 231 175 0 231 175 0 231 175 0 231 175 0 231 175 0 232 179 0 231 175 0 231 175 0 231 175 0 231 175 0 231 175 0 231 175 0 231 175 0 231 175 0 232 179 0 232 179 0 233 182 0 236 193 0 239 204 0 243 215 0 245 222 0 246 226 0 246 226 0 245 222 0 243 215 0 239 204 0 236 193 0 233 182 0 232 179 0 232 179 0 231 175 0 231 175 0 231 175 0 231 175 0 231 175 0 231 175 0 231 175 0 231 175 0 231 175 0 231 175 0 231 175 0 231 175 0 231 175 0 231 175 0 231 175 0 231 175 0 231 175 0 231 175 0 231 175 0 231 175 0 231 175 0 231 175 0 231 175 0 231 175 0 231 175 0 230 171 0 231 175 0 231 175 0 231 175 0 231 175 0 231 175 0 231 175 0 230 171 0 231 175 0 231 175 0 231 175 0 231 175 0 231 175 0 230 171 0 230 171 0 231 175 0 224 153 0 220 139 0 218 132 0 218 132 0 218 132 0 218 132 0 218 132 0 218 132 0 218 132 0 218 132 0 217 128 0 217 128 0 217 128 0 217 128 0 217 128 0 217 128 0 218 132 0 218 132 0 217 128 0 217 128 0 217 128 0 217 128 0 217 128 0 215 124 0 215 124 0 217 128 0 217 128 0 217 128 0 217 128 0 217 128 0 217 128 0 217 128 0 217 128 0 215 124 0 218 132 0 218 132 0 218 132 0 218 132 0 218 132 0 217 128 0 218 132 0 218 132 0 218 132 0 218 132 0 218 132 0 218 132 0 219 135 0 219 135 0 218 132 0 219 135 0 219 135 0 222 146 0 226 160 0 226 160 0 226 160 0 226 160 0 226 160 0 226 160 0 226 160 0 226 160 0 226 160 0 
226 160 0 226 160 0 226 160 0 226 160 0 226 160 0 227 164 0 227 164 0 228 168 0 228 168 0 227 164 0 220 139 0 217 128 0 218 132 0 218 132 0 217 128 0 217 128 0 218 132 0 218 132 0 218 132 0 218 132 0 218 132 0 218 132 0 218 132 0 218 132 0 218 132 0 218 132 0 218 132 0 218 132 0 218 132 0 219 135 0 219 135 0 219 135 0 219 135 0 219 135 0 219 135 0 219 135 0 219 135 0 220 139 0 219 135 0 226 160 0 228 168 0 228 168 0 231 175 0 227 164 0 226 160 0 224 153 0 226 160 0 228 168 0 231 175 0 231 175 0 231 175 0 232 179 0 231 175 0 231 175 0 231 175 0 231 175 0 231 175 0 231 175 0 231 175 0 231 175 0 231 175 0 231 175 0 231 175 0 231 175 0 231 175 0 231 175 0 231 175 0 231 175 0 231 175 0 231 175 0 231 175 0 231 175 0 231 175 0 231 175 0 231 175 0 231 175 0 231 175 0 231 175 0 231 175 0 232 179 0 232 179 0 231 175 0 231 175 0 231 175 0 231 175 0 231 175 0 231 175 0 231 175 0 231 175 0 231 175 0 231 175 0 231 175 0 231 175 0 232 179 0 231 175 0 231 175 0 231 175 0 231 175 0 231 175 0 231 175 0 231 175 0 231 175 0 232 179 0 232 179 0 233 182 0 236 193 0 239 204 0 243 215 0 245 222 0 246 226 0 246 226 0 245 222 0 243 215 0 239 204 0 236 193 0 233 182 0 232 179 0 232 179 0 231 175 0 231 175 0 231 175 0 231 175 0 231 175 0 231 175 0 231 175 0 231 175 0 231 175 0 231 175 0 231 175 0 231 175 0 231 175 0 231 175 0 231 175 0 231 175 0 231 175 0 231 175 0 231 175 0 231 175 0 231 175 0 231 175 0 231 175 0 231 175 0 231 175 0 230 171 0 231 175 0 231 175 0 231 175 0 231 175 0 231 175 0 231 175 0 230 171 0 231 175 0 231 175 0 231 175 0 231 175 0 231 175 0 230 171 0 230 171 0 231 175 0 224 153 0 220 139 0 218 132 0 218 132 0 218 132 0 218 132 0 218 132 0 218 132 0 218 132 0 218 132 0 217 128 0 217 128 0 217 128 0 217 128 0 217 128 0 217 128 0 218 132 0 218 132 0 217 128 0 217 128 0 217 128 0 217 128 0 217 128 0 215 124 0 215 124 0 217 128 0 217 128 0 217 128 0 217 128 0 217 128 0 217 128 0 217 128 0 217 128 0 215 124 0 218 132 0 218 132 0 218 132 0 218 132 0 218 132 0 217 128 0 218 132 0 218 132 0 218 132 0 218 132 0 218 132 0 218 132 0 219 135 0 219 135 0 218 132 0 219 135 0 219 135 0 222 146 0 226 160 0 226 160 0 226 160 0 226 160 0 226 160 0 226 160 0 226 160 0 226 160 0 226 160 0 
226 160 0 226 160 0 226 160 0 227 164 0 227 164 0 227 164 0 227 164 0 228 168 0 227 164 0 228 168 0 228 168 0 224 153 0 222 146 0 222 146 0 223 150 0 221 142 0 218 132 0 218 132 0 222 146 0 230 171 0 231 175 0 231 175 0 231 175 0 231 175 0 230 171 0 221 142 0 218 132 0 218 132 0 219 135 0 219 135 0 219 135 0 219 135 0 220 139 0 220 139 0 219 135 0 219 135 0 219 135 0 219 135 0 220 139 0 219 135 0 220 139 0 220 139 0 220 139 0 220 139 0 220 139 0 220 139 0 220 139 0 220 139 0 220 139 0 221 142 0 227 164 0 231 175 0 231 175 0 231 175 0 231 175 0 231 175 0 231 175 0 231 175 0 230 171 0 231 175 0 231 175 0 231 175 0 231 175 0 231 175 0 231 175 0 231 175 0 231 175 0 231 175 0 231 175 0 231 175 0 231 175 0 231 175 0 231 175 0 231 175 0 231 175 0 231 175 0 231 175 0 231 175 0 231 175 0 231 175 0 231 175 0 232 179 0 232 179 0 231 175 0 231 175 0 231 175 0 231 175 0 231 175 0 231 175 0 231 175 0 232 179 0 232 179 0 232 179 0 232 179 0 232 179 0 232 179 0 232 179 0 232 179 0 232 179 0 239 204 0 249 236 0 251 244 0 251 244 0 251 244 0 251 244 0 251 244 0 251 244 0 251 244 0 251 244 0 251 244 0 251 244 0 251 244 0 251 244 0 251 244 0 251 244 0 251 244 0 251 244 0 251 244 0 251 244 0 249 236 0 240 207 0 232 179 0 232 179 0 232 179 0 231 175 0 231 175 0 231 175 0 231 175 0 231 175 0 231 175 0 231 175 0 231 175 0 232 179 0 232 179 0 232 179 0 231 175 0 231 175 0 231 175 0 231 175 0 231 175 0 231 175 0 231 175 0 231 175 0 231 175 0 231 175 0 231 175 0 231 175 0 231 175 0 231 175 0 231 175 0 231 175 0 230 171 0 231 175 0 231 175 0 230 171 0 230 171 0 230 171 0 221 142 0 218 132 0 218 132 0 218 132 0 218 132 0 218 132 0 218 132 0 219 135 0 218 132 0 218 132 0 218 132 0 217 128 0 217 128 0 217 128 0 217 128 0 217 128 0 217 128 0 217 128 0 217 128 0 217 128 0 217 128 0 217 128 0 217 128 0 217 128 0 217 128 0 218 132 0 218 132 0 219 135 0 220 139 0 220 139 0 218 132 0 218 132 0 219 135 0 219 135 0 219 135 0 218 132 0 218 132 0 218 132 0 218 132 0 218 132 0 218 132 0 218 132 0 218 132 0 218 132 0 218 132 0 218 132 0 218 132 0 219 135 0 219 135 0 219 135 0 219 135 0 224 153 0 228 168 0 227 164 0 227 164 0 227 164 0 227 164 0 227 164 0 226 160 0 226 160 0 226 160 0 226 160 0 226 160 0 
226 160 0 226 160 0 226 160 0 227 164 0 227 164 0 227 164 0 227 164 0 228 168 0 227 164 0 228 168 0 228 168 0 224 153 0 222 146 0 222 146 0 223 150 0 221 142 0 218 132 0 218 132 0 222 146 0 230 171 0 231 175 0 231 175 0 231 175 0 231 175 0 230 171 0 221 142 0 218 132 0 218 132 0 219 135 0 219 135 0 219 135 0 219 135 0 220 139 0 220 139 0 219 135 0 219 135 0 219 135 0 219 135 0 220 139 0 219 135 0 220 139 0 220 139 0 220 139 0 220 139 0 220 139 0 220 139 0 220 139 0 220 139 0 220 139 0 221 142 0 227 164 0 231 175 0 231 175 0 231 175 0 231 175 0 231 175 0 231 175 0 231 175 0 230 171 0 231 175 0 231 175 0 231 175 0 231 175 0 231 175 0 231 175 0 231 175 0 231 175 0 231 175 0 231 175 0 231 175 0 231 175 0 231 175 0 231 175 0 231 175 0 231 175 0 231 175 0 231 175 0 231 175 0 231 175 0 231 175 0 231 175 0 232 179 0 232 179 0 231 175 0 231 175 0 231 175 0 231 175 0 231 175 0 231 175 0 231 175 0 232 179 0 232 179 0 232 179 0 232 179 0 232 179 0 232 179 0 232 179 0 232 179 0 232 179 0 239 204 0 249 236 0 251 244 0 251 244 0 251 244 0 251 244 0 251 244 0 251 244 0 251 244 0 251 244 0 251 244 0 251 244 0 251 244 0 251 244 0 251 244 0 251 244 0 251 244 0 251 244 0 251 244 0 251 244 0 249 236 0 240 207 0 232 179 0 232 179 0 232 179 0 231 175 0 231 175 0 231 175 0 231 175 0 231 175 0 231 175 0 231 175 0 231 175 0 232 179 0 232 179 0 232 179 0 231 175 0 231 175 0 231 175 0 231 175 0 231 175 0 231 175 0 231 175 0 231 175 0 231 175 0 231 175 0 231 175 0 231 175 0 231 175 0 231 175 0 231 175 0 231 175 0 230 171 0 231 175 0 231 175 0 230 171 0 230 171 0 230 171 0 221 142 0 218 132 0 218 132 0 218 132 0 218 132 0 218 132 0 218 132 0 219 135 0 218 132 0 218 132 0 218 132 0 217 128 0 217 128 0 217 128 0 217 128 0 217 128 0 217 128 0 217 128 0 217 128 0 217 128 0 217 128 0 217 128 0 217 128 0 217 128 0 217 128 0 218 132 0 218 132 0 219 135 0 220 139 0 220 139 0 218 132 0 218 132 0 219 135 0 219 135 0 219 135 0 218 132 0 218 132 0 218 132 0 218 132 0 218 132 0 218 132 0 218 132 0 218 132 0 218 132 0 218 132 0 218 132 0 218 132 0 219 135 0 219 135 0 219 135 0 219 135 0 224 153 0 228 168 0 227 164 0 227 164 0 227 164 0 227 164 0 227 164 0 226 160 0 226 160 0 226 160 0 226 160 0 226 160 0 
224 153 0 226 160 0 226 160 0 227 164 0 227 164 0 227 164 0 227 164 0 227 164 0 227 164 0 227 164 0 228 168 0 228 168 0 226 160 0 226 160 0 223 150 0 227 164 0 234 186 0 235 189 0 236 193 0 236 193 0 235 189 0 233 182 0 231 175 0 232 179 0 232 179 0 231 175 0 232 179 0 227 164 0 219 135 0 219 135 0 219 135 0 219 135 0 220 139 0 220 139 0 220 139 0 219 135 0 219 135 0 219 135 0 220 139 0 219 135 0 219 135 0 219 135 0 219 135 0 220 139 0 220 139 0 221 142 0 221 142 0 221 142 0 221 142 0 221 142 0 221 142 0 221 142 0 222 146 0 221 142 0 222 146 0 222 146 0 222 146 0 222 146 0 222 146 0 223 150 0 231 175 0 232 179 0 231 175 0 232 179 0 232 179 0 232 179 0 231 175 0 231 175 0 231 175 0 231 175 0 231 175 0 231 175 0 231 175 0 231 175 0 231 175 0 231 175 0 231 175 0 232 179 0 231 175 0 232 179 0 232 179 0 232 179 0 232 179 0 231 175 0 232 179 0 232 179 0 232 179 0 231 175 0 232 179 0 232 179 0 232 179 0 231 175 0 232 179 0 232 179 0 232 179 0 236 193 0 250 240 0 251 244 0 251 244 0 251 244 0 251 244 0 251 244 0 251 244 0 251 244 0 251 244 0 251 244 0 251 244 0 251 244 0 251 244 0 251 244 0 251 244 0 251 244 0 251 244 0 251 244 0 251 244 0 251 244 0 251 244 0 251 244 0 251 244 0 251 244 0 251 244 0 251 244 0 251 244 0 250 240 0 235 189 0 231 175 0 231 175 0 232 179 0 232 179 0 231 175 0 232 179 0 232 179 0 232 179 0 232 179 0 231 175 0 232 179 0 232 179 0 231 175 0 231 175 0 231 175 0 232 179 0 232 179 0 231 175 0 231 175 0 231 175 0 231 175 0 231 175 0 231 175 0 231 175 0 231 175 0 231 175 0 231 175 0 228 168 0 221 142 0 219 135 0 219 135 0 219 135 0 218 132 0 218 132 0 218 132 0 218 132 0 218 132 0 219 135 0 219 135 0 220 139 0 219 135 0 218 132 0 218 132 0 217 128 0 217 128 0 217 128 0 217 128 0 217 128 0 217 128 0 217 128 0 218 132 0 217 128 0 219 135 0 220 139 0 219 135 0 220 139 0 221 142 0 221 142 0 220 139 0 220 139 0 220 139 0 219 135 0 220 139 0 219 135 0 219 135 0 219 135 0 219 135 0 219 135 0 219 135 0 218 132 0 218 132 0 218 132 0 219 135 0 219 135 0 219 135 0 219 135 0 218 132 0 219 135 0 219 135 0 219 135 0 219 135 0 218 132 0 226 160 0 228 168 0 227 164 0 227 164 0 227 164 0 227 164 0 226 160 0 226 160 0 226 160 0 226 160 0 226 160 0 226 160 0 226 160 0 
224 153 0 226 160 0 226 160 0 227 164 0 227 164 0 227 164 0 227 164 0 227 164 0 227 164 0 227 164 0 228 168 0 228 168 0 226 160 0 226 160 0 223 150 0 227 164 0 234 186 0 235 189 0 236 193 0 236 193 0 235 189 0 233 182 0 231 175 0 232 179 0 232 179 0 231 175 0 232 179 0 227 164 0 219 135 0 219 135 0 219 135 0 219 135 0 220 139 0 220 139 0 220 139 0 219 135 0 219 135 0 219 135 0 220 139 0 219 135 0 219 135 0 219 135 0 219 135 0 220 139 0 220 139 0 221 142 0 221 142 0 221 142 0 221 142 0 221 142 0 221 142 0 221 142 0 222 146 0 221 142 0 222 146 0 222 146 0 222 146 0 222 146 0 222 146 0 223 150 0 231 175 0 232 179 0 231 175 0 232 179 0 232 179 0 232 179 0 231 175 0 231 175 0 231 175 0 231 175 0 231 175 0 231 175 0 231 175 0 231 175 0 231 175 0 231 175 0 231 175 0 232 179 0 231 175 0 232 179 0 232 179 0 232 179 0 232 179 0 231 175 0 232 179 0 232 179 0 232 179 0 231 175 0 232 179 0 232 179 0 232 179 0 231 175 0 232 179 0 232 179 0 232 179 0 236 193 0 250 240 0 251 244 0 251 244 0 251 244 0 251 244 0 251 244 0 251 244 0 251 244 0 251 244 0 251 244 0 251 244 0 251 244 0 251 244 0 251 244 0 251 244 0 251 244 0 251 244 0 251 244 0 251 244 0 251 244 0 251 244 0 251 244 0 251 244 0 251 244 0 251 244 0 251 244 0 251 244 0 250 240 0 235 189 0 231 175 0 231 175 0 232 179 0 232 179 0 231 175 0 232 179 0 232 179 0 232 179 0 232 179 0 231 175 0 232 179 0 232 179 0 231 175 0 231 175 0 231 175 0 232 179 0 232 179 0 231 175 0 231 175 0 231 175 0 231 175 0 231 175 0 231 175 0 231 175 0 231 175 0 231 175 0 231 175 0 228 168 0 221 142 0 219 135 0 219 135 0 219 135 0 218 132 0 218 132 0 218 132 0 218 132 0 218 132 0 219 135 0 219 135 0 220 139 0 219 135 0 218 132 0 218 132 0 217 128 0 217 128 0 217 128 0 217 128 0 217 128 0 217 128 0 217 128 0 218 132 0 217 128 0 219 135 0 220 139 0 219 135 0 220 139 0 221 142 0 221 142 0 220 139 0 220 139 0 220 139 0 219 135 0 220 139 0 219 135 0 219 135 0 219 135 0 219 135 0 219 135 0 219 135 0 218 132 0 218 132 0 218 132 0 219 135 0 219 135 0 219 135 0 219 135 0 218 132 0 219 135 0 219 135 0 219 135 0 219 135 0 218 132 0 226 160 0 228 168 0 227 164 0 227 164 0 227 164 0 227 164 0 226 160 0 226 160 0 226 160 0 226 160 0 226 160 0 226 160 0 226 160 0 
226 160 0 226 160 0 226 160 0 226 160 0 227 164 0 226 160 0 226 160 0 226 160 0 227 164 0 227 164 0 227 164 0 227 164 0 231 175 0 230 171 0 233 182 0 234 186 0 232 179 0 231 175 0 231 175 0 232 179 0 234 186 0 235 189 0 236 193 0 236 193 0 236 193 0 235 189 0 232 179 0 232 179 0 232 179 0 232 179 0 232 179 0 232 179 0 231 175 0 231 175 0 231 175 0 231 175 0 232 179 0 231 175 0 231 175 0 231 175 0 231 175 0 231 175 0 231 175 0 231 175 0 231 175 0 231 175 0 231 175 0 231 175 0 231 175 0 231 175 0 231 175 0 232 179 0 232 179 0 231 175 0 231 175 0 232 179 0 231 175 0 231 175 0 231 175 0 231 175 0 230 171 0 231 175 0 230 171 0 230 171 0 230 171 0 230 171 0 230 171 0 230 171 0 230 171 0 228 168 0 228 168 0 228 168 0 230 171 0 232 179 0 232 179 0 232 179 0 232 179 0 232 179 0 232 179 0 232 179 0 232 179 0 232 179 0 231 175 0 231 175 0 232 179 0 232 179 0 232 179 0 232 179 0 232 179 0 232 179 0 232 179 0 232 179 0 235 189 0 248 233 0 251 244 0 251 244 0 251 244 0 251 244 0 251 244 0 251 244 0 251 244 0 251 244 0 251 244 0 251 244 0 251 244 0 251 244 0 251 244 0 251 244 0 251 244 0 251 244 0 250 240 0 251 244 0 251 244 0 251 244 0 251 244 0 251 244 0 251 244 0 251 244 0 251 244 0 251 244 0 251 244 0 251 244 0 251 244 0 251 244 0 251 244 0 251 244 0 248 233 0 234 186 0 232 179 0 232 179 0 232 179 0 232 179 0 232 179 0 232 179 0 232 179 0 232 179 0 232 179 0 231 175 0 231 175 0 231 175 0 230 171 0 223 150 0 220 139 0 220 139 0 220 139 0 219 135 0 220 139 0 220 139 0 220 139 0 220 139 0 220 139 0 219 135 0 219 135 0 219 135 0 219 135 0 218 132 0 219 135 0 219 135 0 219 135 0 219 135 0 219 135 0 219 135 0 219 135 0 219 135 0 218 132 0 218 132 0 219 135 0 221 142 0 220 139 0 220 139 0 220 139 0 220 139 0 220 139 0 220 139 0 219 135 0 220 139 0 220 139 0 220 139 0 220 139 0 219 135 0 219 135 0 220 139 0 220 139 0 219 135 0 220 139 0 220 139 0 219 135 0 219 135 0 219 135 0 219 135 0 218 132 0 218 132 0 218 132 0 219 135 0 218 132 0 218 132 0 219 135 0 222 146 0 227 164 0 231 175 0 232 179 0 232 179 0 231 175 0 224 153 0 220 139 0 219 135 0 222 146 0 226 160 0 226 160 0 226 160 0 226 160 0 226 160 0 226 160 0 226 160 0 226 160 0 226 160 0 226 160 0 226 160 0 226 160 0 226 160 0 
226 160 0 226 160 0 226 160 0 226 160 0 227 164 0 226 160 0 226 160 0 226 160 0 227 164 0 227 164 0 227 164 0 227 164 0 231 175 0 230 171 0 233 182 0 234 186 0 232 179 0 231 175 0 231 175 0 232 179 0 234 186 0 235 189 0 236 193 0 236 193 0 236 193 0 235 189 0 232 179 0 232 179 0 232 179 0 232 179 0 232 179 0 232 179 0 231 175 0 231 175 0 231 175 0 231 175 0 232 179 0 231 175 0 231 175 0 231 175 0 231 175 0 231 175 0 231 175 0 231 175 0 231 175 0 231 175 0 231 175 0 231 175 0 231 175 0 231 175 0 231 175 0 232 179 0 232 179 0 231 175 0 231 175 0 232 179 0 231 175 0 231 175 0 231 175 0 231 175 0 230 171 0 231 175 0 230 171 0 230 171 0 230 171 0 230 171 0 230 171 0 230 171 0 230 171 0 228 168 0 228 168 0 228 168 0 230 171 0 232 179 0 232 179 0 232 179 0 232 179 0 232 179 0 232 179 0 232 179 0 232 179 0 232 179 0 231 175 0 231 175 0 232 179 0 232 179 0 232 179 0 232 179 0 232 179 0 232 179 0 232 179 0 232 179 0 235 189 0 248 233 0 251 244 0 251 244 0 251 244 0 251 244 0 251 244 0 251 244 0 251 244 0 251 244 0 251 244 0 251 244 0 251 244 0 251 244 0 251 244 0 251 244 0 251 244 0 251 244 0 250 240 0 251 244 0 251 244 0 251 244 0 251 244 0 251 244 0 251 244 0 251 244 0 251 244 0 251 244 0 251 244 0 251 244 0 251 244 0 251 244 0 251 244 0 251 244 0 248 233 0 234 186 0 232 179 0 232 179 0 232 179 0 232 179 0 232 179 0 232 179 0 232 179 0 232 179 0 232 179 0 231 175 0 231 175 0 231 175 0 230 171 0 223 150 0 220 139 0 220 139 0 220 139 0 219 135 0 220 139 0 220 139 0 220 139 0 220 139 0 220 139 0 219 135 0 219 135 0 219 135 0 219 135 0 218 132 0 219 135 0 219 135 0 219 135 0 219 135 0 219 135 0 219 135 0 219 135 0 219 135 0 218 132 0 218 132 0 219 135 0 221 142 0 220 139 0 220 139 0 220 139 0 220 139 0 220 139 0 220 139 0 219 135 0 220 139 0 220 139 0 220 139 0 220 139 0 219 135 0 219 135 0 220 139 0 220 139 0 219 135 0 220 139 0 220 139 0 219 135 0 219 135 0 219 135 0 219 135 0 218 132 0 218 132 0 218 132 0 219 135 0 218 132 0 218 132 0 219 135 0 222 146 0 227 164 0 231 175 0 232 179 0 232 179 0 231 175 0 224 153 0 220 139 0 219 135 0 222 146 0 226 160 0 226 160 0 226 160 0 226 160 0 226 160 0 226 160 0 226 160 0 226 160 0 226 160 0 226 160 0 226 160 0 226 160 0 226 160 0 
226 160 0 226 160 0 226 160 0 226 160 0 226 160 0 226 160 0 226 160 0 226 160 0 226 160 0 226 160 0 227 164 0 227 164 0 227 164 0 227 164 0 228 168 0 228 168 0 228 168 0 228 168 0 228 168 0 228 168 0 228 168 0 228 168 0 228 168 0 230 171 0 233 182 0 236 193 0 236 193 0 236 193 0 236 193 0 233 182 0 233 182 0 232 179 0 231 175 0 232 179 0 232 179 0 232 179 0 232 179 0 232 179 0 232 179 0 232 179 0 232 179 0 233 182 0 232 179 0 232 179 0 232 179 0 232 179 0 232 179 0 233 182 0 233 182 0 233 182 0 233 182 0 233 182 0 233 182 0 233 182 0 233 182 0 232 179 0 232 179 0 232 179 0 232 179 0 232 179 0 233 182 0 233 182 0 232 179 0 232 179 0 232 179 0 232 179 0 233 182 0 233 182 0 232 179 0 232 179 0 232 179 0 232 179 0 232 179 0 232 179 0 232 179 0 232 179 0 232 179 0 232 179 0 232 179 0 232 179 0 232 179 0 232 179 0 232 179 0 232 179 0 232 179 0 232 179 0 232 179 0 233 182 0 233 182 0 232 179 0 238 200 0 250 240 0 250 240 0 250 240 0 251 244 0 250 240 0 251 244 0 251 244 0 251 244 0 251 244 0 251 244 0 250 240 0 251 244 0 251 244 0 251 244 0 251 244 0 251 244 0 251 244 0 251 244 0 251 244 0 251 244 0 250 240 0 251 244 0 251 244 0 251 244 0 251 244 0 250 240 0 251 244 0 251 244 0 251 244 0 251 244 0 251 244 0 251 244 0 251 244 0 251 244 0 250 240 0 251 244 0 251 244 0 250 240 0 238 200 0 232 179 0 232 179 0 232 179 0 232 179 0 232 179 0 232 179 0 232 179 0 232 179 0 232 179 0 231 175 0 231 175 0 232 179 0 232 179 0 232 179 0 231 175 0 232 179 0 232 179 0 232 179 0 232 179 0 231 175 0 232 179 0 231 175 0 232 179 0 232 179 0 232 179 0 232 179 0 232 179 0 232 179 0 232 179 0 233 182 0 232 179 0 232 179 0 232 179 0 232 179 0 232 179 0 232 179 0 231 175 0 232 179 0 232 179 0 232 179 0 232 179 0 232 179 0 232 179 0 232 179 0 232 179 0 232 179 0 232 179 0 232 179 0 232 179 0 232 179 0 233 182 0 234 186 0 235 189 0 235 189 0 236 193 0 235 189 0 235 189 0 235 189 0 235 189 0 234 186 0 233 182 0 233 182 0 233 182 0 230 171 0 223 150 0 232 179 0 232 179 0 232 179 0 231 175 0 228 168 0 227 164 0 227 164 0 227 164 0 227 164 0 227 164 0 228 168 0 227 164 0 226 160 0 226 160 0 226 160 0 226 160 0 224 153 0 226 160 0 226 160 0 226 160 0 226 160 0 226 160 0 226 160 0 226 160 0 226 160 0 
226 160 0 226 160 0 226 160 0 226 160 0 226 160 0 226 160 0 226 160 0 226 160 0 226 160 0 226 160 0 227 164 0 227 164 0 227 164 0 227 164 0 228 168 0 228 168 0 228 168 0 228 168 0 228 168 0 228 168 0 228 168 0 228 168 0 228 168 0 230 171 0 233 182 0 236 193 0 236 193 0 236 193 0 236 193 0 233 182 0 233 182 0 232 179 0 231 175 0 232 179 0 232 179 0 232 179 0 232 179 0 232 179 0 232 179 0 232 179 0 232 179 0 233 182 0 232 179 0 232 179 0 232 179 0 232 179 0 232 179 0 233 182 0 233 182 0 233 182 0 233 182 0 233 182 0 233 182 0 233 182 0 233 182 0 232 179 0 232 179 0 232 179 0 232 179 0 232 179 0 233 182 0 233 182 0 232 179 0 232 179 0 232 179 0 232 179 0 233 182 0 233 182 0 232 179 0 232 179 0 232 179 0 232 179 0 232 179 0 232 179 0 232 179 0 232 179 0 232 179 0 232 179 0 232 179 0 232 179 0 232 179 0 232 179 0 232 179 0 232 179 0 232 179 0 232 179 0 232 179 0 233 182 0 233 182 0 232 179 0 238 200 0 250 240 0 250 240 0 250 240 0 251 244 0 250 240 0 251 244 0 251 244 0 251 244 0 251 244 0 251 244 0 250 240 0 251 244 0 251 244 0 251 244 0 251 244 0 251 244 0 251 244 0 251 244 0 251 244 0 251 244 0 250 240 0 251 244 0 251 244 0 251 244 0 251 244 0 250 240 0 251 244 0 251 244 0 251 244 0 251 244 0 251 244 0 251 244 0 251 244 0 251 244 0 250 240 0 251 244 0 251 244 0 250 240 0 238 200 0 232 179 0 232 179 0 232 179 0 232 179 0 232 179 0 232 179 0 232 179 0 232 179 0 232 179 0 231 175 0 231 175 0 232 179 0 232 179 0 232 179 0 231 175 0 232 179 0 232 179 0 232 179 0 232 179 0 231 175 0 232 179 0 231 175 0 232 179 0 232 179 0 232 179 0 232 179 0 232 179 0 232 179 0 232 179 0 233 182 0 232 179 0 232 179 0 232 179 0 232 179 0 232 179 0 232 179 0 231 175 0 232 179 0 232 179 0 232 179 0 232 179 0 232 179 0 232 179 0 232 179 0 232 179 0 232 179 0 232 179 0 232 179 0 232 179 0 232 179 0 233 182 0 234 186 0 235 189 0 235 189 0 236 193 0 235 189 0 235 189 0 235 189 0 235 189 0 234 186 0 233 182 0 233 182 0 233 182 0 230 171 0 223 150 0 232 179 0 232 179 0 232 179 0 231 175 0 228 168 0 227 164 0 227 164 0 227 164 0 227 164 0 227 164 0 228 168 0 227 164 0 226 160 0 226 160 0 226 160 0 226 160 0 224 153 0 226 160 0 226 160 0 226 160 0 226 160 0 226 160 0 226 160 0 226 160 0 226 160 0 
226 160 0 226 160 0 226 160 0 226 160 0 226 160 0 226 160 0 226 160 0 226 160 0 226 160 0 226 160 0 226 160 0 226 160 0 227 164 0 227 164 0 227 164 0 227 164 0 227 164 0 227 164 0 227 164 0 228 168 0 228 168 0 228 168 0 228 168 0 228 168 0 228 168 0 228 168 0 234 186 0 236 193 0 236 193 0 236 193 0 236 193 0 236 193 0 236 193 0 237 197 0 236 193 0 236 193 0 234 186 0 232 179 0 233 182 0 232 179 0 232 179 0 232 179 0 232 179 0 232 179 0 232 179 0 233 182 0 233 182 0 233 182 0 233 182 0 233 182 0 233 182 0 233 182 0 233 182 0 233 182 0 232 179 0 232 179 0 232 179 0 232 179 0 232 179 0 233 182 0 233 182 0 232 179 0 232 179 0 232 179 0 232 179 0 232 179 0 232 179 0 233 182 0 232 179 0 232 179 0 232 179 0 232 179 0 232 179 0 232 179 0 232 179 0 232 179 0 232 179 0 232 179 0 232 179 0 232 179 0 232 179 0 232 179 0 232 179 0 232 179 0 232 179 0 232 179 0 232 179 0 233 182 0 236 193 0 249 236 0 250 240 0 250 240 0 250 240 0 250 240 0 250 240 0 250 240 0 250 240 0 250 240 0 251 244 0 250 240 0 250 240 0 251 244 0 250 240 0 250 240 0 250 240 0 250 240 0 251 244 0 250 240 0 250 240 0 250 240 0 251 244 0 251 244 0 251 244 0 251 244 0 251 244 0 250 240 0 250 240 0 250 240 0 250 240 0 250 240 0 250 240 0 250 240 0 251 244 0 250 240 0 250 240 0 250 240 0 250 240 0 251 244 0 250 240 0 250 240 0 249 236 0 235 189 0 232 179 0 232 179 0 232 179 0 232 179 0 232 179 0 232 179 0 232 179 0 232 179 0 232 179 0 232 179 0 232 179 0 232 179 0 232 179 0 232 179 0 232 179 0 233 182 0 232 179 0 232 179 0 232 179 0 232 179 0 232 179 0 232 179 0 232 179 0 232 179 0 232 179 0 232 179 0 232 179 0 232 179 0 232 179 0 232 179 0 232 179 0 232 179 0 232 179 0 232 179 0 232 179 0 232 179 0 232 179 0 232 179 0 232 179 0 232 179 0 232 179 0 232 179 0 232 179 0 232 179 0 232 179 0 232 179 0 232 179 0 235 189 0 236 193 0 236 193 0 235 189 0 232 179 0 231 175 0 230 171 0 228 168 0 228 168 0 227 164 0 228 168 0 230 171 0 230 171 0 228 168 0 230 171 0 232 179 0 232 179 0 228 168 0 226 160 0 226 160 0 226 160 0 227 164 0 227 164 0 227 164 0 226 160 0 226 160 0 226 160 0 226 160 0 226 160 0 226 160 0 226 160 0 226 160 0 226 160 0 224 153 0 224 153 0 224 153 0 224 153 0 226 160 0 224 153 0 224 153 0 226 160 0 
226 160 0 226 160 0 226 160 0 226 160 0 226 160 0 226 160 0 226 160 0 226 160 0 226 160 0 226 160 0 226 160 0 226 160 0 227 164 0 227 164 0 227 164 0 227 164 0 227 164 0 227 164 0 227 164 0 228 168 0 228 168 0 228 168 0 228 168 0 228 168 0 228 168 0 228 168 0 234 186 0 236 193 0 236 193 0 236 193 0 236 193 0 236 193 0 236 193 0 237 197 0 236 193 0 236 193 0 234 186 0 232 179 0 233 182 0 232 179 0 232 179 0 232 179 0 232 179 0 232 179 0 232 179 0 233 182 0 233 182 0 233 182 0 233 182 0 233 182 0 233 182 0 233 182 0 233 182 0 233 182 0 232 179 0 232 179 0 232 179 0 232 179 0 232 179 0 233 182 0 233 182 0 232 179 0 232 179 0 232 179 0 232 179 0 232 179 0 232 179 0 233 182 0 232 179 0 232 179 0 232 179 0 232 179 0 232 179 0 232 179 0 232 179 0 232 179 0 232 179 0 232 179 0 232 179 0 232 179 0 232 179 0 232 179 0 232 179 0 232 179 0 232 179 0 232 179 0 232 179 0 233 182 0 236 193 0 249 236 0 250 240 0 250 240 0 250 240 0 250 240 0 250 240 0 250 240 0 250 240 0 250 240 0 251 244 0 250 240 0 250 240 0 251 244 0 250 240 0 250 240 0 250 240 0 250 240 0 251 244 0 250 240 0 250 240 0 250 240 0 251 244 0 251 244 0 251 244 0 251 244 0 251 244 0 250 240 0 250 240 0 250 240 0 250 240 0 250 240 0 250 240 0 250 240 0 251 244 0 250 240 0 250 240 0 250 240 0 250 240 0 251 244 0 250 240 0 250 240 0 249 236 0 235 189 0 232 179 0 232 179 0 232 179 0 232 179 0 232 179 0 232 179 0 232 179 0 232 179 0 232 179 0 232 179 0 232 179 0 232 179 0 232 179 0 232 179 0 232 179 0 233 182 0 232 179 0 232 179 0 232 179 0 232 179 0 232 179 0 232 179 0 232 179 0 232 179 0 232 179 0 232 179 0 232 179 0 232 179 0 232 179 0 232 179 0 232 179 0 232 179 0 232 179 0 232 179 0 232 179 0 232 179 0 232 179 0 232 179 0 232 179 0 232 179 0 232 179 0 232 179 0 232 179 0 232 179 0 232 179 0 232 179 0 232 179 0 235 189 0 236 193 0 236 193 0 235 189 0 232 179 0 231 175 0 230 171 0 228 168 0 228 168 0 227 164 0 228 168 0 230 171 0 230 171 0 228 168 0 230 171 0 232 179 0 232 179 0 228 168 0 226 160 0 226 160 0 226 160 0 227 164 0 227 164 0 227 164 0 226 160 0 226 160 0 226 160 0 226 160 0 226 160 0 226 160 0 226 160 0 226 160 0 226 160 0 224 153 0 224 153 0 224 153 0 224 153 0 226 160 0 224 153 0 224 153 0 226 160 0 
224 153 0 226 160 0 226 160 0 226 160 0 226 160 0 226 160 0 226 160 0 226 160 0 227 164 0 227 164 0 227 164 0 226 160 0 226 160 0 226 160 0 226 160 0 227 164 0 227 164 0 227 164 0 227 164 0 227 164 0 227 164 0 227 164 0 227 164 0 227 164 0 227 164 0 228 168 0 227 164 0 231 175 0 231 175 0 230 171 0 230 171 0 231 175 0 233 182 0 236 193 0 236 193 0 236 193 0 237 197 0 236 193 0 236 193 0 233 182 0 233 182 0 233 182 0 232 179 0 232 179 0 233 182 0 232 179 0 233 182 0 233 182 0 233 182 0 232 179 0 232 179 0 233 182 0 233 182 0 233 182 0 232 179 0 232 179 0 232 179 0 232 179 0 233 182 0 232 179 0 232 179 0 232 179 0 232 179 0 232 179 0 232 179 0 232 179 0 232 179 0 233 182 0 232 179 0 232 179 0 232 179 0 232 179 0 232 179 0 232 179 0 232 179 0 233 182 0 233 182 0 232 179 0 232 179 0 232 179 0 233 182 0 232 179 0 232 179 0 232 179 0 232 179 0 232 179 0 233 182 0 245 222 0 250 240 0 250 240 0 250 240 0 250 240 0 250 240 0 250 240 0 250 240 0 250 240 0 250 240 0 250 240 0 250 240 0 250 240 0 250 240 0 250 240 0 250 240 0 250 240 0 250 240 0 250 240 0 250 240 0 250 240 0 250 240 0 250 240 0 250 240 0 250 240 0 250 240 0 250 240 0 250 240 0 250 240 0 250 240 0 250 240 0 250 240 0 250 240 0 250 240 0 250 240 0 250 240 0 250 240 0 250 240 0 250 240 0 250 240 0 250 240 0 250 240 0 250 240 0 250 240 0 250 240 0 245 222 0 232 179 0 233 182 0 232 179 0 232 179 0 232 179 0 232 179 0 232 179 0 232 179 0 232 179 0 232 179 0 232 179 0 233 182 0 232 179 0 232 179 0 232 179 0 233 182 0 232 179 0 232 179 0 232 179 0 232 179 0 232 179 0 232 179 0 232 179 0 232 179 0 232 179 0 232 179 0 232 179 0 232 179 0 232 179 0 232 179 0 232 179 0 232 179 0 232 179 0 233 182 0 232 179 0 232 179 0 232 179 0 232 179 0 232 179 0 232 179 0 232 179 0 231 175 0 232 179 0 234 186 0 236 193 0 236 193 0 234 186 0 228 168 0 227 164 0 227 164 0 228 168 0 228 168 0 227 164 0 227 164 0 227 164 0 227 164 0 227 164 0 227 164 0 227 164 0 227 164 0 227 164 0 227 164 0 227 164 0 226 160 0 226 160 0 226 160 0 226 160 0 226 160 0 226 160 0 226 160 0 226 160 0 226 160 0 226 160 0 224 153 0 224 153 0 224 153 0 226 160 0 224 153 0 226 160 0 226 160 0 224 153 0 224 153 0 224 153 0 233 182 0 237 197 0 236 193 0 236 193 0 
224 153 0 226 160 0 226 160 0 226 160 0 226 160 0 226 160 0 226 160 0 226 160 0 227 164 0 227 164 0 227 164 0 226 160 0 226 160 0 226 160 0 226 160 0 227 164 0 227 164 0 227 164 0 227 164 0 227 164 0 227 164 0 227 164 0 227 164 0 227 164 0 227 164 0 228 168 0 227 164 0 231 175 0 231 175 0 230 171 0 230 171 0 231 175 0 233 182 0 236 193 0 236 193 0 236 193 0 237 197 0 236 193 0 236 193 0 233 182 0 233 182 0 233 182 0 232 179 0 232 179 0 233 182 0 232 179 0 233 182 0 233 182 0 233 182 0 232 179 0 232 179 0 233 182 0 233 182 0 233 182 0 232 179 0 232 179 0 232 179 0 232 179 0 233 182 0 232 179 0 232 179 0 232 179 0 232 179 0 232 179 0 232 179 0 232 179 0 232 179 0 233 182 0 232 179 0 232 179 0 232 179 0 232 179 0 232 179 0 232 179 0 232 179 0 233 182 0 233 182 0 232 179 0 232 179 0 232 179 0 233 182 0 232 179 0 232 179 0 232 179 0 232 179 0 232 179 0 233 182 0 245 222 0 250 240 0 250 240 0 250 240 0 250 240 0 250 240 0 250 240 0 250 240 0 250 240 0 250 240 0 250 240 0 250 240 0 250 240 0 250 240 0 250 240 0 250 240 0 250 240 0 250 240 0 250 240 0 250 240 0 250 240 0 250 240 0 250 240 0 250 240 0 250 240 0 250 240 0 250 240 0 250 240 0 250 240 0 250 240 0 250 240 0 250 240 0 250 240 0 250 240 0 250 240 0 250 240 0 250 240 0 250 240 0 250 240 0 250 240 0 250 240 0 250 240 0 250 240 0 250 240 0 250 240 0 245 222 0 232 179 0 233 182 0 232 179 0 232 179 0 232 179 0 232 179 0 232 179 0 232 179 0 232 179 0 232 179 0 232 179 0 233 182 0 232 179 0 232 179 0 232 179 0 233 182 0 232 179 0 232 179 0 232 179 0 232 179 0 232 179 0 232 179 0 232 179 0 232 179 0 232 179 0 232 179 0 232 179 0 232 179 0 232 179 0 232 179 0 232 179 0 232 179 0 232 179 0 233 182 0 232 179 0 232 179 0 232 179 0 232 179 0 232 179 0 232 179 0 232 179 0 231 175 0 232 179 0 234 186 0 236 193 0 236 193 0 234 186 0 228 168 0 227 164 0 227 164 0 228 168 0 228 168 0 227 164 0 227 164 0 227 164 0 227 164 0 227 164 0 227 164 0 227 164 0 227 164 0 227 164 0 227 164 0 227 164 0 226 160 0 226 160 0 226 160 0 226 160 0 226 160 0 226 160 0 226 160 0 226 160 0 226 160 0 226 160 0 224 153 0 224 153 0 224 153 0 226 160 0 224 153 0 226 160 0 226 160 0 224 153 0 224 153 0 224 153 0 233 182 0 237 197 0 236 193 0 236 193 0 
226 160 0 228 168 0 234 186 0 235 189 0 236 193 0 236 193 0 236 193 0 235 189 0 232 179 0 226 160 0 226 160 0 226 160 0 227 164 0 227 164 0 226 160 0 227 164 0 226 160 0 227 164 0 230 171 0 231 175 0 230 171 0 227 164 0 227 164 0 227 164 0 227 164 0 227 164 0 227 164 0 227 164 0 228 168 0 227 164 0 228 168 0 228 168 0 228 168 0 228 168 0 230 171 0 232 179 0 232 179 0 232 179 0 233 182 0 233 182 0 233 182 0 233 182 0 234 186 0 235 189 0 235 189 0 236 193 0 234 186 0 233 182 0 232 179 0 232 179 0 232 179 0 232 179 0 233 182 0 232 179 0 232 179 0 232 179 0 232 179 0 232 179 0 233 182 0 232 179 0 232 179 0 232 179 0 232 179 0 232 179 0 232 179 0 232 179 0 232 179 0 232 179 0 232 179 0 232 179 0 232 179 0 232 179 0 233 182 0 232 179 0 232 179 0 232 179 0 232 179 0 232 179 0 232 179 0 232 179 0 232 179 0 232 179 0 232 179 0 233 182 0 232 179 0 233 182 0 248 233 0 250 240 0 250 240 0 250 240 0 250 240 0 250 240 0 250 240 0 250 240 0 250 240 0 250 240 0 250 240 0 250 240 0 250 240 0 250 240 0 250 240 0 250 240 0 250 240 0 250 240 0 250 240 0 250 240 0 250 240 0 250 240 0 250 240 0 250 240 0 250 240 0 250 240 0 250 240 0 250 240 0 250 240 0 250 240 0 250 240 0 250 240 0 250 240 0 250 240 0 250 240 0 250 240 0 250 240 0 250 240 0 250 240 0 250 240 0 250 240 0 250 240 0 250 240 0 250 240 0 250 240 0 250 240 0 250 240 0 248 233 0 234 186 0 232 179 0 232 179 0 232 179 0 232 179 0 232 179 0 232 179 0 232 179 0 232 179 0 232 179 0 232 179 0 232 179 0 233 182 0 232 179 0 233 182 0 232 179 0 232 179 0 232 179 0 232 179 0 232 179 0 232 179 0 232 179 0 232 179 0 233 182 0 232 179 0 232 179 0 232 179 0 232 179 0 232 179 0 232 179 0 232 179 0 233 182 0 236 193 0 237 197 0 237 197 0 238 200 0 237 197 0 237 197 0 237 197 0 237 197 0 236 193 0 236 193 0 236 193 0 235 189 0 227 164 0 227 164 0 227 164 0 227 164 0 227 164 0 227 164 0 227 164 0 227 164 0 227 164 0 227 164 0 226 160 0 227 164 0 227 164 0 226 160 0 226 160 0 226 160 0 226 160 0 226 160 0 226 160 0 226 160 0 226 160 0 226 160 0 226 160 0 226 160 0 226 160 0 226 160 0 224 153 0 226 160 0 224 153 0 224 153 0 224 153 0 226 160 0 224 153 0 224 153 0 226 160 0 224 153 0 235 189 0 237 197 0 237 197 0 237 197 0 237 197 0 237 197 0 
226 160 0 228 168 0 234 186 0 235 189 0 236 193 0 236 193 0 236 193 0 235 189 0 232 179 0 226 160 0 226 160 0 226 160 0 227 164 0 227 164 0 226 160 0 227 164 0 226 160 0 227 164 0 230 171 0 231 175 0 230 171 0 227 164 0 227 164 0 227 164 0 227 164 0 227 164 0 227 164 0 227 164 0 228 168 0 227 164 0 228 168 0 228 168 0 228 168 0 228 168 0 230 171 0 232 179 0 232 179 0 232 179 0 233 182 0 233 182 0 233 182 0 233 182 0 234 186 0 235 189 0 235 189 0 236 193 0 234 186 0 233 182 0 232 179 0 232 179 0 232 179 0 232 179 0 233 182 0 232 179 0 232 179 0 232 179 0 232 179 0 232 179 0 233 182 0 232 179 0 232 179 0 232 179 0 232 179 0 232 179 0 232 179 0 232 179 0 232 179 0 232 179 0 232 179 0 232 179 0 232 179 0 232 179 0 233 182 0 232 179 0 232 179 0 232 179 0 232 179 0 232 179 0 232 179 0 232 179 0 232 179 0 232 179 0 232 179 0 233 182 0 232 179 0 233 182 0 248 233 0 250 240 0 250 240 0 250 240 0 250 240 0 250 240 0 250 240 0 250 240 0 250 240 0 250 240 0 250 240 0 250 240 0 250 240 0 250 240 0 250 240 0 250 240 0 250 240 0 250 240 0 250 240 0 250 240 0 250 240 0 250 240 0 250 240 0 250 240 0 250 240 0 250 240 0 250 240 0 250 240 0 250 240 0 250 240 0 250 240 0 250 240 0 250 240 0 250 240 0 250 240 0 250 240 0 250 240 0 250 240 0 250 240 0 250 240 0 250 240 0 250 240 0 250 240 0 250 240 0 250 240 0 250 240 0 250 240 0 248 233 0 234 186 0 232 179 0 232 179 0 232 179 0 232 179 0 232 179 0 232 179 0 232 179 0 232 179 0 232 179 0 232 179 0 232 179 0 233 182 0 232 179 0 233 182 0 232 179 0 232 179 0 232 179 0 232 179 0 232 179 0 232 179 0 232 179 0 232 179 0 233 182 0 232 179 0 232 179 0 232 179 0 232 179 0 232 179 0 232 179 0 232 179 0 233 182 0 236 193 0 237 197 0 237 197 0 238 200 0 237 197 0 237 197 0 237 197 0 237 197 0 236 193 0 236 193 0 236 193 0 235 189 0 227 164 0 227 164 0 227 164 0 227 164 0 227 164 0 227 164 0 227 164 0 227 164 0 227 164 0 227 164 0 226 160 0 227 164 0 227 164 0 226 160 0 226 160 0 226 160 0 226 160 0 226 160 0 226 160 0 226 160 0 226 160 0 226 160 0 226 160 0 226 160 0 226 160 0 226 160 0 224 153 0 226 160 0 224 153 0 224 153 0 224 153 0 226 160 0 224 153 0 224 153 0 226 160 0 224 153 0 235 189 0 237 197 0 237 197 0 237 197 0 237 197 0 237 197 0 
237 197 0 237 197 0 236 193 0 236 193 0 236 193 0 237 197 0 237 197 0 237 197 0 237 197 0 237 197 0 237 197 0 228 168 0 231 175 0 228 168 0 227 164 0 236 193 0 237 197 0 238 200 0 237 197 0 238 200 0 238 200 0 239 204 0 238 200 0 238 200 0 233 182 0 226 160 0 226 160 0 227 164 0 227 164 0 227 164 0 227 164 0 227 164 0 227 164 0 227 164 0 226 160 0 228 168 0 231 175 0 231 175 0 231 175 0 231 175 0 233 182 0 233 182 0 233 182 0 233 182 0 233 182 0 233 182 0 233 182 0 233 182 0 233 182 0 233 182 0 233 182 0 233 182 0 232 179 0 232 179 0 232 179 0 232 179 0 233 182 0 232 179 0 232 179 0 233 182 0 232 179 0 232 179 0 232 179 0 232 179 0 232 179 0 232 179 0 232 179 0 232 179 0 232 179 0 232 179 0 232 179 0 232 179 0 232 179 0 232 179 0 232 179 0 232 179 0 232 179 0 232 179 0 232 179 0 232 179 0 232 179 0 232 179 0 232 179 0 232 179 0 233 182 0 249 236 0 249 236 0 249 236 0 250 240 0 250 240 0 250 240 0 250 240 0 250 240 0 250 240 0 250 240 0 250 240 0 249 236 0 250 240 0 249 236 0 250 240 0 250 240 0 250 240 0 250 240 0 250 240 0 250 240 0 250 240 0 250 240 0 250 240 0 250 240 0 249 236 0 249 236 0 250 240 0 250 240 0 250 240 0 250 240 0 250 240 0 250 240 0 249 236 0 250 240 0 250 240 0 250 240 0 250 240 0 249 236 0 249 236 0 249 236 0 250 240 0 249 236 0 250 240 0 249 236 0 250 240 0 250 240 0 249 236 0 249 236 0 249 236 0 249 236 0 233 182 0 232 179 0 232 179 0 231 175 0 232 179 0 231 175 0 232 179 0 232 179 0 232 179 0 232 179 0 232 179 0 232 179 0 232 179 0 232 179 0 232 179 0 232 179 0 232 179 0 232 179 0 232 179 0 232 179 0 232 179 0 232 179 0 232 179 0 231 175 0 232 179 0 232 179 0 232 179 0 232 179 0 232 179 0 237 197 0 238 200 0 237 197 0 235 189 0 228 168 0 226 160 0 226 160 0 226 160 0 227 164 0 226 160 0 226 160 0 226 160 0 227 164 0 227 164 0 227 164 0 227 164 0 227 164 0 226 160 0 227 164 0 226 160 0 227 164 0 226 160 0 226 160 0 226 160 0 227 164 0 227 164 0 226 160 0 226 160 0 226 160 0 226 160 0 226 160 0 224 153 0 226 160 0 226 160 0 226 160 0 226 160 0 231 175 0 235 189 0 236 193 0 237 197 0 237 197 0 234 186 0 228 168 0 224 153 0 226 160 0 224 153 0 224 153 0 224 153 0 228 168 0 237 197 0 237 197 0 237 197 0 237 197 0 237 197 0 237 197 0 238 200 0 
237 197 0 237 197 0 236 193 0 236 193 0 236 193 0 237 197 0 237 197 0 237 197 0 237 197 0 237 197 0 237 197 0 228 168 0 231 175 0 228 168 0 227 164 0 236 193 0 237 197 0 238 200 0 237 197 0 238 200 0 238 200 0 239 204 0 238 200 0 238 200 0 233 182 0 226 160 0 226 160 0 227 164 0 227 164 0 227 164 0 227 164 0 227 164 0 227 164 0 227 164 0 226 160 0 228 168 0 231 175 0 231 175 0 231 175 0 231 175 0 233 182 0 233 182 0 233 182 0 233 182 0 233 182 0 233 182 0 233 182 0 233 182 0 233 182 0 233 182 0 233 182 0 233 182 0 232 179 0 232 179 0 232 179 0 232 179 0 233 182 0 232 179 0 232 179 0 233 182 0 232 179 0 232 179 0 232 179 0 232 179 0 232 179 0 232 179 0 232 179 0 232 179 0 232 179 0 232 179 0 232 179 0 232 179 0 232 179 0 232 179 0 232 179 0 232 179 0 232 179 0 232 179 0 232 179 0 232 179 0 232 179 0 232 179 0 232 179 0 232 179 0 233 182 0 249 236 0 249 236 0 249 236 0 250 240 0 250 240 0 250 240 0 250 240 0 250 240 0 250 240 0 250 240 0 250 240 0 249 236 0 250 240 0 249 236 0 250 240 0 250 240 0 250 240 0 250 240 0 250 240 0 250 240 0 250 240 0 250 240 0 250 240 0 250 240 0 249 236 0 249 236 0 250 240 0 250 240 0 250 240 0 250 240 0 250 240 0 250 240 0 249 236 0 250 240 0 250 240 0 250 240 0 250 240 0 249 236 0 249 236 0 249 236 0 250 240 0 249 236 0 250 240 0 249 236 0 250 240 0 250 240 0 249 236 0 249 236 0 249 236 0 249 236 0 233 182 0 232 179 0 232 179 0 231 175 0 232 179 0 231 175 0 232 179 0 232 179 0 232 179 0 232 179 0 232 179 0 232 179 0 232 179 0 232 179 0 232 179 0 232 179 0 232 179 0 232 179 0 232 179 0 232 179 0 232 179 0 232 179 0 232 179 0 231 175 0 232 179 0 232 179 0 232 179 0 232 179 0 232 179 0 237 197 0 238 200 0 237 197 0 235 189 0 228 168 0 226 160 0 226 160 0 226 160 0 227 164 0 226 160 0 226 160 0 226 160 0 227 164 0 227 164 0 227 164 0 227 164 0 227 164 0 226 160 0 227 164 0 226 160 0 227 164 0 226 160 0 226 160 0 226 160 0 227 164 0 227 164 0 226 160 0 226 160 0 226 160 0 226 160 0 226 160 0 224 153 0 226 160 0 226 160 0 226 160 0 226 160 0 231 175 0 235 189 0 236 193 0 237 197 0 237 197 0 234 186 0 228 168 0 224 153 0 226 160 0 224 153 0 224 153 0 224 153 0 228 168 0 237 197 0 237 197 0 237 197 0 237 197 0 237 197 0 237 197 0 238 200 0 
233 182 0 233 182 0 233 182 0 233 182 0 233 182 0 233 182 0 233 182 0 236 193 0 236 193 0 236 193 0 237 197 0 237 197 0 237 197 0 237 197 0 237 197 0 237 197 0 237 197 0 238 200 0 237 197 0 237 197 0 237 197 0 238 200 0 238 200 0 237 197 0 237 197 0 237 197 0 228 168 0 226 160 0 227 164 0 226 160 0 226 160 0 227 164 0 226 160 0 226 160 0 223 150 0 199 103 4 198 107 5 226 160 0 207 95 0 200 98 3 212 113 0 224 153 0 232 179 0 232 179 0 232 179 0 232 179 0 232 179 0 232 179 0 232 179 0 232 179 0 232 179 0 232 179 0 232 179 0 232 179 0 232 179 0 232 179 0 232 179 0 232 179 0 232 179 0 232 179 0 232 179 0 231 175 0 232 179 0 232 179 0 232 179 0 232 179 0 232 179 0 232 179 0 232 179 0 232 179 0 232 179 0 232 179 0 232 179 0 232 179 0 232 179 0 232 179 0 232 179 0 232 179 0 232 179 0 232 179 0 232 179 0 232 179 0 232 179 0 233 182 0 248 233 0 249 236 0 249 236 0 249 236 0 249 236 0 249 236 0 249 236 0 249 236 0 249 236 0 249 236 0 249 236 0 249 236 0 249 236 0 249 236 0 249 236 0 249 236 0 249 236 0 249 236 0 249 236 0 249 236 0 249 236 0 249 236 0 249 236 0 249 236 0 249 236 0 249 236 0 249 236 0 249 236 0 249 236 0 249 236 0 249 236 0 249 236 0 249 236 0 249 236 0 249 236 0 249 236 0 249 236 0 249 236 0 249 236 0 249 236 0 249 236 0 249 236 0 249 236 0 249 236 0 249 236 0 249 236 0 249 236 0 249 236 0 249 236 0 249 236 0 249 236 0 249 236 0 233 182 0 231 175 0 231 175 0 231 175 0 232 179 0 232 179 0 231 175 0 231 175 0 232 179 0 232 179 0 231 175 0 232 179 0 232 179 0 232 179 0 232 179 0 232 179 0 232 179 0 232 179 0 231 175 0 231 175 0 232 179 0 232 179 0 232 179 0 233 182 0 236 193 0 237 197 0 238 200 0 238 200 0 237 197 0 231 175 0 226 160 0 226 160 0 226 160 0 226 160 0 226 160 0 226 160 0 226 160 0 226 160 0 226 160 0 226 160 0 226 160 0 226 160 0 226 160 0 226 160 0 226 160 0 226 160 0 233 182 0 237 197 0 237 197 0 237 197 0 237 197 0 237 197 0 237 197 0 237 197 0 236 193 0 228 168 0 226 160 0 226 160 0 226 160 0 226 160 0 226 160 0 236 193 0 237 197 0 237 197 0 237 197 0 237 197 0 237 197 0 237 197 0 237 197 0 237 197 0 237 197 0 237 197 0 237 197 0 231 175 0 234 186 0 233 182 0 235 189 0 238 200 0 238 200 0 237 197 0 238 200 0 237 197 0 238 200 0 238 200 0 
233 182 0 233 182 0 233 182 0 233 182 0 233 182 0 233 182 0 233 182 0 236 193 0 236 193 0 236 193 0 237 197 0 237 197 0 237 197 0 237 197 0 237 197 0 237 197 0 237 197 0 238 200 0 237 197 0 237 197 0 237 197 0 238 200 0 238 200 0 237 197 0 237 197 0 237 197 0 228 168 0 226 160 0 227 164 0 226 160 0 226 160 0 227 164 0 226 160 0 226 160 0 223 150 0 199 103 4 198 107 5 226 160 0 207 95 0 200 98 3 212 113 0 224 153 0 232 179 0 232 179 0 232 179 0 232 179 0 232 179 0 232 179 0 232 179 0 232 179 0 232 179 0 232 179 0 232 179 0 232 179 0 232 179 0 232 179 0 232 179 0 232 179 0 232 179 0 232 179 0 232 179 0 231 175 0 232 179 0 232 179 0 232 179 0 232 179 0 232 179 0 232 179 0 232 179 0 232 179 0 232 179 0 232 179 0 232 179 0 232 179 0 232 179 0 232 179 0 232 179 0 232 179 0 232 179 0 232 179 0 232 179 0 232 179 0 232 179 0 233 182 0 248 233 0 249 236 0 249 236 0 249 236 0 249 236 0 249 236 0 249 236 0 249 236 0 249 236 0 249 236 0 249 236 0 249 236 0 249 236 0 249 236 0 249 236 0 249 236 0 249 236 0 249 236 0 249 236 0 249 236 0 249 236 0 249 236 0 249 236 0 249 236 0 249 236 0 249 236 0 249 236 0 249 236 0 249 236 0 249 236 0 249 236 0 249 236 0 249 236 0 249 236 0 249 236 0 249 236 0 249 236 0 249 236 0 249 236 0 249 236 0 249 236 0 249 236 0 249 236 0 249 236 0 249 236 0 249 236 0 249 236 0 249 236 0 249 236 0 249 236 0 249 236 0 249 236 0 233 182 0 231 175 0 231 175 0 231 175 0 232 179 0 232 179 0 231 175 0 231 175 0 232 179 0 232 179 0 231 175 0 232 179 0 232 179 0 232 179 0 232 179 0 232 179 0 232 179 0 232 179 0 231 175 0 231 175 0 232 179 0 232 179 0 232 179 0 233 182 0 236 193 0 237 197 0 238 200 0 238 200 0 237 197 0 231 175 0 226 160 0 226 160 0 226 160 0 226 160 0 226 160 0 226 160 0 226 160 0 226 160 0 226 160 0 226 160 0 226 160 0 226 160 0 226 160 0 226 160 0 226 160 0 226 160 0 233 182 0 237 197 0 237 197 0 237 197 0 237 197 0 237 197 0 237 197 0 237 197 0 236 193 0 228 168 0 226 160 0 226 160 0 226 160 0 226 160 0 226 160 0 236 193 0 237 197 0 237 197 0 237 197 0 237 197 0 237 197 0 237 197 0 237 197 0 237 197 0 237 197 0 237 197 0 237 197 0 231 175 0 234 186 0 233 182 0 235 189 0 238 200 0 238 200 0 237 197 0 238 200 0 237 197 0 238 200 0 238 200 0 
233 182 0 234 186 0 233 182 0 233 182 0 233 182 0 233 182 0 232 179 0 233 182 0 235 189 0 235 189 0 236 193 0 235 189 0 232 179 0 234 186 0 236 193 0 235 189 0 236 193 0 236 193 0 236 193 0 236 193 0 237 197 0 237 197 0 237 197 0 237 197 0 237 197 0 237 197 0 237 197 0 237 197 0 233 182 0 233 182 0 226 160 0 200 98 3 198 105 4 195 116 7 195 116 7 198 107 5 196 114 7 197 109 6 197 109 6 207 95 0 218 132 0 227 164 0 236 193 0 237 197 0 235 189 0 233 182 0 232 179 0 232 179 0 232 179 0 232 179 0 232 179 0 232 179 0 232 179 0 232 179 0 232 179 0 232 179 0 231 175 0 232 179 0 231 175 0 231 175 0 231 175 0 231 175 0 231 175 0 231 175 0 231 175 0 232 179 0 231 175 0 231 175 0 231 175 0 231 175 0 232 179 0 232 179 0 231 175 0 231 175 0 232 179 0 231 175 0 231 175 0 231 175 0 231 175 0 231 175 0 231 175 0 232 179 0 232 179 0 248 233 0 249 236 0 249 236 0 249 236 0 249 236 0 249 236 0 249 236 0 249 236 0 249 236 0 249 236 0 249 236 0 249 236 0 249 236 0 249 236 0 249 236 0 249 236 0 249 236 0 249 236 0 249 236 0 249 236 0 249 236 0 249 236 0 249 236 0 249 236 0 249 236 0 249 236 0 249 236 0 249 236 0 249 236 0 249 236 0 249 236 0 249 236 0 249 236 0 249 236 0 249 236 0 249 236 0 249 236 0 249 236 0 249 236 0 249 236 0 249 236 0 249 236 0 249 236 0 249 236 0 249 236 0 249 236 0 249 236 0 249 236 0 249 236 0 249 236 0 249 236 0 249 236 0 249 236 0 248 233 0 232 179 0 232 179 0 232 179 0 232 179 0 231 175 0 231 175 0 231 175 0 232 179 0 232 179 0 232 179 0 232 179 0 232 179 0 232 179 0 231 175 0 231 175 0 232 179 0 235 189 0 238 200 0 238 200 0 238 200 0 235 189 0 231 175 0 227 164 0 226 160 0 227 164 0 227 164 0 227 164 0 227 164 0 226 160 0 226 160 0 227 164 0 227 164 0 226 160 0 226 160 0 226 160 0 226 160 0 226 160 0 227 164 0 228 168 0 228 168 0 227 164 0 227 164 0 231 175 0 232 179 0 238 200 0 238 200 0 238 200 0 238 200 0 238 200 0 237 197 0 237 197 0 237 197 0 236 193 0 232 179 0 233 182 0 237 197 0 237 197 0 237 197 0 237 197 0 237 197 0 237 197 0 237 197 0 237 197 0 237 197 0 237 197 0 237 197 0 238 200 0 238 200 0 238 200 0 238 200 0 238 200 0 238 200 0 238 200 0 238 200 0 238 200 0 238 200 0 238 200 0 238 200 0 238 200 0 238 200 0 238 200 0 238 200 0 238 200 0 
233 182 0 234 186 0 233 182 0 233 182 0 233 182 0 233 182 0 232 179 0 233 182 0 235 189 0 235 189 0 236 193 0 235 189 0 232 179 0 234 186 0 236 193 0 235 189 0 236 193 0 236 193 0 236 193 0 236 193 0 237 197 0 237 197 0 237 197 0 237 197 0 237 197 0 237 197 0 237 197 0 237 197 0 233 182 0 233 182 0 226 160 0 200 98 3 198 105 4 195 116 7 195 116 7 198 107 5 196 114 7 197 109 6 197 109 6 207 95 0 218 132 0 227 164 0 236 193 0 237 197 0 235 189 0 233 182 0 232 179 0 232 179 0 232 179 0 232 179 0 232 179 0 232 179 0 232 179 0 232 179 0 232 179 0 232 179 0 231 175 0 232 179 0 231 175 0 231 175 0 231 175 0 231 175 0 231 175 0 231 175 0 231 175 0 232 179 0 231 175 0 231 175 0 231 175 0 231 175 0 232 179 0 232 179 0 231 175 0 231 175 0 232 179 0 231 175 0 231 175 0 231 175 0 231 175 0 231 175 0 231 175 0 232 179 0 232 179 0 248 233 0 249 236 0 249 236 0 249 236 0 249 236 0 249 236 0 249 236 0 249 236 0 249 236 0 249 236 0 249 236 0 249 236 0 249 236 0 249 236 0 249 236 0 249 236 0 249 236 0 249 236 0 249 236 0 249 236 0 249 236 0 249 236 0 249 236 0 249 236 0 249 236 0 249 236 0 249 236 0 249 236 0 249 236 0 249 236 0 249 236 0 249 236 0 249 236 0 249 236 0 249 236 0 249 236 0 249 236 0 249 236 0 249 236 0 249 236 0 249 236 0 249 236 0 249 236 0 249 236 0 249 236 0 249 236 0 249 236 0 249 236 0 249 236 0 249 236 0 249 236 0 249 236 0 249 236 0 248 233 0 232 179 0 232 179 0 232 179 0 232 179 0 231 175 0 231 175 0 231 175 0 232 179 0 232 179 0 232 179 0 232 179 0 232 179 0 232 179 0 231 175 0 231 175 0 232 179 0 235 189 0 238 200 0 238 200 0 238 200 0 235 189 0 231 175 0 227 164 0 226 160 0 227 164 0 227 164 0 227 164 0 227 164 0 226 160 0 226 160 0 227 164 0 227 164 0 226 160 0 226 160 0 226 160 0 226 160 0 226 160 0 227 164 0 228 168 0 228 168 0 227 164 0 227 164 0 231 175 0 232 179 0 238 200 0 238 200 0 238 200 0 238 200 0 238 200 0 237 197 0 237 197 0 237 197 0 236 193 0 232 179 0 233 182 0 237 197 0 237 197 0 237 197 0 237 197 0 237 197 0 237 197 0 237 197 0 237 197 0 237 197 0 237 197 0 237 197 0 238 200 0 238 200 0 238 200 0 238 200 0 238 200 0 238 200 0 238 200 0 238 200 0 238 200 0 238 200 0 238 200 0 238 200 0 238 200 0 238 200 0 238 200 0 238 200 0 238 200 0 
234 186 0 234 186 0 234 186 0 233 182 0 233 182 0 233 182 0 233 182 0 233 182 0 233 182 0 233 182 0 233 182 0 233 182 0 233 182 0 232 179 0 233 182 0 233 182 0 233 182 0 233 182 0 233 182 0 233 182 0 233 182 0 233 182 0 233 182 0 235 189 0 237 197 0 237 197 0 237 197 0 237 197 0 237 197 0 237 197 0 235 189 0 221 142 0 199 100 3 196 114 7 196 114 7 196 114 7 196 114 7 197 109 6 196 114 7 196 114 7 201 96 2 211 110 0 200 98 3 235 189 0 238 200 0 238 200 0 238 200 0 235 189 0 231 175 0 232 179 0 232 179 0 232 179 0 232 179 0 232 179 0 232 179 0 232 179 0 232 179 0 232 179 0 232 179 0 231 175 0 231 175 0 231 175 0 231 175 0 231 175 0 231 175 0 231 175 0 231 175 0 231 175 0 231 175 0 231 175 0 231 175 0 231 175 0 231 175 0 231 175 0 231 175 0 231 175 0 231 175 0 231 175 0 231 175 0 231 175 0 231 175 0 231 175 0 239 204 0 248 233 0 248 233 0 249 236 0 249 236 0 249 236 0 249 236 0 249 236 0 249 236 0 249 236 0 248 233 0 249 236 0 248 233 0 249 236 0 249 236 0 249 236 0 249 236 0 248 233 0 249 236 0 248 233 0 248 233 0 248 233 0 248 233 0 248 233 0 248 233 0 248 233 0 248 233 0 248 233 0 248 233 0 248 233 0 248 233 0 248 233 0 248 233 0 248 233 0 248 233 0 248 233 0 249 236 0 248 233 0 248 233 0 248 233 0 248 233 0 248 233 0 248 233 0 248 233 0 248 233 0 248 233 0 248 233 0 248 233 0 248 233 0 249 236 0 249 236 0 248 233 0 248 233 0 248 233 0 249 236 0 241 211 0 232 179 0 232 179 0 231 175 0 231 175 0 231 175 0 231 175 0 231 175 0 232 179 0 232 179 0 232 179 0 232 179 0 231 175 0 231 175 0 231 175 0 231 175 0 231 175 0 231 175 0 231 175 0 232 179 0 231 175 0 231 175 0 231 175 0 231 175 0 231 175 0 231 175 0 231 175 0 231 175 0 232 179 0 232 179 0 232 179 0 232 179 0 231 175 0 233 182 0 237 197 0 238 200 0 238 200 0 238 200 0 238 200 0 238 200 0 238 200 0 238 200 0 238 200 0 238 200 0 238 200 0 238 200 0 238 200 0 238 200 0 238 200 0 238 200 0 238 200 0 237 197 0 238 200 0 238 200 0 238 200 0 238 200 0 238 200 0 238 200 0 237 197 0 238 200 0 238 200 0 238 200 0 238 200 0 238 200 0 238 200 0 238 200 0 238 200 0 238 200 0 238 200 0 238 200 0 238 200 0 238 200 0 238 200 0 238 200 0 238 200 0 238 200 0 238 200 0 238 200 0 238 200 0 238 200 0 239 204 0 239 204 0 238 200 0 
234 186 0 234 186 0 234 186 0 233 182 0 233 182 0 233 182 0 233 182 0 233 182 0 233 182 0 233 182 0 233 182 0 233 182 0 233 182 0 232 179 0 233 182 0 233 182 0 233 182 0 233 182 0 233 182 0 233 182 0 233 182 0 233 182 0 233 182 0 235 189 0 237 197 0 237 197 0 237 197 0 237 197 0 237 197 0 237 197 0 235 189 0 221 142 0 199 100 3 196 114 7 196 114 7 196 114 7 196 114 7 197 109 6 196 114 7 196 114 7 201 96 2 211 110 0 200 98 3 235 189 0 238 200 0 238 200 0 238 200 0 235 189 0 231 175 0 232 179 0 232 179 0 232 179 0 232 179 0 232 179 0 232 179 0 232 179 0 232 179 0 232 179 0 232 179 0 231 175 0 231 175 0 231 175 0 231 175 0 231 175 0 231 175 0 231 175 0 231 175 0 231 175 0 231 175 0 231 175 0 231 175 0 231 175 0 231 175 0 231 175 0 231 175 0 231 175 0 231 175 0 231 175 0 231 175 0 231 175 0 231 175 0 231 175 0 239 204 0 248 233 0 248 233 0 249 236 0 249 236 0 249 236 0 249 236 0 249 236 0 249 236 0 249 236 0 248 233 0 249 236 0 248 233 0 249 236 0 249 236 0 249 236 0 249 236 0 248 233 0 249 236 0 248 233 0 248 233 0 248 233 0 248 233 0 248 233 0 248 233 0 248 233 0 248 233 0 248 233 0 248 233 0 248 233 0 248 233 0 248 233 0 248 233 0 248 233 0 248 233 0 248 233 0 249 236 0 248 233 0 248 233 0 248 233 0 248 233 0 248 233 0 248 233 0 248 233 0 248 233 0 248 233 0 248 233 0 248 233 0 248 233 0 249 236 0 249 236 0 248 233 0 248 233 0 248 233 0 249 236 0 241 211 0 232 179 0 232 179 0 231 175 0 231 175 0 231 175 0 231 175 0 231 175 0 232 179 0 232 179 0 232 179 0 232 179 0 231 175 0 231 175 0 231 175 0 231 175 0 231 175 0 231 175 0 231 175 0 232 179 0 231 175 0 231 175 0 231 175 0 231 175 0 231 175 0 231 175 0 231 175 0 231 175 0 232 179 0 232 179 0 232 179 0 232 179 0 231 175 0 233 182 0 237 197 0 238 200 0 238 200 0 238 200 0 238 200 0 238 200 0 238 200 0 238 200 0 238 200 0 238 200 0 238 200 0 238 200 0 238 200 0 238 200 0 238 200 0 238 200 0 238 200 0 237 197 0 238 200 0 238 200 0 238 200 0 238 200 0 238 200 0 238 200 0 237 197 0 238 200 0 238 200 0 238 200 0 238 200 0 238 200 0 238 200 0 238 200 0 238 200 0 238 200 0 238 200 0 238 200 0 238 200 0 238 200 0 238 200 0 238 200 0 238 200 0 238 200 0 238 200 0 238 200 0 238 200 0 238 200 0 239 204 0 239 204 0 238 200 0 
234 186 0 234 186 0 234 186 0 234 186 0 234 186 0 234 186 0 234 186 0 233 182 0 233 182 0 233 182 0 233 182 0 233 182 0 233 182 0 233 182 0 233 182 0 233 182 0 233 182 0 233 182 0 233 182 0 233 182 0 233 182 0 233 182 0 233 182 0 233 182 0 233 182 0 234 186 0 234 186 0 233 182 0 234 186 0 234 186 0 224 153 0 230 171 0 200 98 3 196 114 7 215 124 0 223 150 0 198 105 4 197 109 6 198 107 5 198 105 4 196 114 7 201 94 2 236 193 0 237 197 0 237 197 0 238 200 0 238 200 0 238 200 0 237 197 0 237 197 0 237 197 0 234 186 0 231 175 0 235 189 0 235 189 0 235 189 0 234 186 0 232 179 0 231 175 0 231 175 0 230 171 0 230 171 0 230 171 0 231 175 0 230 171 0 231 175 0 231 175 0 231 175 0 231 175 0 231 175 0 231 175 0 230 171 0 231 175 0 231 175 0 231 175 0 231 175 0 230 171 0 231 175 0 231 175 0 231 175 0 231 175 0 232 179 0 247 229 0 248 233 0 248 233 0 248 233 0 248 233 0 248 233 0 248 233 0 248 233 0 248 233 0 248 233 0 248 233 0 248 233 0 248 233 0 248 233 0 248 233 0 248 233 0 248 233 0 248 233 0 248 233 0 248 233 0 248 233 0 248 233 0 248 233 0 248 233 0 248 233 0 248 233 0 248 233 0 248 233 0 248 233 0 248 233 0 248 233 0 248 233 0 248 233 0 248 233 0 248 233 0 248 233 0 248 233 0 248 233 0 248 233 0 248 233 0 248 233 0 248 233 0 248 233 0 248 233 0 248 233 0 248 233 0 248 233 0 248 233 0 248 233 0 248 233 0 248 233 0 248 233 0 248 233 0 248 233 0 248 233 0 248 233 0 231 175 0 231 175 0 231 175 0 230 171 0 230 171 0 231 175 0 231 175 0 231 175 0 231 175 0 231 175 0 231 175 0 230 171 0 230 171 0 230 171 0 230 171 0 230 171 0 230 171 0 230 171 0 230 171 0 230 171 0 230 171 0 231 175 0 230 171 0 230 171 0 230 171 0 230 171 0 231 175 0 231 175 0 231 175 0 230 171 0 232 179 0 238 200 0 238 200 0 238 200 0 238 200 0 238 200 0 238 200 0 238 200 0 238 200 0 238 200 0 238 200 0 238 200 0 238 200 0 238 200 0 238 200 0 238 200 0 238 200 0 238 200 0 238 200 0 238 200 0 238 200 0 238 200 0 238 200 0 238 200 0 238 200 0 238 200 0 238 200 0 238 200 0 237 197 0 238 200 0 238 200 0 238 200 0 238 200 0 239 204 0 239 204 0 238 200 0 238 200 0 238 200 0 238 200 0 238 200 0 238 200 0 238 200 0 238 200 0 238 200 0 238 200 0 238 200 0 238 200 0 239 204 0 239 204 0 239 204 0 238 200 0 239 204 0 
234 186 0 234 186 0 234 186 0 234 186 0 234 186 0 234 186 0 234 186 0 233 182 0 233 182 0 233 182 0 233 182 0 233 182 0 233 182 0 233 182 0 233 182 0 233 182 0 233 182 0 233 182 0 233 182 0 233 182 0 233 182 0 233 182 0 233 182 0 233 182 0 233 182 0 234 186 0 234 186 0 233 182 0 234 186 0 234 186 0 224 153 0 230 171 0 200 98 3 196 114 7 215 124 0 223 150 0 198 105 4 197 109 6 198 107 5 198 105 4 196 114 7 201 94 2 236 193 0 237 197 0 237 197 0 238 200 0 238 200 0 238 200 0 237 197 0 237 197 0 237 197 0 234 186 0 231 175 0 235 189 0 235 189 0 235 189 0 234 186 0 232 179 0 231 175 0 231 175 0 230 171 0 230 171 0 230 171 0 231 175 0 230 171 0 231 175 0 231 175 0 231 175 0 231 175 0 231 175 0 231 175 0 230 171 0 231 175 0 231 175 0 231 175 0 231 175 0 230 171 0 231 175 0 231 175 0 231 175 0 231 175 0 232 179 0 247 229 0 248 233 0 248 233 0 248 233 0 248 233 0 248 233 0 248 233 0 248 233 0 248 233 0 248 233 0 248 233 0 248 233 0 248 233 0 248 233 0 248 233 0 248 233 0 248 233 0 248 233 0 248 233 0 248 233 0 248 233 0 248 233 0 248 233 0 248 233 0 248 233 0 248 233 0 248 233 0 248 233 0 248 233 0 248 233 0 248 233 0 248 233 0 248 233 0 248 233 0 248 233 0 248 233 0 248 233 0 248 233 0 248 233 0 248 233 0 248 233 0 248 233 0 248 233 0 248 233 0 248 233 0 248 233 0 248 233 0 248 233 0 248 233 0 248 233 0 248 233 0 248 233 0 248 233 0 248 233 0 248 233 0 248 233 0 231 175 0 231 175 0 231 175 0 230 171 0 230 171 0 231 175 0 231 175 0 231 175 0 231 175 0 231 175 0 231 175 0 230 171 0 230 171 0 230 171 0 230 171 0 230 171 0 230 171 0 230 171 0 230 171 0 230 171 0 230 171 0 231 175 0 230 171 0 230 171 0 230 171 0 230 171 0 231 175 0 231 175 0 231 175 0 230 171 0 232 179 0 238 200 0 238 200 0 238 200 0 238 200 0 238 200 0 238 200 0 238 200 0 238 200 0 238 200 0 238 200 0 238 200 0 238 200 0 238 200 0 238 200 0 238 200 0 238 200 0 238 200 0 238 200 0 238 200 0 238 200 0 238 200 0 238 200 0 238 200 0 238 200 0 238 200 0 238 200 0 238 200 0 237 197 0 238 200 0 238 200 0 238 200 0 238 200 0 239 204 0 239 204 0 238 200 0 238 200 0 238 200 0 238 200 0 238 200 0 238 200 0 238 200 0 238 200 0 238 200 0 238 200 0 238 200 0 238 200 0 239 204 0 239 204 0 239 204 0 238 200 0 239 204 0 
223 150 0 227 164 0 231 175 0 234 186 0 234 186 0 234 186 0 234 186 0 234 186 0 234 186 0 234 186 0 234 186 0 234 186 0 234 186 0 234 186 0 233 182 0 234 186 0 233 182 0 233 182 0 233 182 0 233 182 0 233 182 0 233 182 0 233 182 0 233 182 0 233 182 0 233 182 0 233 182 0 234 186 0 234 186 0 234 186 0 233 182 0 231 175 0 211 110 0 232 179 0 231 175 0 207 95 0 232 179 0 209 103 0 196 114 7 227 164 0 203 87 0 203 87 0 226 160 0 232 179 0 232 179 0 233 182 0 232 179 0 233 182 0 234 186 0 236 193 0 238 200 0 238 200 0 238 200 0 238 200 0 238 200 0 238 200 0 238 200 0 238 200 0 238 200 0 237 197 0 236 193 0 234 186 0 234 186 0 230 171 0 228 168 0 230 171 0 230 171 0 230 171 0 228 168 0 230 171 0 228 168 0 228 168 0 228 168 0 228 168 0 230 171 0 230 171 0 230 171 0 230 171 0 228 168 0 230 171 0 230 171 0 238 200 0 247 229 0 247 229 0 247 229 0 247 229 0 247 229 0 247 229 0 247 229 0 247 229 0 247 229 0 246 226 0 246 226 0 246 226 0 247 229 0 247 229 0 247 229 0 247 229 0 247 229 0 246 226 0 247 229 0 247 229 0 247 229 0 247 229 0 247 229 0 246 226 0 246 226 0 246 226 0 246 226 0 246 226 0 246 226 0 246 226 0 246 226 0 246 226 0 246 226 0 246 226 0 246 226 0 246 226 0 246 226 0 246 226 0 246 226 0 246 226 0 246 226 0 246 226 0 246 226 0 246 226 0 246 226 0 246 226 0 247 229 0 247 229 0 247 229 0 247 229 0 247 229 0 246 226 0 247 229 0 247 229 0 247 229 0 247 229 0 238 200 0 230 171 0 230 171 0 230 171 0 230 171 0 230 171 0 230 171 0 228 168 0 230 171 0 228 168 0 228 168 0 228 168 0 228 168 0 228 168 0 228 168 0 228 168 0 228 168 0 228 168 0 230 171 0 230 171 0 236 193 0 238 200 0 239 204 0 239 204 0 238 200 0 238 200 0 238 200 0 238 200 0 238 200 0 238 200 0 238 200 0 238 200 0 238 200 0 238 200 0 238 200 0 238 200 0 238 200 0 238 200 0 238 200 0 238 200 0 238 200 0 238 200 0 238 200 0 238 200 0 238 200 0 238 200 0 238 200 0 238 200 0 238 200 0 238 200 0 238 200 0 239 204 0 238 200 0 238 200 0 238 200 0 238 200 0 238 200 0 238 200 0 238 200 0 238 200 0 238 200 0 238 200 0 238 200 0 238 200 0 238 200 0 238 200 0 238 200 0 238 200 0 238 200 0 238 200 0 238 200 0 238 200 0 238 200 0 238 200 0 238 200 0 238 200 0 238 200 0 238 200 0 238 200 0 238 200 0 238 200 0 238 200 0 
223 150 0 227 164 0 231 175 0 234 186 0 234 186 0 234 186 0 234 186 0 234 186 0 234 186 0 234 186 0 234 186 0 234 186 0 234 186 0 234 186 0 233 182 0 234 186 0 233 182 0 233 182 0 233 182 0 233 182 0 233 182 0 233 182 0 233 182 0 233 182 0 233 182 0 233 182 0 233 182 0 234 186 0 234 186 0 234 186 0 233 182 0 231 175 0 211 110 0 232 179 0 231 175 0 207 95 0 232 179 0 209 103 0 196 114 7 227 164 0 203 87 0 203 87 0 226 160 0 232 179 0 232 179 0 233 182 0 232 179 0 233 182 0 234 186 0 236 193 0 238 200 0 238 200 0 238 200 0 238 200 0 238 200 0 238 200 0 238 200 0 238 200 0 238 200 0 237 197 0 236 193 0 234 186 0 234 186 0 230 171 0 228 168 0 230 171 0 230 171 0 230 171 0 228 168 0 230 171 0 228 168 0 228 168 0 228 168 0 228 168 0 230 171 0 230 171 0 230 171 0 230 171 0 228 168 0 230 171 0 230 171 0 238 200 0 247 229 0 247 229 0 247 229 0 247 229 0 247 229 0 247 229 0 247 229 0 247 229 0 247 229 0 246 226 0 246 226 0 246 226 0 247 229 0 247 229 0 247 229 0 247 229 0 247 229 0 246 226 0 247 229 0 247 229 0 247 229 0 247 229 0 247 229 0 246 226 0 246 226 0 246 226 0 246 226 0 246 226 0 246 226 0 246 226 0 246 226 0 246 226 0 246 226 0 246 226 0 246 226 0 246 226 0 246 226 0 246 226 0 246 226 0 246 226 0 246 226 0 246 226 0 246 226 0 246 226 0 246 226 0 246 226 0 247 229 0 247 229 0 247 229 0 247 229 0 247 229 0 246 226 0 247 229 0 247 229 0 247 229 0 247 229 0 238 200 0 230 171 0 230 171 0 230 171 0 230 171 0 230 171 0 230 171 0 228 168 0 230 171 0 228 168 0 228 168 0 228 168 0 228 168 0 228 168 0 228 168 0 228 168 0 228 168 0 228 168 0 230 171 0 230 171 0 236 193 0 238 200 0 239 204 0 239 204 0 238 200 0 238 200 0 238 200 0 238 200 0 238 200 0 238 200 0 238 200 0 238 200 0 238 200 0 238 200 0 238 200 0 238 200 0 238 200 0 238 200 0 238 200 0 238 200 0 238 200 0 238 200 0 238 200 0 238 200 0 238 200 0 238 200 0 238 200 0 238 200 0 238 200 0 238 200 0 238 200 0 239 204 0 238 200 0 238 200 0 238 200 0 238 200 0 238 200 0 238 200 0 238 200 0 238 200 0 238 200 0 238 200 0 238 200 0 238 200 0 238 200 0 238 200 0 238 200 0 238 200 0 238 200 0 238 200 0 238 200 0 238 200 0 238 200 0 238 200 0 238 200 0 238 200 0 238 200 0 238 200 0 238 200 0 238 200 0 238 200 0 238 200 0 
184 157 17 184 157 17 184 157 17 184 157 17 184 157 17 184 157 17 184 157 17 185 154 17 186 152 16 192 130 11 203 87 0 220 139 0 221 142 0 219 135 0 217 128 0 219 135 0 221 142 0 221 142 0 221 142 0 222 146 0 221 142 0 220 139 0 218 132 0 221 142 0 223 150 0 224 153 0 224 153 0 226 160 0 226 160 0 226 160 0 226 160 0 226 160 0 226 160 0 226 160 0 200 98 3 220 139 0 224 153 0 205 88 0 217 128 0 226 160 0 223 150 0 222 146 0 228 168 0 227 164 0 227 164 0 227 164 0 227 164 0 227 164 0 227 164 0 227 164 0 227 164 0 227 164 0 227 164 0 228 168 0 227 164 0 228 168 0 227 164 0 228 168 0 228 168 0 228 168 0 228 168 0 228 168 0 228 168 0 227 164 0 228 168 0 228 168 0 228 168 0 228 168 0 228 168 0 228 168 0 228 168 0 228 168 0 228 168 0 228 168 0 228 168 0 228 168 0 228 168 0 228 168 0 228 168 0 227 164 0 227 164 0 239 204 0 243 215 0 243 215 0 243 215 0 243 215 0 243 215 0 243 215 0 243 215 0 243 215 0 243 215 0 243 215 0 243 215 0 243 215 0 245 222 0 245 222 0 245 222 0 245 222 0 245 222 0 245 222 0 245 222 0 245 222 0 245 222 0 245 222 0 245 222 0 245 222 0 245 222 0 245 222 0 245 222 0 243 215 0 245 222 0 245 222 0 245 222 0 245 222 0 245 222 0 243 215 0 243 215 0 243 215 0 243 215 0 243 215 0 243 215 0 243 215 0 245 222 0 243 215 0 243 215 0 243 215 0 243 215 0 243 215 0 241 211 0 243 215 0 241 211 0 243 215 0 243 215 0 243 215 0 243 215 0 243 215 0 243 215 0 243 215 0 239 204 0 228 168 0 228 168 0 228 168 0 228 168 0 232 179 0 235 189 0 237 197 0 238 200 0 238 200 0 238 200 0 238 200 0 238 200 0 238 200 0 238 200 0 237 197 0 237 197 0 237 197 0 237 197 0 237 197 0 237 197 0 237 197 0 237 197 0 237 197 0 237 197 0 237 197 0 237 197 0 237 197 0 236 193 0 236 193 0 236 193 0 236 193 0 236 193 0 236 193 0 236 193 0 236 193 0 235 189 0 236 193 0 236 193 0 236 193 0 235 189 0 235 189 0 235 189 0 235 189 0 235 189 0 235 189 0 235 189 0 234 186 0 233 182 0 233 182 0 233 182 0 234 186 0 233 182 0 233 182 0 234 186 0 234 186 0 234 186 0 233 182 0 233 182 0 234 186 0 234 186 0 234 186 0 234 186 0 233 182 0 233 182 0 233 182 0 233 182 0 233 182 0 233 182 0 232 179 0 232 179 0 233 182 0 233 182 0 232 179 0 232 179 0 232 179 0 232 179 0 232 179 0 232 179 0 232 179 0 231 175 0 231 175 0 
184 157 17 184 157 17 184 157 17 184 157 17 184 157 17 184 157 17 184 157 17 185 154 17 186 152 16 192 130 11 203 87 0 220 139 0 221 142 0 219 135 0 217 128 0 219 135 0 221 142 0 221 142 0 221 142 0 222 146 0 221 142 0 220 139 0 218 132 0 221 142 0 223 150 0 224 153 0 224 153 0 226 160 0 226 160 0 226 160 0 226 160 0 226 160 0 226 160 0 226 160 0 200 98 3 220 139 0 224 153 0 205 88 0 217 128 0 226 160 0 223 150 0 222 146 0 228 168 0 227 164 0 227 164 0 227 164 0 227 164 0 227 164 0 227 164 0 227 164 0 227 164 0 227 164 0 227 164 0 228 168 0 227 164 0 228 168 0 227 164 0 228 168 0 228 168 0 228 168 0 228 168 0 228 168 0 228 168 0 227 164 0 228 168 0 228 168 0 228 168 0 228 168 0 228 168 0 228 168 0 228 168 0 228 168 0 228 168 0 228 168 0 228 168 0 228 168 0 228 168 0 228 168 0 228 168 0 227 164 0 227 164 0 239 204 0 243 215 0 243 215 0 243 215 0 243 215 0 243 215 0 243 215 0 243 215 0 243 215 0 243 215 0 243 215 0 243 215 0 243 215 0 245 222 0 245 222 0 245 222 0 245 222 0 245 222 0 245 222 0 245 222 0 245 222 0 245 222 0 245 222 0 245 222 0 245 222 0 245 222 0 245 222 0 245 222 0 243 215 0 245 222 0 245 222 0 245 222 0 245 222 0 245 222 0 243 215 0 243 215 0 243 215 0 243 215 0 243 215 0 243 215 0 243 215 0 245 222 0 243 215 0 243 215 0 243 215 0 243 215 0 243 215 0 241 211 0 243 215 0 241 211 0 243 215 0 243 215 0 243 215 0 243 215 0 243 215 0 243 215 0 243 215 0 239 204 0 228 168 0 228 168 0 228 168 0 228 168 0 232 179 0 235 189 0 237 197 0 238 200 0 238 200 0 238 200 0 238 200 0 238 200 0 238 200 0 238 200 0 237 197 0 237 197 0 237 197 0 237 197 0 237 197 0 237 197 0 237 197 0 237 197 0 237 197 0 237 197 0 237 197 0 237 197 0 237 197 0 236 193 0 236 193 0 236 193 0 236 193 0 236 193 0 236 193 0 236 193 0 236 193 0 235 189 0 236 193 0 236 193 0 236 193 0 235 189 0 235 189 0 235 189 0 235 189 0 235 189 0 235 189 0 235 189 0 234 186 0 233 182 0 233 182 0 233 182 0 234 186 0 233 182 0 233 182 0 234 186 0 234 186 0 234 186 0 233 182 0 233 182 0 234 186 0 234 186 0 234 186 0 234 186 0 233 182 0 233 182 0 233 182 0 233 182 0 233 182 0 233 182 0 232 179 0 232 179 0 233 182 0 233 182 0 232 179 0 232 179 0 232 179 0 232 179 0 232 179 0 232 179 0 232 179 0 231 175 0 231 175 0 
183 161 18 184 157 17 184 157 17 184 157 17 184 157 17 184 157 17 184 157 17 184 157 17 184 157 17 184 157 17 184 157 17 184 157 17 184 157 17 184 157 17 184 157 17 184 157 17 184 157 17 184 157 17 184 157 17 184 157 17 185 154 17 185 154 17 185 154 17 185 154 17 184 157 17 184 157 17 184 157 17 184 157 17 185 154 17 201 94 2 221 142 0 224 153 0 224 153 0 220 139 0 201 96 2 226 160 0 226 160 0 226 160 0 226 160 0 227 164 0 227 164 0 227 164 0 227 164 0 226 160 0 226 160 0 226 160 0 226 160 0 226 160 0 227 164 0 227 164 0 227 164 0 227 164 0 226 160 0 226 160 0 226 160 0 227 164 0 226 160 0 227 164 0 227 164 0 227 164 0 227 164 0 227 164 0 226 160 0 226 160 0 227 164 0 226 160 0 226 160 0 227 164 0 226 160 0 226 160 0 227 164 0 226 160 0 226 160 0 227 164 0 227 164 0 227 164 0 227 164 0 227 164 0 226 160 0 227 164 0 226 160 0 237 197 0 238 200 0 238 200 0 238 200 0 238 200 0 238 200 0 238 200 0 238 200 0 238 200 0 238 200 0 239 204 0 239 204 0 240 207 0 240 207 0 241 211 0 240 207 0 241 211 0 240 207 0 240 207 0 240 207 0 240 207 0 240 207 0 240 207 0 240 207 0 240 207 0 240 207 0 240 207 0 239 204 0 239 204 0 239 204 0 240 207 0 240 207 0 240 207 0 239 204 0 240 207 0 239 204 0 240 207 0 240 207 0 239 204 0 239 204 0 239 204 0 239 204 0 238 200 0 238 200 0 238 200 0 238 200 0 238 200 0 238 200 0 238 200 0 238 200 0 238 200 0 238 200 0 239 204 0 238 200 0 239 204 0 239 204 0 239 204 0 237 197 0 226 160 0 226 160 0 227 164 0 227 164 0 227 164 0 226 160 0 226 160 0 226 160 0 227 164 0 226 160 0 226 160 0 226 160 0 226 160 0 226 160 0 226 160 0 226 160 0 226 160 0 227 164 0 227 164 0 227 164 0 227 164 0 226 160 0 227 164 0 226 160 0 227 164 0 226 160 0 226 160 0 226 160 0 226 160 0 226 160 0 226 160 0 227 164 0 226 160 0 227 164 0 226 160 0 226 160 0 226 160 0 227 164 0 227 164 0 227 164 0 227 164 0 226 160 0 227 164 0 227 164 0 226 160 0 226 160 0 226 160 0 226 160 0 226 160 0 226 160 0 226 160 0 227 164 0 227 164 0 226 160 0 227 164 0 226 160 0 226 160 0 226 160 0 226 160 0 227 164 0 226 160 0 227 164 0 226 160 0 226 160 0 226 160 0 226 160 0 226 160 0 226 160 0 226 160 0 226 160 0 226 160 0 226 160 0 226 160 0 226 160 0 226 160 0 226 160 0 226 160 0 226 160 0 226 160 0 226 160 0 226 160 0 
183 161 18 184 157 17 184 157 17 184 157 17 184 157 17 184 157 17 184 157 17 184 157 17 184 157 17 184 157 17 184 157 17 184 157 17 184 157 17 184 157 17 184 157 17 184 157 17 184 157 17 184 157 17 184 157 17 184 157 17 185 154 17 185 154 17 185 154 17 185 154 17 184 157 17 184 157 17 184 157 17 184 157 17 185 154 17 201 94 2 221 142 0 224 153 0 224 153 0 220 139 0 201 96 2 226 160 0 226 160 0 226 160 0 226 160 0 227 164 0 227 164 0 227 164 0 227 164 0 226 160 0 226 160 0 226 160 0 226 160 0 226 160 0 227 164 0 227 164 0 227 164 0 227 164 0 226 160 0 226 160 0 226 160 0 227 164 0 226 160 0 227 164 0 227 164 0 227 164 0 227 164 0 227 164 0 226 160 0 226 160 0 227 164 0 226 160 0 226 160 0 227 164 0 226 160 0 226 160 0 227 164 0 226 160 0 226 160 0 227 164 0 227 164 0 227 164 0 227 164 0 227 164 0 226 160 0 227 164 0 226 160 0 237 197 0 238 200 0 238 200 0 238 200 0 238 200 0 238 200 0 238 200 0 238 200 0 238 200 0 238 200 0 239 204 0 239 204 0 240 207 0 240 207 0 241 211 0 240 207 0 241 211 0 240 207 0 240 207 0 240 207 0 240 207 0 240 207 0 240 207 0 240 207 0 240 207 0 240 207 0 240 207 0 239 204 0 239 204 0 239 204 0 240 207 0 240 207 0 240 207 0 239 204 0 240 207 0 239 204 0 240 207 0 240 207 0 239 204 0 239 204 0 239 204 0 239 204 0 238 200 0 238 200 0 238 200 0 238 200 0 238 200 0 238 200 0 238 200 0 238 200 0 238 200 0 238 200 0 239 204 0 238 200 0 239 204 0 239 204 0 239 204 0 237 197 0 226 160 0 226 160 0 227 164 0 227 164 0 227 164 0 226 160 0 226 160 0 226 160 0 227 164 0 226 160 0 226 160 0 226 160 0 226 160 0 226 160 0 226 160 0 226 160 0 226 160 0 227 164 0 227 164 0 227 164 0 227 164 0 226 160 0 227 164 0 226 160 0 227 164 0 226 160 0 226 160 0 226 160 0 226 160 0 226 160 0 226 160 0 227 164 0 226 160 0 227 164 0 226 160 0 226 160 0 226 160 0 227 164 0 227 164 0 227 164 0 227 164 0 226 160 0 227 164 0 227 164 0 226 160 0 226 160 0 226 160 0 226 160 0 226 160 0 226 160 0 226 160 0 227 164 0 227 164 0 226 160 0 227 164 0 226 160 0 226 160 0 226 160 0 226 160 0 227 164 0 226 160 0 227 164 0 226 160 0 226 160 0 226 160 0 226 160 0 226 160 0 226 160 0 226 160 0 226 160 0 226 160 0 226 160 0 226 160 0 226 160 0 226 160 0 226 160 0 226 160 0 226 160 0 226 160 0 226 160 0 226 160 0 
184 157 17 184 157 17 184 157 17 184 157 17 184 157 17 184 157 17 184 157 17 184 157 17 184 157 17 184 157 17 184 157 17 184 157 17 184 157 17 184 157 17 184 157 17 184 157 17 184 157 17 184 157 17 184 157 17 184 157 17 184 157 17 184 157 17 184 157 17 184 157 17 185 154 17 185 154 17 184 157 17 184 157 17 184 157 17 184 157 17 184 157 17 185 154 17 207 95 0 195 116 7 212 113 0 223 150 0 224 153 0 224 153 0 224 153 0 224 153 0 224 153 0 224 153 0 224 153 0 224 153 0 224 153 0 226 160 0 224 153 0 224 153 0 223 150 0 224 153 0 224 153 0 224 153 0 224 153 0 224 153 0 224 153 0 224 153 0 224 153 0 224 153 0 224 153 0 224 153 0 224 153 0 226 160 0 226 160 0 224 153 0 224 153 0 224 153 0 224 153 0 224 153 0 224 153 0 224 153 0 224 153 0 224 153 0 224 153 0 224 153 0 226 160 0 226 160 0 226 160 0 224 153 0 226 160 0 226 160 0 224 153 0 234 186 0 236 193 0 236 193 0 236 193 0 235 189 0 235 189 0 235 189 0 235 189 0 235 189 0 235 189 0 235 189 0 235 189 0 235 189 0 236 193 0 236 193 0 236 193 0 236 193 0 236 193 0 236 193 0 236 193 0 236 193 0 235 189 0 235 189 0 235 189 0 235 189 0 235 189 0 234 186 0 234 186 0 234 186 0 234 186 0 234 186 0 234 186 0 234 186 0 235 189 0 234 186 0 234 186 0 235 189 0 235 189 0 235 189 0 235 189 0 234 186 0 235 189 0 235 189 0 235 189 0 236 193 0 236 193 0 237 197 0 236 193 0 236 193 0 236 193 0 235 189 0 235 189 0 235 189 0 235 189 0 235 189 0 236 193 0 235 189 0 234 186 0 224 153 0 224 153 0 224 153 0 224 153 0 224 153 0 224 153 0 226 160 0 224 153 0 224 153 0 224 153 0 224 153 0 224 153 0 224 153 0 224 153 0 224 153 0 224 153 0 224 153 0 224 153 0 224 153 0 224 153 0 224 153 0 224 153 0 224 153 0 224 153 0 224 153 0 224 153 0 223 150 0 224 153 0 224 153 0 224 153 0 226 160 0 224 153 0 224 153 0 224 153 0 224 153 0 224 153 0 224 153 0 226 160 0 224 153 0 224 153 0 224 153 0 224 153 0 224 153 0 224 153 0 224 153 0 224 153 0 224 153 0 224 153 0 224 153 0 224 153 0 224 153 0 224 153 0 224 153 0 224 153 0 224 153 0 224 153 0 224 153 0 224 153 0 224 153 0 224 153 0 224 153 0 224 153 0 224 153 0 224 153 0 224 153 0 224 153 0 224 153 0 224 153 0 224 153 0 224 153 0 224 153 0 224 153 0 224 153 0 224 153 0 224 153 0 224 153 0 224 153 0 224 153 0 224 153 0 224 153 0 224 153 0 
184 157 17 184 157 17 184 157 17 184 157 17 184 157 17 184 157 17 184 157 17 184 157 17 184 157 17 184 157 17 184 157 17 184 157 17 184 157 17 184 157 17 184 157 17 184 157 17 184 157 17 184 157 17 184 157 17 184 157 17 184 157 17 184 157 17 184 157 17 184 157 17 185 154 17 185 154 17 184 157 17 184 157 17 184 157 17 184 157 17 184 157 17 185 154 17 207 95 0 195 116 7 212 113 0 223 150 0 224 153 0 224 153 0 224 153 0 224 153 0 224 153 0 224 153 0 224 153 0 224 153 0 224 153 0 226 160 0 224 153 0 224 153 0 223 150 0 224 153 0 224 153 0 224 153 0 224 153 0 224 153 0 224 153 0 224 153 0 224 153 0 224 153 0 224 153 0 224 153 0 224 153 0 226 160 0 226 160 0 224 153 0 224 153 0 224 153 0 224 153 0 224 153 0 224 153 0 224 153 0 224 153 0 224 153 0 224 153 0 224 153 0 226 160 0 226 160 0 226 160 0 224 153 0 226 160 0 226 160 0 224 153 0 234 186 0 236 193 0 236 193 0 236 193 0 235 189 0 235 189 0 235 189 0 235 189 0 235 189 0 235 189 0 235 189 0 235 189 0 235 189 0 236 193 0 236 193 0 236 193 0 236 193 0 236 193 0 236 193 0 236 193 0 236 193 0 235 189 0 235 189 0 235 189 0 235 189 0 235 189 0 234 186 0 234 186 0 234 186 0 234 186 0 234 186 0 234 186 0 234 186 0 235 189 0 234 186 0 234 186 0 235 189 0 235 189 0 235 189 0 235 189 0 234 186 0 235 189 0 235 189 0 235 189 0 236 193 0 236 193 0 237 197 0 236 193 0 236 193 0 236 193 0 235 189 0 235 189 0 235 189 0 235 189 0 235 189 0 236 193 0 235 189 0 234 186 0 224 153 0 224 153 0 224 153 0 224 153 0 224 153 0 224 153 0 226 160 0 224 153 0 224 153 0 224 153 0 224 153 0 224 153 0 224 153 0 224 153 0 224 153 0 224 153 0 224 153 0 224 153 0 224 153 0 224 153 0 224 153 0 224 153 0 224 153 0 224 153 0 224 153 0 224 153 0 223 150 0 224 153 0 224 153 0 224 153 0 226 160 0 224 153 0 224 153 0 224 153 0 224 153 0 224 153 0 224 153 0 226 160 0 224 153 0 224 153 0 224 153 0 224 153 0 224 153 0 224 153 0 224 153 0 224 153 0 224 153 0 224 153 0 224 153 0 224 153 0 224 153 0 224 153 0 224 153 0 224 153 0 224 153 0 224 153 0 224 153 0 224 153 0 224 153 0 224 153 0 224 153 0 224 153 0 224 153 0 224 153 0 224 153 0 224 153 0 224 153 0 224 153 0 224 153 0 224 153 0 224 153 0 224 153 0 224 153 0 224 153 0 224 153 0 224 153 0 224 153 0 224 153 0 224 153 0 224 153 0 224 153 0 
183 161 18 183 161 18 184 157 17 184 157 17 184 157 17 184 157 17 185 154 17 185 154 17 185 154 17 185 154 17 184 157 17 184 157 17 184 157 17 184 157 17 184 157 17 184 157 17 184 157 17 184 157 17 184 157 17 184 157 17 184 157 17 185 154 17 184 157 17 184 157 17 185 154 17 185 154 17 184 157 17 184 157 17 185 154 17 184 157 17 184 157 17 184 157 17 185 154 17 185 154 17 203 87 0 207 95 0 207 95 0 209 103 0 211 110 0 217 128 0 222 146 0 223 150 0 223 150 0 223 150 0 223 150 0 223 150 0 223 150 0 223 150 0 222 146 0 223 150 0 223 150 0 223 150 0 223 150 0 223 150 0 223 150 0 222 146 0 223 150 0 223 150 0 223 150 0 223 150 0 223 150 0 223 150 0 223 150 0 222 146 0 223 150 0 222 146 0 222 146 0 223 150 0 223 150 0 223 150 0 222 146 0 223 150 0 222 146 0 223 150 0 223 150 0 223 150 0 223 150 0 223 150 0 223 150 0 223 150 0 223 150 0 231 175 0 232 179 0 232 179 0 232 179 0 233 182 0 233 182 0 233 182 0 233 182 0 234 186 0 234 186 0 234 186 0 234 186 0 235 189 0 235 189 0 235 189 0 235 189 0 236 193 0 236 193 0 236 193 0 236 193 0 236 193 0 237 197 0 236 193 0 237 197 0 237 197 0 237 197 0 237 197 0 236 193 0 237 197 0 237 197 0 237 197 0 237 197 0 237 197 0 237 197 0 237 197 0 237 197 0 237 197 0 236 193 0 236 193 0 236 193 0 235 189 0 235 189 0 235 189 0 235 189 0 235 189 0 235 189 0 234 186 0 234 186 0 234 186 0 234 186 0 233 182 0 233 182 0 233 182 0 232 179 0 232 179 0 232 179 0 232 179 0 230 171 0 223 150 0 222 146 0 223 150 0 222 146 0 223 150 0 223 150 0 223 150 0 223 150 0 223 150 0 223 150 0 222 146 0 223 150 0 222 146 0 222 146 0 223 150 0 222 146 0 222 146 0 222 146 0 223 150 0 223 150 0 223 150 0 222 146 0 222 146 0 223 150 0 222 146 0 222 146 0 222 146 0 223 150 0 223 150 0 223 150 0 222 146 0 223 150 0 223 150 0 223 150 0 223 150 0 223 150 0 223 150 0 223 150 0 222 146 0 222 146 0 223 150 0 223 150 0 222 146 0 223 150 0 223 150 0 223 150 0 222 146 0 223 150 0 223 150 0 222 146 0 223 150 0 223 150 0 223 150 0 223 150 0 223 150 0 222 146 0 223 150 0 222 146 0 222 146 0 222 146 0 222 146 0 222 146 0 223 150 0 222 146 0 222 146 0 222 146 0 223 150 0 222 146 0 222 146 0 222 146 0 222 146 0 223 150 0 223 150 0 223 150 0 222 146 0 222 146 0 222 146 0 222 146 0 223 150 0 223 150 0 223 150 0 
183 161 18 183 161 18 184 157 17 184 157 17 184 157 17 184 157 17 185 154 17 185 154 17 185 154 17 185 154 17 184 157 17 184 157 17 184 157 17 184 157 17 184 157 17 184 157 17 184 157 17 184 157 17 184 157 17 184 157 17 184 157 17 185 154 17 184 157 17 184 157 17 185 154 17 185 154 17 184 157 17 184 157 17 185 154 17 184 157 17 184 157 17 184 157 17 185 154 17 185 154 17 203 87 0 207 95 0 207 95 0 209 103 0 211 110 0 217 128 0 222 146 0 223 150 0 223 150 0 223 150 0 223 150 0 223 150 0 223 150 0 223 150 0 222 146 0 223 150 0 223 150 0 223 150 0 223 150 0 223 150 0 223 150 0 222 146 0 223 150 0 223 150 0 223 150 0 223 150 0 223 150 0 223 150 0 223 150 0 222 146 0 223 150 0 222 146 0 222 146 0 223 150 0 223 150 0 223 150 0 222 146 0 223 150 0 222 146 0 223 150 0 223 150 0 223 150 0 223 150 0 223 150 0 223 150 0 223 150 0 223 150 0 231 175 0 232 179 0 232 179 0 232 179 0 233 182 0 233 182 0 233 182 0 233 182 0 234 186 0 234 186 0 234 186 0 234 186 0 235 189 0 235 189 0 235 189 0 235 189 0 236 193 0 236 193 0 236 193 0 236 193 0 236 193 0 237 197 0 236 193 0 237 197 0 237 197 0 237 197 0 237 197 0 236 193 0 237 197 0 237 197 0 237 197 0 237 197 0 237 197 0 237 197 0 237 197 0 237 197 0 237 197 0 236 193 0 236 193 0 236 193 0 235 189 0 235 189 0 235 189 0 235 189 0 235 189 0 235 189 0 234 186 0 234 186 0 234 186 0 234 186 0 233 182 0 233 182 0 233 182 0 232 179 0 232 179 0 232 179 0 232 179 0 230 171 0 223 150 0 222 146 0 223 150 0 222 146 0 223 150 0 223 150 0 223 150 0 223 150 0 223 150 0 223 150 0 222 146 0 223 150 0 222 146 0 222 146 0 223 150 0 222 146 0 222 146 0 222 146 0 223 150 0 223 150 0 223 150 0 222 146 0 222 146 0 223 150 0 222 146 0 222 146 0 222 146 0 223 150 0 223 150 0 223 150 0 222 146 0 223 150 0 223 150 0 223 150 0 223 150 0 223 150 0 223 150 0 223 150 0 222 146 0 222 146 0 223 150 0 223 150 0 222 146 0 223 150 0 223 150 0 223 150 0 222 146 0 223 150 0 223 150 0 222 146 0 223 150 0 223 150 0 223 150 0 223 150 0 223 150 0 222 146 0 223 150 0 222 146 0 222 146 0 222 146 0 222 146 0 222 146 0 223 150 0 222 146 0 222 146 0 222 146 0 223 150 0 222 146 0 222 146 0 222 146 0 222 146 0 223 150 0 223 150 0 223 150 0 222 146 0 222 146 0 222 146 0 222 146 0 223 150 0 223 150 0 223 150 0 
183 161 18 183 161 18 183 161 18 183 161 18 183 161 18 183 161 18 184 157 17 184 157 17 183 161 18 184 157 17 183 161 18 184 157 17 184 157 17 184 157 17 184 157 17 184 157 17 185 154 17 185 154 17 185 154 17 185 154 17 185 154 17 185 154 17 185 154 17 185 154 17 185 154 17 185 154 17 185 154 17 185 154 17 185 154 17 184 157 17 184 157 17 184 157 17 184 157 17 184 157 17 184 157 17 184 157 17 184 157 17 184 157 17 184 157 17 185 154 17 185 154 17 185 154 17 190 136 12 199 103 4 214 121 0 221 142 0 221 142 0 221 142 0 221 142 0 221 142 0 221 142 0 222 146 0 222 146 0 221 142 0 221 142 0 221 142 0 221 142 0 221 142 0 221 142 0 221 142 0 221 142 0 221 142 0 221 142 0 221 142 0 221 142 0 221 142 0 221 142 0 221 142 0 221 142 0 221 142 0 221 142 0 221 142 0 221 142 0 221 142 0 221 142 0 221 142 0 221 142 0 221 142 0 221 142 0 221 142 0 222 146 0 224 153 0 227 164 0 227 164 0 227 164 0 227 164 0 227 164 0 228 168 0 228 168 0 227 164 0 228 168 0 228 168 0 227 164 0 228 168 0 228 168 0 228 168 0 228 168 0 228 168 0 230 171 0 230 171 0 231 175 0 230 171 0 231 175 0 231 175 0 232 179 0 232 179 0 233 182 0 233 182 0 234 186 0 234 186 0 234 186 0 234 186 0 234 186 0 234 186 0 234 186 0 234 186 0 234 186 0 234 186 0 233 182 0 234 186 0 233 182 0 232 179 0 232 179 0 232 179 0 231 175 0 230 171 0 230 171 0 228 168 0 227 164 0 227 164 0 227 164 0 227 164 0 227 164 0 227 164 0 227 164 0 227 164 0 227 164 0 227 164 0 224 153 0 221 142 0 221 142 0 221 142 0 221 142 0 221 142 0 221 142 0 221 142 0 221 142 0 221 142 0 221 142 0 220 139 0 220 139 0 220 139 0 221 142 0 221 142 0 221 142 0 220 139 0 220 139 0 221 142 0 220 139 0 221 142 0 220 139 0 221 142 0 221 142 0 221 142 0 221 142 0 221 142 0 222 146 0 221 142 0 221 142 0 221 142 0 221 142 0 221 142 0 221 142 0 221 142 0 221 142 0 221 142 0 221 142 0 221 142 0 221 142 0 221 142 0 221 142 0 221 142 0 221 142 0 221 142 0 221 142 0 221 142 0 221 142 0 221 142 0 221 142 0 221 142 0 221 142 0 221 142 0 221 142 0 221 142 0 221 142 0 221 142 0 221 142 0 220 139 0 220 139 0 220 139 0 221 142 0 221 142 0 220 139 0 221 142 0 220 139 0 220 139 0 220 139 0 221 142 0 220 139 0 220 139 0 220 139 0 220 139 0 221 142 0 221 142 0 221 142 0 220 139 0 220 139 0 221 142 0 221 142 0 221 142 0 
183 161 18 183 161 18 183 161 18 183 161 18 183 161 18 183 161 18 184 157 17 184 157 17 183 161 18 184 157 17 183 161 18 184 157 17 184 157 17 184 157 17 184 157 17 184 157 17 185 154 17 185 154 17 185 154 17 185 154 17 185 154 17 185 154 17 185 154 17 185 154 17 185 154 17 185 154 17 185 154 17 185 154 17 185 154 17 184 157 17 184 157 17 184 157 17 184 157 17 184 157 17 184 157 17 184 157 17 184 157 17 184 157 17 184 157 17 185 154 17 185 154 17 185 154 17 190 136 12 199 103 4 214 121 0 221 142 0 221 142 0 221 142 0 221 142 0 221 142 0 221 142 0 222 146 0 222 146 0 221 142 0 221 142 0 221 142 0 221 142 0 221 142 0 221 142 0 221 142 0 221 142 0 221 142 0 221 142 0 221 142 0 221 142 0 221 142 0 221 142 0 221 142 0 221 142 0 221 142 0 221 142 0 221 142 0 221 142 0 221 142 0 221 142 0 221 142 0 221 142 0 221 142 0 221 142 0 221 142 0 222 146 0 224 153 0 227 164 0 227 164 0 227 164 0 227 164 0 227 164 0 228 168 0 228 168 0 227 164 0 228 168 0 228 168 0 227 164 0 228 168 0 228 168 0 228 168 0 228 168 0 228 168 0 230 171 0 230 171 0 231 175 0 230 171 0 231 175 0 231 175 0 232 179 0 232 179 0 233 182 0 233 182 0 234 186 0 234 186 0 234 186 0 234 186 0 234 186 0 234 186 0 234 186 0 234 186 0 234 186 0 234 186 0 233 182 0 234 186 0 233 182 0 232 179 0 232 179 0 232 179 0 231 175 0 230 171 0 230 171 0 228 168 0 227 164 0 227 164 0 227 164 0 227 164 0 227 164 0 227 164 0 227 164 0 227 164 0 227 164 0 227 164 0 224 153 0 221 142 0 221 142 0 221 142 0 221 142 0 221 142 0 221 142 0 221 142 0 221 142 0 221 142 0 221 142 0 220 139 0 220 139 0 220 139 0 221 142 0 221 142 0 221 142 0 220 139 0 220 139 0 221 142 0 220 139 0 221 142 0 220 139 0 221 142 0 221 142 0 221 142 0 221 142 0 221 142 0 222 146 0 221 142 0 221 142 0 221 142 0 221 142 0 221 142 0 221 142 0 221 142 0 221 142 0 221 142 0 221 142 0 221 142 0 221 142 0 221 142 0 221 142 0 221 142 0 221 142 0 221 142 0 221 142 0 221 142 0 221 142 0 221 142 0 221 142 0 221 142 0 221 142 0 221 142 0 221 142 0 221 142 0 221 142 0 221 142 0 221 142 0 220 139 0 220 139 0 220 139 0 221 142 0 221 142 0 220 139 0 221 142 0 220 139 0 220 139 0 220 139 0 221 142 0 220 139 0 220 139 0 220 139 0 220 139 0 221 142 0 221 142 0 221 142 0 220 139 0 220 139 0 221 142 0 221 142 0 221 142 0 
183 161 18 183 161 18 183 161 18 183 161 18 183 161 18 183 161 18 183 161 18 183 161 18 183 161 18 183 161 18 183 161 18 183 161 18 183 161 18 183 161 18 183 161 18 184 157 17 184 157 17 185 154 17 185 154 17 185 154 17 185 154 17 185 154 17 185 154 17 185 154 17 185 154 17 185 154 17 185 154 17 185 154 17 184 157 17 184 157 17 184 157 17 184 157 17 184 157 17 184 157 17 184 157 17 184 157 17 184 157 17 184 157 17 184 157 17 184 157 17 185 154 17 185 154 17 185 154 17 185 154 17 185 154 17 185 154 17 200 98 3 219 135 0 219 135 0 219 135 0 219 135 0 219 135 0 219 135 0 219 135 0 219 135 0 219 135 0 219 135 0 219 135 0 219 135 0 219 135 0 219 135 0 219 135 0 220 139 0 220 139 0 219 135 0 219 135 0 219 135 0 219 135 0 219 135 0 219 135 0 219 135 0 218 132 0 219 135 0 219 135 0 219 135 0 219 135 0 219 135 0 219 135 0 219 135 0 219 135 0 219 135 0 219 135 0 230 171 0 230 171 0 231 175 0 230 171 0 230 171 0 230 171 0 230 171 0 230 171 0 230 171 0 230 171 0 230 171 0 230 171 0 230 171 0 230 171 0 230 171 0 230 171 0 230 171 0 230 171 0 230 171 0 230 171 0 231 175 0 231 175 0 231 175 0 231 175 0 231 175 0 231 175 0 231 175 0 231 175 0 230 171 0 230 171 0 230 171 0 230 171 0 230 171 0 230 171 0 230 171 0 230 171 0 230 171 0 230 171 0 230 171 0 230 171 0 230 171 0 230 171 0 230 171 0 231 175 0 230 171 0 230 171 0 230 171 0 230 171 0 230 171 0 230 171 0 230 171 0 230 171 0 230 171 0 230 171 0 228 168 0 228 168 0 219 135 0 219 135 0 219 135 0 219 135 0 219 135 0 218 132 0 218 132 0 218 132 0 219 135 0 219 135 0 219 135 0 219 135 0 218 132 0 218 132 0 218 132 0 219 135 0 219 135 0 219 135 0 220 139 0 219 135 0 219 135 0 219 135 0 218 132 0 218 132 0 219 135 0 219 135 0 219 135 0 219 135 0 219 135 0 219 135 0 219 135 0 219 135 0 219 135 0 219 135 0 219 135 0 220 139 0 219 135 0 219 135 0 219 135 0 219 135 0 219 135 0 219 135 0 219 135 0 219 135 0 219 135 0 219 135 0 219 135 0 218 132 0 219 135 0 219 135 0 219 135 0 219 135 0 219 135 0 219 135 0 219 135 0 219 135 0 219 135 0 219 135 0 219 135 0 219 135 0 219 135 0 218 132 0 219 135 0 219 135 0 219 135 0 219 135 0 218 132 0 218 132 0 218 132 0 219 135 0 219 135 0 218 132 0 218 132 0 219 135 0 219 135 0 219 135 0 218 132 0 218 132 0 219 135 0 219 135 0 219 135 0 219 135 0 
183 161 18 183 161 18 183 161 18 183 161 18 183 161 18 183 161 18 183 161 18 183 161 18 183 161 18 183 161 18 183 161 18 183 161 18 183 161 18 183 161 18 183 161 18 184 157 17 184 157 17 185 154 17 185 154 17 185 154 17 185 154 17 185 154 17 185 154 17 185 154 17 185 154 17 185 154 17 185 154 17 185 154 17 184 157 17 184 157 17 184 157 17 184 157 17 184 157 17 184 157 17 184 157 17 184 157 17 184 157 17 184 157 17 184 157 17 184 157 17 185 154 17 185 154 17 185 154 17 185 154 17 185 154 17 185 154 17 200 98 3 219 135 0 219 135 0 219 135 0 219 135 0 219 135 0 219 135 0 219 135 0 219 135 0 219 135 0 219 135 0 219 135 0 219 135 0 219 135 0 219 135 0 219 135 0 220 139 0 220 139 0 219 135 0 219 135 0 219 135 0 219 135 0 219 135 0 219 135 0 219 135 0 218 132 0 219 135 0 219 135 0 219 135 0 219 135 0 219 135 0 219 135 0 219 135 0 219 135 0 219 135 0 219 135 0 230 171 0 230 171 0 231 175 0 230 171 0 230 171 0 230 171 0 230 171 0 230 171 0 230 171 0 230 171 0 230 171 0 230 171 0 230 171 0 230 171 0 230 171 0 230 171 0 230 171 0 230 171 0 230 171 0 230 171 0 231 175 0 231 175 0 231 175 0 231 175 0 231 175 0 231 175 0 231 175 0 231 175 0 230 171 0 230 171 0 230 171 0 230 171 0 230 171 0 230 171 0 230 171 0 230 171 0 230 171 0 230 171 0 230 171 0 230 171 0 230 171 0 230 171 0 230 171 0 231 175 0 230 171 0 230 171 0 230 171 0 230 171 0 230 171 0 230 171 0 230 171 0 230 171 0 230 171 0 230 171 0 228 168 0 228 168 0 219 135 0 219 135 0 219 135 0 219 135 0 219 135 0 218 132 0 218 132 0 218 132 0 219 135 0 219 135 0 219 135 0 219 135 0 218 132 0 218 132 0 218 132 0 219 135 0 219 135 0 219 135 0 220 139 0 219 135 0 219 135 0 219 135 0 218 132 0 218 132 0 219 135 0 219 135 0 219 135 0 219 135 0 219 135 0 219 135 0 219 135 0 219 135 0 219 135 0 219 135 0 219 135 0 220 139 0 219 135 0 219 135 0 219 135 0 219 135 0 219 135 0 219 135 0 219 135 0 219 135 0 219 135 0 219 135 0 219 135 0 218 132 0 219 135 0 219 135 0 219 135 0 219 135 0 219 135 0 219 135 0 219 135 0 219 135 0 219 135 0 219 135 0 219 135 0 219 135 0 219 135 0 218 132 0 219 135 0 219 135 0 219 135 0 219 135 0 218 132 0 218 132 0 218 132 0 219 135 0 219 135 0 218 132 0 218 132 0 219 135 0 219 135 0 219 135 0 218 132 0 218 132 0 219 135 0 219 135 0 219 135 0 219 135 0 
183 161 18 183 161 18 183 161 18 183 161 18 183 161 18 183 161 18 183 161 18 183 161 18 183 161 18 183 161 18 183 161 18 183 161 18 183 161 18 183 161 18 183 161 18 183 161 18 183 161 18 184 157 17 183 161 18 184 157 17 184 157 17 185 154 17 185 154 17 185 154 17 185 154 17 185 154 17 185 154 17 185 154 17 185 154 17 184 157 17 184 157 17 184 157 17 184 157 17 184 157 17 184 157 17 184 157 17 184 157 17 184 157 17 184 157 17 184 157 17 184 157 17 184 157 17 184 157 17 184 157 17 184 157 17 184 157 17 185 154 17 185 154 17 190 134 12 192 130 11 205 88 0 217 128 0 215 124 0 215 124 0 214 121 0 215 124 0 217 128 0 217 128 0 217 128 0 217 128 0 217 128 0 217 128 0 217 128 0 217 128 0 218 132 0 217 128 0 217 128 0 217 128 0 215 124 0 217 128 0 217 128 0 217 128 0 217 128 0 217 128 0 217 128 0 217 128 0 217 128 0 217 128 0 217 128 0 217 128 0 218 132 0 217 128 0 218 132 0 219 135 0 220 139 0 219 135 0 219 135 0 219 135 0 221 142 0 222 146 0 222 146 0 223 150 0 223 150 0 223 150 0 224 153 0 224 153 0 226 160 0 226 160 0 227 164 0 227 164 0 226 160 0 227 164 0 227 164 0 227 164 0 228 168 0 228 168 0 228 168 0 228 168 0 228 168 0 230 171 0 228 168 0 227 164 0 227 164 0 227 164 0 228 168 0 228 168 0 227 164 0 227 164 0 227 164 0 226 160 0 226 160 0 226 160 0 226 160 0 226 160 0 224 153 0 224 153 0 226 160 0 224 153 0 223 150 0 223 150 0 223 150 0 222 146 0 221 142 0 220 139 0 218 132 0 217 128 0 217 128 0 217 128 0 217 128 0 217 128 0 215 124 0 215 124 0 215 124 0 215 124 0 217 128 0 217 128 0 215 124 0 215 124 0 217 128 0 215 124 0 215 124 0 215 124 0 215 124 0 215 124 0 215 124 0 215 124 0 215 124 0 215 124 0 217 128 0 217 128 0 217 128 0 217 128 0 215 124 0 215 124 0 215 124 0 217 128 0 215 124 0 217 128 0 215 124 0 215 124 0 215 124 0 217 128 0 217 128 0 215 124 0 215 124 0 215 124 0 217 128 0 217 128 0 217 128 0 215 124 0 215 124 0 215 124 0 215 124 0 217 128 0 215 124 0 215 124 0 215 124 0 215 124 0 215 124 0 215 124 0 217 128 0 215 124 0 217 128 0 217 128 0 215 124 0 215 124 0 217 128 0 217 128 0 217 128 0 217 128 0 217 128 0 215 124 0 217 128 0 217 128 0 217 128 0 215 124 0 217 128 0 215 124 0 215 124 0 215 124 0 215 124 0 217 128 0 217 128 0 217 128 0 217 128 0 217 128 0 217 128 0 217 128 0 217 128 0 217 128 0 
183 161 18 183 161 18 183 161 18 183 161 18 183 161 18 183 161 18 183 161 18 183 161 18 183 161 18 183 161 18 183 161 18 183 161 18 183 161 18 183 161 18 183 161 18 183 161 18 183 161 18 184 157 17 183 161 18 184 157 17 184 157 17 185 154 17 185 154 17 185 154 17 185 154 17 185 154 17 185 154 17 185 154 17 185 154 17 184 157 17 184 157 17 184 157 17 184 157 17 184 157 17 184 157 17 184 157 17 184 157 17 184 157 17 184 157 17 184 157 17 184 157 17 184 157 17 184 157 17 184 157 17 184 157 17 184 157 17 185 154 17 185 154 17 190 134 12 192 130 11 205 88 0 217 128 0 215 124 0 215 124 0 214 121 0 215 124 0 217 128 0 217 128 0 217 128 0 217 128 0 217 128 0 217 128 0 217 128 0 217 128 0 218 132 0 217 128 0 217 128 0 217 128 0 215 124 0 217 128 0 217 128 0 217 128 0 217 128 0 217 128 0 217 128 0 217 128 0 217 128 0 217 128 0 217 128 0 217 128 0 218 132 0 217 128 0 218 132 0 219 135 0 220 139 0 219 135 0 219 135 0 219 135 0 221 142 0 222 146 0 222 146 0 223 150 0 223 150 0 223 150 0 224 153 0 224 153 0 226 160 0 226 160 0 227 164 0 227 164 0 226 160 0 227 164 0 227 164 0 227 164 0 228 168 0 228 168 0 228 168 0 228 168 0 228 168 0 230 171 0 228 168 0 227 164 0 227 164 0 227 164 0 228 168 0 228 168 0 227 164 0 227 164 0 227 164 0 226 160 0 226 160 0 226 160 0 226 160 0 226 160 0 224 153 0 224 153 0 226 160 0 224 153 0 223 150 0 223 150 0 223 150 0 222 146 0 221 142 0 220 139 0 218 132 0 217 128 0 217 128 0 217 128 0 217 128 0 217 128 0 215 124 0 215 124 0 215 124 0 215 124 0 217 128 0 217 128 0 215 124 0 215 124 0 217 128 0 215 124 0 215 124 0 215 124 0 215 124 0 215 124 0 215 124 0 215 124 0 215 124 0 215 124 0 217 128 0 217 128 0 217 128 0 217 128 0 215 124 0 215 124 0 215 124 0 217 128 0 215 124 0 217 128 0 215 124 0 215 124 0 215 124 0 217 128 0 217 128 0 215 124 0 215 124 0 215 124 0 217 128 0 217 128 0 217 128 0 215 124 0 215 124 0 215 124 0 215 124 0 217 128 0 215 124 0 215 124 0 215 124 0 215 124 0 215 124 0 215 124 0 217 128 0 215 124 0 217 128 0 217 128 0 215 124 0 215 124 0 217 128 0 217 128 0 217 128 0 217 128 0 217 128 0 215 124 0 217 128 0 217 128 0 217 128 0 215 124 0 217 128 0 215 124 0 215 124 0 215 124 0 215 124 0 217 128 0 217 128 0 217 128 0 217 128 0 217 128 0 217 128 0 217 128 0 217 128 0 217 128 0 
183 161 18 183 161 18 183 161 18 183 161 18 183 161 18 183 161 18 183 161 18 183 161 18 183 161 18 183 161 18 183 161 18 183 161 18 183 161 18 183 161 18 183 161 18 183 161 18 183 161 18 183 161 18 183 161 18 183 161 18 183 161 18 183 161 18 183 161 18 183 161 18 183 161 18 183 161 18 184 157 17 185 154 17 185 154 17 185 154 17 185 154 17 185 154 17 184 157 17 184 157 17 184 157 17 184 157 17 185 154 17 185 154 17 184 157 17 185 154 17 184 157 17 184 157 17 184 157 17 184 157 17 184 157 17 185 154 17 185 154 17 184 157 17 185 154 17 185 154 17 185 154 17 185 154 17 185 154 17 184 157 17 185 154 17 185 154 17 184 157 17 185 154 17 185 154 17 196 114 7 214 121 0 215 124 0 215 124 0 215 124 0 217 128 0 215 124 0 215 124 0 215 124 0 215 124 0 217 128 0 215 124 0 215 124 0 215 124 0 215 124 0 215 124 0 215 124 0 215 124 0 215 124 0 217 128 0 215 124 0 217 128 0 217 128 0 215 124 0 215 124 0 217 128 0 215 124 0 217 128 0 215 124 0 215 124 0 215 124 0 215 124 0 215 124 0 217 128 0 217 128 0 215 124 0 217 128 0 217 128 0 217 128 0 217 128 0 217 128 0 217 128 0 215 124 0 215 124 0 217 128 0 217 128 0 217 128 0 217 128 0 217 128 0 217 128 0 217 128 0 217 128 0 215 124 0 217 128 0 217 128 0 217 128 0 217 128 0 217 128 0 217 128 0 217 128 0 217 128 0 217 128 0 217 128 0 217 128 0 218 132 0 217 128 0 217 128 0 217 128 0 217 128 0 215 124 0 215 124 0 217 128 0 215 124 0 215 124 0 215 124 0 217 128 0 215 124 0 217 128 0 215 124 0 215 124 0 214 121 0 215 124 0 215 124 0 217 128 0 215 124 0 215 124 0 215 124 0 215 124 0 214 121 0 214 121 0 214 121 0 214 121 0 214 121 0 214 121 0 214 121 0 214 121 0 214 121 0 214 121 0 215 124 0 214 121 0 214 121 0 215 124 0 215 124 0 215 124 0 215 124 0 215 124 0 215 124 0 215 124 0 215 124 0 214 121 0 215 124 0 215 124 0 215 124 0 215 124 0 215 124 0 214 121 0 214 121 0 215 124 0 215 124 0 214 121 0 215 124 0 215 124 0 215 124 0 215 124 0 215 124 0 217 128 0 215 124 0 215 124 0 215 124 0 215 124 0 215 124 0 215 124 0 215 124 0 214 121 0 215 124 0 217 128 0 215 124 0 215 124 0 215 124 0 215 124 0 215 124 0 215 124 0 215 124 0 215 124 0 215 124 0 215 124 0 215 124 0 215 124 0 215 124 0 215 124 0 215 124 0 214 121 0 214 121 0 215 124 0 215 124 0 215 124 0 215 124 0 215 124 0 215 124 0 215 124 0 215 124 0 
183 161 18 183 161 18 183 161 18 183 161 18 183 161 18 183 161 18 183 161 18 183 161 18 183 161 18 183 161 18 183 161 18 183 161 18 183 161 18 183 161 18 183 161 18 183 161 18 183 161 18 183 161 18 183 161 18 183 161 18 183 161 18 183 161 18 183 161 18 183 161 18 183 161 18 183 161 18 184 157 17 185 154 17 185 154 17 185 154 17 185 154 17 185 154 17 184 157 17 184 157 17 184 157 17 184 157 17 185 154 17 185 154 17 184 157 17 185 154 17 184 157 17 184 157 17 184 157 17 184 157 17 184 157 17 185 154 17 185 154 17 184 157 17 185 154 17 185 154 17 185 154 17 185 154 17 185 154 17 184 157 17 185 154 17 185 154 17 184 157 17 185 154 17 185 154 17 196 114 7 214 121 0 215 124 0 215 124 0 215 124 0 217 128 0 215 124 0 215 124 0 215 124 0 215 124 0 217 128 0 215 124 0 215 124 0 215 124 0 215 124 0 215 124 0 215 124 0 215 124 0 215 124 0 217 128 0 215 124 0 217 128 0 217 128 0 215 124 0 215 124 0 217 128 0 215 124 0 217 128 0 215 124 0 215 124 0 215 124 0 215 124 0 215 124 0 217 128 0 217 128 0 215 124 0 217 128 0 217 128 0 217 128 0 217 128 0 217 128 0 217 128 0 215 124 0 215 124 0 217 128 0 217 128 0 217 128 0 217 128 0 217 128 0 217 128 0 217 128 0 217 128 0 215 124 0 217 128 0 217 128 0 217 128 0 217 128 0 217 128 0 217 128 0 217 128 0 217 128 0 217 128 0 217 128 0 217 128 0 218 132 0 217 128 0 217 128 0 217 128 0 217 128 0 215 124 0 215 124 0 217 128 0 215 124 0 215 124 0 215 124 0 217 128 0 215 124 0 217 128 0 215 124 0 215 124 0 214 121 0 215 124 0 215 124 0 217 128 0 215 124 0 215 124 0 215 124 0 215 124 0 214 121 0 214 121 0 214 121 0 214 121 0 214 121 0 214 121 0 214 121 0 214 121 0 214 121 0 214 121 0 215 124 0 214 121 0 214 121 0 215 124 0 215 124 0 215 124 0 215 124 0 215 124 0 215 124 0 215 124 0 215 124 0 214 121 0 215 124 0 215 124 0 215 124 0 215 124 0 215 124 0 214 121 0 214 121 0 215 124 0 215 124 0 214 121 0 215 124 0 215 124 0 215 124 0 215 124 0 215 124 0 217 128 0 215 124 0 215 124 0 215 124 0 215 124 0 215 124 0 215 124 0 215 124 0 214 121 0 215 124 0 217 128 0 215 124 0 215 124 0 215 124 0 215 124 0 215 124 0 215 124 0 215 124 0 215 124 0 215 124 0 215 124 0 215 124 0 215 124 0 215 124 0 215 124 0 215 124 0 214 121 0 214 121 0 215 124 0 215 124 0 215 124 0 215 124 0 215 124 0 215 124 0 215 124 0 215 124 0 
183 161 18 183 161 18 183 161 18 183 161 18 183 161 18 183 161 18 183 161 18 183 161 18 183 161 18 183 161 18 183 161 18 183 161 18 183 161 18 183 161 18 183 161 18 183 161 18 183 161 18 183 161 18 183 161 18 183 161 18 183 161 18 183 161 18 183 161 18 183 161 18 183 161 18 183 161 18 183 161 18 183 161 18 183 161 18 183 161 18 184 157 17 185 154 17 184 157 17 185 154 17 185 154 17 184 157 17 184 157 17 185 154 17 185 154 17 184 157 17 184 157 17 184 157 17 184 157 17 184 157 17 184 157 17 185 154 17 185 154 17 184 157 17 184 157 17 185 154 17 184 157 17 185 154 17 184 157 17 184 157 17 184 157 17 184 157 17 185 154 17 184 157 17 185 154 17 184 157 17 185 154 17 185 154 17 197 109 6 202 89 1 202 89 1 203 87 0 203 87 0 202 89 1 203 87 0 203 87 0 203 87 0 203 87 0 205 88 0 205 88 0 205 88 0 205 88 0 207 95 0 205 88 0 205 88 0 205 88 0 205 88 0 207 95 0 207 95 0 209 103 0 209 103 0 209 103 0 210 106 0 210 106 0 210 106 0 211 110 0 211 110 0 211 110 0 211 110 0 214 121 0 217 128 0 219 135 0 219 135 0 221 142 0 224 153 0 226 160 0 228 168 0 231 175 0 233 182 0 237 197 0 240 207 0 247 229 0 248 233 0 250 240 0 250 240 0 250 240 0 250 240 0 250 240 0 250 240 0 249 236 0 249 236 0 247 229 0 245 222 0 240 207 0 237 197 0 234 186 0 231 175 0 226 160 0 224 153 0 222 146 0 219 135 0 218 132 0 215 124 0 217 128 0 214 121 0 212 113 0 212 113 0 211 110 0 210 106 0 210 106 0 210 106 0 210 106 0 210 106 0 210 106 0 210 106 0 209 103 0 209 103 0 207 95 0 205 88 0 205 88 0 203 87 0 203 87 0 203 87 0 203 87 0 202 89 1 202 89 1 202 89 1 202 89 1 202 89 1 202 89 1 203 87 0 203 87 0 203 87 0 203 87 0 202 89 1 201 94 2 202 89 1 202 89 1 202 89 1 202 89 1 202 89 1 202 89 1 202 89 1 202 89 1 202 89 1 202 89 1 202 89 1 202 89 1 202 89 1 202 89 1 202 89 1 202 89 1 202 89 1 202 89 1 202 89 1 202 89 1 202 89 1 202 89 1 202 89 1 202 89 1 202 89 1 202 89 1 202 89 1 202 89 1 201 94 2 201 94 2 201 94 2 202 89 1 201 94 2 201 94 2 201 94 2 201 94 2 201 94 2 201 94 2 201 94 2 201 94 2 201 94 2 201 94 2 201 94 2 201 94 2 201 94 2 201 94 2 201 96 2 201 94 2 201 94 2 201 96 2 201 96 2 201 94 2 201 94 2 201 96 2 201 94 2 201 96 2 201 96 2 201 96 2 201 96 2 201 96 2 
183 161 18 183 161 18 183 161 18 183 161 18 183 161 18 183 161 18 183 161 18 183 161 18 183 161 18 183 161 18 183 161 18 183 161 18 183 161 18 183 161 18 183 161 18 183 161 18 183 161 18 183 161 18 183 161 18 183 161 18 183 161 18 183 161 18 183 161 18 183 161 18 183 161 18 183 161 18 183 161 18 183 161 18 183 161 18 183 161 18 184 157 17 185 154 17 184 157 17 185 154 17 185 154 17 184 157 17 184 157 17 185 154 17 185 154 17 184 157 17 184 157 17 184 157 17 184 157 17 184 157 17 184 157 17 185 154 17 185 154 17 184 157 17 184 157 17 185 154 17 184 157 17 185 154 17 184 157 17 184 157 17 184 157 17 184 157 17 185 154 17 184 157 17 185 154 17 184 157 17 185 154 17 185 154 17 197 109 6 202 89 1 202 89 1 203 87 0 203 87 0 202 89 1 203 87 0 203 87 0 203 87 0 203 87 0 205 88 0 205 88 0 205 88 0 205 88 0 207 95 0 205 88 0 205 88 0 205 88 0 205 88 0 207 95 0 207 95 0 209 103 0 209 103 0 209 103 0 210 106 0 210 106 0 210 106 0 211 110 0 211 110 0 211 110 0 211 110 0 214 121 0 217 128 0 219 135 0 219 135 0 221 142 0 224 153 0 226 160 0 228 168 0 231 175 0 233 182 0 237 197 0 240 207 0 247 229 0 248 233 0 250 240 0 250 240 0 250 240 0 250 240 0 250 240 0 250 240 0 249 236 0 249 236 0 247 229 0 245 222 0 240 207 0 237 197 0 234 186 0 231 175 0 226 160 0 224 153 0 222 146 0 219 135 0 218 132 0 215 124 0 217 128 0 214 121 0 212 113 0 212 113 0 211 110 0 210 106 0 210 106 0 210 106 0 210 106 0 210 106 0 210 106 0 210 106 0 209 103 0 209 103 0 207 95 0 205 88 0 205 88 0 203 87 0 203 87 0 203 87 0 203 87 0 202 89 1 202 89 1 202 89 1 202 89 1 202 89 1 202 89 1 203 87 0 203 87 0 203 87 0 203 87 0 202 89 1 201 94 2 202 89 1 202 89 1 202 89 1 202 89 1 202 89 1 202 89 1 202 89 1 202 89 1 202 89 1 202 89 1 202 89 1 202 89 1 202 89 1 202 89 1 202 89 1 202 89 1 202 89 1 202 89 1 202 89 1 202 89 1 202 89 1 202 89 1 202 89 1 202 89 1 202 89 1 202 89 1 202 89 1 202 89 1 201 94 2 201 94 2 201 94 2 202 89 1 201 94 2 201 94 2 201 94 2 201 94 2 201 94 2 201 94 2 201 94 2 201 94 2 201 94 2 201 94 2 201 94 2 201 94 2 201 94 2 201 94 2 201 96 2 201 94 2 201 94 2 201 96 2 201 96 2 201 94 2 201 94 2 201 96 2 201 94 2 201 96 2 201 96 2 201 96 2 201 96 2 201 96 2 
183 161 18 183 161 18 183 161 18 183 161 18 183 161 18 183 161 18 183 161 18 183 161 18 183 161 18 183 161 18 183 161 18 183 161 18 183 161 18 183 161 18 183 161 18 183 161 18 183 161 18 183 161 18 183 161 18 183 161 18 183 161 18 183 161 18 183 161 18 183 161 18 183 161 18 183 161 18 183 161 18 183 161 18 183 161 18 183 161 18 183 161 18 183 161 18 183 161 18 183 161 18 183 161 18 183 161 18 184 157 17 184 157 17 184 157 17 184 157 17 184 157 17 184 157 17 185 154 17 185 154 17 184 157 17 185 154 17 185 154 17 184 157 17 184 157 17 185 154 17 184 157 17 184 157 17 184 157 17 184 157 17 184 157 17 184 157 17 184 157 17 185 154 17 184 157 17 184 157 17 184 157 17 184 157 17 184 157 17 184 157 17 184 157 17 190 136 12 185 154 17 192 130 11 199 103 4 205 88 0 209 103 0 210 106 0 210 106 0 210 106 0 210 106 0 210 106 0 210 106 0 210 106 0 211 110 0 210 106 0 211 110 0 211 110 0 210 106 0 209 103 0 209 103 0 210 106 0 210 106 0 210 106 0 211 110 0 211 110 0 211 110 0 212 113 0 214 121 0 212 113 0 211 110 0 212 113 0 212 113 0 215 124 0 217 128 0 218 132 0 223 150 0 228 168 0 233 182 0 235 189 0 236 193 0 239 204 0 247 229 0 250 240 0 250 240 0 250 240 0 250 240 0 250 240 0 250 240 0 249 236 0 249 236 0 249 236 0 243 215 0 240 207 0 239 204 0 236 193 0 236 193 0 234 186 0 233 182 0 234 186 0 234 186 0 234 186 0 232 179 0 227 164 0 224 153 0 222 146 0 219 135 0 215 124 0 211 110 0 211 110 0 210 106 0 210 106 0 210 106 0 211 110 0 211 110 0 210 106 0 210 106 0 210 106 0 209 103 0 209 103 0 209 103 0 209 103 0 207 95 0 207 95 0 207 95 0 207 95 0 207 95 0 207 95 0 205 88 0 205 88 0 205 88 0 205 88 0 207 95 0 205 88 0 205 88 0 203 87 0 203 87 0 202 89 1 202 89 1 202 89 1 202 89 1 202 89 1 203 87 0 202 89 1 202 89 1 202 89 1 202 89 1 202 89 1 203 87 0 203 87 0 202 89 1 202 89 1 202 89 1 202 89 1 202 89 1 202 89 1 202 89 1 202 89 1 202 89 1 202 89 1 202 89 1 202 89 1 201 94 2 202 89 1 202 89 1 202 89 1 202 89 1 202 89 1 202 89 1 201 94 2 201 94 2 201 94 2 201 94 2 201 94 2 201 94 2 201 94 2 202 89 1 201 94 2 201 94 2 201 94 2 201 94 2 201 94 2 201 94 2 201 94 2 201 96 2 201 96 2 201 94 2 201 94 2 201 94 2 201 94 2 201 94 2 201 94 2 201 94 2 201 94 2 201 94 2 201 94 2 
183 161 18 183 161 18 183 161 18 183 161 18 183 161 18 183 161 18 183 161 18 183 161 18 183 161 18 183 161 18 183 161 18 183 161 18 183 161 18 183 161 18 183 161 18 183 161 18 183 161 18 183 161 18 183 161 18 183 161 18 183 161 18 183 161 18 183 161 18 183 161 18 183 161 18 183 161 18 183 161 18 183 161 18 183 161 18 183 161 18 183 161 18 183 161 18 183 161 18 183 161 18 183 161 18 183 161 18 184 157 17 184 157 17 184 157 17 184 157 17 184 157 17 184 157 17 185 154 17 185 154 17 184 157 17 185 154 17 185 154 17 184 157 17 184 157 17 185 154 17 184 157 17 184 157 17 184 157 17 184 157 17 184 157 17 184 157 17 184 157 17 185 154 17 184 157 17 184 157 17 184 157 17 184 157 17 184 157 17 184 157 17 184 157 17 190 136 12 185 154 17 192 130 11 199 103 4 205 88 0 209 103 0 210 106 0 210 106 0 210 106 0 210 106 0 210 106 0 210 106 0 210 106 0 211 110 0 210 106 0 211 110 0 211 110 0 210 106 0 209 103 0 209 103 0 210 106 0 210 106 0 210 106 0 211 110 0 211 110 0 211 110 0 212 113 0 214 121 0 212 113 0 211 110 0 212 113 0 212 113 0 215 124 0 217 128 0 218 132 0 223 150 0 228 168 0 233 182 0 235 189 0 236 193 0 239 204 0 247 229 0 250 240 0 250 240 0 250 240 0 250 240 0 250 240 0 250 240 0 249 236 0 249 236 0 249 236 0 243 215 0 240 207 0 239 204 0 236 193 0 236 193 0 234 186 0 233 182 0 234 186 0 234 186 0 234 186 0 232 179 0 227 164 0 224 153 0 222 146 0 219 135 0 215 124 0 211 110 0 211 110 0 210 106 0 210 106 0 210 106 0 211 110 0 211 110 0 210 106 0 210 106 0 210 106 0 209 103 0 209 103 0 209 103 0 209 103 0 207 95 0 207 95 0 207 95 0 207 95 0 207 95 0 207 95 0 205 88 0 205 88 0 205 88 0 205 88 0 207 95 0 205 88 0 205 88 0 203 87 0 203 87 0 202 89 1 202 89 1 202 89 1 202 89 1 202 89 1 203 87 0 202 89 1 202 89 1 202 89 1 202 89 1 202 89 1 203 87 0 203 87 0 202 89 1 202 89 1 202 89 1 202 89 1 202 89 1 202 89 1 202 89 1 202 89 1 202 89 1 202 89 1 202 89 1 202 89 1 201 94 2 202 89 1 202 89 1 202 89 1 202 89 1 202 89 1 202 89 1 201 94 2 201 94 2 201 94 2 201 94 2 201 94 2 201 94 2 201 94 2 202 89 1 201 94 2 201 94 2 201 94 2 201 94 2 201 94 2 201 94 2 201 94 2 201 96 2 201 96 2 201 94 2 201 94 2 201 94 2 201 94 2 201 94 2 201 94 2 201 94 2 201 94 2 201 94 2 201 94 2 
185 154 17 185 154 17 185 154 17 185 154 17 186 152 16 190 136 12 190 136 12 190 134 12 192 130 11 192 130 11 193 125 9 193 125 9 193 125 9 195 116 7 193 125 9 193 125 9 193 125 9 193 125 9 195 116 7 195 116 7 196 114 7 195 116 7 195 116 7 195 116 7 196 114 7 196 114 7 196 114 7 196 114 7 196 114 7 196 114 7 195 116 7 196 114 7 196 114 7 196 114 7 197 109 6 196 114 7 196 114 7 196 114 7 196 114 7 196 114 7 196 114 7 196 114 7 197 109 6 197 109 6 196 114 7 197 109 6 197 109 6 197 109 6 197 109 6 197 109 6 197 109 6 197 109 6 197 109 6 197 109 6 198 107 5 198 107 5 198 107 5 198 105 4 198 105 4 198 105 4 198 107 5 198 107 5 198 107 5 198 107 5 198 107 5 198 105 4 198 105 4 198 105 4 198 105 4 198 105 4 199 100 3 209 103 0 209 103 0 210 106 0 210 106 0 209 103 0 210 106 0 210 106 0 210 106 0 211 110 0 211 110 0 214 121 0 214 121 0 215 124 0 218 132 0 219 135 0 220 139 0 221 142 0 222 146 0 222 146 0 222 146 0 222 146 0 223 150 0 224 153 0 224 153 0 224 153 0 227 164 0 228 168 0 230 171 0 232 179 0 235 189 0 236 193 0 238 200 0 239 204 0 240 207 0 248 233 0 250 240 0 250 240 0 250 240 0 250 240 0 250 240 0 250 240 0 250 240 0 250 240 0 249 236 0 249 236 0 247 229 0 243 215 0 241 211 0 241 211 0 240 207 0 239 204 0 238 200 0 238 200 0 237 197 0 237 197 0 235 189 0 234 186 0 233 182 0 232 179 0 226 160 0 220 139 0 222 146 0 224 153 0 227 164 0 227 164 0 226 160 0 223 150 0 221 142 0 220 139 0 219 135 0 218 132 0 218 132 0 215 124 0 212 113 0 211 110 0 211 110 0 210 106 0 210 106 0 210 106 0 210 106 0 210 106 0 210 106 0 209 103 0 210 106 0 210 106 0 210 106 0 211 110 0 210 106 0 209 103 0 209 103 0 207 95 0 207 95 0 207 95 0 205 88 0 205 88 0 205 88 0 205 88 0 205 88 0 205 88 0 203 87 0 203 87 0 203 87 0 203 87 0 203 87 0 203 87 0 203 87 0 202 89 1 203 87 0 203 87 0 202 89 1 202 89 1 202 89 1 202 89 1 202 89 1 202 89 1 202 89 1 202 89 1 202 89 1 203 87 0 203 87 0 202 89 1 202 89 1 202 89 1 202 89 1 202 89 1 202 89 1 202 89 1 202 89 1 202 89 1 202 89 1 201 94 2 201 94 2 201 94 2 202 89 1 202 89 1 201 94 2 201 94 2 201 94 2 201 94 2 202 89 1 201 94 2 201 94 2 201 94 2 202 89 1 202 89 1 201 94 2 202 89 1 201 94 2 202 89 1 
185 154 17 185 154 17 185 154 17 185 154 17 186 152 16 190 136 12 190 136 12 190 134 12 192 130 11 192 130 11 193 125 9 193 125 9 193 125 9 195 116 7 193 125 9 193 125 9 193 125 9 193 125 9 195 116 7 195 116 7 196 114 7 195 116 7 195 116 7 195 116 7 196 114 7 196 114 7 196 114 7 196 114 7 196 114 7 196 114 7 195 116 7 196 114 7 196 114 7 196 114 7 197 109 6 196 114 7 196 114 7 196 114 7 196 114 7 196 114 7 196 114 7 196 114 7 197 109 6 197 109 6 196 114 7 197 109 6 197 109 6 197 109 6 197 109 6 197 109 6 197 109 6 197 109 6 197 109 6 197 109 6 198 107 5 198 107 5 198 107 5 198 105 4 198 105 4 198 105 4 198 107 5 198 107 5 198 107 5 198 107 5 198 107 5 198 105 4 198 105 4 198 105 4 198 105 4 198 105 4 199 100 3 209 103 0 209 103 0 210 106 0 210 106 0 209 103 0 210 106 0 210 106 0 210 106 0 211 110 0 211 110 0 214 121 0 214 121 0 215 124 0 218 132 0 219 135 0 220 139 0 221 142 0 222 146 0 222 146 0 222 146 0 222 146 0 223 150 0 224 153 0 224 153 0 224 153 0 227 164 0 228 168 0 230 171 0 232 179 0 235 189 0 236 193 0 238 200 0 239 204 0 240 207 0 248 233 0 250 240 0 250 240 0 250 240 0 250 240 0 250 240 0 250 240 0 250 240 0 250 240 0 249 236 0 249 236 0 247 229 0 243 215 0 241 211 0 241 211 0 240 207 0 239 204 0 238 200 0 238 200 0 237 197 0 237 197 0 235 189 0 234 186 0 233 182 0 232 179 0 226 160 0 220 139 0 222 146 0 224 153 0 227 164 0 227 164 0 226 160 0 223 150 0 221 142 0 220 139 0 219 135 0 218 132 0 218 132 0 215 124 0 212 113 0 211 110 0 211 110 0 210 106 0 210 106 0 210 106 0 210 106 0 210 106 0 210 106 0 209 103 0 210 106 0 210 106 0 210 106 0 211 110 0 210 106 0 209 103 0 209 103 0 207 95 0 207 95 0 207 95 0 205 88 0 205 88 0 205 88 0 205 88 0 205 88 0 205 88 0 203 87 0 203 87 0 203 87 0 203 87 0 203 87 0 203 87 0 203 87 0 202 89 1 203 87 0 203 87 0 202 89 1 202 89 1 202 89 1 202 89 1 202 89 1 202 89 1 202 89 1 202 89 1 202 89 1 203 87 0 203 87 0 202 89 1 202 89 1 202 89 1 202 89 1 202 89 1 202 89 1 202 89 1 202 89 1 202 89 1 202 89 1 201 94 2 201 94 2 201 94 2 202 89 1 202 89 1 201 94 2 201 94 2 201 94 2 201 94 2 202 89 1 201 94 2 201 94 2 201 94 2 202 89 1 202 89 1 201 94 2 202 89 1 201 94 2 202 89 1 
190 136 12 190 136 12 190 136 12 190 136 12 190 136 12 190 136 12 190 136 12 190 136 12 190 134 12 193 125 9 197 109 6 198 107 5 198 105 4 199 103 4 199 103 4 199 103 4 199 103 4 200 98 3 201 96 2 201 96 2 201 96 2 201 96 2 201 96 2 201 94 2 202 89 1 202 89 1 203 87 0 205 88 0 207 95 0 207 95 0 209 103 0 209 103 0 210 106 0 210 106 0 210 106 0 211 110 0 211 110 0 210 106 0 210 106 0 210 106 0 210 106 0 210 106 0 210 106 0 210 106 0 210 106 0 210 106 0 210 106 0 210 106 0 210 106 0 209 103 0 209 103 0 210 106 0 209 103 0 210 106 0 210 106 0 210 106 0 210 106 0 210 106 0 211 110 0 210 106 0 210 106 0 210 106 0 211 110 0 211 110 0 211 110 0 211 110 0 212 113 0 211 110 0 211 110 0 211 110 0 212 113 0 212 113 0 211 110 0 212 113 0 215 124 0 215 124 0 217 128 0 220 139 0 220 139 0 223 150 0 223 150 0 224 153 0 224 153 0 227 164 0 227 164 0 222 146 0 223 150 0 224 153 0 224 153 0 222 146 0 223 150 0 226 160 0 226 160 0 224 153 0 221 142 0 222 146 0 222 146 0 221 142 0 222 146 0 226 160 0 226 160 0 223 150 0 224 153 0 228 168 0 228 168 0 230 171 0 232 179 0 232 179 0 231 175 0 227 164 0 221 142 0 218 132 0 215 124 0 215 124 0 215 124 0 215 124 0 215 124 0 215 124 0 215 124 0 215 124 0 215 124 0 215 124 0 215 124 0 214 121 0 214 121 0 214 121 0 212 113 0 211 110 0 212 113 0 211 110 0 211 110 0 212 113 0 211 110 0 211 110 0 211 110 0 211 110 0 211 110 0 210 106 0 210 106 0 210 106 0 211 110 0 210 106 0 211 110 0 211 110 0 211 110 0 211 110 0 210 106 0 210 106 0 210 106 0 210 106 0 210 106 0 210 106 0 210 106 0 210 106 0 211 110 0 211 110 0 211 110 0 210 106 0 210 106 0 210 106 0 210 106 0 210 106 0 211 110 0 210 106 0 210 106 0 211 110 0 211 110 0 211 110 0 210 106 0 210 106 0 211 110 0 211 110 0 211 110 0 211 110 0 211 110 0 211 110 0 210 106 0 210 106 0 209 103 0 209 103 0 209 103 0 207 95 0 205 88 0 203 87 0 203 87 0 203 87 0 203 87 0 202 89 1 203 87 0 203 87 0 203 87 0 203 87 0 202 89 1 202 89 1 202 89 1 202 89 1 202 89 1 202 89 1 202 89 1 202 89 1 202 89 1 202 89 1 202 89 1 203 87 0 203 87 0 203 87 0 202 89 1 202 89 1 202 89 1 202 89 1 202 89 1 202 89 1 202 89 1 203 87 0 203 87 0 203 87 0 203 87 0 203 87 0 203 87 0 203 87 0 
190 136 12 190 136 12 190 136 12 190 136 12 190 136 12 190 136 12 190 136 12 190 136 12 190 134 12 193 125 9 197 109 6 198 107 5 198 105 4 199 103 4 199 103 4 199 103 4 199 103 4 200 98 3 201 96 2 201 96 2 201 96 2 201 96 2 201 96 2 201 94 2 202 89 1 202 89 1 203 87 0 205 88 0 207 95 0 207 95 0 209 103 0 209 103 0 210 106 0 210 106 0 210 106 0 211 110 0 211 110 0 210 106 0 210 106 0 210 106 0 210 106 0 210 106 0 210 106 0 210 106 0 210 106 0 210 106 0 210 106 0 210 106 0 210 106 0 209 103 0 209 103 0 210 106 0 209 103 0 210 106 0 210 106 0 210 106 0 210 106 0 210 106 0 211 110 0 210 106 0 210 106 0 210 106 0 211 110 0 211 110 0 211 110 0 211 110 0 212 113 0 211 110 0 211 110 0 211 110 0 212 113 0 212 113 0 211 110 0 212 113 0 215 124 0 215 124 0 217 128 0 220 139 0 220 139 0 223 150 0 223 150 0 224 153 0 224 153 0 227 164 0 227 164 0 222 146 0 223 150 0 224 153 0 224 153 0 222 146 0 223 150 0 226 160 0 226 160 0 224 153 0 221 142 0 222 146 0 222 146 0 221 142 0 222 146 0 226 160 0 226 160 0 223 150 0 224 153 0 228 168 0 228 168 0 230 171 0 232 179 0 232 179 0 231 175 0 227 164 0 221 142 0 218 132 0 215 124 0 215 124 0 215 124 0 215 124 0 215 124 0 215 124 0 215 124 0 215 124 0 215 124 0 215 124 0 215 124 0 214 121 0 214 121 0 214 121 0 212 113 0 211 110 0 212 113 0 211 110 0 211 110 0 212 113 0 211 110 0 211 110 0 211 110 0 211 110 0 211 110 0 210 106 0 210 106 0 210 106 0 211 110 0 210 106 0 211 110 0 211 110 0 211 110 0 211 110 0 210 106 0 210 106 0 210 106 0 210 106 0 210 106 0 210 106 0 210 106 0 210 106 0 211 110 0 211 110 0 211 110 0 210 106 0 210 106 0 210 106 0 210 106 0 210 106 0 211 110 0 210 106 0 210 106 0 211 110 0 211 110 0 211 110 0 210 106 0 210 106 0 211 110 0 211 110 0 211 110 0 211 110 0 211 110 0 211 110 0 210 106 0 210 106 0 209 103 0 209 103 0 209 103 0 207 95 0 205 88 0 203 87 0 203 87 0 203 87 0 203 87 0 202 89 1 203 87 0 203 87 0 203 87 0 203 87 0 202 89 1 202 89 1 202 89 1 202 89 1 202 89 1 202 89 1 202 89 1 202 89 1 202 89 1 202 89 1 202 89 1 203 87 0 203 87 0 203 87 0 202 89 1 202 89 1 202 89 1 202 89 1 202 89 1 202 89 1 202 89 1 203 87 0 203 87 0 203 87 0 203 87 0 203 87 0 203 87 0 203 87 0 
190 136 12 186 152 16 190 136 12 190 136 12 190 136 12 190 136 12 186 152 16 186 152 16 190 136 12 192 130 11 193 125 9 195 116 7 198 107 5 199 100 3 199 103 4 198 105 4 199 103 4 199 103 4 199 100 3 199 103 4 199 100 3 199 100 3 199 100 3 199 100 3 200 98 3 200 98 3 200 98 3 201 96 2 201 96 2 200 98 3 201 96 2 201 96 2 201 96 2 200 98 3 200 98 3 200 98 3 200 98 3 199 100 3 200 98 3 200 98 3 201 96 2 201 96 2 201 96 2 201 96 2 201 96 2 201 94 2 201 94 2 201 94 2 202 89 1 202 89 1 202 89 1 202 89 1 203 87 0 203 87 0 203 87 0 203 87 0 203 87 0 205 88 0 207 95 0 207 95 0 209 103 0 210 106 0 211 110 0 211 110 0 212 113 0 214 121 0 214 121 0 214 121 0 214 121 0 214 121 0 214 121 0 212 113 0 212 113 0 214 121 0 214 121 0 215 124 0 214 121 0 215 124 0 214 121 0 214 121 0 214 121 0 214 121 0 214 121 0 214 121 0 214 121 0 212 113 0 214 121 0 214 121 0 215 124 0 215 124 0 215 124 0 215 124 0 215 124 0 215 124 0 217 128 0 215 124 0 218 132 0 219 135 0 220 139 0 221 142 0 222 146 0 223 150 0 224 153 0 227 164 0 231 175 0 235 189 0 239 204 0 248 233 0 249 236 0 249 236 0 250 240 0 250 240 0 250 240 0 249 236 0 249 236 0 249 236 0 249 236 0 248 233 0 247 229 0 247 229 0 247 229 0 247 229 0 246 226 0 243 215 0 241 211 0 240 207 0 240 207 0 240 207 0 239 204 0 239 204 0 233 182 0 228 168 0 224 153 0 222 146 0 223 150 0 221 142 0 220 139 0 219 135 0 218 132 0 215 124 0 215 124 0 214 121 0 215 124 0 214 121 0 215 124 0 214 121 0 214 121 0 212 113 0 212 113 0 212 113 0 211 110 0 211 110 0 211 110 0 212 113 0 211 110 0 211 110 0 210 106 0 210 106 0 210 106 0 210 106 0 209 103 0 209 103 0 210 106 0 210 106 0 210 106 0 210 106 0 210 106 0 210 106 0 210 106 0 210 106 0 210 106 0 210 106 0 210 106 0 210 106 0 210 106 0 210 106 0 210 106 0 210 106 0 210 106 0 209 103 0 209 103 0 210 106 0 210 106 0 211 110 0 211 110 0 210 106 0 210 106 0 210 106 0 210 106 0 210 106 0 210 106 0 210 106 0 209 103 0 210 106 0 210 106 0 210 106 0 210 106 0 209 103 0 207 95 0 210 106 0 210 106 0 211 110 0 212 113 0 210 106 0 210 106 0 209 103 0 209 103 0 209 103 0 209 103 0 210 106 0 209 103 0 209 103 0 209 103 0 207 95 0 207 95 0 207 95 0 203 87 0 203 87 0 203 87 0 205 88 0 
190 136 12 186 152 16 190 136 12 190 136 12 190 136 12 190 136 12 186 152 16 186 152 16 190 136 12 192 130 11 193 125 9 195 116 7 198 107 5 199 100 3 199 103 4 198 105 4 199 103 4 199 103 4 199 100 3 199 103 4 199 100 3 199 100 3 199 100 3 199 100 3 200 98 3 200 98 3 200 98 3 201 96 2 201 96 2 200 98 3 201 96 2 201 96 2 201 96 2 200 98 3 200 98 3 200 98 3 200 98 3 199 100 3 200 98 3 200 98 3 201 96 2 201 96 2 201 96 2 201 96 2 201 96 2 201 94 2 201 94 2 201 94 2 202 89 1 202 89 1 202 89 1 202 89 1 203 87 0 203 87 0 203 87 0 203 87 0 203 87 0 205 88 0 207 95 0 207 95 0 209 103 0 210 106 0 211 110 0 211 110 0 212 113 0 214 121 0 214 121 0 214 121 0 214 121 0 214 121 0 214 121 0 212 113 0 212 113 0 214 121 0 214 121 0 215 124 0 214 121 0 215 124 0 214 121 0 214 121 0 214 121 0 214 121 0 214 121 0 214 121 0 214 121 0 212 113 0 214 121 0 214 121 0 215 124 0 215 124 0 215 124 0 215 124 0 215 124 0 215 124 0 217 128 0 215 124 0 218 132 0 219 135 0 220 139 0 221 142 0 222 146 0 223 150 0 224 153 0 227 164 0 231 175 0 235 189 0 239 204 0 248 233 0 249 236 0 249 236 0 250 240 0 250 240 0 250 240 0 249 236 0 249 236 0 249 236 0 249 236 0 248 233 0 247 229 0 247 229 0 247 229 0 247 229 0 246 226 0 243 215 0 241 211 0 240 207 0 240 207 0 240 207 0 239 204 0 239 204 0 233 182 0 228 168 0 224 153 0 222 146 0 223 150 0 221 142 0 220 139 0 219 135 0 218 132 0 215 124 0 215 124 0 214 121 0 215 124 0 214 121 0 215 124 0 214 121 0 214 121 0 212 113 0 212 113 0 212 113 0 211 110 0 211 110 0 211 110 0 212 113 0 211 110 0 211 110 0 210 106 0 210 106 0 210 106 0 210 106 0 209 103 0 209 103 0 210 106 0 210 106 0 210 106 0 210 106 0 210 106 0 210 106 0 210 106 0 210 106 0 210 106 0 210 106 0 210 106 0 210 106 0 210 106 0 210 106 0 210 106 0 210 106 0 210 106 0 209 103 0 209 103 0 210 106 0 210 106 0 211 110 0 211 110 0 210 106 0 210 106 0 210 106 0 210 106 0 210 106 0 210 106 0 210 106 0 209 103 0 210 106 0 210 106 0 210 106 0 210 106 0 209 103 0 207 95 0 210 106 0 210 106 0 211 110 0 212 113 0 210 106 0 210 106 0 209 103 0 209 103 0 209 103 0 209 103 0 210 106 0 209 103 0 209 103 0 209 103 0 207 95 0 207 95 0 207 95 0 203 87 0 203 87 0 203 87 0 205 88 0 
190 136 12 190 136 12 186 152 16 186 152 16 186 152 16 185 154 17 185 154 17 185 154 17 185 154 17 185 154 17 185 154 17 185 154 17 185 154 17 185 154 17 190 136 12 195 116 7 198 105 4 201 94 2 205 88 0 205 88 0 205 88 0 207 95 0 209 103 0 209 103 0 209 103 0 210 106 0 210 106 0 209 103 0 209 103 0 209 103 0 209 103 0 209 103 0 209 103 0 209 103 0 209 103 0 209 103 0 207 95 0 207 95 0 205 88 0 205 88 0 203 87 0 205 88 0 205 88 0 205 88 0 205 88 0 203 87 0 203 87 0 203 87 0 203 87 0 203 87 0 203 87 0 203 87 0 203 87 0 203 87 0 203 87 0 203 87 0 203 87 0 203 87 0 203 87 0 203 87 0 202 89 1 202 89 1 202 89 1 207 95 0 207 95 0 207 95 0 210 106 0 212 113 0 212 113 0 212 113 0 212 113 0 212 113 0 212 113 0 214 121 0 214 121 0 215 124 0 215 124 0 217 128 0 217 128 0 217 128 0 217 128 0 218 132 0 218 132 0 218 132 0 218 132 0 217 128 0 217 128 0 217 128 0 217 128 0 218 132 0 217 128 0 217 128 0 217 128 0 217 128 0 218 132 0 219 135 0 219 135 0 219 135 0 219 135 0 219 135 0 219 135 0 221 142 0 223 150 0 228 168 0 231 175 0 232 179 0 233 182 0 235 189 0 237 197 0 239 204 0 239 204 0 240 207 0 240 207 0 241 211 0 241 211 0 243 215 0 243 215 0 245 222 0 246 226 0 246 226 0 246 226 0 246 226 0 245 222 0 241 211 0 235 189 0 231 175 0 224 153 0 220 139 0 215 124 0 214 121 0 214 121 0 215 124 0 215 124 0 215 124 0 217 128 0 215 124 0 215 124 0 215 124 0 215 124 0 214 121 0 214 121 0 215 124 0 214 121 0 214 121 0 214 121 0 215 124 0 215 124 0 214 121 0 215 124 0 212 113 0 211 110 0 211 110 0 211 110 0 211 110 0 211 110 0 212 113 0 211 110 0 211 110 0 211 110 0 211 110 0 211 110 0 211 110 0 211 110 0 211 110 0 209 103 0 209 103 0 205 88 0 205 88 0 203 87 0 203 87 0 203 87 0 202 89 1 203 87 0 203 87 0 203 87 0 203 87 0 203 87 0 203 87 0 203 87 0 203 87 0 203 87 0 203 87 0 203 87 0 203 87 0 203 87 0 203 87 0 205 88 0 203 87 0 203 87 0 205 88 0 203 87 0 203 87 0 203 87 0 203 87 0 203 87 0 203 87 0 202 89 1 203 87 0 203 87 0 203 87 0 203 87 0 203 87 0 203 87 0 203 87 0 205 88 0 203 87 0 203 87 0 203 87 0 203 87 0 203 87 0 203 87 0 205 88 0 205 88 0 205 88 0 207 95 0 205 88 0 203 87 0 203 87 0 203 87 0 203 87 0 
190 136 12 190 136 12 186 152 16 186 152 16 186 152 16 185 154 17 185 154 17 185 154 17 185 154 17 185 154 17 185 154 17 185 154 17 185 154 17 185 154 17 190 136 12 195 116 7 198 105 4 201 94 2 205 88 0 205 88 0 205 88 0 207 95 0 209 103 0 209 103 0 209 103 0 210 106 0 210 106 0 209 103 0 209 103 0 209 103 0 209 103 0 209 103 0 209 103 0 209 103 0 209 103 0 209 103 0 207 95 0 207 95 0 205 88 0 205 88 0 203 87 0 205 88 0 205 88 0 205 88 0 205 88 0 203 87 0 203 87 0 203 87 0 203 87 0 203 87 0 203 87 0 203 87 0 203 87 0 203 87 0 203 87 0 203 87 0 203 87 0 203 87 0 203 87 0 203 87 0 202 89 1 202 89 1 202 89 1 207 95 0 207 95 0 207 95 0 210 106 0 212 113 0 212 113 0 212 113 0 212 113 0 212 113 0 212 113 0 214 121 0 214 121 0 215 124 0 215 124 0 217 128 0 217 128 0 217 128 0 217 128 0 218 132 0 218 132 0 218 132 0 218 132 0 217 128 0 217 128 0 217 128 0 217 128 0 218 132 0 217 128 0 217 128 0 217 128 0 217 128 0 218 132 0 219 135 0 219 135 0 219 135 0 219 135 0 219 135 0 219 135 0 221 142 0 223 150 0 228 168 0 231 175 0 232 179 0 233 182 0 235 189 0 237 197 0 239 204 0 239 204 0 240 207 0 240 207 0 241 211 0 241 211 0 243 215 0 243 215 0 245 222 0 246 226 0 246 226 0 246 226 0 246 226 0 245 222 0 241 211 0 235 189 0 231 175 0 224 153 0 220 139 0 215 124 0 214 121 0 214 121 0 215 124 0 215 124 0 215 124 0 217 128 0 215 124 0 215 124 0 215 124 0 215 124 0 214 121 0 214 121 0 215 124 0 214 121 0 214 121 0 214 121 0 215 124 0 215 124 0 214 121 0 215 124 0 212 113 0 211 110 0 211 110 0 211 110 0 211 110 0 211 110 0 212 113 0 211 110 0 211 110 0 211 110 0 211 110 0 211 110 0 211 110 0 211 110 0 211 110 0 209 103 0 209 103 0 205 88 0 205 88 0 203 87 0 203 87 0 203 87 0 202 89 1 203 87 0 203 87 0 203 87 0 203 87 0 203 87 0 203 87 0 203 87 0 203 87 0 203 87 0 203 87 0 203 87 0 203 87 0 203 87 0 203 87 0 205 88 0 203 87 0 203 87 0 205 88 0 203 87 0 203 87 0 203 87 0 203 87 0 203 87 0 203 87 0 202 89 1 203 87 0 203 87 0 203 87 0 203 87 0 203 87 0 203 87 0 203 87 0 205 88 0 203 87 0 203 87 0 203 87 0 203 87 0 203 87 0 203 87 0 205 88 0 205 88 0 205 88 0 207 95 0 205 88 0 203 87 0 203 87 0 203 87 0 203 87 0 
200 98 3 201 96 2 201 96 2 201 94 2 207 95 0 209 103 0 203 87 0 205 88 0 209 103 0 205 88 0 205 88 0 203 87 0 201 94 2 201 94 2 201 94 2 203 87 0 205 88 0 201 96 2 201 94 2 205 88 0 207 95 0 207 95 0 207 95 0 207 95 0 209 103 0 210 106 0 209 103 0 209 103 0 210 106 0 210 106 0 210 106 0 210 106 0 210 106 0 210 106 0 210 106 0 211 110 0 211 110 0 210 106 0 210 106 0 211 110 0 211 110 0 212 113 0 212 113 0 212 113 0 212 113 0 212 113 0 214 121 0 214 121 0 214 121 0 214 121 0 215 124 0 217 128 0 217 128 0 215 124 0 215 124 0 215 124 0 215 124 0 217 128 0 217 128 0 217 128 0 217 128 0 220 139 0 222 146 0 223 150 0 222 146 0 223 150 0 226 160 0 230 171 0 231 175 0 232 179 0 233 182 0 232 179 0 231 175 0 232 179 0 232 179 0 232 179 0 231 175 0 226 160 0 222 146 0 223 150 0 226 160 0 227 164 0 228 168 0 230 171 0 230 171 0 230 171 0 230 171 0 227 164 0 226 160 0 223 150 0 223 150 0 223 150 0 223 150 0 226 160 0 230 171 0 231 175 0 231 175 0 232 179 0 233 182 0 233 182 0 235 189 0 236 193 0 238 200 0 241 211 0 246 226 0 249 236 0 249 236 0 249 236 0 249 236 0 249 236 0 246 226 0 238 200 0 236 193 0 233 182 0 227 164 0 226 160 0 226 160 0 224 153 0 223 150 0 223 150 0 221 142 0 219 135 0 219 135 0 220 139 0 220 139 0 219 135 0 219 135 0 219 135 0 219 135 0 219 135 0 219 135 0 219 135 0 219 135 0 219 135 0 218 132 0 218 132 0 218 132 0 218 132 0 218 132 0 217 128 0 217 128 0 217 128 0 215 124 0 215 124 0 215 124 0 215 124 0 215 124 0 215 124 0 215 124 0 214 121 0 214 121 0 214 121 0 214 121 0 212 113 0 212 113 0 212 113 0 214 121 0 212 113 0 212 113 0 212 113 0 212 113 0 212 113 0 211 110 0 212 113 0 211 110 0 211 110 0 212 113 0 212 113 0 212 113 0 212 113 0 212 113 0 212 113 0 212 113 0 212 113 0 214 121 0 214 121 0 212 113 0 212 113 0 212 113 0 212 113 0 212 113 0 211 110 0 209 103 0 207 95 0 205 88 0 205 88 0 203 87 0 203 87 0 203 87 0 205 88 0 203 87 0 203 87 0 205 88 0 203 87 0 203 87 0 203 87 0 203 87 0 203 87 0 205 88 0 203 87 0 205 88 0 205 88 0 205 88 0 205 88 0 203 87 0 202 89 1 203 87 0 203 87 0 203 87 0 203 87 0 203 87 0 203 87 0 203 87 0 205 88 0 205 88 0 205 88 0 203 87 0 203 87 0 203 87 0 205 88 0 
200 98 3 201 96 2 201 96 2 201 94 2 207 95 0 209 103 0 203 87 0 205 88 0 209 103 0 205 88 0 205 88 0 203 87 0 201 94 2 201 94 2 201 94 2 203 87 0 205 88 0 201 96 2 201 94 2 205 88 0 207 95 0 207 95 0 207 95 0 207 95 0 209 103 0 210 106 0 209 103 0 209 103 0 210 106 0 210 106 0 210 106 0 210 106 0 210 106 0 210 106 0 210 106 0 211 110 0 211 110 0 210 106 0 210 106 0 211 110 0 211 110 0 212 113 0 212 113 0 212 113 0 212 113 0 212 113 0 214 121 0 214 121 0 214 121 0 214 121 0 215 124 0 217 128 0 217 128 0 215 124 0 215 124 0 215 124 0 215 124 0 217 128 0 217 128 0 217 128 0 217 128 0 220 139 0 222 146 0 223 150 0 222 146 0 223 150 0 226 160 0 230 171 0 231 175 0 232 179 0 233 182 0 232 179 0 231 175 0 232 179 0 232 179 0 232 179 0 231 175 0 226 160 0 222 146 0 223 150 0 226 160 0 227 164 0 228 168 0 230 171 0 230 171 0 230 171 0 230 171 0 227 164 0 226 160 0 223 150 0 223 150 0 223 150 0 223 150 0 226 160 0 230 171 0 231 175 0 231 175 0 232 179 0 233 182 0 233 182 0 235 189 0 236 193 0 238 200 0 241 211 0 246 226 0 249 236 0 249 236 0 249 236 0 249 236 0 249 236 0 246 226 0 238 200 0 236 193 0 233 182 0 227 164 0 226 160 0 226 160 0 224 153 0 223 150 0 223 150 0 221 142 0 219 135 0 219 135 0 220 139 0 220 139 0 219 135 0 219 135 0 219 135 0 219 135 0 219 135 0 219 135 0 219 135 0 219 135 0 219 135 0 218 132 0 218 132 0 218 132 0 218 132 0 218 132 0 217 128 0 217 128 0 217 128 0 215 124 0 215 124 0 215 124 0 215 124 0 215 124 0 215 124 0 215 124 0 214 121 0 214 121 0 214 121 0 214 121 0 212 113 0 212 113 0 212 113 0 214 121 0 212 113 0 212 113 0 212 113 0 212 113 0 212 113 0 211 110 0 212 113 0 211 110 0 211 110 0 212 113 0 212 113 0 212 113 0 212 113 0 212 113 0 212 113 0 212 113 0 212 113 0 214 121 0 214 121 0 212 113 0 212 113 0 212 113 0 212 113 0 212 113 0 211 110 0 209 103 0 207 95 0 205 88 0 205 88 0 203 87 0 203 87 0 203 87 0 205 88 0 203 87 0 203 87 0 205 88 0 203 87 0 203 87 0 203 87 0 203 87 0 203 87 0 205 88 0 203 87 0 205 88 0 205 88 0 205 88 0 205 88 0 203 87 0 202 89 1 203 87 0 203 87 0 203 87 0 203 87 0 203 87 0 203 87 0 203 87 0 205 88 0 205 88 0 205 88 0 203 87 0 203 87 0 203 87 0 205 88 0 
190 136 12 186 152 16 190 136 12 190 134 12 193 125 9 198 107 5 199 103 4 201 96 2 202 89 1 207 95 0 212 113 0 217 128 0 220 139 0 220 139 0 221 142 0 221 142 0 220 139 0 219 135 0 218 132 0 217 128 0 215 124 0 215 124 0 214 121 0 212 113 0 211 110 0 211 110 0 211 110 0 211 110 0 211 110 0 211 110 0 210 106 0 210 106 0 210 106 0 210 106 0 210 106 0 210 106 0 210 106 0 210 106 0 210 106 0 210 106 0 210 106 0 210 106 0 211 110 0 210 106 0 211 110 0 210 106 0 211 110 0 211 110 0 211 110 0 211 110 0 212 113 0 212 113 0 214 121 0 212 113 0 214 121 0 212 113 0 212 113 0 214 121 0 214 121 0 214 121 0 215 124 0 215 124 0 215 124 0 217 128 0 217 128 0 215 124 0 215 124 0 217 128 0 217 128 0 217 128 0 217 128 0 218 132 0 218 132 0 218 132 0 218 132 0 218 132 0 219 135 0 220 139 0 219 135 0 220 139 0 220 139 0 220 139 0 219 135 0 220 139 0 220 139 0 220 139 0 220 139 0 220 139 0 220 139 0 221 142 0 222 146 0 223 150 0 224 153 0 223 150 0 224 153 0 224 153 0 227 164 0 228 168 0 231 175 0 234 186 0 235 189 0 237 197 0 239 204 0 243 215 0 247 229 0 249 236 0 249 236 0 249 236 0 249 236 0 249 236 0 250 240 0 250 240 0 249 236 0 249 236 0 249 236 0 250 240 0 250 240 0 249 236 0 249 236 0 245 222 0 237 197 0 234 186 0 233 182 0 233 182 0 231 175 0 230 171 0 228 168 0 228 168 0 226 160 0 226 160 0 226 160 0 226 160 0 226 160 0 223 150 0 221 142 0 219 135 0 218 132 0 218 132 0 217 128 0 217 128 0 217 128 0 217 128 0 217 128 0 217 128 0 215 124 0 215 124 0 215 124 0 215 124 0 215 124 0 215 124 0 215 124 0 215 124 0 215 124 0 215 124 0 215 124 0 215 124 0 215 124 0 215 124 0 215 124 0 215 124 0 217 128 0 215 124 0 215 124 0 217 128 0 215 124 0 215 124 0 215 124 0 214 121 0 214 121 0 214 121 0 214 121 0 212 113 0 212 113 0 212 113 0 212 113 0 212 113 0 211 110 0 211 110 0 211 110 0 211 110 0 212 113 0 212 113 0 212 113 0 212 113 0 211 110 0 212 113 0 212 113 0 211 110 0 211 110 0 211 110 0 211 110 0 211 110 0 211 110 0 211 110 0 212 113 0 211 110 0 211 110 0 211 110 0 211 110 0 211 110 0 211 110 0 211 110 0 212 113 0 211 110 0 211 110 0 210 106 0 210 106 0 209 103 0 207 95 0 207 95 0 207 95 0 207 95 0 207 95 0 209 103 0 207 95 0 205 88 0 205 88 0 205 88 0 205 88 0 205 88 0 
190 136 12 186 152 16 190 136 12 190 134 12 193 125 9 198 107 5 199 103 4 201 96 2 202 89 1 207 95 0 212 113 0 217 128 0 220 139 0 220 139 0 221 142 0 221 142 0 220 139 0 219 135 0 218 132 0 217 128 0 215 124 0 215 124 0 214 121 0 212 113 0 211 110 0 211 110 0 211 110 0 211 110 0 211 110 0 211 110 0 210 106 0 210 106 0 210 106 0 210 106 0 210 106 0 210 106 0 210 106 0 210 106 0 210 106 0 210 106 0 210 106 0 210 106 0 211 110 0 210 106 0 211 110 0 210 106 0 211 110 0 211 110 0 211 110 0 211 110 0 212 113 0 212 113 0 214 121 0 212 113 0 214 121 0 212 113 0 212 113 0 214 121 0 214 121 0 214 121 0 215 124 0 215 124 0 215 124 0 217 128 0 217 128 0 215 124 0 215 124 0 217 128 0 217 128 0 217 128 0 217 128 0 218 132 0 218 132 0 218 132 0 218 132 0 218 132 0 219 135 0 220 139 0 219 135 0 220 139 0 220 139 0 220 139 0 219 135 0 220 139 0 220 139 0 220 139 0 220 139 0 220 139 0 220 139 0 221 142 0 222 146 0 223 150 0 224 153 0 223 150 0 224 153 0 224 153 0 227 164 0 228 168 0 231 175 0 234 186 0 235 189 0 237 197 0 239 204 0 243 215 0 247 229 0 249 236 0 249 236 0 249 236 0 249 236 0 249 236 0 250 240 0 250 240 0 249 236 0 249 236 0 249 236 0 250 240 0 250 240 0 249 236 0 249 236 0 245 222 0 237 197 0 234 186 0 233 182 0 233 182 0 231 175 0 230 171 0 228 168 0 228 168 0 226 160 0 226 160 0 226 160 0 226 160 0 226 160 0 223 150 0 221 142 0 219 135 0 218 132 0 218 132 0 217 128 0 217 128 0 217 128 0 217 128 0 217 128 0 217 128 0 215 124 0 215 124 0 215 124 0 215 124 0 215 124 0 215 124 0 215 124 0 215 124 0 215 124 0 215 124 0 215 124 0 215 124 0 215 124 0 215 124 0 215 124 0 215 124 0 217 128 0 215 124 0 215 124 0 217 128 0 215 124 0 215 124 0 215 124 0 214 121 0 214 121 0 214 121 0 214 121 0 212 113 0 212 113 0 212 113 0 212 113 0 212 113 0 211 110 0 211 110 0 211 110 0 211 110 0 212 113 0 212 113 0 212 113 0 212 113 0 211 110 0 212 113 0 212 113 0 211 110 0 211 110 0 211 110 0 211 110 0 211 110 0 211 110 0 211 110 0 212 113 0 211 110 0 211 110 0 211 110 0 211 110 0 211 110 0 211 110 0 211 110 0 212 113 0 211 110 0 211 110 0 210 106 0 210 106 0 209 103 0 207 95 0 207 95 0 207 95 0 207 95 0 207 95 0 209 103 0 207 95 0 205 88 0 205 88 0 205 88 0 205 88 0 205 88 0 
186 152 16 186 152 16 186 152 16 190 136 12 190 136 12 190 136 12 190 136 12 190 136 12 190 134 12 195 116 7 198 105 4 200 98 3 201 94 2 201 96 2 201 94 2 201 94 2 205 88 0 211 110 0 215 124 0 220 139 0 223 150 0 223 150 0 226 160 0 226 160 0 224 153 0 227 164 0 227 164 0 227 164 0 224 153 0 223 150 0 220 139 0 218 132 0 215 124 0 214 121 0 212 113 0 211 110 0 211 110 0 211 110 0 211 110 0 211 110 0 210 106 0 210 106 0 211 110 0 211 110 0 211 110 0 211 110 0 215 124 0 219 135 0 218 132 0 218 132 0 217 128 0 215 124 0 215 124 0 215 124 0 214 121 0 215 124 0 215 124 0 215 124 0 215 124 0 215 124 0 215 124 0 215 124 0 215 124 0 215 124 0 215 124 0 215 124 0 215 124 0 217 128 0 215 124 0 214 121 0 214 121 0 215 124 0 215 124 0 215 124 0 215 124 0 215 124 0 217 128 0 217 128 0 218 132 0 218 132 0 218 132 0 218 132 0 217 128 0 218 132 0 219 135 0 219 135 0 219 135 0 220 139 0 220 139 0 221 142 0 222 146 0 222 146 0 222 146 0 222 146 0 222 146 0 222 146 0 222 146 0 222 146 0 222 146 0 222 146 0 222 146 0 223 150 0 223 150 0 222 146 0 222 146 0 222 146 0 222 146 0 222 146 0 223 150 0 224 153 0 226 160 0 227 164 0 228 168 0 230 171 0 232 179 0 230 171 0 228 168 0 227 164 0 227 164 0 227 164 0 226 160 0 224 153 0 222 146 0 220 139 0 220 139 0 221 142 0 222 146 0 221 142 0 221 142 0 220 139 0 220 139 0 221 142 0 220 139 0 219 135 0 219 135 0 219 135 0 218 132 0 217 128 0 217 128 0 215 124 0 214 121 0 214 121 0 214 121 0 214 121 0 212 113 0 211 110 0 211 110 0 211 110 0 211 110 0 211 110 0 211 110 0 211 110 0 212 113 0 212 113 0 212 113 0 211 110 0 211 110 0 211 110 0 211 110 0 210 106 0 209 103 0 209 103 0 209 103 0 209 103 0 209 103 0 209 103 0 209 103 0 209 103 0 210 106 0 210 106 0 210 106 0 209 103 0 210 106 0 210 106 0 210 106 0 210 106 0 210 106 0 210 106 0 210 106 0 210 106 0 210 106 0 211 110 0 211 110 0 210 106 0 210 106 0 209 103 0 209 103 0 207 95 0 207 95 0 207 95 0 207 95 0 205 88 0 205 88 0 205 88 0 205 88 0 205 88 0 205 88 0 205 88 0 205 88 0 205 88 0 205 88 0 207 95 0 207 95 0 207 95 0 207 95 0 207 95 0 207 95 0 207 95 0 207 95 0 207 95 0 207 95 0 207 95 0 207 95 0 207 95 0 205 88 0 205 88 0 205 88 0 205 88 0 207 95 0 205 88 0 
186 152 16 186 152 16 186 152 16 190 136 12 190 136 12 190 136 12 190 136 12 190 136 12 190 134 12 195 116 7 198 105 4 200 98 3 201 94 2 201 96 2 201 94 2 201 94 2 205 88 0 211 110 0 215 124 0 220 139 0 223 150 0 223 150 0 226 160 0 226 160 0 224 153 0 227 164 0 227 164 0 227 164 0 224 153 0 223 150 0 220 139 0 218 132 0 215 124 0 214 121 0 212 113 0 211 110 0 211 110 0 211 110 0 211 110 0 211 110 0 210 106 0 210 106 0 211 110 0 211 110 0 211 110 0 211 110 0 215 124 0 219 135 0 218 132 0 218 132 0 217 128 0 215 124 0 215 124 0 215 124 0 214 121 0 215 124 0 215 124 0 215 124 0 215 124 0 215 124 0 215 124 0 215 124 0 215 124 0 215 124 0 215 124 0 215 124 0 215 124 0 217 128 0 215 124 0 214 121 0 214 121 0 215 124 0 215 124 0 215 124 0 215 124 0 215 124 0 217 128 0 217 128 0 218 132 0 218 132 0 218 132 0 218 132 0 217 128 0 218 132 0 219 135 0 219 135 0 219 135 0 220 139 0 220 139 0 221 142 0 222 146 0 222 146 0 222 146 0 222 146 0 222 146 0 222 146 0 222 146 0 222 146 0 222 146 0 222 146 0 222 146 0 223 150 0 223 150 0 222 146 0 222 146 0 222 146 0 222 146 0 222 146 0 223 150 0 224 153 0 226 160 0 227 164 0 228 168 0 230 171 0 232 179 0 230 171 0 228 168 0 227 164 0 227 164 0 227 164 0 226 160 0 224 153 0 222 146 0 220 139 0 220 139 0 221 142 0 222 146 0 221 142 0 221 142 0 220 139 0 220 139 0 221 142 0 220 139 0 219 135 0 219 135 0 219 135 0 218 132 0 217 128 0 217 128 0 215 124 0 214 121 0 214 121 0 214 121 0 214 121 0 212 113 0 211 110 0 211 110 0 211 110 0 211 110 0 211 110 0 211 110 0 211 110 0 212 113 0 212 113 0 212 113 0 211 110 0 211 110 0 211 110 0 211 110 0 210 106 0 209 103 0 209 103 0 209 103 0 209 103 0 209 103 0 209 103 0 209 103 0 209 103 0 210 106 0 210 106 0 210 106 0 209 103 0 210 106 0 210 106 0 210 106 0 210 106 0 210 106 0 210 106 0 210 106 0 210 106 0 210 106 0 211 110 0 211 110 0 210 106 0 210 106 0 209 103 0 209 103 0 207 95 0 207 95 0 207 95 0 207 95 0 205 88 0 205 88 0 205 88 0 205 88 0 205 88 0 205 88 0 205 88 0 205 88 0 205 88 0 205 88 0 207 95 0 207 95 0 207 95 0 207 95 0 207 95 0 207 95 0 207 95 0 207 95 0 207 95 0 207 95 0 207 95 0 207 95 0 207 95 0 205 88 0 205 88 0 205 88 0 205 88 0 207 95 0 205 88 0 
186 152 16 186 152 16 190 136 12 190 136 12 190 136 12 190 136 12 190 136 12 190 136 12 190 136 12 190 136 12 190 136 12 190 136 12 190 136 12 190 136 12 190 136 12 190 136 12 190 134 12 193 125 9 195 116 7 198 107 5 201 96 2 201 94 2 201 94 2 203 87 0 207 95 0 211 110 0 218 132 0 224 153 0 228 168 0 228 168 0 228 168 0 227 164 0 227 164 0 226 160 0 224 153 0 224 153 0 226 160 0 226 160 0 226 160 0 227 164 0 227 164 0 226 160 0 224 153 0 223 150 0 221 142 0 219 135 0 217 128 0 212 113 0 209 103 0 207 95 0 207 95 0 210 106 0 212 113 0 214 121 0 218 132 0 224 153 0 227 164 0 230 171 0 231 175 0 232 179 0 233 182 0 234 186 0 233 182 0 236 193 0 237 197 0 236 193 0 237 197 0 237 197 0 235 189 0 235 189 0 235 189 0 234 186 0 232 179 0 232 179 0 233 182 0 236 193 0 235 189 0 233 182 0 227 164 0 224 153 0 224 153 0 224 153 0 224 153 0 224 153 0 224 153 0 224 153 0 223 150 0 224 153 0 224 153 0 224 153 0 224 153 0 224 153 0 224 153 0 223 150 0 222 146 0 222 146 0 222 146 0 223 150 0 223 150 0 223 150 0 224 153 0 226 160 0 226 160 0 228 168 0 231 175 0 232 179 0 232 179 0 231 175 0 230 171 0 228 168 0 227 164 0 224 153 0 223 150 0 224 153 0 223 150 0 224 153 0 224 153 0 223 150 0 223 150 0 223 150 0 224 153 0 223 150 0 223 150 0 223 150 0 222 146 0 221 142 0 220 139 0 221 142 0 220 139 0 220 139 0 219 135 0 219 135 0 218 132 0 217 128 0 215 124 0 215 124 0 214 121 0 214 121 0 214 121 0 214 121 0 212 113 0 212 113 0 214 121 0 214 121 0 214 121 0 214 121 0 214 121 0 214 121 0 214 121 0 215 124 0 214 121 0 214 121 0 212 113 0 214 121 0 214 121 0 212 113 0 212 113 0 210 106 0 209 103 0 207 95 0 207 95 0 207 95 0 207 95 0 207 95 0 207 95 0 207 95 0 207 95 0 207 95 0 209 103 0 207 95 0 207 95 0 207 95 0 207 95 0 207 95 0 207 95 0 207 95 0 205 88 0 205 88 0 205 88 0 205 88 0 205 88 0 205 88 0 205 88 0 205 88 0 205 88 0 205 88 0 207 95 0 207 95 0 205 88 0 205 88 0 205 88 0 205 88 0 205 88 0 205 88 0 203 87 0 205 88 0 203 87 0 203 87 0 205 88 0 205 88 0 205 88 0 205 88 0 205 88 0 205 88 0 205 88 0 205 88 0 205 88 0 205 88 0 205 88 0 205 88 0 205 88 0 203 87 0 203 87 0 203 87 0 203 87 0 203 87 0 203 87 0 203 87 0 203 87 0 205 88 0 
186 152 16 186 152 16 190 136 12 190 136 12 190 136 12 190 136 12 190 136 12 190 136 12 190 136 12 190 136 12 190 136 12 190 136 12 190 136 12 190 136 12 190 136 12 190 136 12 190 134 12 193 125 9 195 116 7 198 107 5 201 96 2 201 94 2 201 94 2 203 87 0 207 95 0 211 110 0 218 132 0 224 153 0 228 168 0 228 168 0 228 168 0 227 164 0 227 164 0 226 160 0 224 153 0 224 153 0 226 160 0 226 160 0 226 160 0 227 164 0 227 164 0 226 160 0 224 153 0 223 150 0 221 142 0 219 135 0 217 128 0 212 113 0 209 103 0 207 95 0 207 95 0 210 106 0 212 113 0 214 121 0 218 132 0 224 153 0 227 164 0 230 171 0 231 175 0 232 179 0 233 182 0 234 186 0 233 182 0 236 193 0 237 197 0 236 193 0 237 197 0 237 197 0 235 189 0 235 189 0 235 189 0 234 186 0 232 179 0 232 179 0 233 182 0 236 193 0 235 189 0 233 182 0 227 164 0 224 153 0 224 153 0 224 153 0 224 153 0 224 153 0 224 153 0 224 153 0 223 150 0 224 153 0 224 153 0 224 153 0 224 153 0 224 153 0 224 153 0 223 150 0 222 146 0 222 146 0 222 146 0 223 150 0 223 150 0 223 150 0 224 153 0 226 160 0 226 160 0 228 168 0 231 175 0 232 179 0 232 179 0 231 175 0 230 171 0 228 168 0 227 164 0 224 153 0 223 150 0 224 153 0 223 150 0 224 153 0 224 153 0 223 150 0 223 150 0 223 150 0 224 153 0 223 150 0 223 150 0 223 150 0 222 146 0 221 142 0 220 139 0 221 142 0 220 139 0 220 139 0 219 135 0 219 135 0 218 132 0 217 128 0 215 124 0 215 124 0 214 121 0 214 121 0 214 121 0 214 121 0 212 113 0 212 113 0 214 121 0 214 121 0 214 121 0 214 121 0 214 121 0 214 121 0 214 121 0 215 124 0 214 121 0 214 121 0 212 113 0 214 121 0 214 121 0 212 113 0 212 113 0 210 106 0 209 103 0 207 95 0 207 95 0 207 95 0 207 95 0 207 95 0 207 95 0 207 95 0 207 95 0 207 95 0 209 103 0 207 95 0 207 95 0 207 95 0 207 95 0 207 95 0 207 95 0 207 95 0 205 88 0 205 88 0 205 88 0 205 88 0 205 88 0 205 88 0 205 88 0 205 88 0 205 88 0 205 88 0 207 95 0 207 95 0 205 88 0 205 88 0 205 88 0 205 88 0 205 88 0 205 88 0 203 87 0 205 88 0 203 87 0 203 87 0 205 88 0 205 88 0 205 88 0 205 88 0 205 88 0 205 88 0 205 88 0 205 88 0 205 88 0 205 88 0 205 88 0 205 88 0 205 88 0 203 87 0 203 87 0 203 87 0 203 87 0 203 87 0 203 87 0 203 87 0 203 87 0 205 88 0 
186 152 16 186 152 16 190 136 12 190 136 12 190 136 12 190 136 12 190 136 12 190 136 12 190 136 12 190 136 12 190 136 12 190 136 12 192 130 11 198 105 4 198 105 4 199 103 4 199 100 3 199 100 3 200 98 3 200 98 3 200 98 3 201 96 2 201 96 2 201 96 2 201 96 2 201 94 2 201 96 2 201 96 2 201 94 2 201 94 2 201 94 2 202 89 1 205 88 0 207 95 0 211 110 0 215 124 0 220 139 0 222 146 0 222 146 0 222 146 0 224 153 0 224 153 0 224 153 0 226 160 0 226 160 0 226 160 0 227 164 0 227 164 0 228 168 0 228 168 0 230 171 0 228 168 0 228 168 0 228 168 0 227 164 0 224 153 0 219 135 0 217 128 0 214 121 0 210 106 0 209 103 0 205 88 0 203 87 0 202 89 1 201 94 2 202 89 1 202 89 1 203 87 0 205 88 0 207 95 0 207 95 0 207 95 0 209 103 0 209 103 0 209 103 0 210 106 0 210 106 0 214 121 0 214 121 0 218 132 0 224 153 0 235 189 0 239 204 0 239 204 0 246 226 0 248 233 0 249 236 0 249 236 0 249 236 0 249 236 0 249 236 0 249 236 0 248 233 0 247 229 0 247 229 0 247 229 0 248 233 0 248 233 0 248 233 0 248 233 0 248 233 0 248 233 0 249 236 0 249 236 0 249 236 0 249 236 0 250 240 0 250 240 0 250 240 0 250 240 0 249 236 0 249 236 0 248 233 0 247 229 0 245 222 0 243 215 0 240 207 0 237 197 0 234 186 0 232 179 0 230 171 0 228 168 0 226 160 0 223 150 0 222 146 0 221 142 0 221 142 0 221 142 0 221 142 0 221 142 0 220 139 0 219 135 0 219 135 0 220 139 0 219 135 0 219 135 0 218 132 0 218 132 0 218 132 0 217 128 0 215 124 0 215 124 0 215 124 0 215 124 0 215 124 0 215 124 0 215 124 0 215 124 0 215 124 0 215 124 0 215 124 0 215 124 0 214 121 0 215 124 0 215 124 0 215 124 0 215 124 0 215 124 0 214 121 0 215 124 0 215 124 0 215 124 0 215 124 0 214 121 0 214 121 0 214 121 0 214 121 0 214 121 0 214 121 0 214 121 0 214 121 0 210 106 0 209 103 0 207 95 0 207 95 0 207 95 0 207 95 0 207 95 0 205 88 0 205 88 0 205 88 0 205 88 0 205 88 0 205 88 0 205 88 0 205 88 0 203 87 0 203 87 0 203 87 0 203 87 0 203 87 0 203 87 0 203 87 0 203 87 0 203 87 0 203 87 0 203 87 0 203 87 0 203 87 0 203 87 0 203 87 0 205 88 0 205 88 0 205 88 0 203 87 0 203 87 0 203 87 0 203 87 0 203 87 0 203 87 0 203 87 0 203 87 0 203 87 0 203 87 0 203 87 0 202 89 1 203 87 0 203 87 0 203 87 0 203 87 0 
186 152 16 186 152 16 190 136 12 190 136 12 190 136 12 190 136 12 190 136 12 190 136 12 190 136 12 190 136 12 190 136 12 190 136 12 192 130 11 198 105 4 198 105 4 199 103 4 199 100 3 199 100 3 200 98 3 200 98 3 200 98 3 201 96 2 201 96 2 201 96 2 201 96 2 201 94 2 201 96 2 201 96 2 201 94 2 201 94 2 201 94 2 202 89 1 205 88 0 207 95 0 211 110 0 215 124 0 220 139 0 222 146 0 222 146 0 222 146 0 224 153 0 224 153 0 224 153 0 226 160 0 226 160 0 226 160 0 227 164 0 227 164 0 228 168 0 228 168 0 230 171 0 228 168 0 228 168 0 228 168 0 227 164 0 224 153 0 219 135 0 217 128 0 214 121 0 210 106 0 209 103 0 205 88 0 203 87 0 202 89 1 201 94 2 202 89 1 202 89 1 203 87 0 205 88 0 207 95 0 207 95 0 207 95 0 209 103 0 209 103 0 209 103 0 210 106 0 210 106 0 214 121 0 214 121 0 218 132 0 224 153 0 235 189 0 239 204 0 239 204 0 246 226 0 248 233 0 249 236 0 249 236 0 249 236 0 249 236 0 249 236 0 249 236 0 248 233 0 247 229 0 247 229 0 247 229 0 248 233 0 248 233 0 248 233 0 248 233 0 248 233 0 248 233 0 249 236 0 249 236 0 249 236 0 249 236 0 250 240 0 250 240 0 250 240 0 250 240 0 249 236 0 249 236 0 248 233 0 247 229 0 245 222 0 243 215 0 240 207 0 237 197 0 234 186 0 232 179 0 230 171 0 228 168 0 226 160 0 223 150 0 222 146 0 221 142 0 221 142 0 221 142 0 221 142 0 221 142 0 220 139 0 219 135 0 219 135 0 220 139 0 219 135 0 219 135 0 218 132 0 218 132 0 218 132 0 217 128 0 215 124 0 215 124 0 215 124 0 215 124 0 215 124 0 215 124 0 215 124 0 215 124 0 215 124 0 215 124 0 215 124 0 215 124 0 214 121 0 215 124 0 215 124 0 215 124 0 215 124 0 215 124 0 214 121 0 215 124 0 215 124 0 215 124 0 215 124 0 214 121 0 214 121 0 214 121 0 214 121 0 214 121 0 214 121 0 214 121 0 214 121 0 210 106 0 209 103 0 207 95 0 207 95 0 207 95 0 207 95 0 207 95 0 205 88 0 205 88 0 205 88 0 205 88 0 205 88 0 205 88 0 205 88 0 205 88 0 203 87 0 203 87 0 203 87 0 203 87 0 203 87 0 203 87 0 203 87 0 203 87 0 203 87 0 203 87 0 203 87 0 203 87 0 203 87 0 203 87 0 203 87 0 205 88 0 205 88 0 205 88 0 203 87 0 203 87 0 203 87 0 203 87 0 203 87 0 203 87 0 203 87 0 203 87 0 203 87 0 203 87 0 203 87 0 202 89 1 203 87 0 203 87 0 203 87 0 203 87 0 
190 136 12 190 136 12 190 136 12 190 136 12 190 136 12 190 136 12 190 136 12 198 105 4 201 96 2 201 96 2 201 96 2 201 96 2 201 96 2 201 96 2 201 96 2 201 94 2 201 94 2 201 94 2 201 94 2 201 96 2 201 96 2 201 96 2 201 96 2 201 94 2 201 94 2 201 94 2 201 94 2 201 94 2 201 94 2 201 94 2 201 94 2 201 96 2 201 94 2 201 94 2 201 94 2 202 89 1 202 89 1 202 89 1 202 89 1 202 89 1 202 89 1 202 89 1 202 89 1 205 88 0 212 113 0 222 146 0 228 168 0 231 175 0 232 179 0 230 171 0 230 171 0 230 171 0 233 182 0 232 179 0 231 175 0 231 175 0 231 175 0 231 175 0 230 171 0 230 171 0 231 175 0 230 171 0 230 171 0 230 171 0 230 171 0 230 171 0 230 171 0 228 168 0 223 150 0 220 139 0 217 128 0 212 113 0 211 110 0 210 106 0 209 103 0 205 88 0 205 88 0 205 88 0 205 88 0 205 88 0 203 87 0 203 87 0 203 87 0 203 87 0 203 87 0 203 87 0 203 87 0 203 87 0 202 89 1 203 87 0 203 87 0 203 87 0 203 87 0 220 139 0 230 171 0 247 229 0 250 240 0 250 240 0 245 222 0 240 207 0 249 236 0 250 240 0 250 240 0 250 240 0 250 240 0 250 240 0 249 236 0 249 236 0 249 236 0 249 236 0 249 236 0 249 236 0 249 236 0 250 240 0 250 240 0 250 240 0 250 240 0 250 240 0 250 240 0 250 240 0 250 240 0 250 240 0 250 240 0 250 240 0 250 240 0 241 211 0 235 189 0 234 186 0 235 189 0 236 193 0 235 189 0 235 189 0 234 186 0 234 186 0 238 200 0 241 211 0 246 226 0 248 233 0 249 236 0 249 236 0 249 236 0 249 236 0 241 211 0 232 179 0 231 175 0 226 160 0 221 142 0 220 139 0 221 142 0 221 142 0 221 142 0 222 146 0 221 142 0 222 146 0 222 146 0 222 146 0 222 146 0 222 146 0 222 146 0 221 142 0 220 139 0 219 135 0 219 135 0 220 139 0 218 132 0 218 132 0 218 132 0 220 139 0 219 135 0 217 128 0 215 124 0 214 121 0 214 121 0 215 124 0 215 124 0 215 124 0 217 128 0 217 128 0 215 124 0 217 128 0 217 128 0 215 124 0 217 128 0 217 128 0 215 124 0 214 121 0 214 121 0 214 121 0 214 121 0 214 121 0 214 121 0 214 121 0 214 121 0 214 121 0 214 121 0 212 113 0 210 106 0 207 95 0 205 88 0 205 88 0 205 88 0 205 88 0 205 88 0 205 88 0 203 87 0 203 87 0 203 87 0 203 87 0 202 89 1 202 89 1 201 94 2 201 94 2 201 96 2 201 96 2 200 98 3 200 98 3 200 98 3 200 98 3 199 100 3 199 100 3 
190 136 12 190 136 12 190 136 12 190 136 12 190 136 12 190 136 12 190 136 12 198 105 4 201 96 2 201 96 2 201 96 2 201 96 2 201 96 2 201 96 2 201 96 2 201 94 2 201 94 2 201 94 2 201 94 2 201 96 2 201 96 2 201 96 2 201 96 2 201 94 2 201 94 2 201 94 2 201 94 2 201 94 2 201 94 2 201 94 2 201 94 2 201 96 2 201 94 2 201 94 2 201 94 2 202 89 1 202 89 1 202 89 1 202 89 1 202 89 1 202 89 1 202 89 1 202 89 1 205 88 0 212 113 0 222 146 0 228 168 0 231 175 0 232 179 0 230 171 0 230 171 0 230 171 0 233 182 0 232 179 0 231 175 0 231 175 0 231 175 0 231 175 0 230 171 0 230 171 0 231 175 0 230 171 0 230 171 0 230 171 0 230 171 0 230 171 0 230 171 0 228 168 0 223 150 0 220 139 0 217 128 0 212 113 0 211 110 0 210 106 0 209 103 0 205 88 0 205 88 0 205 88 0 205 88 0 205 88 0 203 87 0 203 87 0 203 87 0 203 87 0 203 87 0 203 87 0 203 87 0 203 87 0 202 89 1 203 87 0 203 87 0 203 87 0 203 87 0 220 139 0 230 171 0 247 229 0 250 240 0 250 240 0 245 222 0 240 207 0 249 236 0 250 240 0 250 240 0 250 240 0 250 240 0 250 240 0 249 236 0 249 236 0 249 236 0 249 236 0 249 236 0 249 236 0 249 236 0 250 240 0 250 240 0 250 240 0 250 240 0 250 240 0 250 240 0 250 240 0 250 240 0 250 240 0 250 240 0 250 240 0 250 240 0 241 211 0 235 189 0 234 186 0 235 189 0 236 193 0 235 189 0 235 189 0 234 186 0 234 186 0 238 200 0 241 211 0 246 226 0 248 233 0 249 236 0 249 236 0 249 236 0 249 236 0 241 211 0 232 179 0 231 175 0 226 160 0 221 142 0 220 139 0 221 142 0 221 142 0 221 142 0 222 146 0 221 142 0 222 146 0 222 146 0 222 146 0 222 146 0 222 146 0 222 146 0 221 142 0 220 139 0 219 135 0 219 135 0 220 139 0 218 132 0 218 132 0 218 132 0 220 139 0 219 135 0 217 128 0 215 124 0 214 121 0 214 121 0 215 124 0 215 124 0 215 124 0 217 128 0 217 128 0 215 124 0 217 128 0 217 128 0 215 124 0 217 128 0 217 128 0 215 124 0 214 121 0 214 121 0 214 121 0 214 121 0 214 121 0 214 121 0 214 121 0 214 121 0 214 121 0 214 121 0 212 113 0 210 106 0 207 95 0 205 88 0 205 88 0 205 88 0 205 88 0 205 88 0 205 88 0 203 87 0 203 87 0 203 87 0 203 87 0 202 89 1 202 89 1 201 94 2 201 94 2 201 96 2 201 96 2 200 98 3 200 98 3 200 98 3 200 98 3 199 100 3 199 100 3 
190 136 12 190 136 12 186 152 16 186 152 16 186 152 16 190 136 12 190 136 12 190 136 12 190 136 12 190 136 12 190 136 12 193 125 9 198 105 4 200 98 3 201 96 2 201 96 2 201 96 2 201 94 2 201 94 2 201 96 2 201 96 2 201 94 2 201 96 2 201 94 2 201 94 2 201 94 2 201 94 2 201 94 2 201 94 2 201 94 2 201 94 2 201 94 2 201 94 2 201 96 2 201 94 2 201 94 2 201 94 2 201 94 2 201 94 2 201 96 2 201 96 2 201 96 2 201 94 2 201 94 2 201 94 2 201 94 2 202 89 1 202 89 1 202 89 1 202 89 1 202 89 1 202 89 1 202 89 1 210 106 0 214 121 0 219 135 0 226 160 0 227 164 0 230 171 0 230 171 0 230 171 0 232 179 0 235 189 0 237 197 0 235 189 0 234 186 0 232 179 0 232 179 0 232 179 0 232 179 0 232 179 0 232 179 0 232 179 0 233 182 0 233 182 0 234 186 0 234 186 0 234 186 0 234 186 0 234 186 0 234 186 0 233 182 0 233 182 0 231 175 0 224 153 0 218 132 0 211 110 0 211 110 0 209 103 0 209 103 0 209 103 0 205 88 0 203 87 0 202 89 1 202 89 1 202 89 1 202 89 1 203 87 0 202 89 1 202 89 1 202 89 1 202 89 1 207 95 0 212 113 0 217 128 0 220 139 0 222 146 0 224 153 0 226 160 0 224 153 0 227 164 0 231 175 0 234 186 0 236 193 0 238 200 0 239 204 0 241 211 0 241 211 0 243 215 0 245 222 0 246 226 0 247 229 0 247 229 0 248 233 0 248 233 0 249 236 0 249 236 0 248 233 0 243 215 0 240 207 0 237 197 0 233 182 0 231 175 0 230 171 0 228 168 0 227 164 0 226 160 0 224 153 0 223 150 0 224 153 0 226 160 0 227 164 0 227 164 0 227 164 0 226 160 0 224 153 0 223 150 0 222 146 0 222 146 0 222 146 0 222 146 0 222 146 0 222 146 0 222 146 0 222 146 0 222 146 0 222 146 0 222 146 0 222 146 0 222 146 0 221 142 0 221 142 0 221 142 0 220 139 0 220 139 0 219 135 0 219 135 0 219 135 0 219 135 0 219 135 0 220 139 0 220 139 0 221 142 0 221 142 0 221 142 0 221 142 0 221 142 0 221 142 0 221 142 0 221 142 0 221 142 0 222 146 0 221 142 0 218 132 0 215 124 0 212 113 0 211 110 0 210 106 0 210 106 0 210 106 0 210 106 0 209 103 0 209 103 0 207 95 0 207 95 0 207 95 0 205 88 0 205 88 0 205 88 0 205 88 0 205 88 0 205 88 0 205 88 0 205 88 0 205 88 0 205 88 0 205 88 0 203 87 0 203 87 0 203 87 0 202 89 1 203 87 0 203 87 0 203 87 0 203 87 0 205 88 0 205 88 0 203 87 0 203 87 0 203 87 0 
190 136 12 190 136 12 186 152 16 186 152 16 186 152 16 190 136 12 190 136 12 190 136 12 190 136 12 190 136 12 190 136 12 193 125 9 198 105 4 200 98 3 201 96 2 201 96 2 201 96 2 201 94 2 201 94 2 201 96 2 201 96 2 201 94 2 201 96 2 201 94 2 201 94 2 201 94 2 201 94 2 201 94 2 201 94 2 201 94 2 201 94 2 201 94 2 201 94 2 201 96 2 201 94 2 201 94 2 201 94 2 201 94 2 201 94 2 201 96 2 201 96 2 201 96 2 201 94 2 201 94 2 201 94 2 201 94 2 202 89 1 202 89 1 202 89 1 202 89 1 202 89 1 202 89 1 202 89 1 210 106 0 214 121 0 219 135 0 226 160 0 227 164 0 230 171 0 230 171 0 230 171 0 232 179 0 235 189 0 237 197 0 235 189 0 234 186 0 232 179 0 232 179 0 232 179 0 232 179 0 232 179 0 232 179 0 232 179 0 233 182 0 233 182 0 234 186 0 234 186 0 234 186 0 234 186 0 234 186 0 234 186 0 233 182 0 233 182 0 231 175 0 224 153 0 218 132 0 211 110 0 211 110 0 209 103 0 209 103 0 209 103 0 205 88 0 203 87 0 202 89 1 202 89 1 202 89 1 202 89 1 203 87 0 202 89 1 202 89 1 202 89 1 202 89 1 207 95 0 212 113 0 217 128 0 220 139 0 222 146 0 224 153 0 226 160 0 224 153 0 227 164 0 231 175 0 234 186 0 236 193 0 238 200 0 239 204 0 241 211 0 241 211 0 243 215 0 245 222 0 246 226 0 247 229 0 247 229 0 248 233 0 248 233 0 249 236 0 249 236 0 248 233 0 243 215 0 240 207 0 237 197 0 233 182 0 231 175 0 230 171 0 228 168 0 227 164 0 226 160 0 224 153 0 223 150 0 224 153 0 226 160 0 227 164 0 227 164 0 227 164 0 226 160 0 224 153 0 223 150 0 222 146 0 222 146 0 222 146 0 222 146 0 222 146 0 222 146 0 222 146 0 222 146 0 222 146 0 222 146 0 222 146 0 222 146 0 222 146 0 221 142 0 221 142 0 221 142 0 220 139 0 220 139 0 219 135 0 219 135 0 219 135 0 219 135 0 219 135 0 220 139 0 220 139 0 221 142 0 221 142 0 221 142 0 221 142 0 221 142 0 221 142 0 221 142 0 221 142 0 221 142 0 222 146 0 221 142 0 218 132 0 215 124 0 212 113 0 211 110 0 210 106 0 210 106 0 210 106 0 210 106 0 209 103 0 209 103 0 207 95 0 207 95 0 207 95 0 205 88 0 205 88 0 205 88 0 205 88 0 205 88 0 205 88 0 205 88 0 205 88 0 205 88 0 205 88 0 205 88 0 203 87 0 203 87 0 203 87 0 202 89 1 203 87 0 203 87 0 203 87 0 203 87 0 205 88 0 205 88 0 203 87 0 203 87 0 203 87 0 
190 136 12 190 136 12 186 152 16 186 152 16 186 152 16 186 152 16 190 136 12 190 136 12 190 136 12 190 136 12 190 136 12 190 136 12 190 136 12 190 136 12 190 134 12 190 134 12 190 134 12 197 109 6 199 100 3 200 98 3 201 94 2 201 96 2 201 94 2 201 94 2 201 94 2 201 94 2 201 94 2 201 94 2 201 94 2 201 94 2 201 94 2 201 94 2 201 94 2 201 94 2 201 94 2 201 94 2 201 94 2 201 94 2 201 94 2 201 94 2 201 94 2 201 96 2 201 96 2 201 94 2 201 96 2 201 94 2 202 89 1 202 89 1 201 94 2 201 94 2 201 94 2 201 94 2 201 94 2 202 89 1 202 89 1 202 89 1 202 89 1 201 94 2 201 94 2 201 94 2 201 94 2 201 94 2 202 89 1 201 94 2 203 87 0 211 110 0 218 132 0 221 142 0 224 153 0 227 164 0 230 171 0 232 179 0 234 186 0 234 186 0 234 186 0 234 186 0 234 186 0 234 186 0 233 182 0 234 186 0 234 186 0 234 186 0 233 182 0 233 182 0 232 179 0 231 175 0 231 175 0 231 175 0 231 175 0 231 175 0 232 179 0 232 179 0 233 182 0 232 179 0 235 189 0 235 189 0 234 186 0 234 186 0 232 179 0 230 171 0 223 150 0 217 128 0 211 110 0 207 95 0 202 89 1 201 96 2 200 98 3 199 100 3 199 100 3 200 98 3 201 96 2 201 96 2 201 96 2 200 98 3 201 96 2 201 96 2 201 94 2 201 94 2 201 94 2 201 96 2 201 94 2 201 94 2 201 94 2 201 96 2 201 96 2 201 96 2 201 96 2 201 94 2 201 96 2 201 96 2 201 96 2 201 94 2 201 94 2 212 113 0 214 121 0 203 87 0 209 103 0 215 124 0 222 146 0 230 171 0 224 153 0 222 146 0 227 164 0 239 204 0 241 211 0 245 222 0 246 226 0 248 233 0 248 233 0 249 236 0 246 226 0 237 197 0 231 175 0 226 160 0 224 153 0 224 153 0 227 164 0 228 168 0 226 160 0 224 153 0 224 153 0 224 153 0 226 160 0 224 153 0 226 160 0 226 160 0 226 160 0 226 160 0 227 164 0 227 164 0 227 164 0 228 168 0 227 164 0 228 168 0 228 168 0 227 164 0 226 160 0 226 160 0 226 160 0 226 160 0 226 160 0 226 160 0 227 164 0 226 160 0 226 160 0 226 160 0 224 153 0 224 153 0 224 153 0 224 153 0 224 153 0 224 153 0 223 150 0 222 146 0 222 146 0 222 146 0 222 146 0 222 146 0 221 142 0 219 135 0 218 132 0 217 128 0 215 124 0 215 124 0 214 121 0 214 121 0 212 113 0 212 113 0 211 110 0 211 110 0 211 110 0 212 113 0 212 113 0 211 110 0 211 110 0 210 106 0 209 103 0 209 103 0 209 103 0 207 95 0 
190 136 12 190 136 12 186 152 16 186 152 16 186 152 16 186 152 16 190 136 12 190 136 12 190 136 12 190 136 12 190 136 12 190 136 12 190 136 12 190 136 12 190 134 12 190 134 12 190 134 12 197 109 6 199 100 3 200 98 3 201 94 2 201 96 2 201 94 2 201 94 2 201 94 2 201 94 2 201 94 2 201 94 2 201 94 2 201 94 2 201 94 2 201 94 2 201 94 2 201 94 2 201 94 2 201 94 2 201 94 2 201 94 2 201 94 2 201 94 2 201 94 2 201 96 2 201 96 2 201 94 2 201 96 2 201 94 2 202 89 1 202 89 1 201 94 2 201 94 2 201 94 2 201 94 2 201 94 2 202 89 1 202 89 1 202 89 1 202 89 1 201 94 2 201 94 2 201 94 2 201 94 2 201 94 2 202 89 1 201 94 2 203 87 0 211 110 0 218 132 0 221 142 0 224 153 0 227 164 0 230 171 0 232 179 0 234 186 0 234 186 0 234 186 0 234 186 0 234 186 0 234 186 0 233 182 0 234 186 0 234 186 0 234 186 0 233 182 0 233 182 0 232 179 0 231 175 0 231 175 0 231 175 0 231 175 0 231 175 0 232 179 0 232 179 0 233 182 0 232 179 0 235 189 0 235 189 0 234 186 0 234 186 0 232 179 0 230 171 0 223 150 0 217 128 0 211 110 0 207 95 0 202 89 1 201 96 2 200 98 3 199 100 3 199 100 3 200 98 3 201 96 2 201 96 2 201 96 2 200 98 3 201 96 2 201 96 2 201 94 2 201 94 2 201 94 2 201 96 2 201 94 2 201 94 2 201 94 2 201 96 2 201 96 2 201 96 2 201 96 2 201 94 2 201 96 2 201 96 2 201 96 2 201 94 2 201 94 2 212 113 0 214 121 0 203 87 0 209 103 0 215 124 0 222 146 0 230 171 0 224 153 0 222 146 0 227 164 0 239 204 0 241 211 0 245 222 0 246 226 0 248 233 0 248 233 0 249 236 0 246 226 0 237 197 0 231 175 0 226 160 0 224 153 0 224 153 0 227 164 0 228 168 0 226 160 0 224 153 0 224 153 0 224 153 0 226 160 0 224 153 0 226 160 0 226 160 0 226 160 0 226 160 0 227 164 0 227 164 0 227 164 0 228 168 0 227 164 0 228 168 0 228 168 0 227 164 0 226 160 0 226 160 0 226 160 0 226 160 0 226 160 0 226 160 0 227 164 0 226 160 0 226 160 0 226 160 0 224 153 0 224 153 0 224 153 0 224 153 0 224 153 0 224 153 0 223 150 0 222 146 0 222 146 0 222 146 0 222 146 0 222 146 0 221 142 0 219 135 0 218 132 0 217 128 0 215 124 0 215 124 0 214 121 0 214 121 0 212 113 0 212 113 0 211 110 0 211 110 0 211 110 0 212 113 0 212 113 0 211 110 0 211 110 0 210 106 0 209 103 0 209 103 0 209 103 0 207 95 0 
190 136 12 190 136 12 190 136 12 190 136 12 190 136 12 190 136 12 190 136 12 190 136 12 190 136 12 190 136 12 190 136 12 190 136 12 190 136 12 190 136 12 190 136 12 190 136 12 190 136 12 190 136 12 190 136 12 190 134 12 193 125 9 197 109 6 199 100 3 201 94 2 201 94 2 201 96 2 201 96 2 201 94 2 201 94 2 201 94 2 201 94 2 201 94 2 201 94 2 201 94 2 201 94 2 201 94 2 201 94 2 201 94 2 201 94 2 201 94 2 201 94 2 201 94 2 201 94 2 201 94 2 201 94 2 202 89 1 202 89 1 201 94 2 201 94 2 201 94 2 201 94 2 201 94 2 201 94 2 201 94 2 201 94 2 201 96 2 201 94 2 201 96 2 202 89 1 207 95 0 210 106 0 212 113 0 215 124 0 217 128 0 218 132 0 219 135 0 221 142 0 222 146 0 222 146 0 224 153 0 226 160 0 227 164 0 232 179 0 234 186 0 235 189 0 235 189 0 235 189 0 234 186 0 233 182 0 233 182 0 233 182 0 233 182 0 233 182 0 234 186 0 234 186 0 234 186 0 234 186 0 233 182 0 233 182 0 233 182 0 233 182 0 232 179 0 231 175 0 231 175 0 231 175 0 231 175 0 230 171 0 230 171 0 228 168 0 230 171 0 231 175 0 231 175 0 231 175 0 230 171 0 230 171 0 230 171 0 230 171 0 231 175 0 232 179 0 233 182 0 233 182 0 232 179 0 228 168 0 224 153 0 221 142 0 220 139 0 218 132 0 215 124 0 217 128 0 218 132 0 217 128 0 217 128 0 214 121 0 212 113 0 210 106 0 205 88 0 201 96 2 200 98 3 200 98 3 200 98 3 201 96 2 201 96 2 200 98 3 200 98 3 200 98 3 200 98 3 200 98 3 200 98 3 200 98 3 199 100 3 200 98 3 200 98 3 200 98 3 200 98 3 200 98 3 201 96 2 201 96 2 200 98 3 201 96 2 201 96 2 201 96 2 200 98 3 200 98 3 200 98 3 200 98 3 200 98 3 200 98 3 200 98 3 200 98 3 200 98 3 200 98 3 200 98 3 200 98 3 200 98 3 200 98 3 200 98 3 200 98 3 200 98 3 200 98 3 200 98 3 200 98 3 201 96 2 201 94 2 202 89 1 202 89 1 202 89 1 203 87 0 202 89 1 203 87 0 202 89 1 202 89 1 201 94 2 201 96 2 200 98 3 199 100 3 199 100 3 199 100 3 200 98 3 200 98 3 200 98 3 201 96 2 201 96 2 201 96 2 201 96 2 201 96 2 201 94 2 205 88 0 207 95 0 207 95 0 209 103 0 210 106 0 211 110 0 212 113 0 212 113 0 212 113 0 212 113 0 212 113 0 210 106 0 207 95 0 205 88 0 205 88 0 205 88 0 205 88 0 205 88 0 207 95 0 209 103 0 209 103 0 209 103 0 210 106 0 210 106 0 
190 136 12 190 136 12 190 136 12 190 136 12 190 136 12 190 136 12 190 136 12 190 136 12 190 136 12 190 136 12 190 136 12 190 136 12 190 136 12 190 136 12 190 136 12 190 136 12 190 136 12 190 136 12 190 136 12 190 134 12 193 125 9 197 109 6 199 100 3 201 94 2 201 94 2 201 96 2 201 96 2 201 94 2 201 94 2 201 94 2 201 94 2 201 94 2 201 94 2 201 94 2 201 94 2 201 94 2 201 94 2 201 94 2 201 94 2 201 94 2 201 94 2 201 94 2 201 94 2 201 94 2 201 94 2 202 89 1 202 89 1 201 94 2 201 94 2 201 94 2 201 94 2 201 94 2 201 94 2 201 94 2 201 94 2 201 96 2 201 94 2 201 96 2 202 89 1 207 95 0 210 106 0 212 113 0 215 124 0 217 128 0 218 132 0 219 135 0 221 142 0 222 146 0 222 146 0 224 153 0 226 160 0 227 164 0 232 179 0 234 186 0 235 189 0 235 189 0 235 189 0 234 186 0 233 182 0 233 182 0 233 182 0 233 182 0 233 182 0 234 186 0 234 186 0 234 186 0 234 186 0 233 182 0 233 182 0 233 182 0 233 182 0 232 179 0 231 175 0 231 175 0 231 175 0 231 175 0 230 171 0 230 171 0 228 168 0 230 171 0 231 175 0 231 175 0 231 175 0 230 171 0 230 171 0 230 171 0 230 171 0 231 175 0 232 179 0 233 182 0 233 182 0 232 179 0 228 168 0 224 153 0 221 142 0 220 139 0 218 132 0 215 124 0 217 128 0 218 132 0 217 128 0 217 128 0 214 121 0 212 113 0 210 106 0 205 88 0 201 96 2 200 98 3 200 98 3 200 98 3 201 96 2 201 96 2 200 98 3 200 98 3 200 98 3 200 98 3 200 98 3 200 98 3 200 98 3 199 100 3 200 98 3 200 98 3 200 98 3 200 98 3 200 98 3 201 96 2 201 96 2 200 98 3 201 96 2 201 96 2 201 96 2 200 98 3 200 98 3 200 98 3 200 98 3 200 98 3 200 98 3 200 98 3 200 98 3 200 98 3 200 98 3 200 98 3 200 98 3 200 98 3 200 98 3 200 98 3 200 98 3 200 98 3 200 98 3 200 98 3 200 98 3 201 96 2 201 94 2 202 89 1 202 89 1 202 89 1 203 87 0 202 89 1 203 87 0 202 89 1 202 89 1 201 94 2 201 96 2 200 98 3 199 100 3 199 100 3 199 100 3 200 98 3 200 98 3 200 98 3 201 96 2 201 96 2 201 96 2 201 96 2 201 96 2 201 94 2 205 88 0 207 95 0 207 95 0 209 103 0 210 106 0 211 110 0 212 113 0 212 113 0 212 113 0 212 113 0 212 113 0 210 106 0 207 95 0 205 88 0 205 88 0 205 88 0 205 88 0 205 88 0 207 95 0 209 103 0 209 103 0 209 103 0 210 106 0 210 106 0 
190 136 12 190 136 12 190 136 12 190 136 12 190 136 12 190 136 12 190 136 12 190 136 12 190 136 12 190 136 12 190 136 12 190 136 12 190 136 12 190 136 12 190 136 12 190 136 12 190 136 12 190 136 12 190 136 12 190 136 12 190 136 12 190 134 12 190 134 12 193 125 9 199 103 4 201 96 2 199 100 3 196 114 7 198 107 5 201 96 2 201 94 2 201 96 2 201 94 2 201 94 2 201 94 2 202 89 1 201 94 2 201 94 2 201 94 2 201 94 2 201 94 2 201 96 2 201 94 2 201 94 2 201 94 2 201 94 2 202 89 1 202 89 1 202 89 1 202 89 1 201 94 2 201 94 2 201 94 2 202 89 1 224 153 0 230 171 0 231 175 0 231 175 0 231 175 0 232 179 0 232 179 0 232 179 0 233 182 0 232 179 0 231 175 0 232 179 0 232 179 0 232 179 0 232 179 0 232 179 0 233 182 0 234 186 0 237 197 0 238 200 0 239 204 0 241 211 0 245 222 0 247 229 0 248 233 0 249 236 0 249 236 0 249 236 0 249 236 0 249 236 0 249 236 0 248 233 0 247 229 0 241 211 0 235 189 0 232 179 0 232 179 0 232 179 0 233 182 0 234 186 0 234 186 0 233 182 0 233 182 0 233 182 0 233 182 0 233 182 0 232 179 0 231 175 0 232 179 0 232 179 0 232 179 0 230 171 0 230 171 0 230 171 0 231 175 0 230 171 0 230 171 0 227 164 0 227 164 0 226 160 0 227 164 0 227 164 0 228 168 0 228 168 0 228 168 0 228 168 0 228 168 0 228 168 0 228 168 0 227 164 0 224 153 0 222 146 0 220 139 0 219 135 0 217 128 0 212 113 0 205 88 0 202 89 1 201 96 2 201 96 2 201 96 2 201 96 2 201 96 2 201 96 2 201 96 2 200 98 3 200 98 3 200 98 3 199 100 3 199 100 3 199 100 3 199 100 3 199 103 4 199 103 4 199 103 4 199 100 3 199 103 4 199 103 4 198 105 4 199 103 4 199 103 4 199 103 4 199 103 4 199 103 4 199 103 4 199 103 4 199 103 4 199 103 4 199 100 3 199 100 3 199 103 4 199 103 4 199 103 4 199 103 4 199 103 4 199 103 4 198 105 4 199 103 4 199 103 4 199 103 4 199 103 4 199 103 4 199 103 4 199 103 4 199 103 4 199 103 4 198 105 4 199 103 4 199 103 4 199 103 4 199 103 4 199 103 4 199 103 4 199 103 4 199 103 4 199 103 4 199 100 3 199 103 4 199 103 4 199 103 4 199 103 4 199 103 4 199 103 4 199 103 4 199 103 4 199 103 4 199 103 4 199 103 4 199 103 4 199 103 4 199 103 4 199 103 4 199 103 4 199 103 4 199 103 4 199 100 3 199 100 3 199 100 3 199 103 4 199 100 3 199 100 3 199 100 3 199 100 3 199 100 3 199 100 3 199 100 3 
190 136 12 190 136 12 190 136 12 190 136 12 190 136 12 190 136 12 190 136 12 190 136 12 190 136 12 190 136 12 190 136 12 190 136 12 190 136 12 190 136 12 190 136 12 190 136 12 190 136 12 190 136 12 190 136 12 190 136 12 190 136 12 190 134 12 190 134 12 193 125 9 199 103 4 201 96 2 199 100 3 196 114 7 198 107 5 201 96 2 201 94 2 201 96 2 201 94 2 201 94 2 201 94 2 202 89 1 201 94 2 201 94 2 201 94 2 201 94 2 201 94 2 201 96 2 201 94 2 201 94 2 201 94 2 201 94 2 202 89 1 202 89 1 202 89 1 202 89 1 201 94 2 201 94 2 201 94 2 202 89 1 224 153 0 230 171 0 231 175 0 231 175 0 231 175 0 232 179 0 232 179 0 232 179 0 233 182 0 232 179 0 231 175 0 232 179 0 232 179 0 232 179 0 232 179 0 232 179 0 233 182 0 234 186 0 237 197 0 238 200 0 239 204 0 241 211 0 245 222 0 247 229 0 248 233 0 249 236 0 249 236 0 249 236 0 249 236 0 249 236 0 249 236 0 248 233 0 247 229 0 241 211 0 235 189 0 232 179 0 232 179 0 232 179 0 233 182 0 234 186 0 234 186 0 233 182 0 233 182 0 233 182 0 233 182 0 233 182 0 232 179 0 231 175 0 232 179 0 232 179 0 232 179 0 230 171 0 230 171 0 230 171 0 231 175 0 230 171 0 230 171 0 227 164 0 227 164 0 226 160 0 227 164 0 227 164 0 228 168 0 228 168 0 228 168 0 228 168 0 228 168 0 228 168 0 228 168 0 227 164 0 224 153 0 222 146 0 220 139 0 219 135 0 217 128 0 212 113 0 205 88 0 202 89 1 201 96 2 201 96 2 201 96 2 201 96 2 201 96 2 201 96 2 201 96 2 200 98 3 200 98 3 200 98 3 199 100 3 199 100 3 199 100 3 199 100 3 199 103 4 199 103 4 199 103 4 199 100 3 199 103 4 199 103 4 198 105 4 199 103 4 199 103 4 199 103 4 199 103 4 199 103 4 199 103 4 199 103 4 199 103 4 199 103 4 199 100 3 199 100 3 199 103 4 199 103 4 199 103 4 199 103 4 199 103 4 199 103 4 198 105 4 199 103 4 199 103 4 199 103 4 199 103 4 199 103 4 199 103 4 199 103 4 199 103 4 199 103 4 198 105 4 199 103 4 199 103 4 199 103 4 199 103 4 199 103 4 199 103 4 199 103 4 199 103 4 199 103 4 199 100 3 199 103 4 199 103 4 199 103 4 199 103 4 199 103 4 199 103 4 199 103 4 199 103 4 199 103 4 199 103 4 199 103 4 199 103 4 199 103 4 199 103 4 199 103 4 199 103 4 199 103 4 199 103 4 199 100 3 199 100 3 199 100 3 199 103 4 199 100 3 199 100 3 199 100 3 199 100 3 199 100 3 199 100 3 199 100 3 
190 136 12 190 136 12 190 136 12 190 136 12 190 136 12 190 136 12 190 136 12 190 136 12 190 136 12 190 136 12 190 136 12 190 136 12 190 136 12 190 136 12 190 136 12 190 136 12 190 136 12 190 136 12 190 136 12 190 136 12 190 136 12 190 136 12 190 136 12 190 136 12 190 134 12 192 130 11 193 125 9 196 114 7 199 103 4 200 98 3 197 109 6 192 130 11 193 125 9 198 105 4 200 98 3 201 94 2 201 96 2 201 94 2 201 94 2 201 94 2 201 96 2 201 96 2 201 94 2 201 94 2 201 94 2 201 94 2 201 94 2 202 89 1 201 94 2 201 94 2 201 94 2 201 94 2 201 94 2 202 89 1 202 89 1 209 103 0 222 146 0 230 171 0 230 171 0 231 175 0 231 175 0 231 175 0 231 175 0 231 175 0 231 175 0 231 175 0 231 175 0 231 175 0 231 175 0 231 175 0 231 175 0 231 175 0 231 175 0 232 179 0 232 179 0 232 179 0 232 179 0 232 179 0 233 182 0 233 182 0 234 186 0 234 186 0 234 186 0 236 193 0 240 207 0 246 226 0 249 236 0 249 236 0 250 240 0 250 240 0 249 236 0 249 236 0 250 240 0 250 240 0 250 240 0 249 236 0 249 236 0 248 233 0 248 233 0 248 233 0 249 236 0 249 236 0 249 236 0 249 236 0 248 233 0 247 229 0 247 229 0 243 215 0 238 200 0 236 193 0 233 182 0 232 179 0 231 175 0 231 175 0 231 175 0 231 175 0 230 171 0 228 168 0 227 164 0 227 164 0 227 164 0 227 164 0 227 164 0 228 168 0 228 168 0 227 164 0 227 164 0 226 160 0 226 160 0 227 164 0 227 164 0 228 168 0 228 168 0 230 171 0 230 171 0 230 171 0 230 171 0 228 168 0 227 164 0 224 153 0 221 142 0 219 135 0 218 132 0 219 135 0 214 121 0 210 106 0 209 103 0 205 88 0 201 94 2 201 96 2 199 100 3 199 100 3 199 100 3 199 100 3 199 100 3 199 100 3 199 100 3 199 100 3 200 98 3 200 98 3 199 100 3 199 103 4 199 103 4 199 103 4 198 105 4 198 105 4 198 107 5 198 105 4 198 105 4 198 105 4 198 105 4 198 105 4 198 105 4 199 103 4 198 105 4 198 105 4 198 105 4 198 105 4 199 103 4 198 105 4 198 105 4 198 105 4 198 105 4 199 103 4 199 103 4 199 103 4 199 103 4 198 105 4 199 103 4 198 105 4 198 105 4 198 105 4 198 105 4 199 103 4 199 103 4 199 103 4 198 105 4 199 103 4 198 105 4 199 103 4 199 103 4 199 103 4 199 103 4 198 105 4 198 105 4 199 103 4 199 103 4 199 103 4 199 103 4 199 103 4 199 103 4 199 100 3 199 100 3 199 100 3 200 98 3 199 100 3 199 100 3 199 103 4 199 100 3 199 100 3 
190 136 12 190 136 12 190 136 12 190 136 12 190 136 12 190 136 12 190 136 12 190 136 12 190 136 12 190 136 12 190 136 12 190 136 12 190 136 12 190 136 12 190 136 12 190 136 12 190 136 12 190 136 12 190 136 12 190 136 12 190 136 12 190 136 12 190 136 12 190 136 12 190 134 12 192 130 11 193 125 9 196 114 7 199 103 4 200 98 3 197 109 6 192 130 11 193 125 9 198 105 4 200 98 3 201 94 2 201 96 2 201 94 2 201 94 2 201 94 2 201 96 2 201 96 2 201 94 2 201 94 2 201 94 2 201 94 2 201 94 2 202 89 1 201 94 2 201 94 2 201 94 2 201 94 2 201 94 2 202 89 1 202 89 1 209 103 0 222 146 0 230 171 0 230 171 0 231 175 0 231 175 0 231 175 0 231 175 0 231 175 0 231 175 0 231 175 0 231 175 0 231 175 0 231 175 0 231 175 0 231 175 0 231 175 0 231 175 0 232 179 0 232 179 0 232 179 0 232 179 0 232 179 0 233 182 0 233 182 0 234 186 0 234 186 0 234 186 0 236 193 0 240 207 0 246 226 0 249 236 0 249 236 0 250 240 0 250 240 0 249 236 0 249 236 0 250 240 0 250 240 0 250 240 0 249 236 0 249 236 0 248 233 0 248 233 0 248 233 0 249 236 0 249 236 0 249 236 0 249 236 0 248 233 0 247 229 0 247 229 0 243 215 0 238 200 0 236 193 0 233 182 0 232 179 0 231 175 0 231 175 0 231 175 0 231 175 0 230 171 0 228 168 0 227 164 0 227 164 0 227 164 0 227 164 0 227 164 0 228 168 0 228 168 0 227 164 0 227 164 0 226 160 0 226 160 0 227 164 0 227 164 0 228 168 0 228 168 0 230 171 0 230 171 0 230 171 0 230 171 0 228 168 0 227 164 0 224 153 0 221 142 0 219 135 0 218 132 0 219 135 0 214 121 0 210 106 0 209 103 0 205 88 0 201 94 2 201 96 2 199 100 3 199 100 3 199 100 3 199 100 3 199 100 3 199 100 3 199 100 3 199 100 3 200 98 3 200 98 3 199 100 3 199 103 4 199 103 4 199 103 4 198 105 4 198 105 4 198 107 5 198 105 4 198 105 4 198 105 4 198 105 4 198 105 4 198 105 4 199 103 4 198 105 4 198 105 4 198 105 4 198 105 4 199 103 4 198 105 4 198 105 4 198 105 4 198 105 4 199 103 4 199 103 4 199 103 4 199 103 4 198 105 4 199 103 4 198 105 4 198 105 4 198 105 4 198 105 4 199 103 4 199 103 4 199 103 4 198 105 4 199 103 4 198 105 4 199 103 4 199 103 4 199 103 4 199 103 4 198 105 4 198 105 4 199 103 4 199 103 4 199 103 4 199 103 4 199 103 4 199 103 4 199 100 3 199 100 3 199 100 3 200 98 3 199 100 3 199 100 3 199 103 4 199 100 3 199 100 3 
190 136 12 190 136 12 190 136 12 190 136 12 190 136 12 190 136 12 190 136 12 190 136 12 190 136 12 190 136 12 190 136 12 190 136 12 190 136 12 190 136 12 190 136 12 190 136 12 190 136 12 190 136 12 190 136 12 190 136 12 190 136 12 190 136 12 190 136 12 190 136 12 190 136 12 190 134 12 190 134 12 190 134 12 190 134 12 190 134 12 190 134 12 190 136 12 190 136 12 190 134 12 192 130 11 195 116 7 198 107 5 200 98 3 201 96 2 201 96 2 201 96 2 201 96 2 200 98 3 200 98 3 201 96 2 201 94 2 201 94 2 201 94 2 201 94 2 201 94 2 201 94 2 201 94 2 201 94 2 201 94 2 201 94 2 201 94 2 201 94 2 201 94 2 201 94 2 201 94 2 202 89 1 209 103 0 221 142 0 230 171 0 230 171 0 231 175 0 231 175 0 231 175 0 230 171 0 230 171 0 230 171 0 231 175 0 230 171 0 231 175 0 231 175 0 231 175 0 232 179 0 232 179 0 232 179 0 232 179 0 232 179 0 232 179 0 232 179 0 232 179 0 233 182 0 233 182 0 233 182 0 233 182 0 233 182 0 233 182 0 233 182 0 233 182 0 234 186 0 234 186 0 234 186 0 234 186 0 237 197 0 241 211 0 247 229 0 249 236 0 250 240 0 250 240 0 250 240 0 250 240 0 250 240 0 250 240 0 250 240 0 250 240 0 250 240 0 250 240 0 250 240 0 250 240 0 250 240 0 250 240 0 250 240 0 250 240 0 250 240 0 249 236 0 249 236 0 249 236 0 249 236 0 246 226 0 241 211 0 238 200 0 234 186 0 231 175 0 232 179 0 232 179 0 231 175 0 230 171 0 228 168 0 226 160 0 224 153 0 223 150 0 221 142 0 220 139 0 220 139 0 222 146 0 223 150 0 224 153 0 226 160 0 226 160 0 227 164 0 228 168 0 228 168 0 230 171 0 230 171 0 230 171 0 230 171 0 230 171 0 228 168 0 224 153 0 220 139 0 218 132 0 217 128 0 215 124 0 215 124 0 212 113 0 209 103 0 205 88 0 201 96 2 200 98 3 200 98 3 200 98 3 200 98 3 199 100 3 199 100 3 200 98 3 201 94 2 202 89 1 201 96 2 201 96 2 201 96 2 201 94 2 201 96 2 201 94 2 201 94 2 201 94 2 201 96 2 199 100 3 199 100 3 199 103 4 198 105 4 199 103 4 198 105 4 199 103 4 199 103 4 198 105 4 198 105 4 198 105 4 199 103 4 198 105 4 199 103 4 199 103 4 199 103 4 199 103 4 198 105 4 199 103 4 198 105 4 199 103 4 198 105 4 198 105 4 199 103 4 198 105 4 198 105 4 199 103 4 199 103 4 199 103 4 199 103 4 199 103 4 199 100 3 200 98 3 199 100 3 199 100 3 200 98 3 200 98 3 199 100 3 199 100 3 199 100 3 199 100 3 
190 136 12 190 136 12 190 136 12 190 136 12 190 136 12 190 136 12 190 136 12 190 136 12 190 136 12 190 136 12 190 136 12 190 136 12 190 136 12 190 136 12 190 136 12 190 136 12 190 136 12 190 136 12 190 136 12 190 136 12 190 136 12 190 136 12 190 136 12 190 136 12 190 136 12 190 134 12 190 134 12 190 134 12 190 134 12 190 134 12 190 134 12 190 136 12 190 136 12 190 134 12 192 130 11 195 116 7 198 107 5 200 98 3 201 96 2 201 96 2 201 96 2 201 96 2 200 98 3 200 98 3 201 96 2 201 94 2 201 94 2 201 94 2 201 94 2 201 94 2 201 94 2 201 94 2 201 94 2 201 94 2 201 94 2 201 94 2 201 94 2 201 94 2 201 94 2 201 94 2 202 89 1 209 103 0 221 142 0 230 171 0 230 171 0 231 175 0 231 175 0 231 175 0 230 171 0 230 171 0 230 171 0 231 175 0 230 171 0 231 175 0 231 175 0 231 175 0 232 179 0 232 179 0 232 179 0 232 179 0 232 179 0 232 179 0 232 179 0 232 179 0 233 182 0 233 182 0 233 182 0 233 182 0 233 182 0 233 182 0 233 182 0 233 182 0 234 186 0 234 186 0 234 186 0 234 186 0 237 197 0 241 211 0 247 229 0 249 236 0 250 240 0 250 240 0 250 240 0 250 240 0 250 240 0 250 240 0 250 240 0 250 240 0 250 240 0 250 240 0 250 240 0 250 240 0 250 240 0 250 240 0 250 240 0 250 240 0 250 240 0 249 236 0 249 236 0 249 236 0 249 236 0 246 226 0 241 211 0 238 200 0 234 186 0 231 175 0 232 179 0 232 179 0 231 175 0 230 171 0 228 168 0 226 160 0 224 153 0 223 150 0 221 142 0 220 139 0 220 139 0 222 146 0 223 150 0 224 153 0 226 160 0 226 160 0 227 164 0 228 168 0 228 168 0 230 171 0 230 171 0 230 171 0 230 171 0 230 171 0 228 168 0 224 153 0 220 139 0 218 132 0 217 128 0 215 124 0 215 124 0 212 113 0 209 103 0 205 88 0 201 96 2 200 98 3 200 98 3 200 98 3 200 98 3 199 100 3 199 100 3 200 98 3 201 94 2 202 89 1 201 96 2 201 96 2 201 96 2 201 94 2 201 96 2 201 94 2 201 94 2 201 94 2 201 96 2 199 100 3 199 100 3 199 103 4 198 105 4 199 103 4 198 105 4 199 103 4 199 103 4 198 105 4 198 105 4 198 105 4 199 103 4 198 105 4 199 103 4 199 103 4 199 103 4 199 103 4 198 105 4 199 103 4 198 105 4 199 103 4 198 105 4 198 105 4 199 103 4 198 105 4 198 105 4 199 103 4 199 103 4 199 103 4 199 103 4 199 103 4 199 100 3 200 98 3 199 100 3 199 100 3 200 98 3 200 98 3 199 100 3 199 100 3 199 100 3 199 100 3 
190 136 12 190 136 12 190 136 12 190 136 12 190 136 12 190 136 12 190 136 12 190 136 12 190 136 12 190 136 12 190 136 12 190 136 12 190 136 12 190 136 12 190 136 12 190 136 12 190 136 12 190 136 12 190 136 12 190 136 12 190 136 12 190 136 12 190 136 12 190 136 12 190 136 12 190 136 12 190 136 12 190 136 12 190 134 12 190 134 12 190 136 12 190 136 12 190 136 12 190 136 12 190 134 12 190 134 12 190 134 12 192 130 11 192 130 11 192 130 11 192 130 11 193 125 9 199 103 4 200 98 3 201 96 2 201 96 2 201 96 2 201 94 2 201 96 2 201 94 2 201 94 2 201 94 2 201 96 2 201 94 2 201 94 2 201 94 2 201 94 2 201 96 2 201 94 2 201 96 2 201 94 2 201 94 2 201 94 2 201 94 2 201 94 2 201 94 2 201 94 2 201 94 2 201 94 2 205 88 0 215 124 0 221 142 0 226 160 0 227 164 0 230 171 0 230 171 0 230 171 0 230 171 0 230 171 0 231 175 0 232 179 0 232 179 0 232 179 0 232 179 0 232 179 0 232 179 0 232 179 0 232 179 0 233 182 0 233 182 0 233 182 0 233 182 0 233 182 0 233 182 0 232 179 0 232 179 0 233 182 0 233 182 0 233 182 0 233 182 0 234 186 0 241 211 0 247 229 0 249 236 0 249 236 0 250 240 0 250 240 0 250 240 0 250 240 0 250 240 0 250 240 0 250 240 0 250 240 0 250 240 0 250 240 0 250 240 0 250 240 0 250 240 0 250 240 0 249 236 0 249 236 0 250 240 0 250 240 0 250 240 0 249 236 0 249 236 0 250 240 0 250 240 0 249 236 0 246 226 0 243 215 0 239 204 0 237 197 0 237 197 0 235 189 0 234 186 0 233 182 0 233 182 0 233 182 0 233 182 0 233 182 0 232 179 0 232 179 0 232 179 0 230 171 0 227 164 0 223 150 0 220 139 0 219 135 0 218 132 0 218 132 0 218 132 0 218 132 0 218 132 0 218 132 0 217 128 0 218 132 0 218 132 0 220 139 0 221 142 0 223 150 0 224 153 0 226 160 0 228 168 0 226 160 0 226 160 0 224 153 0 223 150 0 224 153 0 223 150 0 224 153 0 224 153 0 224 153 0 226 160 0 224 153 0 223 150 0 220 139 0 219 135 0 217 128 0 215 124 0 209 103 0 201 94 2 201 96 2 200 98 3 200 98 3 200 98 3 199 100 3 199 100 3 200 98 3 199 100 3 199 100 3 200 98 3 200 98 3 200 98 3 199 100 3 199 103 4 198 105 4 198 105 4 198 105 4 198 105 4 198 105 4 198 105 4 198 105 4 199 103 4 199 103 4 199 103 4 199 103 4 199 103 4 199 100 3 199 100 3 199 100 3 200 98 3 199 100 3 199 100 3 199 100 3 199 103 4 198 105 4 198 105 4 198 105 4 198 105 4 
190 136 12 190 136 12 190 136 12 190 136 12 190 136 12 190 136 12 190 136 12 190 136 12 190 136 12 190 136 12 190 136 12 190 136 12 190 136 12 190 136 12 190 136 12 190 136 12 190 136 12 190 136 12 190 136 12 190 136 12 190 136 12 190 136 12 190 136 12 190 136 12 190 136 12 190 136 12 190 136 12 190 136 12 190 134 12 190 134 12 190 136 12 190 136 12 190 136 12 190 136 12 190 134 12 190 134 12 190 134 12 192 130 11 192 130 11 192 130 11 192 130 11 193 125 9 199 103 4 200 98 3 201 96 2 201 96 2 201 96 2 201 94 2 201 96 2 201 94 2 201 94 2 201 94 2 201 96 2 201 94 2 201 94 2 201 94 2 201 94 2 201 96 2 201 94 2 201 96 2 201 94 2 201 94 2 201 94 2 201 94 2 201 94 2 201 94 2 201 94 2 201 94 2 201 94 2 205 88 0 215 124 0 221 142 0 226 160 0 227 164 0 230 171 0 230 171 0 230 171 0 230 171 0 230 171 0 231 175 0 232 179 0 232 179 0 232 179 0 232 179 0 232 179 0 232 179 0 232 179 0 232 179 0 233 182 0 233 182 0 233 182 0 233 182 0 233 182 0 233 182 0 232 179 0 232 179 0 233 182 0 233 182 0 233 182 0 233 182 0 234 186 0 241 211 0 247 229 0 249 236 0 249 236 0 250 240 0 250 240 0 250 240 0 250 240 0 250 240 0 250 240 0 250 240 0 250 240 0 250 240 0 250 240 0 250 240 0 250 240 0 250 240 0 250 240 0 249 236 0 249 236 0 250 240 0 250 240 0 250 240 0 249 236 0 249 236 0 250 240 0 250 240 0 249 236 0 246 226 0 243 215 0 239 204 0 237 197 0 237 197 0 235 189 0 234 186 0 233 182 0 233 182 0 233 182 0 233 182 0 233 182 0 232 179 0 232 179 0 232 179 0 230 171 0 227 164 0 223 150 0 220 139 0 219 135 0 218 132 0 218 132 0 218 132 0 218 132 0 218 132 0 218 132 0 217 128 0 218 132 0 218 132 0 220 139 0 221 142 0 223 150 0 224 153 0 226 160 0 228 168 0 226 160 0 226 160 0 224 153 0 223 150 0 224 153 0 223 150 0 224 153 0 224 153 0 224 153 0 226 160 0 224 153 0 223 150 0 220 139 0 219 135 0 217 128 0 215 124 0 209 103 0 201 94 2 201 96 2 200 98 3 200 98 3 200 98 3 199 100 3 199 100 3 200 98 3 199 100 3 199 100 3 200 98 3 200 98 3 200 98 3 199 100 3 199 103 4 198 105 4 198 105 4 198 105 4 198 105 4 198 105 4 198 105 4 198 105 4 199 103 4 199 103 4 199 103 4 199 103 4 199 103 4 199 100 3 199 100 3 199 100 3 200 98 3 199 100 3 199 100 3 199 100 3 199 103 4 198 105 4 198 105 4 198 105 4 198 105 4 
190 136 12 190 136 12 190 136 12 190 136 12 190 136 12 190 136 12 190 136 12 190 136 12 190 136 12 190 136 12 190 136 12 190 136 12 190 136 12 190 136 12 190 136 12 190 136 12 190 134 12 190 134 12 190 136 12 190 136 12 190 136 12 190 136 12 190 136 12 190 136 12 190 136 12 190 136 12 190 136 12 190 136 12 190 136 12 190 136 12 190 136 12 190 136 12 190 136 12 190 136 12 190 136 12 190 136 12 190 134 12 190 134 12 192 130 11 193 125 9 195 116 7 197 109 6 197 109 6 196 114 7 198 107 5 199 103 4 201 96 2 200 98 3 201 96 2 201 96 2 201 96 2 201 96 2 201 96 2 201 96 2 201 96 2 201 94 2 201 96 2 200 98 3 200 98 3 199 100 3 199 100 3 199 100 3 199 100 3 199 100 3 199 100 3 200 98 3 200 98 3 200 98 3 200 98 3 200 98 3 201 96 2 201 96 2 201 96 2 201 96 2 201 94 2 201 94 2 201 94 2 201 94 2 202 89 1 209 103 0 214 121 0 219 135 0 223 150 0 226 160 0 228 168 0 231 175 0 231 175 0 231 175 0 232 179 0 232 179 0 232 179 0 232 179 0 232 179 0 232 179 0 232 179 0 234 186 0 234 186 0 233 182 0 233 182 0 232 179 0 232 179 0 232 179 0 232 179 0 234 186 0 234 186 0 234 186 0 233 182 0 231 175 0 231 175 0 232 179 0 233 182 0 236 193 0 239 204 0 243 215 0 246 226 0 248 233 0 249 236 0 250 240 0 250 240 0 250 240 0 250 240 0 250 240 0 250 240 0 250 240 0 249 236 0 247 229 0 247 229 0 247 229 0 248 233 0 249 236 0 250 240 0 249 236 0 246 226 0 246 226 0 247 229 0 247 229 0 247 229 0 247 229 0 246 226 0 246 226 0 246 226 0 246 226 0 240 207 0 234 186 0 239 204 0 241 211 0 240 207 0 237 197 0 233 182 0 231 175 0 228 168 0 227 164 0 227 164 0 227 164 0 226 160 0 226 160 0 227 164 0 224 153 0 223 150 0 221 142 0 221 142 0 221 142 0 221 142 0 220 139 0 219 135 0 219 135 0 219 135 0 219 135 0 218 132 0 217 128 0 218 132 0 212 113 0 211 110 0 212 113 0 211 110 0 210 106 0 210 106 0 211 110 0 211 110 0 211 110 0 212 113 0 212 113 0 212 113 0 214 121 0 214 121 0 215 124 0 215 124 0 215 124 0 215 124 0 214 121 0 214 121 0 214 121 0 214 121 0 214 121 0 211 110 0 212 113 0 211 110 0 210 106 0 210 106 0 209 103 0 207 95 0 203 87 0 203 87 0 203 87 0 202 89 1 202 89 1 203 87 0 202 89 1 202 89 1 200 98 3 199 103 4 199 100 3 199 100 3 199 100 3 199 100 3 200 98 3 200 98 3 199 100 3 199 103 4 199 103 4 
190 136 12 190 136 12 190 136 12 190 136 12 190 136 12 190 136 12 190 136 12 190 136 12 190 136 12 190 136 12 190 136 12 190 136 12 190 136 12 190 136 12 190 136 12 190 136 12 190 134 12 190 134 12 190 136 12 190 136 12 190 136 12 190 136 12 190 136 12 190 136 12 190 136 12 190 136 12 190 136 12 190 136 12 190 136 12 190 136 12 190 136 12 190 136 12 190 136 12 190 136 12 190 136 12 190 136 12 190 134 12 190 134 12 192 130 11 193 125 9 195 116 7 197 109 6 197 109 6 196 114 7 198 107 5 199 103 4 201 96 2 200 98 3 201 96 2 201 96 2 201 96 2 201 96 2 201 96 2 201 96 2 201 96 2 201 94 2 201 96 2 200 98 3 200 98 3 199 100 3 199 100 3 199 100 3 199 100 3 199 100 3 199 100 3 200 98 3 200 98 3 200 98 3 200 98 3 200 98 3 201 96 2 201 96 2 201 96 2 201 96 2 201 94 2 201 94 2 201 94 2 201 94 2 202 89 1 209 103 0 214 121 0 219 135 0 223 150 0 226 160 0 228 168 0 231 175 0 231 175 0 231 175 0 232 179 0 232 179 0 232 179 0 232 179 0 232 179 0 232 179 0 232 179 0 234 186 0 234 186 0 233 182 0 233 182 0 232 179 0 232 179 0 232 179 0 232 179 0 234 186 0 234 186 0 234 186 0 233 182 0 231 175 0 231 175 0 232 179 0 233 182 0 236 193 0 239 204 0 243 215 0 246 226 0 248 233 0 249 236 0 250 240 0 250 240 0 250 240 0 250 240 0 250 240 0 250 240 0 250 240 0 249 236 0 247 229 0 247 229 0 247 229 0 248 233 0 249 236 0 250 240 0 249 236 0 246 226 0 246 226 0 247 229 0 247 229 0 247 229 0 247 229 0 246 226 0 246 226 0 246 226 0 246 226 0 240 207 0 234 186 0 239 204 0 241 211 0 240 207 0 237 197 0 233 182 0 231 175 0 228 168 0 227 164 0 227 164 0 227 164 0 226 160 0 226 160 0 227 164 0 224 153 0 223 150 0 221 142 0 221 142 0 221 142 0 221 142 0 220 139 0 219 135 0 219 135 0 219 135 0 219 135 0 218 132 0 217 128 0 218 132 0 212 113 0 211 110 0 212 113 0 211 110 0 210 106 0 210 106 0 211 110 0 211 110 0 211 110 0 212 113 0 212 113 0 212 113 0 214 121 0 214 121 0 215 124 0 215 124 0 215 124 0 215 124 0 214 121 0 214 121 0 214 121 0 214 121 0 214 121 0 211 110 0 212 113 0 211 110 0 210 106 0 210 106 0 209 103 0 207 95 0 203 87 0 203 87 0 203 87 0 202 89 1 202 89 1 203 87 0 202 89 1 202 89 1 200 98 3 199 103 4 199 100 3 199 100 3 199 100 3 199 100 3 200 98 3 200 98 3 199 100 3 199 103 4 199 103 4 
190 136 12 190 136 12 190 136 12 190 136 12 190 136 12 190 136 12 190 136 12 190 136 12 190 136 12 190 136 12 190 136 12 190 136 12 190 136 12 190 136 12 190 136 12 190 136 12 190 136 12 190 136 12 190 136 12 190 136 12 190 136 12 190 136 12 190 136 12 190 136 12 190 136 12 190 134 12 190 136 12 190 134 12 190 136 12 190 134 12 190 136 12 190 136 12 190 136 12 190 136 12 190 136 12 190 136 12 190 134 12 190 134 12 195 116 7 198 107 5 199 100 3 201 96 2 201 96 2 201 94 2 201 96 2 201 96 2 199 103 4 198 107 5 198 105 4 199 103 4 201 96 2 201 96 2 201 96 2 201 94 2 201 96 2 201 94 2 201 94 2 201 96 2 201 96 2 201 96 2 201 96 2 201 96 2 201 96 2 201 96 2 201 96 2 201 96 2 201 96 2 201 96 2 201 96 2 201 96 2 200 98 3 200 98 3 200 98 3 200 98 3 200 98 3 200 98 3 200 98 3 200 98 3 199 100 3 199 100 3 200 98 3 200 98 3 201 96 2 200 98 3 200 98 3 200 98 3 200 98 3 201 96 2 201 96 2 201 94 2 205 88 0 211 110 0 215 124 0 219 135 0 222 146 0 224 153 0 227 164 0 231 175 0 232 179 0 233 182 0 235 189 0 238 200 0 240 207 0 243 215 0 246 226 0 248 233 0 249 236 0 249 236 0 250 240 0 250 240 0 249 236 0 247 229 0 247 229 0 249 236 0 249 236 0 250 240 0 250 240 0 250 240 0 249 236 0 243 215 0 239 204 0 234 186 0 233 182 0 233 182 0 233 182 0 233 182 0 233 182 0 233 182 0 234 186 0 233 182 0 233 182 0 234 186 0 234 186 0 233 182 0 233 182 0 233 182 0 233 182 0 234 186 0 234 186 0 233 182 0 233 182 0 233 182 0 233 182 0 233 182 0 218 132 0 214 121 0 214 121 0 214 121 0 214 121 0 214 121 0 215 124 0 215 124 0 214 121 0 214 121 0 215 124 0 215 124 0 215 124 0 215 124 0 215 124 0 215 124 0 215 124 0 217 128 0 217 128 0 217 128 0 217 128 0 217 128 0 215 124 0 215 124 0 217 128 0 217 128 0 217 128 0 215 124 0 215 124 0 215 124 0 214 121 0 210 106 0 207 95 0 205 88 0 201 94 2 201 94 2 200 98 3 199 103 4 198 105 4 198 107 5 198 107 5 198 107 5 198 107 5 198 105 4 198 105 4 198 105 4 198 107 5 198 107 5 198 107 5 198 107 5 198 107 5 197 109 6 197 109 6 197 109 6 197 109 6 197 109 6 197 109 6 197 109 6 197 109 6 197 109 6 197 109 6 197 109 6 197 109 6 198 107 5 198 107 5 198 107 5 198 107 5 198 107 5 198 107 5 198 105 4 199 103 4 199 103 4 198 105 4 198 105 4 198 105 4 199 103 4 
190 136 12 190 136 12 190 136 12 190 136 12 190 136 12 190 136 12 190 136 12 190 136 12 190 136 12 190 136 12 190 136 12 190 136 12 190 136 12 190 136 12 190 136 12 190 136 12 190 136 12 190 136 12 190 136 12 190 136 12 190 136 12 190 136 12 190 136 12 190 136 12 190 136 12 190 134 12 190 136 12 190 134 12 190 136 12 190 134 12 190 136 12 190 136 12 190 136 12 190 136 12 190 136 12 190 136 12 190 134 12 190 134 12 195 116 7 198 107 5 199 100 3 201 96 2 201 96 2 201 94 2 201 96 2 201 96 2 199 103 4 198 107 5 198 105 4 199 103 4 201 96 2 201 96 2 201 96 2 201 94 2 201 96 2 201 94 2 201 94 2 201 96 2 201 96 2 201 96 2 201 96 2 201 96 2 201 96 2 201 96 2 201 96 2 201 96 2 201 96 2 201 96 2 201 96 2 201 96 2 200 98 3 200 98 3 200 98 3 200 98 3 200 98 3 200 98 3 200 98 3 200 98 3 199 100 3 199 100 3 200 98 3 200 98 3 201 96 2 200 98 3 200 98 3 200 98 3 200 98 3 201 96 2 201 96 2 201 94 2 205 88 0 211 110 0 215 124 0 219 135 0 222 146 0 224 153 0 227 164 0 231 175 0 232 179 0 233 182 0 235 189 0 238 200 0 240 207 0 243 215 0 246 226 0 248 233 0 249 236 0 249 236 0 250 240 0 250 240 0 249 236 0 247 229 0 247 229 0 249 236 0 249 236 0 250 240 0 250 240 0 250 240 0 249 236 0 243 215 0 239 204 0 234 186 0 233 182 0 233 182 0 233 182 0 233 182 0 233 182 0 233 182 0 234 186 0 233 182 0 233 182 0 234 186 0 234 186 0 233 182 0 233 182 0 233 182 0 233 182 0 234 186 0 234 186 0 233 182 0 233 182 0 233 182 0 233 182 0 233 182 0 218 132 0 214 121 0 214 121 0 214 121 0 214 121 0 214 121 0 215 124 0 215 124 0 214 121 0 214 121 0 215 124 0 215 124 0 215 124 0 215 124 0 215 124 0 215 124 0 215 124 0 217 128 0 217 128 0 217 128 0 217 128 0 217 128 0 215 124 0 215 124 0 217 128 0 217 128 0 217 128 0 215 124 0 215 124 0 215 124 0 214 121 0 210 106 0 207 95 0 205 88 0 201 94 2 201 94 2 200 98 3 199 103 4 198 105 4 198 107 5 198 107 5 198 107 5 198 107 5 198 105 4 198 105 4 198 105 4 198 107 5 198 107 5 198 107 5 198 107 5 198 107 5 197 109 6 197 109 6 197 109 6 197 109 6 197 109 6 197 109 6 197 109 6 197 109 6 197 109 6 197 109 6 197 109 6 197 109 6 198 107 5 198 107 5 198 107 5 198 107 5 198 107 5 198 107 5 198 105 4 199 103 4 199 103 4 198 105 4 198 105 4 198 105 4 199 103 4 
190 136 12 190 136 12 190 136 12 190 136 12 190 136 12 190 136 12 190 136 12 190 136 12 190 136 12 190 136 12 190 136 12 190 136 12 190 136 12 190 136 12 190 136 12 190 136 12 190 136 12 190 136 12 190 134 12 190 136 12 190 136 12 190 136 12 190 136 12 190 136 12 190 136 12 190 134 12 190 136 12 190 136 12 190 136 12 190 136 12 190 136 12 190 136 12 190 136 12 190 136 12 190 134 12 190 134 12 190 136 12 190 136 12 190 134 12 190 136 12 190 136 12 190 136 12 190 136 12 190 136 12 192 130 11 193 125 9 196 114 7 197 109 6 198 105 4 199 103 4 198 105 4 198 107 5 198 105 4 199 103 4 200 98 3 201 96 2 201 96 2 201 96 2 200 98 3 200 98 3 200 98 3 201 96 2 201 96 2 201 96 2 201 96 2 201 96 2 201 96 2 201 96 2 201 96 2 201 96 2 201 96 2 201 96 2 201 96 2 201 96 2 201 96 2 201 96 2 201 96 2 201 96 2 201 96 2 201 96 2 201 96 2 201 96 2 201 96 2 201 96 2 201 96 2 201 96 2 200 98 3 201 96 2 201 96 2 201 94 2 201 96 2 201 96 2 201 96 2 201 96 2 201 96 2 201 96 2 201 96 2 201 96 2 201 94 2 201 94 2 201 94 2 201 94 2 203 87 0 207 95 0 210 106 0 212 113 0 217 128 0 220 139 0 223 150 0 228 168 0 232 179 0 232 179 0 234 186 0 235 189 0 237 197 0 238 200 0 240 207 0 240 207 0 239 204 0 243 215 0 246 226 0 247 229 0 249 236 0 249 236 0 246 226 0 243 215 0 240 207 0 237 197 0 235 189 0 232 179 0 232 179 0 233 182 0 233 182 0 232 179 0 232 179 0 233 182 0 233 182 0 233 182 0 233 182 0 233 182 0 233 182 0 233 182 0 233 182 0 232 179 0 233 182 0 233 182 0 232 179 0 228 168 0 227 164 0 223 150 0 220 139 0 218 132 0 215 124 0 215 124 0 215 124 0 215 124 0 214 121 0 214 121 0 214 121 0 215 124 0 215 124 0 215 124 0 217 128 0 217 128 0 217 128 0 215 124 0 215 124 0 215 124 0 215 124 0 215 124 0 217 128 0 215 124 0 215 124 0 215 124 0 217 128 0 215 124 0 215 124 0 215 124 0 215 124 0 217 128 0 217 128 0 217 128 0 217 128 0 217 128 0 217 128 0 217 128 0 218 132 0 218 132 0 217 128 0 214 121 0 211 110 0 210 106 0 209 103 0 205 88 0 201 94 2 200 98 3 198 105 4 198 107 5 197 109 6 197 109 6 197 109 6 197 109 6 197 109 6 198 107 5 197 109 6 197 109 6 197 109 6 197 109 6 197 109 6 197 109 6 198 107 5 198 107 5 198 107 5 198 107 5 198 107 5 197 109 6 197 109 6 197 109 6 197 109 6 197 109 6 
190 136 12 190 136 12 190 136 12 190 136 12 190 136 12 190 136 12 190 136 12 190 136 12 190 136 12 190 136 12 190 136 12 190 136 12 190 136 12 190 136 12 190 136 12 190 136 12 190 136 12 190 136 12 190 134 12 190 136 12 190 136 12 190 136 12 190 136 12 190 136 12 190 136 12 190 134 12 190 136 12 190 136 12 190 136 12 190 136 12 190 136 12 190 136 12 190 136 12 190 136 12 190 134 12 190 134 12 190 136 12 190 136 12 190 134 12 190 136 12 190 136 12 190 136 12 190 136 12 190 136 12 192 130 11 193 125 9 196 114 7 197 109 6 198 105 4 199 103 4 198 105 4 198 107 5 198 105 4 199 103 4 200 98 3 201 96 2 201 96 2 201 96 2 200 98 3 200 98 3 200 98 3 201 96 2 201 96 2 201 96 2 201 96 2 201 96 2 201 96 2 201 96 2 201 96 2 201 96 2 201 96 2 201 96 2 201 96 2 201 96 2 201 96 2 201 96 2 201 96 2 201 96 2 201 96 2 201 96 2 201 96 2 201 96 2 201 96 2 201 96 2 201 96 2 201 96 2 200 98 3 201 96 2 201 96 2 201 94 2 201 96 2 201 96 2 201 96 2 201 96 2 201 96 2 201 96 2 201 96 2 201 96 2 201 94 2 201 94 2 201 94 2 201 94 2 203 87 0 207 95 0 210 106 0 212 113 0 217 128 0 220 139 0 223 150 0 228 168 0 232 179 0 232 179 0 234 186 0 235 189 0 237 197 0 238 200 0 240 207 0 240 207 0 239 204 0 243 215 0 246 226 0 247 229 0 249 236 0 249 236 0 246 226 0 243 215 0 240 207 0 237 197 0 235 189 0 232 179 0 232 179 0 233 182 0 233 182 0 232 179 0 232 179 0 233 182 0 233 182 0 233 182 0 233 182 0 233 182 0 233 182 0 233 182 0 233 182 0 232 179 0 233 182 0 233 182 0 232 179 0 228 168 0 227 164 0 223 150 0 220 139 0 218 132 0 215 124 0 215 124 0 215 124 0 215 124 0 214 121 0 214 121 0 214 121 0 215 124 0 215 124 0 215 124 0 217 128 0 217 128 0 217 128 0 215 124 0 215 124 0 215 124 0 215 124 0 215 124 0 217 128 0 215 124 0 215 124 0 215 124 0 217 128 0 215 124 0 215 124 0 215 124 0 215 124 0 217 128 0 217 128 0 217 128 0 217 128 0 217 128 0 217 128 0 217 128 0 218 132 0 218 132 0 217 128 0 214 121 0 211 110 0 210 106 0 209 103 0 205 88 0 201 94 2 200 98 3 198 105 4 198 107 5 197 109 6 197 109 6 197 109 6 197 109 6 197 109 6 198 107 5 197 109 6 197 109 6 197 109 6 197 109 6 197 109 6 197 109 6 198 107 5 198 107 5 198 107 5 198 107 5 198 107 5 197 109 6 197 109 6 197 109 6 197 109 6 197 109 6 
190 134 12 190 134 12 190 136 12 190 136 12 190 136 12 190 136 12 190 136 12 190 136 12 190 136 12 190 136 12 190 136 12 190 136 12 190 136 12 190 136 12 190 136 12 190 136 12 190 134 12 190 136 12 190 134 12 190 136 12 190 136 12 190 136 12 190 136 12 190 136 12 190 136 12 190 136 12 190 136 12 190 136 12 190 136 12 190 136 12 190 136 12 190 136 12 190 136 12 190 136 12 190 136 12 190 136 12 190 136 12 190 136 12 190 136 12 190 136 12 190 136 12 190 136 12 190 136 12 190 136 12 190 136 12 190 136 12 190 134 12 190 134 12 190 134 12 190 134 12 190 134 12 190 134 12 190 134 12 190 134 12 190 134 12 190 134 12 190 134 12 190 134 12 192 130 11 192 130 11 195 116 7 197 109 6 199 103 4 200 98 3 201 94 2 201 96 2 201 96 2 201 96 2 201 96 2 201 96 2 201 96 2 201 96 2 201 96 2 201 96 2 201 96 2 201 96 2 201 96 2 201 94 2 201 96 2 201 96 2 201 96 2 201 96 2 201 96 2 201 96 2 201 96 2 201 96 2 201 96 2 201 96 2 201 96 2 201 96 2 201 96 2 201 96 2 201 96 2 201 96 2 201 96 2 201 96 2 201 96 2 201 96 2 201 94 2 201 94 2 201 94 2 201 94 2 201 94 2 201 94 2 201 94 2 201 94 2 201 94 2 201 94 2 201 94 2 201 94 2 202 89 1 201 94 2 201 94 2 201 94 2 202 89 1 202 89 1 203 87 0 207 95 0 209 103 0 210 106 0 214 121 0 218 132 0 222 146 0 226 160 0 230 171 0 231 175 0 231 175 0 231 175 0 231 175 0 232 179 0 233 182 0 234 186 0 234 186 0 234 186 0 235 189 0 236 193 0 236 193 0 236 193 0 236 193 0 234 186 0 232 179 0 232 179 0 232 179 0 232 179 0 232 179 0 231 175 0 231 175 0 232 179 0 231 175 0 232 179 0 231 175 0 232 179 0 232 179 0 232 179 0 231 175 0 231 175 0 230 171 0 227 164 0 224 153 0 222 146 0 220 139 0 219 135 0 217 128 0 215 124 0 215 124 0 215 124 0 215 124 0 215 124 0 215 124 0 215 124 0 215 124 0 215 124 0 217 128 0 217 128 0 217 128 0 217 128 0 215 124 0 215 124 0 215 124 0 217 128 0 217 128 0 217 128 0 215 124 0 215 124 0 217 128 0 217 128 0 217 128 0 217 128 0 217 128 0 217 128 0 217 128 0 217 128 0 217 128 0 217 128 0 217 128 0 217 128 0 217 128 0 217 128 0 217 128 0 217 128 0 217 128 0 217 128 0 217 128 0 217 128 0 215 124 0 215 124 0 214 121 0 212 113 0 210 106 0 205 88 0 201 94 2 199 100 3 198 105 4 198 107 5 198 107 5 198 107 5 198 107 5 197 109 6 198 107 5 198 107 5 
190 134 12 190 134 12 190 136 12 190 136 12 190 136 12 190 136 12 190 136 12 190 136 12 190 136 12 190 136 12 190 136 12 190 136 12 190 136 12 190 136 12 190 136 12 190 136 12 190 134 12 190 136 12 190 134 12 190 136 12 190 136 12 190 136 12 190 136 12 190 136 12 190 136 12 190 136 12 190 136 12 190 136 12 190 136 12 190 136 12 190 136 12 190 136 12 190 136 12 190 136 12 190 136 12 190 136 12 190 136 12 190 136 12 190 136 12 190 136 12 190 136 12 190 136 12 190 136 12 190 136 12 190 136 12 190 136 12 190 134 12 190 134 12 190 134 12 190 134 12 190 134 12 190 134 12 190 134 12 190 134 12 190 134 12 190 134 12 190 134 12 190 134 12 192 130 11 192 130 11 195 116 7 197 109 6 199 103 4 200 98 3 201 94 2 201 96 2 201 96 2 201 96 2 201 96 2 201 96 2 201 96 2 201 96 2 201 96 2 201 96 2 201 96 2 201 96 2 201 96 2 201 94 2 201 96 2 201 96 2 201 96 2 201 96 2 201 96 2 201 96 2 201 96 2 201 96 2 201 96 2 201 96 2 201 96 2 201 96 2 201 96 2 201 96 2 201 96 2 201 96 2 201 96 2 201 96 2 201 96 2 201 96 2 201 94 2 201 94 2 201 94 2 201 94 2 201 94 2 201 94 2 201 94 2 201 94 2 201 94 2 201 94 2 201 94 2 201 94 2 202 89 1 201 94 2 201 94 2 201 94 2 202 89 1 202 89 1 203 87 0 207 95 0 209 103 0 210 106 0 214 121 0 218 132 0 222 146 0 226 160 0 230 171 0 231 175 0 231 175 0 231 175 0 231 175 0 232 179 0 233 182 0 234 186 0 234 186 0 234 186 0 235 189 0 236 193 0 236 193 0 236 193 0 236 193 0 234 186 0 232 179 0 232 179 0 232 179 0 232 179 0 232 179 0 231 175 0 231 175 0 232 179 0 231 175 0 232 179 0 231 175 0 232 179 0 232 179 0 232 179 0 231 175 0 231 175 0 230 171 0 227 164 0 224 153 0 222 146 0 220 139 0 219 135 0 217 128 0 215 124 0 215 124 0 215 124 0 215 124 0 215 124 0 215 124 0 215 124 0 215 124 0 215 124 0 217 128 0 217 128 0 217 128 0 217 128 0 215 124 0 215 124 0 215 124 0 217 128 0 217 128 0 217 128 0 215 124 0 215 124 0 217 128 0 217 128 0 217 128 0 217 128 0 217 128 0 217 128 0 217 128 0 217 128 0 217 128 0 217 128 0 217 128 0 217 128 0 217 128 0 217 128 0 217 128 0 217 128 0 217 128 0 217 128 0 217 128 0 217 128 0 215 124 0 215 124 0 214 121 0 212 113 0 210 106 0 205 88 0 201 94 2 199 100 3 198 105 4 198 107 5 198 107 5 198 107 5 198 107 5 197 109 6 198 107 5 198 107 5 
190 134 12 190 136 12 190 136 12 190 136 12 190 136 12 190 136 12 190 136 12 190 136 12 190 136 12 190 136 12 190 136 12 190 136 12 190 136 12 190 134 12 190 136 12 190 136 12 190 134 12 190 134 12 190 134 12 190 134 12 190 136 12 190 136 12 190 136 12 190 136 12 190 136 12 190 134 12 190 136 12 190 136 12 190 136 12 190 136 12 190 134 12 190 136 12 190 136 12 190 136 12 190 136 12 190 136 12 190 136 12 190 136 12 190 136 12 190 136 12 190 136 12 186 152 16 186 152 16 190 136 12 190 134 12 190 134 12 190 136 12 190 136 12 190 136 12 190 136 12 190 136 12 190 136 12 190 136 12 190 136 12 190 136 12 190 136 12 190 136 12 190 134 12 190 136 12 190 136 12 190 134 12 190 134 12 190 134 12 190 136 12 190 134 12 190 134 12 190 134 12 190 134 12 192 130 11 192 130 11 193 125 9 198 107 5 200 98 3 201 96 2 201 96 2 201 96 2 201 94 2 201 94 2 201 94 2 201 94 2 201 96 2 201 96 2 201 96 2 201 96 2 201 96 2 201 96 2 201 94 2 201 94 2 201 96 2 201 96 2 201 96 2 201 94 2 201 94 2 201 96 2 201 96 2 201 96 2 201 96 2 201 94 2 201 94 2 201 96 2 201 96 2 201 94 2 201 94 2 201 94 2 201 94 2 201 94 2 201 94 2 201 94 2 201 96 2 201 96 2 201 94 2 201 94 2 201 94 2 201 94 2 201 94 2 201 94 2 201 94 2 202 89 1 201 94 2 201 94 2 201 94 2 201 94 2 201 94 2 201 94 2 201 94 2 201 94 2 201 94 2 201 94 2 202 89 1 201 94 2 202 89 1 202 89 1 202 89 1 202 89 1 203 87 0 209 103 0 214 121 0 218 132 0 222 146 0 227 164 0 230 171 0 231 175 0 231 175 0 231 175 0 231 175 0 231 175 0 231 175 0 231 175 0 231 175 0 231 175 0 231 175 0 231 175 0 231 175 0 231 175 0 231 175 0 231 175 0 231 175 0 231 175 0 231 175 0 231 175 0 231 175 0 231 175 0 231 175 0 231 175 0 231 175 0 231 175 0 232 179 0 232 179 0 232 179 0 232 179 0 231 175 0 223 150 0 219 135 0 215 124 0 215 124 0 215 124 0 215 124 0 215 124 0 215 124 0 215 124 0 215 124 0 215 124 0 215 124 0 214 121 0 215 124 0 215 124 0 217 128 0 217 128 0 217 128 0 217 128 0 217 128 0 217 128 0 217 128 0 217 128 0 217 128 0 217 128 0 217 128 0 217 128 0 217 128 0 217 128 0 217 128 0 217 128 0 217 128 0 218 132 0 218 132 0 218 132 0 218 132 0 217 128 0 217 128 0 217 128 0 217 128 0 217 128 0 217 128 0 217 128 0 215 124 0 217 128 0 215 124 0 217 128 0 218 132 0 218 132 0 
190 134 12 190 136 12 190 136 12 190 136 12 190 136 12 190 136 12 190 136 12 190 136 12 190 136 12 190 136 12 190 136 12 190 136 12 190 136 12 190 134 12 190 136 12 190 136 12 190 134 12 190 134 12 190 134 12 190 134 12 190 136 12 190 136 12 190 136 12 190 136 12 190 136 12 190 134 12 190 136 12 190 136 12 190 136 12 190 136 12 190 134 12 190 136 12 190 136 12 190 136 12 190 136 12 190 136 12 190 136 12 190 136 12 190 136 12 190 136 12 190 136 12 186 152 16 186 152 16 190 136 12 190 134 12 190 134 12 190 136 12 190 136 12 190 136 12 190 136 12 190 136 12 190 136 12 190 136 12 190 136 12 190 136 12 190 136 12 190 136 12 190 134 12 190 136 12 190 136 12 190 134 12 190 134 12 190 134 12 190 136 12 190 134 12 190 134 12 190 134 12 190 134 12 192 130 11 192 130 11 193 125 9 198 107 5 200 98 3 201 96 2 201 96 2 201 96 2 201 94 2 201 94 2 201 94 2 201 94 2 201 96 2 201 96 2 201 96 2 201 96 2 201 96 2 201 96 2 201 94 2 201 94 2 201 96 2 201 96 2 201 96 2 201 94 2 201 94 2 201 96 2 201 96 2 201 96 2 201 96 2 201 94 2 201 94 2 201 96 2 201 96 2 201 94 2 201 94 2 201 94 2 201 94 2 201 94 2 201 94 2 201 94 2 201 96 2 201 96 2 201 94 2 201 94 2 201 94 2 201 94 2 201 94 2 201 94 2 201 94 2 202 89 1 201 94 2 201 94 2 201 94 2 201 94 2 201 94 2 201 94 2 201 94 2 201 94 2 201 94 2 201 94 2 202 89 1 201 94 2 202 89 1 202 89 1 202 89 1 202 89 1 203 87 0 209 103 0 214 121 0 218 132 0 222 146 0 227 164 0 230 171 0 231 175 0 231 175 0 231 175 0 231 175 0 231 175 0 231 175 0 231 175 0 231 175 0 231 175 0 231 175 0 231 175 0 231 175 0 231 175 0 231 175 0 231 175 0 231 175 0 231 175 0 231 175 0 231 175 0 231 175 0 231 175 0 231 175 0 231 175 0 231 175 0 231 175 0 232 179 0 232 179 0 232 179 0 232 179 0 231 175 0 223 150 0 219 135 0 215 124 0 215 124 0 215 124 0 215 124 0 215 124 0 215 124 0 215 124 0 215 124 0 215 124 0 215 124 0 214 121 0 215 124 0 215 124 0 217 128 0 217 128 0 217 128 0 217 128 0 217 128 0 217 128 0 217 128 0 217 128 0 217 128 0 217 128 0 217 128 0 217 128 0 217 128 0 217 128 0 217 128 0 217 128 0 217 128 0 218 132 0 218 132 0 218 132 0 218 132 0 217 128 0 217 128 0 217 128 0 217 128 0 217 128 0 217 128 0 217 128 0 215 124 0 217 128 0 215 124 0 217 128 0 218 132 0 218 132 0 
190 136 12 190 136 12 190 136 12 190 136 12 190 136 12 190 136 12 190 136 12 190 136 12 190 136 12 190 134 12 190 136 12 190 136 12 190 136 12 190 136 12 190 136 12 190 136 12 190 136 12 190 134 12 190 136 12 190 136 12 190 136 12 190 136 12 190 136 12 190 136 12 190 136 12 190 134 12 190 136 12 190 136 12 190 136 12 190 136 12 190 136 12 190 136 12 190 136 12 190 136 12 190 136 12 190 136 12 190 136 12 190 136 12 190 136 12 190 136 12 190 136 12 190 136 12 190 136 12 190 136 12 190 136 12 190 136 12 190 136 12 190 134 12 190 136 12 190 136 12 190 136 12 190 136 12 190 136 12 190 136 12 190 136 12 190 136 12 190 136 12 190 136 12 190 136 12 190 136 12 190 136 12 190 136 12 190 136 12 190 136 12 190 134 12 190 134 12 190 136 12 190 136 12 190 136 12 190 136 12 190 134 12 190 134 12 192 130 11 190 134 12 192 130 11 192 130 11 192 130 11 195 116 7 199 100 3 201 96 2 201 96 2 201 96 2 201 96 2 201 96 2 201 96 2 201 94 2 201 96 2 201 94 2 201 96 2 201 94 2 201 94 2 201 96 2 201 96 2 201 96 2 201 96 2 201 96 2 201 94 2 201 94 2 201 94 2 201 94 2 201 94 2 201 94 2 201 94 2 201 96 2 201 94 2 201 94 2 201 96 2 201 94 2 201 94 2 201 94 2 201 94 2 201 94 2 201 94 2 201 94 2 201 94 2 201 94 2 201 94 2 201 94 2 201 94 2 201 94 2 201 94 2 201 94 2 201 94 2 201 94 2 201 96 2 201 94 2 201 96 2 201 96 2 201 96 2 201 96 2 201 94 2 201 94 2 201 96 2 201 94 2 201 94 2 201 94 2 201 94 2 201 94 2 201 94 2 201 94 2 201 94 2 201 94 2 202 89 1 202 89 1 202 89 1 201 94 2 201 94 2 201 94 2 202 89 1 202 89 1 203 87 0 203 87 0 209 103 0 212 113 0 217 128 0 220 139 0 223 150 0 228 168 0 228 168 0 228 168 0 230 171 0 230 171 0 230 171 0 230 171 0 230 171 0 230 171 0 230 171 0 231 175 0 231 175 0 231 175 0 231 175 0 230 171 0 228 168 0 227 164 0 228 168 0 230 171 0 231 175 0 231 175 0 231 175 0 231 175 0 231 175 0 231 175 0 230 171 0 227 164 0 223 150 0 220 139 0 217 128 0 217 128 0 217 128 0 217 128 0 217 128 0 215 124 0 215 124 0 215 124 0 215 124 0 217 128 0 217 128 0 217 128 0 215 124 0 217 128 0 217 128 0 217 128 0 217 128 0 217 128 0 217 128 0 217 128 0 217 128 0 217 128 0 217 128 0 217 128 0 217 128 0 217 128 0 217 128 0 217 128 0 217 128 0 217 128 0 217 128 0 217 128 0 218 132 0 218 132 0 
190 136 12 190 136 12 190 136 12 190 136 12 190 136 12 190 136 12 190 136 12 190 136 12 190 136 12 190 134 12 190 136 12 190 136 12 190 136 12 190 136 12 190 136 12 190 136 12 190 136 12 190 134 12 190 136 12 190 136 12 190 136 12 190 136 12 190 136 12 190 136 12 190 136 12 190 134 12 190 136 12 190 136 12 190 136 12 190 136 12 190 136 12 190 136 12 190 136 12 190 136 12 190 136 12 190 136 12 190 136 12 190 136 12 190 136 12 190 136 12 190 136 12 190 136 12 190 136 12 190 136 12 190 136 12 190 136 12 190 136 12 190 134 12 190 136 12 190 136 12 190 136 12 190 136 12 190 136 12 190 136 12 190 136 12 190 136 12 190 136 12 190 136 12 190 136 12 190 136 12 190 136 12 190 136 12 190 136 12 190 136 12 190 134 12 190 134 12 190 136 12 190 136 12 190 136 12 190 136 12 190 134 12 190 134 12 192 130 11 190 134 12 192 130 11 192 130 11 192 130 11 195 116 7 199 100 3 201 96 2 201 96 2 201 96 2 201 96 2 201 96 2 201 96 2 201 94 2 201 96 2 201 94 2 201 96 2 201 94 2 201 94 2 201 96 2 201 96 2 201 96 2 201 96 2 201 96 2 201 94 2 201 94 2 201 94 2 201 94 2 201 94 2 201 94 2 201 94 2 201 96 2 201 94 2 201 94 2 201 96 2 201 94 2 201 94 2 201 94 2 201 94 2 201 94 2 201 94 2 201 94 2 201 94 2 201 94 2 201 94 2 201 94 2 201 94 2 201 94 2 201 94 2 201 94 2 201 94 2 201 94 2 201 96 2 201 94 2 201 96 2 201 96 2 201 96 2 201 96 2 201 94 2 201 94 2 201 96 2 201 94 2 201 94 2 201 94 2 201 94 2 201 94 2 201 94 2 201 94 2 201 94 2 201 94 2 202 89 1 202 89 1 202 89 1 201 94 2 201 94 2 201 94 2 202 89 1 202 89 1 203 87 0 203 87 0 209 103 0 212 113 0 217 128 0 220 139 0 223 150 0 228 168 0 228 168 0 228 168 0 230 171 0 230 171 0 230 171 0 230 171 0 230 171 0 230 171 0 230 171 0 231 175 0 231 175 0 231 175 0 231 175 0 230 171 0 228 168 0 227 164 0 228 168 0 230 171 0 231 175 0 231 175 0 231 175 0 231 175 0 231 175 0 231 175 0 230 171 0 227 164 0 223 150 0 220 139 0 217 128 0 217 128 0 217 128 0 217 128 0 217 128 0 215 124 0 215 124 0 215 124 0 215 124 0 217 128 0 217 128 0 217 128 0 215 124 0 217 128 0 217 128 0 217 128 0 217 128 0 217 128 0 217 128 0 217 128 0 217 128 0 217 128 0 217 128 0 217 128 0 217 128 0 217 128 0 217 128 0 217 128 0 217 128 0 217 128 0 217 128 0 217 128 0 218 132 0 218 132 0 
190 136 12 190 136 12 190 136 12 190 136 12 190 136 12 190 136 12 190 136 12 190 136 12 190 136 12 190 136 12 190 136 12 190 136 12 190 134 12 190 136 12 190 136 12 190 136 12 190 134 12 190 134 12 190 134 12 190 134 12 190 134 12 190 136 12 190 136 12 190 136 12 190 136 12 190 134 12 190 136 12 190 136 12 190 136 12 190 136 12 190 136 12 190 136 12 190 136 12 190 136 12 190 136 12 190 136 12 190 136 12 190 134 12 190 134 12 190 136 12 190 136 12 190 136 12 190 136 12 190 136 12 190 136 12 190 136 12 190 136 12 190 134 12 190 134 12 190 134 12 190 136 12 190 136 12 190 136 12 190 136 12 190 136 12 190 136 12 190 136 12 190 136 12 190 136 12 190 136 12 190 136 12 190 136 12 190 136 12 190 134 12 190 136 12 190 136 12 190 136 12 190 136 12 190 136 12 190 134 12 190 134 12 190 136 12 190 136 12 190 134 12 190 134 12 190 134 12 192 130 11 192 130 11 195 116 7 198 107 5 199 100 3 199 103 4 198 105 4 196 114 7 196 114 7 198 107 5 199 103 4 200 98 3 200 98 3 201 96 2 201 94 2 201 96 2 201 96 2 201 94 2 201 94 2 201 94 2 201 94 2 201 94 2 201 96 2 201 94 2 201 96 2 201 94 2 201 94 2 201 94 2 201 94 2 201 94 2 201 94 2 201 94 2 201 94 2 201 94 2 201 94 2 201 94 2 201 94 2 201 94 2 201 94 2 201 94 2 201 94 2 201 94 2 201 94 2 201 94 2 201 94 2 201 94 2 201 96 2 201 96 2 201 96 2 201 96 2 201 96 2 201 96 2 201 96 2 201 96 2 201 96 2 201 96 2 201 94 2 201 94 2 201 94 2 201 94 2 201 94 2 201 94 2 201 94 2 201 94 2 201 94 2 201 94 2 201 94 2 201 94 2 201 94 2 201 96 2 201 94 2 201 94 2 201 94 2 201 94 2 201 94 2 201 94 2 201 94 2 201 94 2 201 94 2 201 94 2 201 94 2 202 89 1 201 94 2 201 94 2 201 94 2 202 89 1 202 89 1 202 89 1 202 89 1 202 89 1 202 89 1 202 89 1 202 89 1 203 87 0 203 87 0 205 88 0 210 106 0 212 113 0 215 124 0 218 132 0 221 142 0 222 146 0 224 153 0 226 160 0 226 160 0 227 164 0 228 168 0 228 168 0 230 171 0 231 175 0 231 175 0 231 175 0 232 179 0 232 179 0 231 175 0 230 171 0 230 171 0 230 171 0 230 171 0 230 171 0 230 171 0 231 175 0 230 171 0 228 168 0 226 160 0 224 153 0 223 150 0 222 146 0 221 142 0 220 139 0 219 135 0 219 135 0 218 132 0 218 132 0 217 128 0 217 128 0 217 128 0 215 124 0 215 124 0 217 128 0 217 128 0 217 128 0 218 132 0 218 132 0 
190 136 12 190 136 12 190 136 12 190 136 12 190 136 12 190 136 12 190 136 12 190 136 12 190 136 12 190 136 12 190 136 12 190 136 12 190 134 12 190 136 12 190 136 12 190 136 12 190 134 12 190 134 12 190 134 12 190 134 12 190 134 12 190 136 12 190 136 12 190 136 12 190 136 12 190 134 12 190 136 12 190 136 12 190 136 12 190 136 12 190 136 12 190 136 12 190 136 12 190 136 12 190 136 12 190 136 12 190 136 12 190 134 12 190 134 12 190 136 12 190 136 12 190 136 12 190 136 12 190 136 12 190 136 12 190 136 12 190 136 12 190 134 12 190 134 12 190 134 12 190 136 12 190 136 12 190 136 12 190 136 12 190 136 12 190 136 12 190 136 12 190 136 12 190 136 12 190 136 12 190 136 12 190 136 12 190 136 12 190 134 12 190 136 12 190 136 12 190 136 12 190 136 12 190 136 12 190 134 12 190 134 12 190 136 12 190 136 12 190 134 12 190 134 12 190 134 12 192 130 11 192 130 11 195 116 7 198 107 5 199 100 3 199 103 4 198 105 4 196 114 7 196 114 7 198 107 5 199 103 4 200 98 3 200 98 3 201 96 2 201 94 2 201 96 2 201 96 2 201 94 2 201 94 2 201 94 2 201 94 2 201 94 2 201 96 2 201 94 2 201 96 2 201 94 2 201 94 2 201 94 2 201 94 2 201 94 2 201 94 2 201 94 2 201 94 2 201 94 2 201 94 2 201 94 2 201 94 2 201 94 2 201 94 2 201 94 2 201 94 2 201 94 2 201 94 2 201 94 2 201 94 2 201 94 2 201 96 2 201 96 2 201 96 2 201 96 2 201 96 2 201 96 2 201 96 2 201 96 2 201 96 2 201 96 2 201 94 2 201 94 2 201 94 2 201 94 2 201 94 2 201 94 2 201 94 2 201 94 2 201 94 2 201 94 2 201 94 2 201 94 2 201 94 2 201 96 2 201 94 2 201 94 2 201 94 2 201 94 2 201 94 2 201 94 2 201 94 2 201 94 2 201 94 2 201 94 2 201 94 2 202 89 1 201 94 2 201 94 2 201 94 2 202 89 1 202 89 1 202 89 1 202 89 1 202 89 1 202 89 1 202 89 1 202 89 1 203 87 0 203 87 0 205 88 0 210 106 0 212 113 0 215 124 0 218 132 0 221 142 0 222 146 0 224 153 0 226 160 0 226 160 0 227 164 0 228 168 0 228 168 0 230 171 0 231 175 0 231 175 0 231 175 0 232 179 0 232 179 0 231 175 0 230 171 0 230 171 0 230 171 0 230 171 0 230 171 0 230 171 0 231 175 0 230 171 0 228 168 0 226 160 0 224 153 0 223 150 0 222 146 0 221 142 0 220 139 0 219 135 0 219 135 0 218 132 0 218 132 0 217 128 0 217 128 0 217 128 0 215 124 0 215 124 0 217 128 0 217 128 0 217 128 0 218 132 0 218 132 0 
190 136 12 190 136 12 190 134 12 190 136 12 190 136 12 190 136 12 190 136 12 190 136 12 190 136 12 190 136 12 190 136 12 190 136 12 190 136 12 190 136 12 190 136 12 190 136 12 190 136 12 190 136 12 190 134 12 190 134 12 190 134 12 190 134 12 190 134 12 190 134 12 190 136 12 190 136 12 190 134 12 190 136 12 190 134 12 190 134 12 190 136 12 190 136 12 190 136 12 190 136 12 190 136 12 190 136 12 190 136 12 190 136 12 190 136 12 190 136 12 190 136 12 190 136 12 190 136 12 190 136 12 190 136 12 190 136 12 190 134 12 190 134 12 190 134 12 190 134 12 190 136 12 190 134 12 190 136 12 190 134 12 190 136 12 190 136 12 190 136 12 190 136 12 190 136 12 190 136 12 190 136 12 190 134 12 190 136 12 190 136 12 190 136 12 190 136 12 190 136 12 190 136 12 190 134 12 190 136 12 190 134 12 190 134 12 190 134 12 190 134 12 190 134 12 190 134 12 190 134 12 190 134 12 190 134 12 190 134 12 190 134 12 190 134 12 190 134 12 190 134 12 190 134 12 190 134 12 190 134 12 190 134 12 192 130 11 190 134 12 192 130 11 192 130 11 192 130 11 195 116 7 197 109 6 198 107 5 199 103 4 199 100 3 199 100 3 200 98 3 201 94 2 202 89 1 202 89 1 202 89 1 201 94 2 201 94 2 201 94 2 201 94 2 201 94 2 201 94 2 201 94 2 201 94 2 201 94 2 201 94 2 201 94 2 201 96 2 201 96 2 201 94 2 201 94 2 201 94 2 201 94 2 201 94 2 201 94 2 202 89 1 201 94 2 201 94 2 201 94 2 201 94 2 201 94 2 201 94 2 201 94 2 201 96 2 201 94 2 201 94 2 201 94 2 201 94 2 201 94 2 201 94 2 201 94 2 201 94 2 201 94 2 201 94 2 201 94 2 201 94 2 201 94 2 201 94 2 201 94 2 201 94 2 201 94 2 201 94 2 201 94 2 201 94 2 201 94 2 201 94 2 201 94 2 201 94 2 201 94 2 201 94 2 201 94 2 201 94 2 201 94 2 201 94 2 201 94 2 201 94 2 201 94 2 201 94 2 202 89 1 202 89 1 202 89 1 202 89 1 202 89 1 202 89 1 202 89 1 202 89 1 202 89 1 202 89 1 202 89 1 202 89 1 203 87 0 203 87 0 202 89 1 203 87 0 203 87 0 203 87 0 203 87 0 203 87 0 203 87 0 202 89 1 202 89 1 202 89 1 203 87 0 203 87 0 203 87 0 205 88 0 207 95 0 211 110 0 212 113 0 214 121 0 217 128 0 218 132 0 220 139 0 221 142 0 223 150 0 224 153 0 226 160 0 227 164 0 228 168 0 230 171 0 231 175 0 231 175 0 231 175 0 231 175 0 231 175 0 231 175 0 231 175 0 231 175 0 231 175 0 231 175 0 230 171 0 228 168 0 
190 136 12 190 136 12 190 134 12 190 136 12 190 136 12 190 136 12 190 136 12 190 136 12 190 136 12 190 136 12 190 136 12 190 136 12 190 136 12 190 136 12 190 136 12 190 136 12 190 136 12 190 136 12 190 134 12 190 134 12 190 134 12 190 134 12 190 134 12 190 134 12 190 136 12 190 136 12 190 134 12 190 136 12 190 134 12 190 134 12 190 136 12 190 136 12 190 136 12 190 136 12 190 136 12 190 136 12 190 136 12 190 136 12 190 136 12 190 136 12 190 136 12 190 136 12 190 136 12 190 136 12 190 136 12 190 136 12 190 134 12 190 134 12 190 134 12 190 134 12 190 136 12 190 134 12 190 136 12 190 134 12 190 136 12 190 136 12 190 136 12 190 136 12 190 136 12 190 136 12 190 136 12 190 134 12 190 136 12 190 136 12 190 136 12 190 136 12 190 136 12 190 136 12 190 134 12 190 136 12 190 134 12 190 134 12 190 134 12 190 134 12 190 134 12 190 134 12 190 134 12 190 134 12 190 134 12 190 134 12 190 134 12 190 134 12 190 134 12 190 134 12 190 134 12 190 134 12 190 134 12 190 134 12 192 130 11 190 134 12 192 130 11 192 130 11 192 130 11 195 116 7 197 109 6 198 107 5 199 103 4 199 100 3 199 100 3 200 98 3 201 94 2 202 89 1 202 89 1 202 89 1 201 94 2 201 94 2 201 94 2 201 94 2 201 94 2 201 94 2 201 94 2 201 94 2 201 94 2 201 94 2 201 94 2 201 96 2 201 96 2 201 94 2 201 94 2 201 94 2 201 94 2 201 94 2 201 94 2 202 89 1 201 94 2 201 94 2 201 94 2 201 94 2 201 94 2 201 94 2 201 94 2 201 96 2 201 94 2 201 94 2 201 94 2 201 94 2 201 94 2 201 94 2 201 94 2 201 94 2 201 94 2 201 94 2 201 94 2 201 94 2 201 94 2 201 94 2 201 94 2 201 94 2 201 94 2 201 94 2 201 94 2 201 94 2 201 94 2 201 94 2 201 94 2 201 94 2 201 94 2 201 94 2 201 94 2 201 94 2 201 94 2 201 94 2 201 94 2 201 94 2 201 94 2 201 94 2 202 89 1 202 89 1 202 89 1 202 89 1 202 89 1 202 89 1 202 89 1 202 89 1 202 89 1 202 89 1 202 89 1 202 89 1 203 87 0 203 87 0 202 89 1 203 87 0 203 87 0 203 87 0 203 87 0 203 87 0 203 87 0 202 89 1 202 89 1 202 89 1 203 87 0 203 87 0 203 87 0 205 88 0 207 95 0 211 110 0 212 113 0 214 121 0 217 128 0 218 132 0 220 139 0 221 142 0 223 150 0 224 153 0 226 160 0 227 164 0 228 168 0 230 171 0 231 175 0 231 175 0 231 175 0 231 175 0 231 175 0 231 175 0 231 175 0 231 175 0 231 175 0 231 175 0 230 171 0 228 168 0 
190 134 12 190 136 12 190 134 12 190 136 12 190 136 12 190 134 12 190 136 12 190 134 12 190 136 12 190 134 12 190 134 12 190 136 12 190 136 12 190 136 12 190 136 12 190 134 12 190 136 12 190 134 12 190 134 12 190 134 12 190 134 12 190 134 12 190 136 12 190 136 12 190 134 12 190 134 12 190 134 12 190 134 12 190 134 12 190 136 12 190 134 12 190 136 12 190 136 12 190 136 12 190 136 12 190 136 12 190 134 12 190 136 12 190 136 12 190 136 12 190 136 12 190 136 12 190 134 12 190 136 12 190 134 12 190 134 12 190 134 12 190 134 12 190 134 12 190 134 12 190 134 12 190 136 12 190 136 12 190 134 12 190 136 12 190 136 12 190 136 12 190 136 12 190 136 12 190 134 12 190 134 12 190 136 12 190 136 12 190 136 12 190 136 12 190 136 12 190 136 12 190 136 12 190 136 12 190 134 12 190 136 12 190 134 12 190 136 12 190 134 12 190 134 12 190 136 12 190 136 12 190 136 12 190 134 12 190 134 12 190 134 12 190 134 12 190 134 12 190 134 12 190 134 12 190 134 12 190 134 12 190 134 12 190 134 12 190 134 12 192 130 11 193 125 9 195 116 7 196 114 7 197 109 6 197 109 6 195 116 7 193 125 9 192 130 11 190 134 12 193 125 9 195 116 7 198 107 5 198 105 4 198 105 4 198 107 5 198 107 5 198 105 4 200 98 3 201 96 2 201 94 2 201 94 2 201 94 2 201 94 2 201 94 2 201 94 2 201 94 2 201 94 2 201 94 2 201 94 2 201 94 2 201 96 2 201 94 2 201 94 2 201 94 2 201 94 2 201 94 2 201 94 2 201 96 2 201 94 2 201 94 2 201 94 2 201 94 2 201 94 2 201 94 2 201 94 2 201 94 2 201 94 2 201 94 2 201 94 2 201 94 2 201 94 2 201 94 2 201 94 2 201 94 2 201 94 2 201 94 2 201 94 2 201 94 2 201 96 2 201 94 2 201 94 2 201 94 2 201 94 2 201 94 2 201 94 2 201 94 2 201 94 2 201 94 2 201 94 2 202 89 1 201 94 2 201 94 2 201 94 2 201 94 2 201 94 2 202 89 1 202 89 1 202 89 1 202 89 1 203 87 0 202 89 1 202 89 1 202 89 1 202 89 1 202 89 1 202 89 1 202 89 1 202 89 1 202 89 1 202 89 1 202 89 1 202 89 1 202 89 1 202 89 1 202 89 1 202 89 1 202 89 1 202 89 1 202 89 1 203 87 0 202 89 1 202 89 1 202 89 1 202 89 1 202 89 1 202 89 1 203 87 0 203 87 0 203 87 0 203 87 0 203 87 0 203 87 0 203 87 0 203 87 0 203 87 0 203 87 0 203 87 0 203 87 0 205 88 0 203 87 0 205 88 0 205 88 0 203 87 0 203 87 0 202 89 1 202 89 1 203 87 0 205 88 0 207 95 0 
190 134 12 190 136 12 190 134 12 190 136 12 190 136 12 190 134 12 190 136 12 190 134 12 190 136 12 190 134 12 190 134 12 190 136 12 190 136 12 190 136 12 190 136 12 190 134 12 190 136 12 190 134 12 190 134 12 190 134 12 190 134 12 190 134 12 190 136 12 190 136 12 190 134 12 190 134 12 190 134 12 190 134 12 190 134 12 190 136 12 190 134 12 190 136 12 190 136 12 190 136 12 190 136 12 190 136 12 190 134 12 190 136 12 190 136 12 190 136 12 190 136 12 190 136 12 190 134 12 190 136 12 190 134 12 190 134 12 190 134 12 190 134 12 190 134 12 190 134 12 190 134 12 190 136 12 190 136 12 190 134 12 190 136 12 190 136 12 190 136 12 190 136 12 190 136 12 190 134 12 190 134 12 190 136 12 190 136 12 190 136 12 190 136 12 190 136 12 190 136 12 190 136 12 190 136 12 190 134 12 190 136 12 190 134 12 190 136 12 190 134 12 190 134 12 190 136 12 190 136 12 190 136 12 190 134 12 190 134 12 190 134 12 190 134 12 190 134 12 190 134 12 190 134 12 190 134 12 190 134 12 190 134 12 190 134 12 190 134 12 192 130 11 193 125 9 195 116 7 196 114 7 197 109 6 197 109 6 195 116 7 193 125 9 192 130 11 190 134 12 193 125 9 195 116 7 198 107 5 198 105 4 198 105 4 198 107 5 198 107 5 198 105 4 200 98 3 201 96 2 201 94 2 201 94 2 201 94 2 201 94 2 201 94 2 201 94 2 201 94 2 201 94 2 201 94 2 201 94 2 201 94 2 201 96 2 201 94 2 201 94 2 201 94 2 201 94 2 201 94 2 201 94 2 201 96 2 201 94 2 201 94 2 201 94 2 201 94 2 201 94 2 201 94 2 201 94 2 201 94 2 201 94 2 201 94 2 201 94 2 201 94 2 201 94 2 201 94 2 201 94 2 201 94 2 201 94 2 201 94 2 201 94 2 201 94 2 201 96 2 201 94 2 201 94 2 201 94 2 201 94 2 201 94 2 201 94 2 201 94 2 201 94 2 201 94 2 201 94 2 202 89 1 201 94 2 201 94 2 201 94 2 201 94 2 201 94 2 202 89 1 202 89 1 202 89 1 202 89 1 203 87 0 202 89 1 202 89 1 202 89 1 202 89 1 202 89 1 202 89 1 202 89 1 202 89 1 202 89 1 202 89 1 202 89 1 202 89 1 202 89 1 202 89 1 202 89 1 202 89 1 202 89 1 202 89 1 202 89 1 203 87 0 202 89 1 202 89 1 202 89 1 202 89 1 202 89 1 202 89 1 203 87 0 203 87 0 203 87 0 203 87 0 203 87 0 203 87 0 203 87 0 203 87 0 203 87 0 203 87 0 203 87 0 203 87 0 205 88 0 203 87 0 205 88 0 205 88 0 203 87 0 203 87 0 202 89 1 202 89 1 203 87 0 205 88 0 207 95 0 
190 134 12 190 134 12 190 134 12 190 136 12 190 134 12 190 134 12 190 134 12 190 134 12 190 134 12 190 134 12 190 134 12 190 134 12 190 134 12 190 136 12 190 134 12 190 134 12 190 134 12 190 134 12 190 134 12 190 134 12 190 134 12 190 134 12 190 134 12 190 136 12 190 136 12 190 134 12 190 134 12 190 136 12 190 134 12 190 134 12 190 134 12 190 134 12 190 134 12 190 134 12 190 134 12 190 134 12 190 136 12 190 134 12 190 136 12 190 136 12 190 136 12 190 136 12 190 134 12 190 136 12 190 134 12 190 134 12 190 134 12 190 134 12 190 136 12 190 134 12 190 134 12 190 134 12 190 134 12 190 134 12 190 134 12 190 136 12 190 136 12 190 136 12 190 136 12 190 136 12 190 134 12 190 134 12 190 134 12 190 134 12 190 136 12 190 134 12 190 134 12 190 136 12 190 136 12 190 134 12 190 134 12 190 134 12 190 134 12 190 134 12 190 136 12 190 136 12 190 136 12 190 136 12 190 134 12 190 134 12 190 134 12 190 134 12 190 134 12 190 134 12 190 134 12 190 134 12 190 134 12 190 134 12 190 134 12 190 134 12 190 134 12 190 134 12 190 134 12 192 130 11 192 130 11 192 130 11 192 130 11 192 130 11 193 125 9 193 125 9 193 125 9 196 114 7 198 105 4 200 98 3 201 94 2 201 94 2 201 96 2 201 96 2 201 96 2 200 98 3 200 98 3 199 100 3 199 103 4 199 103 4 200 98 3 201 94 2 201 94 2 201 94 2 201 96 2 201 96 2 201 96 2 201 96 2 201 96 2 201 94 2 201 94 2 201 94 2 201 94 2 201 96 2 201 94 2 201 94 2 201 94 2 201 96 2 201 94 2 201 94 2 201 94 2 201 94 2 201 96 2 201 94 2 201 94 2 201 94 2 201 94 2 201 94 2 201 94 2 201 94 2 201 94 2 201 94 2 201 94 2 201 94 2 201 94 2 201 94 2 202 89 1 201 94 2 201 94 2 201 94 2 201 94 2 201 94 2 201 94 2 201 94 2 202 89 1 202 89 1 202 89 1 202 89 1 201 94 2 201 94 2 201 94 2 201 94 2 202 89 1 201 94 2 201 94 2 202 89 1 202 89 1 202 89 1 202 89 1 202 89 1 202 89 1 201 94 2 202 89 1 202 89 1 202 89 1 202 89 1 202 89 1 202 89 1 202 89 1 202 89 1 202 89 1 202 89 1 201 94 2 201 94 2 201 94 2 202 89 1 202 89 1 202 89 1 201 94 2 202 89 1 202 89 1 202 89 1 202 89 1 202 89 1 202 89 1 202 89 1 202 89 1 202 89 1 202 89 1 202 89 1 202 89 1 202 89 1 202 89 1 203 87 0 202 89 1 202 89 1 203 87 0 203 87 0 203 87 0 203 87 0 203 87 0 202 89 1 202 89 1 202 89 1 202 89 1 202 89 1 
190 134 12 190 134 12 190 134 12 190 136 12 190 134 12 190 134 12 190 134 12 190 134 12 190 134 12 190 134 12 190 134 12 190 134 12 190 134 12 190 136 12 190 134 12 190 134 12 190 134 12 190 134 12 190 134 12 190 134 12 190 134 12 190 134 12 190 134 12 190 136 12 190 136 12 190 134 12 190 134 12 190 136 12 190 134 12 190 134 12 190 134 12 190 134 12 190 134 12 190 134 12 190 134 12 190 134 12 190 136 12 190 134 12 190 136 12 190 136 12 190 136 12 190 136 12 190 134 12 190 136 12 190 134 12 190 134 12 190 134 12 190 134 12 190 136 12 190 134 12 190 134 12 190 134 12 190 134 12 190 134 12 190 134 12 190 136 12 190 136 12 190 136 12 190 136 12 190 136 12 190 134 12 190 134 12 190 134 12 190 134 12 190 136 12 190 134 12 190 134 12 190 136 12 190 136 12 190 134 12 190 134 12 190 134 12 190 134 12 190 134 12 190 136 12 190 136 12 190 136 12 190 136 12 190 134 12 190 134 12 190 134 12 190 134 12 190 134 12 190 134 12 190 134 12 190 134 12 190 134 12 190 134 12 190 134 12 190 134 12 190 134 12 190 134 12 190 134 12 192 130 11 192 130 11 192 130 11 192 130 11 192 130 11 193 125 9 193 125 9 193 125 9 196 114 7 198 105 4 200 98 3 201 94 2 201 94 2 201 96 2 201 96 2 201 96 2 200 98 3 200 98 3 199 100 3 199 103 4 199 103 4 200 98 3 201 94 2 201 94 2 201 94 2 201 96 2 201 96 2 201 96 2 201 96 2 201 96 2 201 94 2 201 94 2 201 94 2 201 94 2 201 96 2 201 94 2 201 94 2 201 94 2 201 96 2 201 94 2 201 94 2 201 94 2 201 94 2 201 96 2 201 94 2 201 94 2 201 94 2 201 94 2 201 94 2 201 94 2 201 94 2 201 94 2 201 94 2 201 94 2 201 94 2 201 94 2 201 94 2 202 89 1 201 94 2 201 94 2 201 94 2 201 94 2 201 94 2 201 94 2 201 94 2 202 89 1 202 89 1 202 89 1 202 89 1 201 94 2 201 94 2 201 94 2 201 94 2 202 89 1 201 94 2 201 94 2 202 89 1 202 89 1 202 89 1 202 89 1 202 89 1 202 89 1 201 94 2 202 89 1 202 89 1 202 89 1 202 89 1 202 89 1 202 89 1 202 89 1 202 89 1 202 89 1 202 89 1 201 94 2 201 94 2 201 94 2 202 89 1 202 89 1 202 89 1 201 94 2 202 89 1 202 89 1 202 89 1 202 89 1 202 89 1 202 89 1 202 89 1 202 89 1 202 89 1 202 89 1 202 89 1 202 89 1 202 89 1 202 89 1 203 87 0 202 89 1 202 89 1 203 87 0 203 87 0 203 87 0 203 87 0 203 87 0 202 89 1 202 89 1 202 89 1 202 89 1 202 89 1 
190 134 12 190 134 12 190 134 12 190 134 12 190 134 12 190 134 12 190 134 12 190 134 12 190 134 12 190 134 12 190 136 12 190 134 12 190 134 12 190 134 12 190 134 12 190 134 12 190 134 12 190 134 12 190 134 12 190 134 12 190 134 12 190 134 12 190 134 12 190 134 12 190 134 12 190 134 12 190 134 12 190 136 12 190 136 12 190 136 12 190 134 12 190 136 12 190 136 12 190 136 12 190 134 12 190 134 12 190 136 12 190 134 12 190 136 12 190 136 12 190 136 12 190 134 12 190 134 12 190 134 12 190 134 12 190 134 12 190 134 12 190 134 12 190 134 12 190 134 12 190 134 12 190 134 12 190 134 12 190 136 12 190 134 12 190 134 12 190 134 12 190 134 12 190 136 12 190 136 12 190 134 12 190 134 12 190 134 12 190 134 12 190 134 12 190 134 12 190 136 12 190 136 12 190 136 12 190 136 12 190 134 12 190 136 12 190 134 12 190 134 12 190 134 12 190 134 12 190 134 12 190 136 12 190 134 12 190 134 12 190 134 12 190 134 12 190 134 12 190 134 12 190 134 12 190 134 12 190 134 12 190 134 12 190 134 12 190 134 12 190 134 12 190 134 12 190 134 12 190 134 12 190 134 12 190 134 12 190 134 12 192 130 11 192 130 11 190 134 12 190 134 12 190 134 12 192 130 11 192 130 11 193 125 9 193 125 9 193 125 9 196 114 7 198 107 5 199 100 3 200 98 3 200 98 3 200 98 3 200 98 3 200 98 3 200 98 3 200 98 3 200 98 3 200 98 3 199 100 3 199 100 3 199 100 3 199 100 3 200 98 3 200 98 3 201 96 2 201 96 2 201 96 2 201 96 2 201 96 2 201 96 2 201 96 2 201 96 2 201 96 2 201 96 2 201 96 2 201 96 2 201 96 2 201 94 2 201 96 2 201 96 2 201 94 2 201 96 2 201 94 2 201 94 2 201 94 2 201 94 2 201 94 2 201 94 2 202 89 1 201 94 2 201 94 2 201 94 2 201 94 2 201 94 2 201 94 2 201 94 2 201 94 2 201 94 2 201 94 2 202 89 1 202 89 1 202 89 1 201 94 2 201 94 2 201 94 2 202 89 1 202 89 1 202 89 1 202 89 1 202 89 1 202 89 1 202 89 1 202 89 1 202 89 1 201 94 2 202 89 1 202 89 1 202 89 1 202 89 1 202 89 1 202 89 1 201 94 2 202 89 1 202 89 1 202 89 1 202 89 1 202 89 1 202 89 1 202 89 1 202 89 1 202 89 1 202 89 1 202 89 1 202 89 1 202 89 1 202 89 1 202 89 1 202 89 1 202 89 1 202 89 1 202 89 1 202 89 1 202 89 1 202 89 1 202 89 1 203 87 0 202 89 1 202 89 1 202 89 1 202 89 1 202 89 1 203 87 0 203 87 0 202 89 1 202 89 1 202 89 1 202 89 1 202 89 1 203 87 0 
190 134 12 190 134 12 190 134 12 190 134 12 190 134 12 190 134 12 190 134 12 190 134 12 190 134 12 190 134 12 190 136 12 190 134 12 190 134 12 190 134 12 190 134 12 190 134 12 190 134 12 190 134 12 190 134 12 190 134 12 190 134 12 190 134 12 190 134 12 190 134 12 190 134 12 190 134 12 190 134 12 190 136 12 190 136 12 190 136 12 190 134 12 190 136 12 190 136 12 190 136 12 190 134 12 190 134 12 190 136 12 190 134 12 190 136 12 190 136 12 190 136 12 190 134 12 190 134 12 190 134 12 190 134 12 190 134 12 190 134 12 190 134 12 190 134 12 190 134 12 190 134 12 190 134 12 190 134 12 190 136 12 190 134 12 190 134 12 190 134 12 190 134 12 190 136 12 190 136 12 190 134 12 190 134 12 190 134 12 190 134 12 190 134 12 190 134 12 190 136 12 190 136 12 190 136 12 190 136 12 190 134 12 190 136 12 190 134 12 190 134 12 190 134 12 190 134 12 190 134 12 190 136 12 190 134 12 190 134 12 190 134 12 190 134 12 190 134 12 190 134 12 190 134 12 190 134 12 190 134 12 190 134 12 190 134 12 190 134 12 190 134 12 190 134 12 190 134 12 190 134 12 190 134 12 190 134 12 190 134 12 192 130 11 192 130 11 190 134 12 190 134 12 190 134 12 192 130 11 192 130 11 193 125 9 193 125 9 193 125 9 196 114 7 198 107 5 199 100 3 200 98 3 200 98 3 200 98 3 200 98 3 200 98 3 200 98 3 200 98 3 200 98 3 200 98 3 199 100 3 199 100 3 199 100 3 199 100 3 200 98 3 200 98 3 201 96 2 201 96 2 201 96 2 201 96 2 201 96 2 201 96 2 201 96 2 201 96 2 201 96 2 201 96 2 201 96 2 201 96 2 201 96 2 201 94 2 201 96 2 201 96 2 201 94 2 201 96 2 201 94 2 201 94 2 201 94 2 201 94 2 201 94 2 201 94 2 202 89 1 201 94 2 201 94 2 201 94 2 201 94 2 201 94 2 201 94 2 201 94 2 201 94 2 201 94 2 201 94 2 202 89 1 202 89 1 202 89 1 201 94 2 201 94 2 201 94 2 202 89 1 202 89 1 202 89 1 202 89 1 202 89 1 202 89 1 202 89 1 202 89 1 202 89 1 201 94 2 202 89 1 202 89 1 202 89 1 202 89 1 202 89 1 202 89 1 201 94 2 202 89 1 202 89 1 202 89 1 202 89 1 202 89 1 202 89 1 202 89 1 202 89 1 202 89 1 202 89 1 202 89 1 202 89 1 202 89 1 202 89 1 202 89 1 202 89 1 202 89 1 202 89 1 202 89 1 202 89 1 202 89 1 202 89 1 202 89 1 203 87 0 202 89 1 202 89 1 202 89 1 202 89 1 202 89 1 203 87 0 203 87 0 202 89 1 202 89 1 202 89 1 202 89 1 202 89 1 203 87 0 
